/* XPM */
static char * texture[] = {
"64 64 4 1",
"  c #D6C485",
". c #C9B572",
"X c #AB9654",
"o c #E9DAA2",
"XX.    o o . o  XX.  o.      o  XX.        o .. XX.   .         ",
"XX.      .    . XX.            .XX.          o  XX. .     o   . ",
"XX.     o       XX.   .   o     XX.   o.  o. .  XX.   o        .",
"XX.             XX.   o      .  XX. o        .o XX.o     .    o ",
"XX.    o.       XX.   .       .oXX.  o     . .  XX.         .   ",
"XX.    o.       XX.        oo.  XX.  o  o     o XX.. .   o o  . ",
"XX. ..  .       XX.     o       XX.oo      o  . XX.o          . ",
"XX. o     o . o XX.    o        XX.    .o o.   .XX..            ",
"XX.  .  o   . o XX..   . o  .  oXX.     oo  .   XX.            .",
"XX.o    oo      XX...   o.      XX.   o      o. XX.    .  .     ",
"XX.      o    . XX.    o        XX.  .  o    .  XX.o  o o.   oo ",
"XX.  . o        XX.         o.o XX.o.  o       .XX. o    .   .o ",
"XX.        o    XX.  .   .  .   XX.        oo o XX.oo          .",
"XX.  o       .  XX.             XX.      o      XX.   .o      o ",
"XX. o. o  o o   XX.  o     o    XX.   o .    o oXX.     .   .   ",
"XX.o           .XX.  ..    .    XX.             XX.   ..  . .   ",
"XX. .         . XX.    . .      XX.o            XX.         ..  ",
"XX.    o       .XX.    o o    o.XX.             XX.  o. oo o o. ",
"XX.       o.  ooXX.o          . XX.   . .   . o.XX.       o     ",
"XX... o.        XX.    o      o XX..       o   oXX. .        o  ",
"XX. o .    o.   XX.o  .      .  XX.   .o o      XX.  .  o  o    ",
"XX. o.o  o      XX. .  o        XX. o .     .  oXX.       o    .",
"XX.o    .. . oo XX..          . XX.    o .   .  XX.     .       ",
"XX.      o .    XX.         .   XX.o      o.    XX.         .  .",
"XX.  .       o  XX.       o . o.XX.          .  XX.     .   ..  ",
"XX.         oo  XX.   o      o .XX.       .. oo XX.         o   ",
"XX.             XX.  o        ooXX. ..   .     .XX.o .o         ",
"XX.o . o      o XX. o  .  .     XX.o       o..o XX.       ..    ",
"XX.       o.    XX. .   .      .XX.        o   oXX.  o          ",
"XX. o.   o o    XX.       o     XX.           o XX.  .          ",
"XX. o .    .    XX.o      o    oXX..   oo       XX.    o .      ",
"XX.o  .   .     XX.  .o     o.  XX.   o   .     XX.   .         ",
"XX.  .     .o   XX. o     .  .  XX.   .   oo   .XX. . .     .   ",
"XX.      .    .oXX.             XX. o    o  o   XX..    .       ",
"XX.       . .   XX..o .         XX.o  o.   .  .oXX. .     oo   o",
"XX.  o          XX.    o.       XX.         o   XX.   o..o    o ",
"XX.. .o   .o o  XX. .       o   XX.      o     oXX. ..o     o   ",
"XX.  .  o  .    XX.  o          XX. .  o        XX.     .     . ",
"XX.o.  .   o  o XX.o       oo   XX.    oo .     XX.   o .  .    ",
"XX.  o      o   XX..o.   . o    XX.o   o    o   XX. .        oo ",
"XX.             XX.     .    . .XX.            .XX.       oo    ",
"XX. .o  .. .  . XX.o    o.      XX.    oo o     XX.       oo    ",
"XX.      .  o  .XX.      o  .   XX..        o   XX.. o          ",
"XX.  .    .     XX..            XX..  . o .    oXX.   ..  oo    ",
"XX. o       o o XX.   .      .  XX.             XX.   .   o     ",
"XX.. ..      .. XX.             XX.   .        oXX. o    o   .  ",
"XX.       o .   XX.  o    .o    XX.        oo   XX.  o . .      ",
"XX.  oo.   .   .XX.       .o    XX.. o        . XX.  o o      . ",
"XX. o           XX. o .   .   o XX.             XX.o    .       ",
"XX..  .o    o   XX.             XX.     o  .  . XX. .  oo      .",
"XX.o  .oo  o    XX.        o    XX. o o.  ..o  oXX.o    o.o .oo ",
"XX.     o   oo  XX.  o       o  XX.             XX.    .   o    ",
"XX.     o . o . XX.oo   o  .o  oXX.      o .    XX. o   o   o   ",
"XX. o .         XX.      o      XX. . o.     o.oXX. o           ",
"XX.  .     o    XX.     o       XX.  o    .   o XX.o o   .   .  ",
"XX.          o  XX.      .      XX.             XX.   o .       ",
"XX.o            XX. .     .     XX.o  o      o .XX.         o   ",
"XX.o            XX.           . XX.      ... .  XX.    o   o    ",
"XX.o         o oXX.  o .       .XX.   o   .     XX.      o      ",
"XX.   .    .o   XX..   .     o. XX.. .          XX. o        .  ",
"XX..   .        XX.           o XX.  o         oXX.      o . o  ",
"XX. .          .XX.             XX..     o oo. oXX. o   .  o    ",
"XX.     .oo     XX. . .      .  XX.     o       XX.             ",
"XX.o       .    XX. .       oo .XX.     . . o o XX.    o    o   "
};
