/* XPM */
static char *out[] = {
/* columns rows colors chars-per-pixel */
"256 256 47 1 ",
"  c #A9A754",
". c #ADAC54",
"X c #AFAC59",
"o c #B0AF56",
"O c #B1AF5B",
"+ c #B3B357",
"@ c #B5B45C",
"# c #B8B75D",
"$ c #BBBA5E",
"% c #B6B461",
"& c #B9B662",
"* c #BDBB64",
"= c #BAB768",
"- c #BEBC69",
"; c #C0BF65",
": c #C1BE6A",
"> c #C2BF70",
", c #C0C15E",
"< c #C3C265",
"1 c #C7C863",
"2 c #C8C867",
"3 c #C5C36B",
"4 c #C8C76D",
"5 c #CBCB6D",
"6 c #CFD06B",
"7 c #D1D16F",
"8 c #C6C471",
"9 c #C9C772",
"0 c #CDCC72",
"q c #CAC778",
"w c #CECC79",
"e c #D0CF74",
"r c #D1CE7A",
"t c #D4D374",
"y c #D7D872",
"u c #D9D976",
"i c #D5D47A",
"p c #D8D77C",
"a c #DADA7A",
"s c #DFE07A",
"d c #E1E17E",
"f c #D6D480",
"g c #D9D781",
"h c #DCDB82",
"j c #E0DF83",
"k c #E1E182",
"l c #E4E388",
/* pixels */
"1uuu2sussusdsyty,iua:ttsasauuuss1yuy6usyyyusauuu>udittadtuuuauuu1uut$uauauyuyeyu;iei<uihautytyua2yat7yupyyytpyaa<wt05taahaautyyy55yy,dyaaaasayti;tei;ituaau7t7yu,7y626ttyyyttttt<epreeaauaasuaua2tts,7uatyyyteya;uei$eidituuuuua,tu7y7yuuussuuye;yduetuapuuususu",
"2yty1ayusuuasuua,ttp1ataaaauysys16u727uuauyasaud:ua>:tuiuupuuiut1t56#uaiatttayta;i7i3uuaaaytypua2tu755yyaaytytya1tt05iaaaaatytty257e$atyatyauuyu<t7e<itijaay7ttu,57225tyayyiyyyt<0te5epaiauaauuu270u,7yattttyyyp;iei;iiauiuuiuuu,7y76y7suuuuuuuu:yit77uuaauuusus",
"5y26<aaaut7yaaas1e5t;auasauuuuus16y227uusy7yaaad:et::titpuuuuutt1532#uaut05taaaa;e7i<piaaaayyaas<6y02ttaai65ttiy45044iaaaauyytyt6225$kpat77tpaup<i0e3utiaaauutty$202<6yautrttapt25e5etppaaaauuui2527,tpyy75epspe,e5i2piuuuiuuuuu$7726tuauutyuauu>ee077uuuausuusu",
"5t252kday026tpaa:t371aaaauuuuuuu16227psuy6:57yua777;:iaiaaauutut55;<$uju7232eiah<795;iiapytuypaa<5555aait5415pah402<4tptattt7tttt224$kup7236iaup<74e3attaaaauuyt$22;4ypp6425tttt<445eaaaiyuuauuu55;7;apye522tppy;7:e2diuitutuuiu,76;7uudy7:67uaa776:5ippauuussus",
"2e<2<jahe2:20eua:t25;saaauuuyuuu25;;5aar7,,;7eia:>;1:adpuuuutytt44*3#ipt0<$;35ih<7<3#etattttyyup<<<<ehh09<;:5iph444;3eittttytyty04<4$jie43<4etpa*5<0<auitutuuutt;2;;0pp9;;;<4rii;;224aapuupuuuuu54;4;par93;;2eih;5;6:aiututuuuuu;5;;eape6:1;>taa:6;26udauuuuuusu",
"<0;4<ait42;324ep2t371apaauuuyuuu;;;;5pu>7;;;:>td16;1;upuuiuuuttt23*4#eq40:*&;3eg30<<#7iutyytttyt<<::ehi<43<<40ii<52<3tituttyytyt5334$a944:;49wig*5203piutttuuttu;<;;9pe;;;:32erp;;;;2rpapiuuuiyu04;w;pr9:<<;*<eh:5:2,aiatttyutuu;5;,epe;:;,;:0ia;;6;77auuuususus",
"4r0r3p093:33::0i2i5t:spaautyyuyu;e95>i9;7:;::;>a;>6;:taaiuututyt504r;w4-3:::**4i;0<4*ieyapytyttt<900rfw::333:30r<w042tputttttyti030w*g4-:::333eh*70e<uipuuauyytt<8939i9;;::3:80i24423eyiuypyuuyr09:r:r9:;33:::9r;050:uiuutiuytuu;ew>ip5:;;:;:5rp6>7>7euisuuususy",
"ehig9g933444::9p:uei1auauuuuuyuu5paw705>:>:>;,>t:tt:7taattutuytuwiwh4e83<333**3e;725;petaaaaytyt4igfri9:-:98::4w<7i05iaptuuutuyt00ff8h3-::83:-qh;iti<itajhautytt:rfrrrq:::3:-*8rerr44eyiryuupyuiee0p:pw::398:339;e5u:piptutttutu;iprpp9:::7>;;>i7yue7yaduuysysus",
"qpjp:i:440::::5p;saa;ttsaauuyuyu;jif>p>00:;:>;:a;ia7:euttuiuuuuttiir3f*<99*#<:;w#e7w;ttttiuuuytt8hfgwg38:8::8-8f<ihe57pttttuuuup9rfgqg388-*-938f;iii;teaaauuuttt;gffqr;:::;:>:>g;0t640yayuuuyiuywirf-f-989::8:8i;eti:ututaauuuti$jijrp::>>;;::0j>tsy57adusususus",
"4wir:j:4;45>3:>a:uiu;uiauuuyyyyt;ari0i:>;:>:>$;a:pa7>ei7tiuiuuuu5qwi4h-<*3<;3*<i#e05*ittyputuuyp-iwiwg88%8983-3g3tp05eutyiuiiuuu39qf3f-3=3-88&=f<iti<itutttttuaa;grf9r;:%;::>;:j;0ee30eiyiiyuyyi9qww:f-3*qq8:-:r;t00;piuatauuauu;p0r9p:0;50::;:a>tu75iaaauuuusuu",
"9wwe:j33;wre4::a;e571uudauuuuyyu;i>i0p:;:>te>,;i:tt:>upeutuuuuui<85w<p*;*0iw4&;p$055$ttttttuaaaa*w8qqg83*wir8*:g3e724iiiuuuuuyyt99903f-3-8q83%*r<t5t<ptt6777tuas;per9i:=%>qw9;:j24045eieyupupuya08903f**-rrr9=:i;535$ppitaauatuu;p>r>a>::rii0;;p77y>5yaaauuuusus",
"0004:j::qiprr49a;7:5;saaaauuyuyt:p>07a:;eiite:>u;>6;;ypttuuuuuuu1444*i*;0iai0*;e$042$tiittyuuuaa;w-33f<-0ffrw8:i323<4tauupuuutyt0938-g-30tww0:*w*54w<aitut776ttt:r>09r=&9rtww>>g24440yapipuuuayi0448-f--9iir038r;512$apututuuuut;t>wed;;0ppii0:i:76;>udauausuusu",
"04:5;d35pp05peep;6;5;dasuauyyuyy;t;::a5>ui0>y7>y;;;1;uduytuuiutu1<<<#i<5iaw5e52e#544#upattyyyttt*0@*-p80ii98i09r;;;*4epapaaauttt<-***p<0w048iw49#4<5<aituuyt66t7;w;3:f44rt>:tw9p:21;4ypapuauauuy0834:h80ir94rr0i;4::$pruuuuututu,e;>5d>2ri7epi0i;:;1>sduuuususus",
"552::jtie7:3iitp:527:aaaauuuuyyy,7,:5ket7>,,0e0t1;;;>iautttttuut1<<4$a1y22<<6eep*742*aat7ttttyyt#0*:<fweq0*<ri0i:;,;4eiaupauuttt;**4*hqi44:3ipew*2<03aiuiuttuttt$4&:>jer94;;4w0t;;;;3eyuyauaauup<3394hwp00*:iirg;723$puptuiuuuut;5,;;dip7>:;iuia;66;:udssuuuussu",
"55552jet:750t65d2t5t2sasauuuyuyu,i;00a00,05>575u;:7>7tiu777ttttt22251a25,11<225s<t00<ate67ttttua#w345p50<440w59p423450tyuuuuuttt490w<hqi3ew0ew0i<w5t3piutuaaauut$e:94jee:e4:34>p340457ieppuusuuu40wi4h0e<q04040h;i55;puatutttutt;i;;>d7t,770e50d:07:7ysuuauuuusy",
"5eiu5d55,tda7;:d:ueu5stsauuuuutt;dtu7u;;;ska0;:d65ty>eiue77yyt7t5ttt1a,,<7751,,s4u00<ie50ttyyaaa$i0i0i*<$wai0<4he75655tiiiuyuyutetew*p<54hjt4<4u1iti4utiuassauut;iee0i233jjp6:4d4eyiire7aaaaauap0ipp5i*<4ihi2#;p;pee;upauttaatut2deu7a;;;ada7;:d6yu70uauauuussus",
"eaad;776dauut766,ytu;uuayyyaaaus;app>t:taauptt65,tti;ptit7ttpttt4eta;522tte75551$ash<e7ettyiiyyi4ihp0452ytyaaiee<uud2ytytuaau6tu2hir&235ueyja55y<ayp<ututuaaut7i#aii:7;7aasi765t;yii3yeeiipptetp;iia<i45iyyre752$uap;yipittaaaiu;eai5355iuuaautt;uyu5sydytuddaad",
"5ies;aitasuuyyyy,t7y;suaaapaautp$t0t5ptapuuuy765,7>t;ittattptt07<50p<tttttt77565$eet;tetitttyiii3wit7et6yyysayry<yta2pypututuuut2i77*ttiuttau65t,t7t,uyuttaauutt,i5e;i5eiuat777u;e0y2atiayttittt1iti4aetuiiyy777#iry;uipitiuapia;5ii7etiiuuaaut71y7u;uyaauusaauu",
"555i;asuuuuuussu,7>7;aaasytuaaip$e65:dtuuputut77<5;6,piiptttiitt452i4pptttytytt7#544$piiit00eiii39w5euutuyuaappa<75t2apyu055iaut4r20;uuhpttuut6t$t22$uutttuupuut;t:66s577tuuy7tu;0;4:paphe4eipte<0404hpayyyytty7$757:ayrue5tippp2505eiaattuuuuui,y0e;uiadatuaapa",
"75;e;auiauusaass;7;7;piue44epaaa;t;:;u7putuuyttt;>,;;appi>:5eipp554t<aptuiyytyyt$5;<*sppi5335tpg34430yttuuuaaaaa<6<62htt71<<7upe5e;3*uuaut7yuytt<0<1$it05527iuui:7,;>dee5tuaattu,2,3;pppe<;2tiii*5#1*apa7ee7y770#5:0:apii5:5trpa35555iiutuuuuaua;7:0:jaat>>7paak",
"55;5,saiusuuusuu;5;5>aie4;;4erpa;e$;;dtitttututt;5$:,pit0;;:0tpa44*0;pp7taauauyt$9;<*gpr933*35if3<:;4tt6uuuyaaaa;4;4<he04<*;3w7t20*<$iiiyetyiute<5<<*i043<*;5tph;5#;:j57euaaat7t$:#;;pir<;;<49ep$4+;$hpa7t7t7650$0:9:ji03;;:5erj:22:5iituuuuauaa;>$:>lit6;,5riaj",
"52;7,dsussuuyuyy;w4w5a053:;340ep$7,>>ptuputuutyu;0;>;r7>:;;:>:qi4<$5;hpitauaautt*8;3*i03-;;**3wg-:;<5tu7uuuytiap;0<09hw4<-<-;<0w;4;3*uiuet6tyyyy<0<5*i0<;***:0ip;5$;:p57tuuauut7;>;3:f08:::3::9i<2;4<aptttytty7e:e39:de::;#::>wj;::14ipuuppuuuua;5$>>du6>:;::0rj",
"552t2aaasusuuuyu;awp>p9>4::4::0r*p7e0jiuuuuuuuut:i>w:r>::::::;>7444i1hauuaaautyt=0:0-i3&-:3-&*9g:8947tittuy76tui<r8rqh03-<--<388;0103aieeeye6ypa*iqw*w3**&*-:3wr$i:51u57iuusau7t:r4e:r8:833::;8r4e40<atttttuutuy:e0e>p9;::;:::9p::655uaaaauuuuuu:r:r5ae>5;2>>:0p",
"iaes:auiuuyuusus>pij5p5>4:4:;;9r;aipedttpputttuu5pip>p>>;;:>:;:q0t0a4apttaauuy60<rwr>r;%*393&&4gwrieett6yuy65tte8iwf9h0343--38834peu3utt6tyyttya*pwi-i:=@*::::49;i65:i3etuituuuu:iqi8p::3:::3:9r4t5e4pt57yttuuap:irr:r>&::::::>w6eieeippaapuuuua7dia>s>>:>>5::>g",
"4tuj2iuuauuausyu2pip:i>:5::54::j;ppaipppuututut7>jgr:r0>::;>0;;i0tei*5ttuuuiyuaa3frr;i:=-3-4q33f*0ieeiaut7yuuttt3rwr8f8=3:-:**-03tih<upttttyytit-fif:r-*:8::8::w;7pt0eiuutauuutt4grr:r:>::::::300iia;tpytttyyasa3iwr>i4:94::>;;i:tieeupauituutua>fip>p555>;>7;:j",
"eitd2aupauuauuys:prp5i5:::::3;3j;tpt7pptptuttutt:pri:i55;::::;;i505i$te7iiyyyuua;irr:f8**3-35--f*qi05euutyyuutti:w9f9f8-*-:8==3q4eep<iittttttyyy;frf8f3=@--::-:r$5e54eppuauautyt:rqe:e3:*::3:*8i0tei;iptttytuuup;r0r:r:::::::;:p;eae5ipaututuatu:ira5p>>:2>>0;>j",
"et5a2aaiaauusysu;iwi5i:;44554::p:e75epptputyuyt7;95p>p>;:>:>>,;r2437*itteyyyiuua*r9e;r3*:3444--i*9e447uuuyuuapii*98r8p4--39q3*-8074t;aatiyttttya-rrr:f3=*8::3-:r;:534pdpuutty7tu2e9e:r3;3349:;3r0e4e,iptiyyyuyuu;w4w:0:@:4>55;:p;7ie5idpuiiuuuua2tei4p5;5055e;>d",
"75:e;asuuuauuuyu2t>e:i:$ipe502;e57>20aaupuuytut7:>:t>i::>t550::r4<*5$ut07tetyyiu$0<9*e;&9iw0w42r*9034yaayyyuuutt*939:r3-w00w834044;5*paiyyt66yyi;e:3*r:*riw9w3:e;2325ajauit7ytta3e>e:i3:reee9<3042;5*patyiiytutt;e:0;0;;ire0e::0;2544ipautuitaua:e>t:p>;uprei5>u",
"55,5;ddiausuuuyu;7;5;u55pi55ee5e;2;;5ddpputtty7t2:;7:u50505:te9i3<;5;ii55tttiyyi$5;<+74<ti55it5i:<;;2aaitytyytti:9-3*r54w4380qri1<@1$paiyytt7ttp<9$-@r08rr49r03e;;215aauyyt77ttt;0;2;p04r545e550<<$<$ajtapyyyrtt,4;4,t55ii05i0:e:5:25ppeiuuuuuua15;5;ai5ii55ui5i",
"55;7;sduusuuuusu$6;6:atu251:ttta,2;;>uptuputuuy7,5$5;pte;5,;7e7i44;5;ui7ttyyyyey$5<3*pie5035ti0i::;*4uu7yyyytttt*4*3*iww<**<0tph<;@4$tiupittt7yy*8;<*hii33;;w99i,::;4rp7et7ey7yt$:$:,yee2;;5eeri<<;4;aaipyiytt77$3;3;pii:52:ii0u;22;5daeauuuuuau,5;5;duu;7;5iuia",
"57>t;usuuuauuuuu,72e2s77;765777a;5>25pptuuututt7,e:7;dt0;75;55>u543e;yi7ttyiiyy6$5553hi7<704050i39934ty7ttyytytt<w<0<pq5--4444wa5<#5*77iiyyt7ytt$e903pr5*;33533a;5535ie07tt7yyt7,52e:r54135e546i45<e;hayypyty77y$525;ue7,55577ea2e0>4idiiuuaausa;76t2s7y;y77ty7a",
"tt7s2saiuauuuuuu;uus2u5;6sd72;,u5tteeputputytuyt;ptt;p5,5ad7;,;t072t;iytiyuayytt$t5e<s5<<iu72<2i4ipe47iyuuuttpip4i0t3i4$0tii3#;504<0$55tytyyytt7<iri;t3*3ei53<;i:ti75ii7777ttttt2aps5y2:tpda5,2t5tei<aapiyyttytt;75i2i3;5sde5;5a;tu04tasaupuuaus2aus2u2;yddu722u",
"6sty;duauuuauuuu;apu;t75uuuuy662;tuutup7ueyuueeu>udu>660uuye77>62t7t$6ttsyyuptta,tep5pe7ytttt677<pp5070ytyttttip*t0i*9<4ipyt62<,*41t#5666tyt77y7$iih;035eeyttt66;uph2ittttttttta<pia5t5taytt7t775aey2ptutttyuttu*iti*647iuiuyttt2ueu2utsaauuuuua2apa2t0uadauyy77",
"2u7y2uuusuuuautu,ttt;uttutuyyyy617ut7tpuuyyuauua;tu>7>7tiuyettyy2657$7t7atyyyttt;00t3petytttt666,ee25eetitiiitit$050;t6ttttye651<140$677y7tyyy77$5ty3e7et7ttttty$eeu<t0tttttitta<tep2iettpty7tyt2i66<utuat6tuytt$e7t;reuuuuyyyt6,76t:stuaaypaaap<tea2ataaaauuuyy",
"2u771uudaytuaupu,t5t2dputuyyyyyy,7t75iudae7taaaj;:>777iuuuttu77714<5$tatyt5eyttt,040;yettttyt7yt<05<0triittiupte$0<6<pppytyty665*4<0#577tt7ytuyy*055;itptetytyyy*535;iett55wiiii<e4t3ptptytttyyy1t56<aupst5tttti$750;uiauiuuyttt,5272jaaatttyaaa<62t2apdauuuysdd",
"5t57;daau76tuaad;i55,duutuyuuuuu2ee>epdpy0:7tphj56::>eiyupuu77y724,4$ast02<4eety$525*tet7t777tty<04:0suie040tiie;0<4;aypapute652$<*2@wtt7220uuut15;5$yeuuiyyyttt;4;4;pitw4<0tiia40<04aiat7t7ttpy<736<aupa525tttp<0<0;ptipuiuuuyt;5:75jppt050ipap2e<01atauauadysd",
"2e,55dat05;6ttpp;t:5,uptpuuuuuyy65::5ap77:;67uip1;;,>7ieuuutu777<3;5$gpe3;$<500f$5<5$eettt77ttiy$58:eprr43:34eri;4$<$attyytt7766$*#4@t002<*277ti;5*;$teiayyytttt<4*4:piq0<*:40ip<5*5<atit577t7yp<e35*uit74*300iu;5<4;uiyiuiaiyyi:5:0:jpt92:35rph40;51atauusussyd",
":7;9>di5:;;:55ea,7:5;dpuuuuuuyyy;:;;>pe::;;:>>>u$,,,;0yeeetyyttt33;5$re3*$*;340i*e30;teyttttytyy*53:0r433:*$;3rp,4,4;apptttt777e**%8&wq4<#*3445i$3$<$itsytttyyua;4*4-p838***:30p<2*5<t0ttttttytp3533*i943**;48wt*5<5<aiauuuuuuiu;5:04dw><:;;<0rp<5;51aaassssysys",
"9r9t5p7:5;::;;0p;ttt,apuuuuuuyyy;0w0qr0;:::;;:>y;:::>euiettuuuyt398r*i9;--*:-;9i;e50;tetttttttyt*w04qw3:::-**-9r<040<gtatyt7tttt48-q*r8*-**<<$4t$5<5*itpiyettyya<q4w3f3***-:::9i454e<ittytytyyya4r3w=r4-3-;<338i;05e3aipiuuuuuuu;i9p>p4:33<::3ep2e2t2aadusdysysy",
"0hpj>p9>5>55;;>p:auu,ptuttyuuyyu;ippteq:;:7>:;>teuue7yiyuupuuyt75feg-r9-;:3:-*8i;e0t;yeetytytyti3gfrfi3:*:::&*800pet2gttaaatyeytw9>w-w3%-**<*@*w<e55;t7tuiyt7tte3iqp9f3&&-383-9r0t0i5hiatatytuaaepwr8i3---38:-3q3iti3aetuiuuauyi3prj0j5:348:*;9iepep2apauuuuysss",
"rpgg>p>>>5;;70>i,ppp,puuduutuuyt;pri>p>:55:;6::p:ea7>0tuupuauuuierfr-f:8:3*-8:>i$07t<r0ytttyttyi3hgg9i-:*3-&=&:g5yaeeygpaayuuyy0qff-Xw*=<:&&:;<w&555<eepsiy707ty:grfwr**-3**-:8p3iat50iatuuuapuuifir:f-9-8--838i*uiu4apupuaauiuy:jrpwp::49;;3:8p4ryetpdauausuusu",
"wrpi9j>2;>>:>:>p;tit,upuuuuuyuyy;pwiip>:;>>:>;:u;0i76riuuaauuuuu3ww9-f--&88>:-:f*e0e-ttyttttytyu*i9i9g:-:-##8339-0e4<0tttyttyaui=qfw8f%X%-<**&*i$54e<itayiy777yi*r0r9i:*:3*-993w<tpw5taiiiuuauupwwwr>f:8=83-3--f;iei<piiuuuauuiy,iwieh3>:43:<:3j2ti66yaaauuuusus",
"99ee>j::;0i>:$:d;u7t;duauuuuuuyu;p>iep:;;>y>>;;t;77::ypippupuuut8999-f3--wi9:%:h<740;ytttttyytiy@04w4i**#3043&-i;0e2;0tutettyutt->8q-f=*@8w4-@*p$74e;aippii7yyyp*e309f:*@qie4&:h<0055tptutuuuuuu999w:g::-993-*-i;t50;pttauuuuuyi,i>eeh>2:er43;:j3ei05taaauusuusu",
"9e59:d2;qpai0;>d;t05;daatuuutuyu;u:05d:,tt7yt>;7;::;:uiuuuuuuiut9953;g3:4rfr4-:i30<4<prttttyiyuy$w:43i*#-rhi4$;p400<<thppaytiuyew8-8*w*3:riw4*<u;535<hiyisyt77yy:e:3<i;*:pjh0*;h;42<4ti7tuiuuuui03:3*i-:9iw08-*i;0<2$aiiiyiuuyiy:t:34s3:eppye23i20532yjauauuussu",
"592:;d>5ii07i7>i;t2><dauutuuuuuu;u,:>d>7ui6>y7;y,;1,:uateiuyeyey;-;*#f84rr09r430;4,3;atytyypyyyi,0<33i33te32ye40<<;$<upuaayyyyy098-q3i=*wr00055p$5<5*siysi777tyi<e$;;t<2pt45it50*<<,3ei7tiuutuuu53-:&i38wiq0q3:i*5;<$auiyiyuuyui;t;:2p55ereet04y<2;;5udasuussusy",
"525:,jet70:7ittu1t65<autuuuyuuuu,t,;;dtty>2277>u;::;:uayyyieyee7;;-3*jer0933r04w,4;2;atttiyyupyi#t<33p472533e05u3<*$4pgypytypyte3--3#i<800<<055i#4<5<ptityt7767y;e$;;p0005;<0e4t;34;1ei7tyutuutu933:*g3e4054t04i#014*apuiyiuiuyy,7,22a7t4655t50a<22<0aayuuuuusus",
"97te;d5e5t5tt0ta,iy7;auiyyuyyuuu,u;66u67176>7:;u;>7>>uiiuuuuyeyy3eee8j9t0e33048i;0303ptttyyapuyy,i075p24$0t03,3k40533tpuit7tt766<8-@ w30<5042,<t#245<iisspy76tti;t25<i42<et02*4j355<4epitttutuut950e:a3e0ww0w44i*t55*ttiytiyuyuy$y275a455e66756a<ee55ysuuuuuuuus",
"5tap2d:25adat;:d;uuu>duuuyuyuuuu;duy;u,,;uau712y67yyeisuiuaauuuu0phh3h;3thpe4,3s<t0t<ye0ttypauyi<giu0t*,5t0073<y3ty0<0iyayye661<@35:+e#@*tpt2##0@557;iisiiy7ttyu<pet2t$*6ptt0<1t27e44tauytiyuutueiai3e*30aait<<i<itt$t0tetyyiyiy,ata7u,,tsat726s2ydt5eyusuuududu",
"5apd;t6tdauuutyy,y771uuaytyuauuu;aa5556ittius772;ty767uuyuuuuuuutyrh3ytepput0266$e66,ut7eyuupyte<ihie05357tit6575e7557ypyyty777i4wt0*i**55et6565#65t<siytyst777y,tjt4452ey777765,7t06tueatuauttt5ehh*t15tpuye5e7$uyt$6ty5tyyiyyy<tai7057uaauuttt2tut6tauuaddddau",
"2iep2utadauuutyy,yy7,uuuutyuuuuu;ip6etipuiuuu7771yy>;7yesaasaaut3eep-tryyptt660t,t55$t7epyyyyyyt30i5350450ett7tt<66116ptaayi06664ww3+e<5teeeyete$666,yyeyityttty$ept4rttttty7707,57427tyutyaaytt99ri*s7yyyuiyt7e$ytt,utytteyyaai<0e045iayuauuuyt<7y62euaaaaaaaaa",
"2t5t5aidaussuuyu,y>7,dauuyytuuuu;te:0asduuuyt7tt,6y767teasyuiaut<55y;traay7666tt,622#777pt7etiyt345330045007titu156<36pthyi60706344:ow3t5eeeyyiy$655;pttyt7tyiyi;5r45ryituutty67,20236tty55yuit0539e<htsyyayytee;t57<ayatt7taaai<5524tphiuuauaau,7i02taaaptyadda",
"et:e:uuaasuuuuuu,y67;dsuty:tiauu;e5;4iiuuiu7tytu,>7;:euye>:6euu>35;e;yhyay056ttt$01<+706e5240typ-4430i7<t707tuui<5515tay65556iti**<<#t<05577eett$655,ayi0555tiui;2522eyetutttt77,2224yat54157tttr345;stuyyuyyeyi;722,aie5546taaa3250epuiuuauuaap20040phppt50thah",
"5e<5<uuususuusuu,7:7:ksy5:;6ttia;5;$5etiuut777uu1;;,>uue;:;;>7tt4;#2;hhiay65ttyt$5;;#e004<*;<etp<3:<3ii4pteeyuyt*3435igi3<;350ei*&#*#i3457et7777#9<8*pee23*20iii,:2;<et0uuuttyyt$;;;4pp94***40tg0:33$ktptuuyetty;0;3*pe93;;35iui<442epptpaaauuuu23<:ehhe04<30iah",
";5<51aiduuuuusus,>:7;ae>:;<2::ip;6:$5iiuitt7777t;:;$>eu>;;;;:7ri3*+<,haepttt6tyt$0<4*e53;*$$;39r-*#@$0pittetttie#33<5re333;3:;404;#*+t37eeetttet+4;3$i54<**330ii#;2;3ry7tuyitt77$;$*4yr:<*@**<wg0-35$kyptyyyttei;0<4*i03;;;;30ri;<<<2iaaaaaaiuuu3<;;0pi4433<4wph",
"2e2e;aaduuuuuuuu,i>i:a7;>;;:;:ta;e7;5iiauutt777t;>e>:7>;:::;;:>i<<,0$ppyyiyyyttt;w0w;f8&**-$%-3q*3*#*0te0erytttt;00q0w9*:33*#*-89332#0<i5eetyiyi$0:9*r8*----339i,3044eiyututy77e;:8:>e4;-*-:::9iw:0e<seyyty6ttyi;w49*i8*;-:-*:9r;4440tgapuyyuyaa49030re:334334eg",
"5i5t2utaauuuyyyy>jaa>p>;;6::;;>u5at55iiaauuuut7t:ujr>>>;;;:;;;>teeep;eeityapt66t;fwi3r-@&---##-5*403405<20tyytti0rfrrr0=*>3-@%:039ip;0;i55eteyyi;r0w:i:&::33-;9w:ei60ryrttttt777;rfe88:;*:38<-8wiwir*s7ttyyt6eti:r9q-i8*:33:*&3r<0tiiuitytttyuaaepgr0r9<3894::9i",
"2ipd<taduauuuuuu>dii:i>:0:$;0:>i:ipi0ruiuuauuttt>f0w:r::::;;>::>30yh;7eytttyyttt*iif:0:--->3%%-q*ee300540505777e3wghqh-:*:--:=-f:05i*eee55et5ett:rri3r>-88:8>39w;eai5euutt76677e3rfp-r-8:&&88-:90rep;tyy7yy775yi;iqw*w3-:8--8::i*7ai0tiuiyuuuuua0hpf3w3439<3983i",
"5ttu,puuauuuussu:irt>i0:;:>:>;:p;7ue5ti7iuautttu:i>r>>:;X:;>>;;r300i$eettttyyytt#wqf>w>*#->3%%-rO303400e05777ett3qww>g3>=>3-:#=w3w0r$ee5ee576tte=rqf8f8--;88-*qi$0ye37iitt77677e:rrr:f-:&&:83&>i9r0i;tpa7yy776ti#www-w8-&33--&:f*0t05wituiuiuuaa3irp8p83*9448<8g",
"5iee,titauuuuuuu;tet>p>;;>r0>$;j>7750iu7tuuutytt;w9i:r;%O>r0>$:>5520$etettyttyyt&99i:r:&--99-%*9o33:4e0i6e7ettte390q:h>3:094:&&0:935#ee5ite7t6yi%09f8r:*-409-%3g;5e33tii7775777e;899:i***:ww-@:i804t;ttyyy775ttt@w0w:i8==q03-%*g<0055tatuyuyuupa;e9i4p8<<iiw4*4h",
"ee2e,adiusuuuuuu;t>t:s>;0apie;;p;7>2eapeiiuy777t;0>9;w:;>>rrt>:r8<$2#eyyttttiyyp;989;r;&wee93#%3#3<#307r07eityti380w3j>*qiw09-*93;@;+er5eeetttee*99r;r:-9wrw3-3i:43;:euy7077777t38:>&i=&0rir3&:w:3:0$6ty777765et*w9w*i3*9iw99::i<54<5pauiuiuuuaa3e<03p5<phpie44h",
"27;7,aduuuuuuuuu;e:>;p7:ei70i0>i,2;:5aaituuty777;5;::r>:e0:>ii>i;;+<#eptettyyttt;9;4*04>e9983:*;-:@.<0077eiiuyti3490>j430w4909:9*@o$.5e57eryiyt5#939<033r549099012;$:eue07777yy73:**%i:;09909449::*9+6tty77765te*044*i04e083w03w;44<4iaaiuuuuuau15*2<a04iu55ir0i",
":5;2,iupusuusuuu,0:6:dpe50::et7y,;;,5paitupuy7tt$>;>;je0>5,;>pti;*$4$tptytytytyt*4:3*r00;**33338#*o <e007etyuitt33**#g0i34:3044i@*O$.ei55eyiye55#3<9*rw05:-30ww9;;,#,0r577tt7y7t;;**&g30:--<0rir83*4#ttyy775tttt*q:4*hww04-3iw0i*<<<4iaiyuiuuuua<5$3<sut55<1uuts",
":e5t,aausuuuuuus,7>7;dye;05;557a;>>2>paiupauutti>9;7;ae;>7>;>>>a;2<t;tytiyttytye$05w;tw0,*;-3$30@:,#4e0e0eiipytt;433*g5r:0444;;i33=;+eietreet657#439*i50:345535i:2:$;5i7yyittttt;<3<;h40*<4945ei99<0$tyyy776ttt0*735<gt8<449049a10025iptuiuuuuua<6161at51555t6tk",
"7ptu2aauuusuuuuu;auu:a07;yy6;;5d5yr77pauupauutyy7i5e:u:,>aa51$;p305p<iteppyyy770;i0i30433353$+*5#ee5ee0007iypytt;5ii<g;<4it4;@&i3535$epeiy5655tt;740;r<;<5gi3#3s40512eyeiuypuytt<4ee;p;;4iht;*4iw0<0*pauuy76tttt3i0w4h0<*ipt2*4h0ttt0iatiuiuuuaa2t6t5u515sdy5,2k",
"2auu;utduyussuyu;ppp;t>tuyuuittt;uai7iupitiaaiti;ti0::7ttttut755;tta*57re7eiutet:iit$:57t09:5;65+ey<<6ey0erpyttt-wef303ttt705553>75u;itee57ti77i,iip2r40aute77et;tet;teutpaueuui;eey;e5tppptt7e65e2e<yptittpyrey#eer*56ptyypute7;tat7uuuttuasuuu2tau557yaauuuyty",
"2utt2ytaauiaauyp$iep:iyuuuuuuyyy,yi70tpiuituatiu,:56;65tutttt775;55u,ettteeuptet;r59@>;707755257+00;;0ettttyiirt-w9p<e5ytt77660527>i,ee7ieette5t$e0i;uetyt777ytu;t5e;itiijaittie;e4r;tepypyytt7t252t$etyaptpptri=r0e$teyytyyttte,5t757yuuuuaauaa<0i76tiasasuuyyy",
"2p57;pupaieupapa,7>u;auaupuauyui1>760pjiat>titti,;;;:0ttutt77677,;;t*tttie5etttt;e>2#0>e57ett57t+53$<00et79etipt3e89-ptyatt7eee625;e$tiii55eitie;e37;aypee77etua2e25;ueeiie7eipi;5<e<teypyytyytt209e#eppaietiiyp*04e;ytyy7t7tiip$5754eppat7tpaua<5056taaaauuuyuu",
"5t:e2dpdu7:7tipj:t>7;piiiupuuuut;6>:7ajiiy;>00ti:>6;:7itutt77777:5;t*rree2:9erri:e;:#e7te0e77t77#<*$4yee53330ygh>9*3,ttaattttee05>;5#ipa02:5eiip3e23$iet7e77yuuu:0;5:pie422:5ipa20;2;ietptytytyt<44e*iphe4;4eiph:9<0<att7y77tyaa,4020apiw235eiip24415taiausussss",
">e;5>dppy1,:7ipj:7:71uitiuuuiytt,:>6>pat>:,;:0ip;;;<5ttttut7677t:;&e*ie5:;;;9erp;>;;@777t76;5755@*##5t0083,-3epf38#;#ttpytt7t7e0;;;5#tii4:;:4wti2e;2$ieityrtyttu:5:5:diw:;$:5erp;4$3,tepttttytty<3*0;ppi3;*:4erp*9:5<atty767ttpa32230ape4*$;40ia42<<2tpuuasussss",
":7;>:dre>1;;:>ra,0;>:auptiututtt1>>:eir>:;,<::>i<<<;;uitytt7777t;*#>*pe>;@%;:>rp;5;;@0>5tt;;567:@*$@8w43333-:8qi->*3$tettt777ee0:;;5#ww>>;;:::>i;3;3$rtuuyuttttu;5:4>p043:#;:40r$;@2;pia6ttytt7t<:&9:ir33;;:::3e=9<0;ytt7yy7ttyp33::ear:3**<30rh<3315uausuuuusus",
"7i>e>p9>>;:::>7p;7>e;auuuuuuutut;>e>>u0;:;;;:;>p;55:>tuttt7tt7772>:e;p9:;=%=*;9g:0::#0>50555667t&3::w9:-3>3-;:8e>039-t0yyte6eeee5>;w;w>;:;:;;;>w$550,yiuyytuyiyy:w4w>r:::;;:::>e;3,2;tpaetyyyytt43:0*r8::::3;=3e*e4e<atyyyyyutte<999ere;3:<3<3qa25556tahuausuusu",
"iptp9p5:>:7>;;>i>suu:atipupuuuuy>rirrrt:>:>>;;>i5tttttpi7ttyt777iprp>r>&::;;;;9f>pee*t77;5tt5:7t3w09iw::-383*-9i9r9p3ptytte7tteewr>i:t>#:;::;:9j;tet;e0eittyuiyi;r9r:e:=;&;>>:4p;e<e;teptyyptytt9rwg:08*=:::::8r:rer<ayatytutty7<erewee:-333-*8iwtit6tuuaauussys",
"rppi:p:5:>;:>>6p;uaa:tiaaauuuuiu>kii>p:>>0;;::>r:ua75pp77etyytttepjr;i:::;O=:;:p;iet$i7;;7e77e75;f903w:::>3=:*3f>fgt0eupyttt7eyf>rir>i:::;O&:::p;itp;t577ety607u$prp>w;;;>:;;;:r;ra040ettttyttypergh>p:4:4::3;:p:fpi<ayayyyytuti*frpqi:333*&<<8p<tat5taauausuusy",
"qiir:d>>;005>;;a:iia;iiaaapuuuyi>p>i>p:>;>>>:;;i;ta>:7tttttutytt>err;r;:;:::>&:d;i00;i7>;5e5577>#w808f::&3333*:f3wf930yyeett7000:50w:p:>;::::@:f;eei:uet6tty76ty;itr9r;:;::::=:p;er424ettt7yyyya:9er:r&>*89::&:f:iee;ptttuutttti;p9r3i<9*4434*3h4tp02tapaauuusyd",
"5qer>d::;wui>1;i;t67;utppauaiuyu,>:7ep>;:yi>>$:i;7t:;7ptuputyttt7>>e:r*>:5rw9&:p:w>5#rti57757762@4;88i3;*3009*;r-99330y777tt7044>>50:i;::4e0>#;p;e5t:piu7eeyyttt;r0w9i;::4044::i<50227tt77t7ttyt339r3h;:;9r9:$:g:i04*tt6auuyu77e;i404i3<*0rw4*<h<e022tayauuusydy",
"075>;d2;epptt::i:7>>;aupuauuyuyi;y;>>a::iaire::t;:5;;epittytty7te::0:t,29rre5:;r;>;;@0ei5ee70775#5&;<f3;5rrer3;w:93;3eyt7ytt75002;;5:i;;0iie0:;t$5;3;piue7y777yt:e:4:r::eirew:3i352;3ruttt7ttytt093e:p23epre9::p:r34$atyuuuuttit*e;00g<*0iitw44a15515ahauaasydys",
"55:6,d>7pi7>ut0u:7;>1auuaaupuiyu:e,::a7>iu>7ee>u,;;,;tp777tt7ttt:,$:;t,:e7:;e72e#:,:+55t7tt07tt5#2@,;i45ee05e05t>88*<yietyiteeef;;;2;a:>ie::055e#2;2,utitt7y7ytt;5$$;i55ri44e53i232;2ryet7ytyuua42$;$i24tt44re4r;034;pypyyyytuii$4,24h52it54t00i;2<<5pdaausudysy",
"552:;d7ut5<;tutd;t>t;dipapuuuuyi;7;:>deu0>,,y77a;;*,>tt757577tut;$,;;d;e;;$$959e#:,:$>:7ettttttt@2#$;p5055;3050g;83;3eyepyyyeyyg,,;>:d5745;,5e5t#:;3$ititt7ttyue#5#;;aei452:555p;2:;;ey0tttytutu4<,;;p4r54;<tt0e&9:4*pyyt77ytuuu,5#;1dtut5,1tt7a;<<<2yayauyyydss",
":675;d6t;y66766d;t7y:diaaauuiuyi,e:07s77:0>70:>u;;5:5ttt777777yu5255;d5e#92;;;2t1>:>$0>eettttutt#5;4<t35<554515h-9938tyetttytety;550;a2t;77:5:2i#655;itutt7tyuyy,5;2:a552554533a;5433rietttytutu54342p4e2434522p#e4e,ttytyyytuui<7<24a771555525a<5625tayusydsyys",
"yuuu;d;2;udu>,1u;t7u>apaauuuyuuy1aty>u2:;adu6,1d5tut77tptt777yty5tt>,p:;,tat2,,i:t;t$75t0et07tut;y502e,;<ty05<<h3ere0tpyttute005577y;u;>;adt2,;t$e7t;ruaut77tuut,i575t;;:yau7;;y2ey07yatt77ttyut607e;y;2<eye4,<a;pit;ptyyytyuttt<u7u7a<,<udy5,1s2tpeeyayuuydydys",
"7aud275tuuuuyy66,uyt,uudutuuuy7t:udt>7>6uutu777:,yys:u7tt7yyytttet>u;r>:euput;;:;t77,6>t777t7eey$iei<0*5eteti606<t0y<ptp755tteep0uup$:>5auaue7:1,ttt,ttsat77y77t;ii65>;2uuutt777,ttp<yya6tyyt7yaeyep$345ttt77755,uuu;7ystyyutttu*iare626tyuyttt7<tdyttaayuasauad",
"5pta;t7isuuuyyyy,y6y,utuuutuuutu,eie>eueauutte06,777;u7eu77tt77t:7>u;uyeeiiuy775,y>>$66yyte7eyye<gee3e36ieeytttt;056<y0tye6e777e:tei,0yyeutuyt77$776$tyaa777tt7t$77>0777yiuyt777,76t,75yatttuttt3e4i$7e7ttty7776,767$7eusutaattt&rpeetetuuyttttt1tye2tutsauaaaaa",
"9t7t2utasusuusyu1y:6,utyat7yuuuu15757iaiuiiutuye,>;71uyyu777t7tt:::e$tiieeetyyt7,>11@>>ee7>7ettr;f003p5iittptyut;5<4,titi0250eet:5:t$riuettyuyyy$523,ttta756rtei,5:;9ieuuyt77t7t<7<2$t7ta525tatt4417,iauttt7y7t7$515;ytuattautti;90<0yypuyytuiiu1ee25tailtttaaaa",
":e;7;auaauussuus<y:6,dutt6;ytpuu;6>:7uauuuuuuyyy,7,:;suu7:;:77tu:>:>$iitueeeuuye+:,;#7tt>7:6>rit*w;33h0tetiyaiyi<5*<*p0t0;;;0eyp6:;5;ttyuayteyty,6;2$aute2;26tty;5;,5eetittt77tu2e<2,ptt51$4ttaa04;4$iuitt7y7tyt,4;2;spa0415taaa:e2;4tryyyyuuaaa205<5aaii545ahkk",
"25,52aiduuuasuuu,7;6<du0>,<;5ttp;6:1>pautuytt7yt,>,:;pe7>;1;50ti6:,>;iaipt>yyuu7#1,;&e0e:;;;>0eu@4*;<h0pettpttye<4&;$i09<&$*<0ih>2$>,tieaay70t77;4:2;pt42;&;4eri;;$$>t7tiuy7yttu<0;2;pre<***14wp5:$5$pptitt7777t;5:4:api<**<5wig:93$4ttytyuuuaah<4<;9pgi8<<4tthl",
"2e;5;auauuuuuuuu,>:>;ut:,,,;:57p;:5;6papittty7tt;:;:;p>>>;;;;:>t>;$6;haiat00t700#;$:&w>:;;;O:7>i@4*;<h0peetttyyt;4*:#w3:;&$&--9r:;,>$yiuuuee77yy$0;3;i4:;#&;;3ep;;$$;teittttyyuu;9*3:pe3;;;:**4e;;$3;ppyuut77777;4;0:ae0<***<30f;8<;4yyytyyyuaaa:3<-4ii0434480ih",
"5i5e2auaausuuuuu1i>w;p:::;;;;:qa;6050uapuuett77u:>>t>u>:::::;;>>>:;e;upiu77:7777$>:>;>>;;;::;:>h*w343g0ytttttyee:q3q=w:=-*=-&->e65:e,tiiuteyyeyu$0>9;w>;&;::;;9p;5;,6e0t7ttyiuup;9:03p3:::::**:022;7;ppptt7677yt;e>e>p3>::-:-:9i:903epyyypyyuiip40000iw<4380830f",
"eueu2atsaasusuuu:dap:p>;:>:>;;>p>eue>tpeipy7t77y>iia>a>;$;::::>i>00i;>tit076:77>:>:r:r>:::>:O;>i;g004p0itiitttee3r0r:i>*=--:-->rte7u;eutaiuuuutt:r0w:r>%;:::&&>i7i5;55577ttyuuyi3rrf9r:&:;:<::9w503i;utee77677tt3rri9f4:::3<-*9g:pietieeyyyyuuipwpirii9-333404wp",
"euid2uiuaauuusuu>prp:r>;5;;;>;:p:udi0euutttt7ytu:ari:>>>:>::>:>i:yei;ipipe:;:y7e:>>>>>:;O>:::>>>30g00ti0itiyttt0*wqr>q>>=--%---q:0ea:iaaauy7yyyu;wwr:9:%::;;:;:f;7i5>etee7ttuuyi3i9r:r:-::::>=;i5e5r;eiitttuyy7i:pri:rq>88:::&-g8rhieypttyuuuaaa4gig3i933833848g",
"5tta2iuuauuuuuuu;prp>p5:;;;:5;>p;tu0>7iiyytyttti;t0i>r>>:::;:;:w>i0t$iueue77677eO>>: >O:O>%;OO>f:0p000ityitttt7t=qqw>w>*->-=-=-w>00a:iaautttt7et#wqr:q:;%%;;:;:i#:75;5iutt77uuyt:rqr:f:;:::::%%e40ep,etatttyuttu:rqf>r:*:3:::%-g:rpe4eytyyyuuiaa;rep9i03<843934h",
"ee5u;pdpuasuuuuu;r7r2p9;:>5>5;:p;t765eteitt7tyty;r>i>i>,:>>::;:w07;7#iie7y777677;>O:X>;;>:%>>O>f-0i040ititte6670&8>q>w>*>99----f77>y;saiett77tyi;09r:w;%;:>>>:;w#:5;;7iutttuuytt;9>e:r:=:>49>#;w:75i;euatttyttta:e9r:r:%39q38&*i;9r92eyayytuuaai;e9i9p930w000<4g",
"e5;e;ddauuuuuuus;t>e>p5;ipe0e>:7:6>;5uauuyy7t7ty:>:>;u>:ipt0>::0:>;>#ere:007:6:7;::>:>#o>>>>>>:f=34<40i0itte707t&3*3-i8-qr989>-e7:,>,aitet7t7tey:t>0:0;@>>9>>:;5;57;;7iuutt7tyt7:e39:r8:0rwwe::w:2:e$iii7t77yyua:w:9:p3;9r990::r:9029yaatyyuuiaa30<03p5<iit0e05i",
"95*71pduuuuuuuus:t::;pe>eu75i7>t;:2;5pauiyt7t777;>$>;p>eut>0i0>r:;#:@ete>7765;0eO;O;+:;#>:;rgw>g&***3iy0tiete660#:@:&r08q933iq8i:;,6;iiuyeey77uy;5:4;t>:re>;99>e>2;;2uatyityyt77:9;3&r939w44tq>e2:$5;uu7t777tttt;4;3:pe99038rr9r:3<;5astytyyyaay;5*5;p70et55ptep",
"e5,7,ddiusuuuuuu17;5;ap7;:;;7rep,;:2>ijitty7777y,:$;;jpi;>;:005i:;;5@50e707>557y;:OO.0>>;:;;>irj*-$#:ei0etttt000#3&:&i0q::-3we9p>;,:$iiuuuy77yet$>::;ie0:>;;5tip,;,,>uaeuutyiy7t;3;:;pre;:::005i2;#5;ii5t7777yyt;9;9:fir:3:<riwi33:;4pa6ty7yiyip$6$5<pit25<5it7a",
"e72t;puusuuuuuuu,iet;dt7;55;:57p,>7:7upuyitt777t;>;0:arr;:::>>:i>5:i$55e77>76670;>:;+>>>#>:;;0rh;54;3eitteiyyt60&4:0-i493558080g7>;7,tyeuty77677#4>0;w54;95:5>>i,;>;2iuiitt7yitt,3;4:ie5;94::34i22;5$iietitttttt;e3e;r54<04<00wp:00<4tyttytyyiia*62t1u772707t65s",
"tteu2pduuuuuysus:auu:p5;7uu6;,;t:ei7eiuiiyt77777>u0i0a>;:tut>1;tee5a;5>e6:25077:+:;>$:$@+eu>;:>r8ii5<0ipetpgat05#09i;03:0fgt03<gyy>u;teeiie77760,iii;4;;>aat>,,5$0t7>eiuttttuuy7;e3e3i3:4ja72;3a:55i$etuauuuatau,eer:e;;9pi42<2p3rpe0yaatytyyaiy1ytu2t526jsut12a",
"7utu,aauuuusuuua,iip<t5eppuu7755,7i57ii5tete7utp;iep;7>tutte5555:79p;5050556505e:3i0@e@<teee7440<eie5ete0etiitre#8e53500e0eeeeee>7pa:pei755tttta$iei;>::7utt5>66,4i75rite77eee7i;iea:i55uut7757550ti*ati0wttetti;pii*435ttttte77<epe0tpyapypueiu;tap5657adauty7y",
"6t7y,tuussusuuuu:teu<ietuuitu777<5t55eiuiee5ettr;e>t:iepite77ttt;55i#450e::50454<303#i;5e77e7057,0i03400iitttree*9w480e06e7eeett6>tt1u7itt7it007;>>0;rtty>6>6566,0e55tuiiee7eete;75i3ueuttt777774500#awittit0500#707;75tttytt776;epe26yrauiiiyyp;7pt07uasuuuuuyy",
"2y7t,tuudueuuuuu<t5r3aptuiuuu777,5e33eppie54ertt$>;t:ptpttit777t;6>t#45ee5:30004#:<3#p4e700tt777$4e434eete05tree;5834re0eeettyyy6;77;ptpt50ipi7q,0:7$iei7>>67e7714425yppyt50eeee;3;6;ieattt7ttyt5<84@aeiiew00005#545;teiututt776;et92eryat0iiuip;5e77taayyuuuuuu",
"7757,udpt725tiud<e<5<apuituuuuit:44<4idpu455eiip:5;:;ietpiity7>6;>:5#wtw0:;5wt0w#*@*#iei700yutet#<334rpi03:39trr;3;*<yieteeyyipp>;;7$ptpt::epapp:t::$iett77ytui7;3:;:tree5330tee;5,:$ietttu7t77t0<<<*hir94<400we#4<4;t7etttyyt7t<5e29rper420irip25545taayiuuuusu",
"52;5;ddt7:;2etid;5<5<piiuuuueuuu<5::5ppw43<:4rip;>;5;retitte70:6::@>;iq>>;&:49ww#3@*#0tee06tit70#*&*9gf93-**39ei%;*#:ttettttyyyp7;;>&p>i>:;:7ipp:0::,ieeut>euue>;:;;:003::;::0ee;:$:,e5tuuiitt7e9::<%gw9:;:<8qwe#<$2*t77utyttutt33<:ehp8>:;:werp:22227yiuusyuusu",
"29;0:di:52;:29ep<745*iupuiuuuu7u:3::0iw;;***:3er*>,:;per777tt700;;@>;r>;&OO:::>9#9#3$5r5e540t670*-&*8iw-:--&--8q$;$$3rietettyety>;:>#i>::;&;::qi;>::$tttiyt77777$::;:3>;;;&;::4w,;,2$ieuuuuuu7754-38%f3--::-::90@<$4*utituuuuttt3::;9pr;;;$:>0ep;2:24eaauuuuuuyu",
"9r9i:i5:>292::9i<e5e<ieuuuuuuttu:9wwww9&&==*&;9e;0:7:utt07etttt7>>:q;>>O&OO%%;:0&i3035t372<25700:q8>8w8%---=%->9-3333tieetete7777:>i$r:;:::;$;:e;e>i;i>ute777>>6#8e9:3:#@=;&#;:0#5:t;i7itutut77788qw-f-==-8-=-39*5<5*truuiiuutuy34939r9=:;::;:wr:5755tsassusuysy",
"eppj:r0::>95:;9i<iii<uupuiiuett7<ihprw4;:33:&=4r>iep>p9teetitt570rwi=>>;%:=:=&:w*g3g35i50<$<566t:wfqqqq-%---%=8r39085eteteee0000errg:p;:%:::;;>t:iua:t7>tit7y67t;wgr94:@&;;%#&:9;eea2i5e7ttyut7e9qfg8g:=&->-%%>w4t00*i7ttytuuutu4rfrre8;::::;;3r7tpt7tuauuuussss",
"iphp>p;959;;559p&eeu3piuuiuuuuue=iri9r:3*34>3::p>tr95epttttettiawwwq:r%:>:O&>:>>@005@5354eiy750tOffrq9=%%--==%=r3we84ere0tppt00eeppr:r::;::;::;>;iia:e0i>titt77t&prr8e=:&;&&:::i:7e55ii7et7ttuuu-fgf=f=-:==->8qw*itt*t0tttttuttt<gifwr:;:93::;:h3udt6taauauuusuu",
"qwii>d;:,99:>:9p;u7i<peputuuttuu*iwr9i::3:&;993w;5r5:9rittettuui>9qq:r=:%:&;:;:w%090@05020ti756e%wf88>-&O->--%-f:0e43ete7ippt667:>r>:r;;O:::>;;q#ere;e0i>tttt7e0$rrr8r&;%;;=;&;r:7e55ett7t7tyttu=9fw-w=-&-38--8f;ttw#ttittuuyttt3f9r8i:>@>4::=:g5rae5iaauasuusus",
"9err9j>;;wiw>&:h3i7r<ppuiuiuutut;r909i;;;9w43&:i;9e5;9pttttetttu349e:w&::>:::&:q@995#00655et707e*q9->8&%=8q98%=e-0e430ttetpyt67e;>>7;i;,:>>>>$;i;>70,i>uy7tt777e@e3e3r;&:99<;O*r;6e52ettttu7tytu389r8r=-*8w0-%:i;t55*itututuuutt<r:93p::&8w44;;p5et55tauaauuuusu",
"rre09j2:wppee::d<e55<dpppuu7uutu<r:33i:;:ppr3%;p:w5:2tteittet77e44>9=w#:>q9>:&;9+934@000557e767e#33383@o9ie95--9*3433trteiyyt07t>7>:;p;;0ii00;;i:>:>;pii7ttt7707#4;43p:;epr04;;r#:5;:7ieuttut77t033w:r%39wfe8&3w*5<<#aiiuiuuutuu;e:eep;$0eeee33r35522taiauuussus",
"0592;d99tpeet55i:5<5<apaiuiuyyut<e$;:p54ie<4r5<4:>:;4ti5trttt77e33:3#e;:4e539:;5o9<4#e0555ee5777@;*$33$*ee83943e#:<$4iu0ttittttt6;,$#i;;tty5t:;t:0;>;iiuetuee>77#5#;;p32ete404<t$:;,:ui7ttu7t7774@@<*0*4r00w0430*2*<$aituiuuuutu$e;33a2;ri44i04i;2:,2uauuuuuuuss",
"5592;jetee29pe5t<554<ppduuiuuttu,5$<4aee45<4e5<r;;,*:ii5titttte7;:;2$i:4;5:>0::0@934#r0557756550#*#@;;3933$;905p*::;4ipetiittitt;;,1#p:5:>2>y:>t;0;5$ieeeeey777u$0,;<i44;3<<424i,:;,>ipeutt7y77t<**<#i3t04<00000*5<4$attuuttttuu;5$;;a0r00:2700p;2323udpsuusussy",
"7rtt2jeu5e5et59i:u5t<iiuiuuututt;t<55a45,eue5,<d:49:2rteriiutttt;234;p;5;5457:;e$049;ieee0555655#3;$;,$53333538p<4033iitittttytyy57>,p:>;56>5::u;e>6;e007eee77tt;t252r<2;223523y257:2tuutttt77t74205<a00<400445e;t55*pituiyytttu;r22<i4e2700e44y:7t67ustuuuuuuys",
"0pap2d;;eadu7<2a2pip,itiuuuuuuyu2atp5u*$euiet5<e2ui925ettttututt40ei3a,;3rui5;,e*i57<ptete774665$5005$o@4yye5*,e3eg035iiyitttiyi7tit,i,,yutt7,2u;t0t,t0ee7ee77ey<a0e4t;;5pye5;2p5ia0;7iu7777777t5iit*i;*2epp2$2t;t0t<atutyt77tyt,yepey;,0saue11t6iuteuayasuussys",
"ettd,755dauutt77,suu2utuutyuutty<tap0557uuiut722<7t527y77tttyttt0e4i;r645titt522*75t1utt7tyt7555#3w05;,577e7te0630t640yetpsit7tp3eer$337ttutty77$657,y756777t77t#4pe005<t7776666<ta5<5pae67tt7teti0t;te2tpaaat5<$77t,ytt7tytuttt:pae0046iyiyt7e62ta76tsauuaadasd",
"5ted;tuuuuuuyyy7,y7t1utyuutuuyti<0ieeetttytyt777,7t2<277tuttt777494i;rre0ttit552$52t$75t7tttt677-995532te77eet05;5e4<4eyguiitite:55t$etiutyt7t7t$676,706t777tttt$25220e57t7t7eee$5y515yyyyt77t7e405t$et5ttyyyt66$t77$ttyyttyuiyt,ia46trpyiyyyyty,eu657uaaaysaaad",
"5eea<uaduuuyuyyy,727,duuuu7uuuuu<4550tppttu7yytt,7e2,5tttte77tte392e$etrettt6e6t$725$76t65567ttt393;0e0y7777yee6$45<,5igat50usie2517$tuuaut77yuu,t05$77tuy77tuyt*2424ttetttytyty$,5216ttye60ttyy<550#ttttt6eetyp,t25,tt7tt5tiuai;e02eppatyuuaaaa;et54easjyeupjaj",
"ee5t,iaauyyuyuyu,727<ddui527uueu<4429ett7ttuuiyt<75<2etu52<27ttt44;9#er6tttte6tt,512$ttt541357ip-3-;ei7ete6eeeee;4<;;egp5334rgpi53;3$iitpyt777tt,7;;@tt77>;7ette*<55eit4tt7tytyt$1<<2tpt52<36yap55<5$pttt6e67yya$5<2$at5t5227uap2e03eaiatiuuuaua15735ijpp04epaaj",
"e5,5,aaiuuuyuuys,7<5<dpe5<<<57ip<<<<4eitytuputty<2:;4tp0<:$;4eii4:@<#ir0tt5550tt*4*<<pe0<;;;34ei*8&@4e77t767ttt033;*4gp0:<<34eif3:,5$ittttttytyt,:$;$pi5;;;;>tte#<<<5ti077t7ytyt,<;$;epe4<;;4eii4<$4$apeettty7yt$4;<*pe043<<5iph:02,9pyypypuayyp:2;;eajee3<4eipj",
"52*5,aauuuuuuuuu$935;pe2<<;<35ep;<<<5tuuppytyytt;:;*3re3;:;*:49e3;@<$iyet005777t#<%<;i9<*$$$*30r-9&o$00yt707etie33-&4fr;*::::39t:1,3$tit7etttty7,5;:;pe;;#%%;;5e#**+$0aa7t777777<<**:0e93<:;;:4e<;#1*haettyytte6#0<3*pe0<***:0ip$4;$4iipyppypyyi2:::9jp43:;34eij",
"502t;aaauuuuyuuu;iqe:i923::<:<4p<<445tiputtu7tti;99::q9::3:;&:8r34:0&eitit07ttt0#93q:w<*@=**@*8r&98$*20tt770ttti<9935w9**:::-:4r:5:7$iii7ey67tei;0>>;i>:@;;;;;>e$14*<5aatt77777t<94::09:::::&;:9<4<w$pytyyyty776*099*r9:*-<-*<qi;54:5yypppauyyyt:0940re:<<3933eg",
"eiia1tadssuuuuyu3pip4p9>33<:*&3r40ee0titutt7tyyy;wiw3333:>:;&$9r0rei$4eeittttyy5&iig<w--@=;=@%:wX0i50025tt66eiii;wiwqw8*&*;-::9r555i;e77t77656yy$iif:>>:%;::@;:w*5it0tt5ttt7777t3rr0er9:*:3:=;8e0ipa;etepytt77et:r0w*r::-38:*-8i:py5epipyyaupaya5pprwew:38993:9p",
"5tpd;uaduaauuuyu5pri3i9:4:;:4::r<epieeui7ttytytp:iwr:r>::8:=::8rwr0i#50ttitttttt@rig3r:&*==*=*-0=9e4<5ttttt7ttii:iif3r----#%::8g:65p$0ettty77ttu>iig>w:%::;;:::q<0t00tt07t7777tt3fwr8r9>::==;=89:iia;ipyptt777yy:frr:r::w::::>>q3ypieipaiypptuyp0gip3i3<:3::093i",
"5tid1uuaaauuuyuu:ier8i9:;:343&;p;0i77tptettuuu7t;rqi>r4>&44::;:r8040#0tttetttt55&wqq&w8:&&*-%@*:@>4:;5eeytytitti*wqi3r>;*3-3:*:i>55i,ttet7777ttu:wqr:q:&O:>:;%:r<0t040ttytt77t7t-w0r>i8:::::;&:r4iiu,ritaytt7ttp;r9r:r::;::>::9i:eye5iryyiyyyuyu<iwp9g9:&4499<9j",
"et0i<uaaaauuuuuu;rqe:i4::0w94&:p<9040ppt7tpuu775=w9r>i3;%9q8:=:r44;0*witetwt5652&9<8%w8*-38:&O%:O--*<0t6pyypptii*93w>p3*-9e93**e553e$ti77t77yttu;w49;>;@%>iw:X;q*2w2<5tittt7777y*w8r:r:-:9re:=3r570e$iiyapyt7tyy;9:0:r:*&>eq;@4j30745patiypyyypp<wqi0p5;<eie0:3j",
"ee2t<uaiausuuuyu;i99;i4<epre5:3p<22<5ppettuupy7e<0:9:i>;3ir94::r99*4#ie5505t7t55@8:3*r:&w9w9:**-@&**4tptypyttt0t;9;5;t3-5iie5-;055;5$iiettt77tyt;9:4#>:;>ifr>;;r$45<*5ttttt7777t<0:9-w<-qerr9:3e33;4$iiypyytytti:9:8=r:&werr:&:r:542eaaiytyypyyp1w<0<p4;ihpie<4g",
"52;7,aaaasuuuuuu,e34$i54pr54pe4i<<<*2iuettt7tyyu<9&:$r4:ww3:994e94*4#it05eettt7t@4;3*i3;e439933:@=&*4pgtyttetet0;5;<*y535t03533e5;,:,iteyity7y77#4:4#9:>ii95w5>i*4<$<ei7tt777t7t*8*<*r99r039rw042;#2#yiuyptt777t;9;:;r43ew90949e;2;;5aaptuyutytu15*2<he4ppe0pt0i",
"55;7;adaauduuuuu,5;2$pit55<<ei7r;2<<2ip7ty777tuu;3@;&pw444;$9eqi43*4#it006ttyttt#4;:@rew3-;39990%***3ty0tty77e00,4$3*ite393,350i:;#5#iuttttttt7e+::9:itew0::we0p<4<$4ti77tt76ttt#<%:*piee:;3we05;;#3#riapyttt777;4;3;arr4::3eerr,;;;3pptptptuuau*5;2<att22<2pyta",
"055t<aaaauuuuuuu$e45,pie<e5<555p;4424iueuytttutp$9;9:pe3:443444p94<0#tt0eetitt55*w33@0043;33;;3e*>3;3et6tt7ettet*030;y0e<t5;365y22;6,ite7tyytttt$53e:u54:::;e59a<44;4ttttt776ttt*4*4<aw5:;34:35r21,0,erpypyyyt77$4:e;ier;:3554wp:5323iptpypyyata$5272at6156675ek",
"euea1uadasuuuuuu,tet4p7<<ade<,5d<4040upttiyuu777<r5e<p3;*tpe4$3pew40#004ttiyte52$tee*0;*3555*+;e>0034tytttttttit<yey<t3<3aa5135t55:e#tte567ttuuu3rei:e:;$5055;>p<55140iy7tt76t7t<0<w3i4*;eue;#:p44:t;6eyaauutt7t*eei;r434ear:,:u5ee55uattytatyuu1y7a2y225dky5,1d",
"5yya<uhauuusayyu&tia;t0tayayyt66,6t066yt6tyatt6t;0r03<40tryee765106t#56tttiyy00t*ire&99teee55555#0y55ya760yiiiir10i050t0titieye6576i,tt7557tttya;rer*e<<0eee5555;6t77tt5t7etttyp;eir3350iit00607<etp$6tyttyue6ts$e5e-e9eeeypyte01tu707yytytaauuy<tat66eyhuuuytyy",
"6tty,uuyhuuaaiiu*tti3ttaaaiitt06,0t6206tttttt6tt;4e5486ettrte770:41e#56taiyiiyei*ftw$tttteee6555+4033rirfifyyit0*>5540iytiyty6ee55:7,itty7eey77t@e40;pee50e65567;6t55575t677tpyi*4e545tiiit77770265t$00tatttt00e*e8e-y9e0tryprte<6y56tpyuuytutit<epteeaaauuyyyyy",
"5t5t;agyaitiaaia;t5t;ataiyyyyttt$66636tet66666tt:48335rteettttt713;6$eeeie50tiiy,r05*iriete6656e@34;:0aryr0riiyr*-><4riiiiitte6y:2,5$iaiu05ereer&032;pit50ee66tt;5w235ewe690eiii$3999ipiiytttt7t2430#7eep055tee0;935-ieettypyyyp,2525uhute77taay35e60yshaauyuyyy",
"604e<kkii640tuaa<e30;aiayiiyyytt14024tte00314eti;:;*<0ryeetttttt93*6*ii05$$;5tih*0;3$ittteet6e6e$;;*3rir3>;40rrr>3<;4tiiyipyttet2>;5$ipa5::4eryr:e:;#pree6e6ee6e<44;37i753;35rye;;3;4eiiiyitttyi23,5$iee0<<3eeti;8$3,itteeetttpy,<3<7hhy65<<euhs<5146taauuaauusu",
"85<0;kht03<35rih<5<5;aiaiyiyyiyy;31<0hi023*,30tf**##;50e7etttttt4:#9*iw4;%+$<9if&9$3#tw0tet6eett*#%%3rr8*=%*30rr<<-;>0itiiiyttte::;4;tir:#;:5erp<e;*@r05tte7et55:<-*4ii4;***35rr<**<2rititiiiyty3*#3#ir0;*;384ra*3$:#ietetetttyp*<<<5gpe4;;;5eph<<<<2yaaauuyssus",
"84<9*gi03<;<85tf<035$aiayayipyiy;3**0hi<<:;**4ea**$$;8e060eett7e1:#9*w8*-$%*;-8i&5;3#t550e6e6ttt$=@#qr0*;;-*;>qr$-;*<5tiiyiiytte2:&9;q0>;&&;>>9w;9;;#teettee6552****3wq*&@#&-39w*-**3eiietttyiui3-%8#r9>*-:3-*8f#3*3$ieteeee0ttt$;338ee<3;;*;40i<5<<2euuauususys",
"9t9i:it38<;8;35i<t40;aiyayayyytt:383000=*33=*=8f*:3*<0tr006ee77033-9-w>%-**&%*>w;055*i95060e6etr=-->qq3=>::==-9r-11:35titiyie66e>4>e:w>:;=::::>r=e30;pitte05e652&8838q8*&=**&*8w;33;<5ip7tttiyit3q-9*q8*----*%:e&8:4*reittttyttt;999908*:3:-*:q035656tauaauuyssy",
"rfig;iq33388:$8i;t0t3aahiaaayytt;ww0q08*:>3<#%>0340480yr6607706089>f:r:%@%=%%@>r;frr<i0500566ttt%:qwrq>----=%=8r8wi9850itiytyet09w>g>p>;===:;;>w;iri<piie5556755*9fw088==::=%&:99w5334et00tiyiyiirqi-r8*----==:w#530$iruttipyttt8ifiww8&*:>:*:0f60ee0tsgaausyysy",
"tfar;f;844-$834f;gia<iikttttyttt*fqi>0->3>**3*:03000400ir0t760608rf8%w=>-%@%=O%q*rri;0505055e605#fqrqf->>>:=-=>f8rf049r0eiyiyeye0wrw:q%:=:%%:>>f&rri;eea0eete654=fqf8q*===%%---w*0p040itiittt7509qff-f=--&%-=%-f%000#00giiittyti&frg0r-::3*->>3r3yht5taaysauusus",
"0rfi3h;3:4433-3g;i0t*ttuyiyttyyt#w0w3f-:=88>>%=q:88134ti60ettt77:89>%w==->->>O%f&050@545e5566e65%q8q8f:*&3>3:-:f*99110eetiitteee:>>>=w%:%>>=:%:f#04e;eer6eett65e%w9w>w=-@====%*w-0i920ieuiiutt7e9889=f=8>->>%O-f*e00$r0u77ttte7t*w8q3q=>&8833-3g37t55taaaayasusu",
"0tww3h;:<rir4:3h;t40*t0yypiyttyy#w303f*-=0iw3%#0*3:<30it56ryttte89q8-f=&-998-O%r@8<9+54065556e65#0:8>r--&8q09::r;13;:0ieette66et::>q:r;::>>>:%:r&040*e5ee6eet7te+9-9-w=-%-8:-%=w399330r7ttttt7t788>>=f39:qfw=X-g:r99<r0ettteet7t-0;93w*:*qww9-3g;0022uaaaaysysys",
"0055;h<30ppe044a<e10<atippyyyyee*0:>>i*=8iw00=*0*:**4ti000eyytte9988-f-:8w98>&%8@4<3@00i55550605*0=;:r*-80r0r8:w>43-1et0etty60et4::>=r;:>fww>;;w:e34;e55e0e66ttt*q---q--8wwq9-*w-32*:0t000077060:-:9>f--qerr-%-f3035*i7etitiytyi$9-w9f*&9ifr033g<46<5pkayasyusys",
"5433,k90pp54i05p;0<0<hiuapyytytt*0&*<f3:00830030**$$30t000etittt3-*-&i:958->q8:>@4;>@00te5555606*4+=*y>85088r54e<43*:0iettte06et::O=Or::ww34iw>0;9<9;r0500e56eet*0&**w89iw:3w930*:*#<0t050067760*&-3-f--9999>89w*q<4*itetyittyyi$8$>8i:<fi44r00i<32<5pkpsuuuusys",
"1413,ktat01<tt0y$5<5<giupypytyty*0*-3h0084**0w8i**$**060707ttttt:*&<-g9f>>$*0i58@3;<+05ee54566t0+4#,:a0e49<4544r$::*1wpetiee66tt::;;&p:w4>:>tw9e@3*<$t6r5556e6te#0*-*rqi98&&093q#3:$:eie770t7tee3-*-*r3e>3-39eee*5*5*pti000tttti*4@;3g0g00*30r0g,<3<3yuyauususys",
"55661k6t4666651h;t46<aiuypipyyia$0;03h30*483034a*<***000ree667te3<9r3g3i-53>5940$8<<@9500535506t#0343a44<05553<i&3913eiittye06ei5400:p>0:44>>::r#8:4#e0e50e7te6e#w34;r3w384393:r-4433ritettttt670983#f3e338588qe*9593pti00ttttty<e:05h003044045h;5625yayauuuyssy",
"6yay1a<41yka6,1k1i0i3aaapyyyyyyy*i4t0f<<<thi0$*h488310t0ye60067e490i3r#:1fi8<;;i-040$t50655556te;ari5t*,5gai5;;i;0r65eiiiitteetyeiri;0#:3ppt:#,i;e45#05006ettt6e#iwr<0*<3php0;;p20w42eitee0te06050er-e$;-epe3*3e3r5t*pipttttiuii*e5i0i##3php0*3h<ey77usuauuussys",
"ehyh1t5eaauy66661ayi;yiaytyyayya;ihi0060ttiy6065*6ee*66i06eitete4iri;4;370605544$e60+60it650060e*rfe3311e06e0140*t7i3ytrtiitt6ti5uei;5;1ittt7707$tii;55tttyre6e0$5ir5533t65e6525,0e00ty035tyt0ep5itf$555eeteee05;eet;e7yi00tttis3paw0924ittt7676<aya1aysyyssytys",
"5aty4y6yaasyuy7y,ye6;ypyaytpiyti;6ae0006ttyt6606#645$60it0etttet3r5e;53406066066*e44+46iie60t00t:0i04465766tt040*05e<ieyiyiteeet4i5i:e357tt77767#55e$54etteee760$5t55564t65yt66t$20230trye5ty70e4q9t*9e90ttyyye0;t07,eerut7iitet;tt27e07uuyttttt,yty<yyasuyysiys",
"4t4e1hyaaayyyssu;t46;ayyyteyayty14044tattytt666i$5;3$i0ti0057itr:0:9*04550etttrt$633+55ia040titr:4084ei6706tt007,5<4*itriee6etir3e;51pett7t77777#4<2$e5ete555eee$4913eityeyiut7t$453<0ttge30tte5833e*eeeeetpiiyy<e20;rtyt00ipie7;05<0iitiuiuutyi,t1t1uyuht6tsssy",
"4t<5<hyaayayuysa<0451kgpi040rtri*3314iayaiytt6yi;4,4*it001;;4000;3#<$r5060trtttt#5:1#050i4<5trti*83:3yii760ttery;4*<*yt009190itt:3#2;aiu7e777t7t$2;4*iee03;;2eee*<;;3yuiaiyyt657,43,3euie3;<qeee33$3$tpeeettyiyi<0;4;fei43<5tiii<5<;5ittyiyuuuup<512<kpyt2<2tshh",
"46,5;aiasuayyuya,014<hie91;190ei;3<*1thiaaiy66yy<0=3;ft4;*#$:40e#<#;#0506etttt66#4;3#0004;$<90rr-::;4yyy760yyrea:4*<*r05<:;:4eii;2#;$iet777y7tyu*4*3;p09:;$;:9er$;<$<iptaityt666<:$#3pf03**;33ef3;#3$iyeettttytt;3;<*fee3##*30rp;5;$5itrtyiyuuuu,2$33kpi4<<45tsj",
"<5<6<auaauyauyyy;088;i033**:180i,33;4tatapyyt66r<8*8<f8<**$=*30r*8&<$05ritee6555#3;8*r83;%@*>90r=>3;4ratt7eyiyry:0:4;yq3*#&*>5er23$2,e5etee7yt7t;4:3*r3;&#@&;:9e$;;;<tptyt6tt6ti***&3rr3;**;**8t3:$8&reeteet60t0$3-8*t993*&**:4i;2<*0puutttytutu<3,33ae52244330g",
"4t5t1aykaayyyyyy:i00:r8*:::;-;9i;0000iatetyyt7ty303q3w3&**:**;4r-0<5*00yite65606*939-r:**&$-;:9i*8q34yitt6ttyeer3r8r>r8:-***:39r37:7,e7ttty77ttt;039*w;&@&&&%;39$<545et7t65tttta*333898*---*%%3q8530-tre0tee0ttt309q-e833::-**3r<e5<eapuuttutuui3e3e3g933383330g",
"tgiu1ithayayasya3afg3i3-3:1:*&8i36teetit7ttytt7i3w0i3f>==*:*==3w:e0r;r6riie056ee:08r:0-@---:;-3r3wr00titt7eryery<rri8r>*:::-*-905i5i;ietttey7y7i4rwr:w-&&;:;&&:4*4e55et5yt7e666u<wfw943;--*-**39999y;iee6060tyyp3fer-9;-:338--8i0ai5epetiuiyyyyi0grp4h03:;38440p",
"5pph;yaasuyuuuyu<fii>i91><;>8*$i1rae5tyitttyyrtt*iwf>i3:-*=*=*3w>00i;0yfttttee6t$98r:r3->4:=**:w*wir5rahtt6ttrer*rqr>e>;=3:*3::t:e5i$5eu7e77t7ty:prr&9:;;=&;:%&e;5e595tpyiy7667i:iwi*9--:9-&--:i805r*00t0e0ttttp3fii:w:-83-39-:i<tpt0iiuiyiyyuuu3irh8i998933938g",
"0pyh<ysaaaaauysu;iri3p9:*-;<4*:g:ei03erttttyyytt*08t>i3*%$&*&&8i409i*0itee006e60#8803r:-#***>**r*qir0ryyyte7eyet*w4r3r<*%:*:3:>f475i#7ei777t777t;rwe;w:;@&#&:@&r;3555etityi7066i:w5r-r:-*3:*-*3f305e;0t0tt0tttyp;rqr:e:$*--:3*:g<wt55tuiyiuyuiiu3iri9i4:;933439h",
"6y0y<aaaaauusuyu;i0w3g4*;4834;<f19643tittttyyyty3030*i3&*;83;*30951w$i00e5064665#3:0;w;#**:38#*i=4040taeyt77teyr;040:r:#*8333:3i45:5#7ittt77t777;w00;w:$#;;;:@&e$<4<5eityi77667y;08r3i3<-98-3-3r83:0$0iittttttyp;03w-r-#33333*:p<5045ppiuyiytyuu3e8r9i839w09039j",
"0046,asasuuuyyyu<e451f9,ti0591<e144<4yaiytyitttt3w*3*t3%w00e933033*9$00566506464#4;4&5;&r0340*#r*83:4tyeyiettttr*4:4*e3;0i08433t43,5#eituutyy77t;0:>;e3$49::3&;4$*,<4eyeiyyt6077<5:4*i3-eie553;533*3*0iteettttty;9;5;e3$er5343:e444<0aatituyuuiu;93e3h03ppr0r59i",
"45<5,shauauuuyys,0;1,ge4ii64e640:1:;5iaytttyyttt$4$<$i330445e545<;#3#i0500564644@1#;+044y0;303<r-8>$:7y7iyttyrrt*3$;$0416033e04e5:$:#ettpittyu7y;5;;$pe:44;:542e*$$$3titttt77770,4#<$i530t55ew50<;$3#0iteeettett;4*3,r050033055i<4<<4patyiyyuiya<5*3<se7ii05ie5p",
"44<6;ahasasuuuyy$514;kye461;6e0y*;1,3yittttyyttt$3$1*ae0;$$<450e3>#4@tt060506566+*@,#r6083$$445a>43*;eyrytt6iyye,3#,#004<<$*e00a55,5#7e7uututttu#2$;$aie,;,,0eei<,*$<tiy7777ttyt#3$<$i7e;2;<0y0i<8-5$0t06eee77e6#<,<;ait,3;$0teg;<1*4tp7iyiuyyuu<5;5;pre35<4iiek",
"5e0y,ssaaasysyuu,t6e1ay6,641646y,4948ri7yttytyyt*415*y65,;13<<4e09:0$wi055552644@1*3$t55;05*<15i>0q14eyeyyttryry,5*1*y53*414634h55:7$ittuttty7tt$5:5,p73#2;,234a<3<24ei07067tyyt$2<5,t05;54<544y4580*0tte0tett67#3<5;t00$43<247s<2540iptyiiyyuui<e6e;p574775r7ek",
"7utp1aataauuyysy1aya3y414at63$1y4ti06iyttttyytyt1i3w;631eiai1$,eee4e*0ti55646446*510;61*<as1<,<03wi0wyieaytryryr30<03a5<6aa02*1a555i,ett77777ytt;ue7;t:,;ir2;,,e<3550775756eyuit,t0i*73<5hu02$,e4w5p;00iettytte0$75t<0<,4au5<,<i<0t0taaiiyuyuiyy<tea6p54tkspt<<s",
"7uts,ystttyspyyy$iia175eaytet655$6i6et6tee6yi66i<0ee4454iiy056130t6r*tit05140445$000#04eatee6642$6ht60iyt6t6ettt#0i0346ttiaitte65727,ut5777ty565:iti<e34t0776<,2$2t0477525567tyi;e0y-54yiiiyt750370i<it0ieisi00t*00w*05ttit77707<tya2apayiyauuya;uis3t6yaiuutt7y",
"6t6t,yaustyssyyt<iep;ietaayyy6t6$6616e6ey66iytya30i0440eiyeye5654036#ei004346000$000*tetiiiete06$5t046ttittitttt;0r435t0itttttt6;227,tt7t677t77t<r5r:i00700t63<5$2t5150775556eyi;w50-00iyeiytt77300e#eeeiteii0ti#040*ieietete7t7$55y1tyaayyiyaaa<5ea5ytasuuyyyyy",
"166y,yssst7yyyys;i5t;pruapauuiyt,66;6y6ea666tiii<9e434etiiiiyyey34;4#ri004310rii*040;atttiettte6,14330t0tt0thht03w0330twtittt6ee,127$7uit540yetu<434;itt70et0220$20334tte5240eii;030*tep0ewetytt<040#eiii59witii*930*iiiteettttt$55t<ataait6taay;63e3sisaauuuyyu",
"402e,akps750eppp<5453auauuiuuyyy;41,4itte4<46tya384330etttttiyii44*3$pp04*$30000&4:4*fiti66tttaa*3<$3titi040tiiw<43<3wt5ttttttt6$;;5#upu72,20rya30*:$ieeee7tt777,35,3ert04;;3wyi;3$3$iei07ettttt4430$php032950ri;0<2*tettettttut,5171atay6357iia<5363ayaauasssss",
"65<0<kae04<260ig;635<aiuuuyututu$3;$4iee4<*<40ia3<**3ei0eeeee66e44$3$ii4<@@*3440%3*3#t0e0006taat*;*$3if083*;40wt&3<&<6i0ttitt6t6;;@;+ipe4;,;24rp-5*<@it007etttt7#*$$3et94;$&;0ei-3#<*rtr7eetttte23$3#hg04**3345i;9;3#tw07etttttu<5*44hi053;35eiu<5;51ayiyuuuussu",
"53;5;ht32<<<35tp3535;iiyiittyttt#3<&9e08-*$*<35i3<**4tt06ee66e6548;3#r5;$@+@**:4@3<4&t0065446ttt*:*$:rr83*%%*80f*:<*<wt0eeetttee2:o;Ot0::;#&;;ei#3*3$p0teet7eut7#&&&-q9-;-&$-3qi-3$3;tetttttte7e3:$4*pe:3*$<*<90*4:4*i7iw7e7ttui*4#4<h0*3;;;39ri;2;51apauuuuuuys",
"4e5r-pe-3-33339p;e65<uriuutuytyt$98>003**-*--*>w-33;30ie5ee6e66e4530%w3%=@%#@#*8@040*00406466ttt:>>-308*:=*=*:8w*4033wi0eeetttee34:>;e>#;;=;&;3r%4353i0iete0tyi0#-8:383%----&-8e-039-yeretttttye343r*03@#*-3**30=545;twi7wet6ttt<q:q3f3*;:3::3wr352e3sysuuuuyysy",
"9ffh3re3;333-#3i3pei3ayipuuuuyti;if0rw:&-;33*&-9*30440ia06eeeete0r0r$0<@*###@+*3%00i<t0060460tti3wwq808==33-=*303wt00ii66eett66w0rrj:r9&;=:;&&:r*w0i<i607it7tut0*qfr8>-%->8:&=>w>e5t3rey07ettt7t4iig*5-%##-3*&:w;rer*e5i77e7tt0t:i0f8i8--:83::9r5ieu5ataaaususys",
"rfgi3g:345**359p<iti<tepuuuiuyti-frf8w-3---*:*-0*00430aaee066eti0wr0#0#;@*=#$%#0%000*e0000606ett=fqw8w=-%==->>:w4raw4eii56it006t9ffw&w&:==%=:::r#rrp3000eett600i-fwf>w=-=8>=-=-f*4e58ete6tett6te:rhq&f:*&;&&**:i#e0r;eeittttttti*iwf9w-8-:--8:3r4iat7taauauaasus",
"0ifi3g:3*3>33-3g<i0t;iiuuiiyyyui&i0r8r--O:8>:%=r*88<<0eeee606tta3388=w%*==@@>:*q+434#040500660te%w8w8r--%---:=-f>0w53iai5eit656t30rq&w&-O;;=:=:i-00t*i00tti70624%w8w8r%-=-%=>8>8-4e838e0000tttt7*9eq*r-*%;3-;-8h=e0e;r7eitrttttt%wqi9w-3-38:8-:f4tp02taaauuuussy",
"4wwe4h3:*9i92%-g3720<puhpuiyytyt*r808r-&%8w0>%&i*33*;9eee6066eti;:>0:f#=@>q3*O=i+3;3+04660t0066r@0>08f===888>%-w:0533iar5ei660068009*i&-&:8::@;r*930*i500tit6222%9-9>r*%@>98>%=i*503,39e00t70t0t389e-f&-*q998&:g*w353ieetttttt7t*w4w8r*=:ww98&-i;5t52eaaauusydyd",
"0095:h<:9ipi0*3g<0<4;apaiuuyiyyt;r:88f;*3rr04*=0-3;$;eat0ee0e6tt::38;i=-;rr03%*fO3:3+50riee66t6e@q*>>r-=8wwq0::w343*30i0eyii660w0988*f**3ew3:=;r&4<3,i0045ey7055%9->-f--&wi08@=f:34:35te6007t6te5889:i#-3wrq8*-r*435;ie5etttttt7*w:93w**wirw0-:i<5512taauauayydy",
"e544<h44pi55055p*5<4;uipiyutyyty*0*<3f34ww3303:0;<;#-eii6006eett;==;=r#*fq*>fr83@3*3+00titeettt0@8%:*i38000qw0>0;3<*<064teri6e6i::**@i;:9e989::e@3&3$iee29ett070O8#-;f89w9-;ww85::<$3ei50077t6t7>-*>%9%::999q:-w%3;3*i5e7tttttte*5*<<r:49ew9e93i<1;;5aaausyddyss",
"4544,k0tt032t05p;015*ituuutytttt*8&34h0w54*;043w*-<$<0ii055ee66e*--:-r>8q8*>ww>4+:*3+05e67e0606t+4#::f80>83>00>0&33;30i56e6itt66**&*&g40<9<303:e@3$<#ret57ttt665.:#-:f9r83&-098w;:*#3ie460070660----%r-9-8>898:w%3;<#eeewtwttt7e@4%<4f0e:434e09u<<<$2aatauyyydsy",
"5eee3h5e4050055g<t0t<utatuuttttt*6309h55;0045;3i-99<<9ee55e666et380q*f*8#0rq>%=r+434#05e00066ete%0383w34*3330080*4044eiw6wtttitt<444;h44:0429;:e@334#e9eeete5224o9-33e:8$8988&;f$34330e550070t0e-9e9*f>8-8888-;i&935$e5r07ttt770#5*08i303900r49i<5525yuyauydsyys",
"epsi3s<12usi7<2s4iii<iiaitttyytt3h0r0a***ihr4#*a3ei5<9ie555eteee8qwr-qO%8rrw3@@8@840;e0e500606et*f0i30@%3000033e;wiw50606w6ttyyi5wee;i*#4ire4$*e%545#43577705524@e59:9@$8555e5*33ri020ee56006t0e-tfq%r-%:099;%=e*e95#95t07ettt70*i0i0i*;0upi53<i2aattyaaauydydys",
"eiaj;77esauuy776;att;yiatttaptet3wii0444iye60533*0i4;30e00000000*8qr%133100t0013@040*ie0000ete60*0rw33336w6w0642*ea0336000060et04q0p*043t5e05654+555*50e5eii5445#qq388330wie0532*0i5340540eete05399f*58<50050445#245#00t0ti00tpt*0i04504iuuttt762tat0uaaaaaaauus",
"5eta1iuuuauyyyyy$t0t,pipattpptet*0i69440eeie6660$403;4e0e6000000*:30$00646ti6504@545*ttte00eii0t&36w4500w6w66054;0i4*3000000e000<43w*e02eeeye565+335$55550ee0454o>9-33380t005553,3923452050eeee0358y;ee050600555+4;4#05wtit00iit#2054et7ttuuutt6<7y657uasutaauaa",
"374u;aaauuuyyyuy*t55*aiipeetppti*80044eeeeeiitti*33*10iwte040000*:*0#e0656i6e600@434*i0ii040ii00*30456rt00666060*50<<40000540iw0<3*0*it0eeiyye65$3;3*59559550559.->*-83tr0055550$23330930545ere038;e;giy66e76065@4-<#w0tit00wtie*1445iatttyytttt<5t02taaattuaaaa",
"5527,apuuuuuuuuu<044<hpie440tiii;3444iai6w6yytyy*;<*3titw4340eq0--#4#06566660050+3*3#i0003;400i0;3334wi6606we66e*44;30i053*300w043*4#it0057e7555*3*3*r0933335rw0%33#349000555500-33*30i043::5rti3:*5*iie0eee6665@4*3#ttiq83<0iie342<5ipetttttuut<4025ihpuw50paah",
"56;7,upiuuuuuusu<039*hi0<;;<0eii:;;35ift6wittyii$***3iw833*3>000**%:+550e7e65184o3*:@0883*%<000w*3;;30e050e6ee6e#::*80iq:*#*34003:@<@ee55t7e5655@3&-*r98-**-80ww&:&@3e43t055560t--%%*qi9-*&*89ri:;#3$et007066005@3*3&r0q<-*38qwr;<<;4ii7ttttyyuu<<<;0hht53<4etih",
"5:;7,ssaauuuuuuu*034*i93:*=:39ri:;;;4ii06e6itiyr#<-->wq**=*=3>80%=@3+5667t064144o:=:@q>-*%%=>>8w&**;30e0606et6e0@*:*>w0>%%%=:380**+;+0e0eeetttteO-&>%03:-&&-:80w%*#o:r9500005070***%*4q4&=&&-3wr-*$8$eee6ee70665@8=8&q33-*=-34qi#;*$3tt7tty77tut<<;*0hp83;-300if",
"555i;sdsauuuuuyu*rqw-r8*;**:::9r;4835we6w6ww6w66=88>808%=*-=%-80=:*4@06t06t66040@>:3%q-%=%%&*=>0*34340t0006ee6t0*>8>8q8-%*=*==>0-:*4+0ttrteeetty@8:9&q:*=&=&=:89@3-*300e07000060*>>--8>*&*--&:qw;3;9&0eeeeett770&9:q*w:=-==-=*8w*11<4ti7tyt7tytu40940iw<3<343<0p",
"ei7a:paaauuuyuyt1fii3i8--:::&&3r3wit50ir6t6t66053q0qqq8%=->:=%>8>08i$000167ee000%q>8%0-%====%%>q>0t4600000e66e6t>qfw0wq=%=:=%%>q909e*0iiye5566te*wqw-q:==*==%&-8*et3845e007t7755-9wq88>%=-:-==:w909y*000eyette7e-wqw:f>---::-=>i40t00iueutyttttt0pgr0rw<3888<-8i",
"5eia;tudauuuyyyu8hrp>r>;::=:0::r3rhi0wi6eeett660-rqw=8*-=:=%:-=>:8i0:1e56566t060&q8q=0=%&=%%===0&0i080ti60066e6e4rqr8r8=*-==>->w;00e@ee5ee565559&fwq*f>O-=XO-&=w%8ee50e0e0706560-rff8f==*%%=->>q>99e$0eyiippttty*wwf>w-=-:=>8=>g-tpw5epaiytttttu3gih3i9338::433r",
"5tts;uaaauuuyuyy;rrr3p8;*::<3=;i*wt006r06ee6ee60=q8w-q-=%>:====0:804*565060ttee0%0>q-w:%O*&%&%-f*40334ee00ett6ee:0qr8f8-%:-*-=*r3w9e$ee5eee5666e&w99=r9*%===*O%w#3e450e57e6t0660*wqq-w8>==--*&>r354e#007eypittte&q8i>f>&&--:>&:g*5t02taatyyttyty;rrp9p93*4334:3h",
"ei6u,iauauatyuyu;ewr3g3&*993<#*f*4038ri6eeete6e6#838*w-&=0q3=%*w::43*0i6e66tt6e0o3:8=w*%%>>::%=f*44;;00000e6tt6e=0>0:f>==qq8:%*03930#rr6eeett5t5*8>9-r:*O:88-X%r;5534et5607t7t77*9-9-i8--4q9-%>i85;9#w00etty70ee&98r>r3*-83::&:p*4025tptiuyt6yti;e9i4p0;:eiw4*4h",
"e5:7,uaiaauuuyyt;e0e;i<;9e000:;r34330ihtetette6w<3=3&w3%8i033::0:==*$0t666eeeee0%833%4:@0i083%*0*33*36t0e6etttte:4:8=0:*4r04q**q43*3$trtteeyye6t@8:w:0=%:w0::@&w33334iy066ttyttt#3-9-i3#w0ww3-3048*5$ee5eerye77t*980*w:-9w999::r<5540ii0iyttytuy2e;03p4;thpe533p",
"55;5,pauuuuutuyy;e34;r43ee<2ee4e<33;3fheetett666;3#*#t3;603:04343=*$*0a66666e660#3*<@03*0e448;;0$:*$30ite0tttttt;4*3%0430044i0303;@3$iie7eeiyyee$3<9<9;;00;;33;0$;3,3tit007yytt6*3#3*i43r33300403:$3$ei0eyiytytt*0;<#w440093093e*14<5iatiiuttyiy25;3;u74iu55ue5i",
"22;7,aaausuuuuyy,434;aye44;;rt0e*3;*3tt0tetttt6w$3#*#i0433##4534:*:**6i006006000+3*<@e04*3;;433i%***<0i06itttttt*3#*$t0043*3ri0r3;*5*iireeteyeey$3*;#eee93#@<945+,;,<0t66ttttt6t<3@##iet4*#30e003;#3@ew0eeiittyy$4*<#e0w30<<004i@$;;5iatuuyyyyuy;5$1<jit41;<iits",
"455i;paaauuuuuyy<e55<ate;04<555p<4434it0etttt66e$5;4*t43*21*<<303>83:6a665640000@4<4*t03#33<433t#31340t06e0tttte$4*4*t043044014p883r;teyteetette*5<;+ie5<3$$<<35#333<6tttttt6676<5,:$i00<:24435e09;4#ee0eeyiieti$5;4$t05<0044<4i#1545iatuiuityuu,5151ayt<65565tk",
"7i7a1upuuuuutuyy1uee<pe2;ya52;2a3wt06iatetttttt63e3w<t<#*0i4*@*i3444*6t564664660*e40;i1$36064*<t30000tite0t6t6t63610;t3*0aae4$1h553a3teeyet7ttty$te9;p5$*75<<$*5,5y05tttt666666t,04i2i3#37pi<#<tee40*ettetiiyyey<045*t1;<ip01;<t4et05iaiiuyyyiiu1t6t2a625asu5,1s",
"2uas;yasayyaaypa;tii;65yppypyr66;7yt0et7etuytt6535e94455ettee555,46i,6tt6660636i;iwi$046eyeyee00$6e65eyyiyeye66t30t033460ryi00501e6t$7tyt767e7ya#rip<0407055233<$57626yy6666667t<wiw9<4000ttttt0400p*titt00pteet;t0i$550p7tyu525,6y55eypiypauuiu<eut65tyaayuuyyu",
"2ttu,ypujauuuyya<tti;itppyyyyte7,5y626ttuttuyttt;9w549eeeettyt561510$666t6566460$q5r;t6t6eyettte$1511eytyt6yyety3w043300eyaiyrt63656+7eett0ty060#00r<e07ite06265$27520t0tt705655;0e050et7eeitt653550*ti0t000e00e$06e;00ytttuy66e,0743eptiuiiuiyi<7ie07ypussuysyy",
"5t5i,aauaaeuaiiy;e5e<apayppyyttt$572<eyau76ttuit;3435etteeietttt31,6#6eet5<14560%889*t0teyttttte$;1$10iti66eyyii144330ri7ryiayya25<2$6e6t76tte65#430*ieryittt0e7$2222tt5t7625765;4544wtiteett70t<4;5$ii0r435000e#545;yept6etatty;5538yfyie00euii20700ypspsyaysuy",
"773e;jjpi540ipph;540<appttytytyy,24<2ypyt0210tyi;3;35rie75t7ttiy64$4$ytet1$$1640%585*tetyeyteeee,11$1iyt5<$46eet333;36yi0eryyyit41,2$ui652<67et0$3<3;iiytee77677,1,;<tt64<<<5ett<3<*40ttitt777te33*3#gi003*35wei*5<4;tet07ytyytt<58<5phr75330rii32315issaauuuyys",
"44:7;jjr4;;4eiia;5<5<aiuptpytyya23;;4pi093;;30ei*;;<4eie050et7tt3<$4$ii94*+#<345$9>9$iey6ye06e0e;1-;1wi0,*#;360i>:;*<ryte7eett7e;<*5*ii5<*$<450i#3#3#irte7e0606e#<#@,0r4,##*<5rr:<**<0twittt77tt3:#:#fw33-*:40rf*4,2;teettt7yttt<33;9pi94<$*30ii<<,<2tupyssyuysy",
"44:9:pp443;334ei*010<aiapyytyyyp3<;*3i0*<;**;30e;33;3ere707567te<-$4$w54<$@#*;40%8<4$ittee666e0e;>1;309<*##;>4wi;3;;30rryyettte7;3*3#r033;#*;:00#3#;#000ee776077##@@&443***$*<45***;40itittt6ttt;:&>O0q->*&:38wf#3;<$ttt7tt777t7;3838e93:*&*-4rf323<2tuiiiyysyys",
"we9e:pe;4333::9r<t50;piaaypytiyp39989w3&--:-*:qi;89435iytt77e57e<>>r-04*-;*-#%:w-9>6;itte6e6000e*898898$*#*---9i338340rtrte76t773530&03*:-;:**3w-933#057e7006060%-<;:83#*--$&=:9*33340iiatttt77w:3>q&w8=*-----8r$4<4$ttityy77ytt;9988q8*::-**:9i20056tssypisuysy",
"rprj:pw:>334;:4i4i0e<piaaayttyyp3igr903**333*:qi:05935ripiie77774w0h3w>*--><#@-w8i80$te6yt6e6eet;8iq90>#%**-&#:w340540yrre557t703rwr*0>&&*:3-*>w8ree<r0r77552525$4rw098@=-;-&&:035w44wttiiitt7tt9q8w=r8-==>>=&-93t50$00ttypetast3efe0e8*:38:*-405et7euphpyyyssys",
"wigp8h3334:;3:8p;ita<itatttyutiu9hfr9f-3-8-88*-g;9r53<5riyitt75740ri>f:8>-&&-&&r=wwe*e6e6e6tteee*rwfqr=*::%%*&-0>0y00eyr60457re080rf>r**&:&&>3303pt0*eey70552555;gwiqf----%@&&-0&ei4;5iettttt0603qwr>r=>--&%-->w;t00#65eeytytuya*frfqr::38&&:::i1ehi5yaasppsyuss",
"0rpi9h<3;49:3*:p<iti<iiatututuuu:iqw9f->&:-33==f3004<4eeeitrt67e;>8q*w%-&-*;:&&r%8<9#046e6etttee%w8r0r--&>:--%-i:4r8340tytryyyyy>83q=w%=%>:*-*:r-e95#ee955555655@q>93r**@--=&@&r*ri43eie07ett66088qw-r**%>>--%*f;050$06t7e7tytyp#i9f9i-:*33::&:g3ta75eayysayysys",
"0wwe3h<:;eie4*;i3t0e<ituuiutuuyu*r899g:-*4999**i899435ee7etytee7>>>4*w%%*33>3&&w%>*:+5466e6te60w%5:88f-*-0wq3&-f-383;30eirtyiayi33>3*r**&90:=&-r;e33$e5835067755@5:83w**%893-+&r-9e33tit0t7770609838=r%==0rq:%*f*6<5*00tt77tttyt*e8e4i;**0r03$:g<5556eatsspsysss",
"0000<h<<eppee<<i3735*aiuuttytttu;r:83p:*qwwqw<-w*33;30ee5eettt7e53<>&r$*4q839-&9#8$:#e6e66e6ee00*9&;;r;*9fi09::r*3<;;4ettrettett5>*3@w%*8iw84:3w*8;3$e5455600660%9-3-9->3r083==5*33*3ri5twttt7t0w3-3#r**3ff09*:r*5<3,tet7t7y7t7i;e-33i::0ir0033i355<5aaapyyyyysy",
"55<<;a55pt54re5p;5;2*uuittytt7yt;0**:i38w0<-q0<q***,<0r555etttt74-$*@t*390:*83;4-8*3*tete6e66555*5##*r88rr>10930;*%$3rie700t7060**@*@w*;0w33ei9w@3*3&e55ee052555%5**&034ee;-93;8@**$3ei7tttttttt3;*;#i;30095003w*3*<*teiteyt7yyy$5#,-p45ie34e04i<<<<5ysasauuuuss",
"2214,jtpt5;1ttta*4<5;piuttyttttt*0*<:g9044**3430&***35e7e077t7te4<-;&f9r;;&&3339&8:3*e6y6e066460%8%;;i5r54&*9930-*$$3tr0tttt777e$*#*#i>033*;ifei@;*3$930tt705526#9*3*i4w93=$59:e@*$*;5rettwtttti**$<#i30;;*3e040*5<5,ttttytttytt$3#,<het04$<e70i*1<,3taiauuuussy",
"5555,d5t1552625d;74e<piiuuuttyut$w<9<i40<0<*444w*33*<4e5tee5757t4944$f3t#33$<3<w%8:9#06et6624695$0<84f90:4333;:i;<333606tiyrt70y3433$i30&33:845e$830;94ete056555#e303p35344333<i;-;;39ei7w7767tt<<;3#i;0;3<<53;e#635$eeutt77t77t$5;33h50<424035s<5636yauauuuuusy",
"tuat<u,22ysu2$<d<i7i2aiupuuuutuu;p0e4i*<4pft044i395<3495ie05577i8559@5@*#0t0<**0+845$06ee6054440;ier5i<<;rpt4@*i:0r685trtyiieeey0w04*0$;$0t5;#*i;00i<95y56ttt005#r4030@%;rai3#*i495539ey7005507t0005#0,34te5<#,e#550,eeatt7t7t77,y5e6y<;,tsi5,<s5iu75isaausuuyss",
"5ata1525auuyt761,uua;7tuattautta;rpe3333eeitt060*5i3<40550ii040i409r%3;&50004<<<@000#54e44554550;qfr9445000it411-0pe4900etypieei4frr*4<4i0605334$tee,ret0507055e#4ir43:;erre5445<0tw55tt5420550i5rww#3;5t0ee02;4#540$0tp60etttie#et50055utytttt7<uua1aisayuhsaus",
"2uti1ituauuyt766$y77,ytuauutyttt$9t530700tttt056<953-300iiwiiii0:480@34350005<<<#540#05itt055544%308480rittit040;0t419eeryrii00e9r0r:q40it0r0545#034#ee0ee00044e#8q9494300ee5550$4544500w540000t3w3w*05ef00te545$545$e0iieeetrii$0e45707iuty66t6<yty1pyaaaysaaaa",
"5t4t2atauyuuauyy,754,ayaat5ttt7t*8034ei7tttt6660-8>**qq5iq49ffiw*>30@95550004144#435#e0irt090059*;>:30rtirrrteet;89;10ter000r0503q:0:i0itt0ti656#3**@te0t0445380*:3330054500007t*;<*<000w0<400wr38*3*rweie0et065$5;4*t0ti055weie*52<0tttttt7tttt<t561aiasyeiaaah",
"5e<52aaauuuuuuuu,722,aai71<27tti33333et0ittt050t33*%*4wq-**-9iiw:>-9&00450065555+3<4#00i9;;;5wrt<>3;30r0eee660et*1;*-0r04:;46rrr38#:$i0iq0tii055#3##@ire43*:330t>-**:000455077ee****30w003*<400i3>*-*ewee000et05#3*;&g00w33;5wee$4<*0piittyttyyi10343haai035iaaj",
"55*2<auuauuuyyyy:e34;hir3**<5wtp<33;3ee0tiit00tt*:&%&qq-%%%&-89r3-@3&it490005550@3*3&089:*&*>0rr>>:*3qrt000520tr*:*%&908*%@-899r=*o-@r0i000e0550#3@&@iq8:#@&-:9r--&&-40095000070****:909:*%*38wr:3@*#ew00056ee00@;&:&r0933**3wrr#4*#4piutttytyyu*5*5;kii63;35raj",
"25*51apaauuty7yt;e<3;pe3<***<<9w$:3;3ipeitutt66t3>>=-48*%===&=3q>*O:&fi000005450@:*>&q;>*&&&*>9w#-**30re00695ttr*::--88:-%@&;:>0-:o-#r0005506545%>&*%w>*&%%%&&:w**&&-0r000550600*--&:88-&@%=-39w->%:*r0i5w006ee6#>*>*r83-===33wr#2<$0uttttttiyyi*3;93he93;;39eih",
"5t2t5aaasuuttyyy;e8e:p9;3-<---3w-3334epeeeitt660-qq88q>=--==%%>q:-&>@tri00051450@>-8=q-%%%%%O&>r%*33800090655er6-8q:>8>&--%=&-:q-3#3$r0r05006445%4>8%9-%%%&&%%-9&--*30w900550e70:8>:-:-=%%*---3w:4-3:i0i4eie507e-0q0-w>&*-3-=>qe*41;0tittyyytyyy;e8r5g933-3333wi",
"thta5huaauyyyyuu*rrr8f3=3-83-*8i30e44er757et06543wfqqq>=--=%%=>8:3:8o30r00053415&8-q-q=O%%%XX&>r*8wq405440045e05;wrq>8:&--&==%:q:9>9:iriw0555445*qqq*q-OO%==%O-q-343345405457e708q98>>-=%=---=-w9r40:r404ihe56ei>fwr>q=&=>8>--qr*554wutiutytyiyi5irhwh5*33993:9i",
"5aaa,uaaauuuyuyp;fir:w8:8:-83*>i*9i080eeee7t77t5=qfq=>--===->==q&889o9t050954135&w8q&8&%-%%==%=w*4w3:404ie05060t-rrf=8--->%%-==8:90r&00fee055555%qwr=q*=>=%%%%->&4r4->0090007705-wwf-q-==&&===qr8rrr#rir0rtiteee>fwf-9-=->=&-=>r*0t04eitayiyiyey<irh9r8;:3333;:f",
"0apa<uaaaauuyyyy&rrr:r8--&-::=8f-et030tee7e0e705%>q8>8>-%==-=%O8;839O00545054355&83q=q&%OXO==O>r%>q3>40er0006e00%qqw-0:-%===---w-88w#00t0r054343%qqi-q>*&&&&%%*8&qw435itiirtt005*w9f>w-&%&==&&:r:q4w#ri0rtttitee%98w=8&%O=&&=&-r<5t24tiaiyyyytyy<rep5i83;38<:38j",
"et0t,aaaaauypuyy;rrr:i8*:-:8:*8p30038eyeee70tt05%-8:>q>&%--:>OO>:3-9#00459054555%3:9*9&O&#&-&&-r%803;80ere6ert06%8:w-w:=-3:-:--r:3:0&we0er060655@489-i:&=*--=%=3*>9>3igwiiit7005*8:0-w-&::::&%:r3830#rr5rtrttt6i%98w=9*=*>>:3**w*15<4iatypyiyyyr;03r3p533re9434j",
"054t<akauuuuyyyy:r99:r8*iw008-30-33;3eie7t067765*----88&8q8>8*=8::&3#rw44555555e&3&:&q*%9388-;;8;>3-;400e0erytr0*8*8*r:*0r988;*538*0*er0eiitte06@3#:%0:%>338:**3*-3-4ip00eee5424&3&:&r3*9::::;:e>8-9#ii0t0rtt0re*938&0;-0r00q3-8*<**<tatiyiyyeiy<535;i53iar7e44p",
"25;5<adaauuuyyyp<e33*i03iw90999q*:;*3iie0t6t6t05*-&#-49:09:-q8:0-&@3&rt990555000@;@*@03:08;;3838;:-%;rr4eeetitte*1#<*r8<0r44r5>r3:*9#0r0w0etiiti#<@#@03-53*34333@*-*3wi550055245#<#*&e434<;;334933=4*wr0r0t00t0t#3*;@535rr05r035*;<$;ettyiyytyty<5;<$i79it55i75p",
"24;t1uaauauuyuyy*e39*gir33<40wir*;3;3yget000tt05#-=#-0i8::#%-33w;&&8&rttw5056e60+;+;#t00<;<<3550-***4ia0e000tte7#3#<*r65<<;4006f8>&3@0045500ettt#3#$@ie53*-23233%*--300450r5550i$4*<$e99:*#;330e3--3@455rtt000t0*3*<#r0e;3<<005e*1<$<0t0ittyypyi;4,4;pty<534ttek",
"e02a1aaaaauyyyyy$e0e:iw0:40940wi-5q45rie0t0e7766#33;3003*4:$;::03>*0;rrrt0050e05+3;4$e44;353<340*3838rir0000eete$4;4;r54;555033a88-9@9005050600t$4<,#t04*<34-#20*84:30w50rte557i*040;e<<;;;<;;3e38*w@40itr006ttt<0<5;a07*<33534i;50410tttytyyyyy$5171y761556665s",
"ttta4ttaauuuuuyy*iip<i4<4ipe<<2t30y09eyete77e705;4e3353$3pi4<$$404>r:ttrt0000t65$05i$0<$5ia0,$<5;wrr40rte6400eet:e6r<t<*9iar4#$t0030#00e00050600$033#03$20i7,+*0*99430r50tie557i;iep2e;$25ee,@,4w03i$0rftr06000t;050;e3*5et04*1i<ei040ttityiyits,t7s4y4<6ssy5,;s",
"tpya1hsayyyapyya;ptp;035tttet766<y7y3pee70tiy70t2iii;4347etee652,530*e0ieeei050i#0ri;045tt053<<<$5045epeie05560i-irf;430eeiet042356i$5thi70e705e#000#3-<07e5<<<2,552:7teeetiie7e:eit>345r7052222:09e;ee5eeeeee5i,iee$e>ee0ett007;6pr6ryryypuyrtt;ttu104tuuutuy7y",
"6ytu,tauhpyaapyy;e0t<i6etytyyt00;e0e;yeyietiiit0-05r<e40eeettt70;4*3,05i00000550$09t;t96e0651<14$45430iii00500ii;eey;030tteyt6653550#5epte7it040#430#53500762120$25:$2eete7etete;4t5445eyee055423e5e#eeeieeiie0w$7>7;yeieeett76e;5te20tepriiypii,e5u2utsaauuyyyy",
"5t0p,tsahytpaayp;650<atatppyytty$020-yrpit7iiiti*4:0<e0e7777ttty35#3#00i006ri544#930;t0050656560$40330ier5440rei*53e;e0yeyye6e6e55<5#0ttt00tie54$8:4$e5560t06250$;5:;57et7555itt;:55>0ttyrte76052e5e@0twe50iaitw;>;>;ttiueeuy77e,5r22eyiyee7ippu;73t2aaauuauuuyy",
"0t5t<hhht050ygph<0<5;gttytyiyyyp;0<0<hiii54etiti:4*3$04000000eet43@**rei04350q00#8*<&i0t50te606t:84<4ri0043;50rw*8*3*t0iew06067t44;4$iiee230e700:5<3#e3350tt0556$;:;:ttw05:;5wii;:::5tirrytt7760:4:4#ee04::5irri;>;>&irtueeuye7e;45<3ipie5:30rpp25;0:aypuausuusu",
"00;0<jh004<40tig<0<5*atttttyyytp33*53je54:*3590i*3*3#040te70666e33O*#r0w9:-:330r#<&<#t00eet6e6et<3::0rr33-**3090$;$3$e0eee07777e3<$8$ii04:*:49qe;4;3#08560t76225#;#&4pi>::;;;>ri;&;;:0ietet7e7e633$:&ir>>:;:>>ip$>;:#tetteeyt70723;=4phe>:;;3rij;4$3;atuuuuussss",
"04;03hg40333440i*5<5*aiatttttyyy;8*83f8-**#-335r#3*3$e0tiyiitt70*>O**q3>-#%%#=8i#8;;#00tttte66et::::9r9=*-=-=33q&8*3$e5eeyyetttt<-@3&e0::*#*-:5i&4-3$05e00055213@;#;4r0;;$%%;:0i@;;,;556teee6e6e::&>=fw:4:;&::>w#:;5;iiitreti777;;&;3fr:;&#&;9rp,2$2,apauuusuusu",
"0r0i:p0:4333;;9t;050<aiautyettyy;98e>r3#**--**8w*430<eepiyyitt00>8-8=0===#=%O%-q&9;9$00teeeee66i-8980q3==---&=>q:035;050eyeitte783-0*w8-**&***8e*985$e5t06542555#:::9w>@;%;O@;>w:::::404eeeeetee>9>0%w>:::=;%%:w$0>t;iipirtut77t:3839r9&=;;;;:wr:5:71auauuuyysuu",
"rhgj>i03:;:;*-0g<ptp3teaattytiyp3frh8e--::--&&3w3rei:05i7rttt7658rqw-8&O==--%O=q&w50$00i6eee6eti-qfrqqq-=---%*>w300e-e8eeeeyte600w8f;08&&-:-&#:0-tee*05e55525660;wpwq0:%;;:;@;:>4et05wtee6tt7tty:qqr=>>:=%=:;%:>:iry:teiuttiutee3rfreq3;;:::&;9r5u7p2ayaassuuuuu",
"rggi;g;385-*3:8p;ppp;yipttt7yt7y$fif8w*3:3&%3--53ei53eitiett76009wfw%qO==-&&-&&8#0wt*04eee066eei-r8rqr->->*=-=-r-wi4;400007eyytt30iw*q$:-3%%&&*q#e0e$e000555557e:pqe:>O;=:;::;:r;9ee44eeyryr777e4rrw:f=:;;OO:>>i$07i;irpyiiuttyi:hrf9r;>:::;>:4p5eie7iapuauussus",
"w0fr3h33-58<3*<g;pit;tiyttt7y7tt#tqr8i--#::--*-r-90330eee7etet77:88q&qO*%--=&%%9o840*04ee655556t#q8rqr->%>--:=>r*40;;4eeeweyyeye;899*q#-#--**##9&w5e$t0605552660#w>0:0@&@;:;;=;i:9e044eeiyyet7ee:>99=f==;;:%:=>f;>>7;uwuiitttttt;rriqi::&:::::>p37t777uuauuuuusu",
"5w0w3h3;;0y03;;p<p00;yttiyttty77#e8e3t**#4r4:#*g-33$<0ie070ett7e>38q-r*=&>>*=X%qo;<9*t0t0655566t@9:q8r=-=3833*-r*84;<0t0eyytee703890;t$;$>833@#9&033*t0055546557#4;4:e;;#::::%;i:49::0eeytiy7tte:9ww:g:::>9::%:r;>:7;iiiuetyet7e#r:e0p:;;9044;:p25t537iaauuauuus",
"0065;g3;egre0<3i<t55*gitpyyyt77t;e333r*$3eir4<:i;33$:epe50777tte5333=r**>093:@@0&3;4;rtte5e5e6ee#q:4:q#$8w00q33w:43*;0t0iyetee605434-i*33eee8**4*9:3#it055565600$3#::t#;394:3;;r:3:;2ee7riiittte0939:f:;>w0>>;%q;>;>$iiueer7777e*e;84i;;3ree0:2i35525tdausuuussu",
"0553<h55pp04t09y;e<2;hyppyyi7t6t;e$3,e<:4004t430*3*#<0teeee776603;$#@w**303;3**0&8*3$t05eeee6t6t&5;;$4$8w033q53e;3**<0petetee67e4;$;$y;<5e0553,e$933$ir00600777e$;+$;r:244;:523r;;$$;ereiettttt7<;;;@r:;5045t>:w$5,>$itittet7777;4,;;a2:ee04033p::;,6paauuuususy",
"66<3,k6ete<1te0u,045;agyyypyyttt$5,<<r3533,3e020$--$*4e0tet70552;*@,@i;5;<*;3;;e#3*;@045ee0ttttt#4&;;0<4443;535i#**#30gte06077tt<;$,$f4e85<<333r*933#ie070tttttt$:+,;y37;2,;443y;;:,;0ee7eittt77;;*;@p3e:5:4ie7p$>;;#w7ieeeee077#4$;3p50443:553i;1;15uausuususys",
"56761h602765622a,e00;gytiiiyyity,e<33t<2<224523t*853<5e0etet06523<33;a<5*<<;<,;e#4;;@0406ett6t6t$5<53t;3;60553<i*3434eie60006ett<<<4;h4e353<3,<t$w55$r0007ettt06$3,:2t:4,22;2;2i:34:3ee077ett770;334;p30>6>55>5i$>:5#eeiettee7et$0;24a332045723u;57557uuuuuuussy",
"7isu<a111yhu6$<a;y7e<pteytytyyyy3p5e3t,;2iie2$,i3et530it70e775653506<e$;<001<$;e$0<4#tti0606etee<i5r5r$$5fhi6*;i5rt54et0tte60677<450;y$<2tt51,,e#eee$e60606t0t77;e273e$,:et4;@;y4ee4340550ett770;4ee,r,;5t72:,$e;i9e,iipitty7t77,t5e4u;,4yaye2;u1tst75ussuuysyss",
"ettg,e65uuyyty66$yti;ytyiiyytyyi;epe3355pte76222,0t525tye6tyt656305e$43<5555555<,513$tet6555ettt;wfw3559itiit05437t22tyit00yy0ee344r#500ttt06552+07t,e655156667t<9e990000eee0555*252<15ee66t705e499p;04:00eee52<$t77$77itt7te70t,7tt7>>7ttiuut77;7s767u7ssuuusus",
"6ees<ytaauuytt6y,t66,ytyuytttyiy*9e93eretye70065,472<0t7ye7tt000353r*60665066766$4<1$e6e6556tite#8w580wttrrtte06,20210ttye07ytet353e#00070065565+525$e555246e00e*3883000ee005507$2e5<155e55et77r;38r*eee0eeee555#755$t7tut0tt77t,>>7:77tytuiuyt7,7t627yusuuuuuuu",
"6e0a<uajausuuyyy;y56;yi6ayt6yiiy;3535tpteeeetttt,3<;3eyef050et0t33<w$it00eeee777$1<5$e6043<46iit&84;80ft00ttrttt#30330tep750eiry34<4#0e700600660#4<<#e054<<0eeee&;:;3004iee555ep$204<4506423eety;>3r*erye0eeeeee$5:5,piiuy>ttett,;6:67etiyuuutyt;57227uauyttuasu",
"075e<aayaauuuuus1t451hiti055tiyi-5335rpetee777ty$;;;:ygee4<4000t5;*3#ee566777e67#3*<$t004<;;5eie:88:3wt00wetittt#<1-3etet3<3wyif33#3#eee77t00606$4;;@ye0<*;<0e00&*=*3er0eeee0eti<4<;<5e04;,;40rr:3:w&erree0056ee;t;:,ppi5>;:eret;::;>7itiuuuuuti2661:tsae757taaa",
"e6,5<aayayyausyu:6341hi053;<6rii*3:;3tpeteee6t7t$**$;iiw4;#;340i;*#3#0030060e770#3$:@erw;*#*:40r;:-#:0050ere0t0i**$#3ii53*#*30ei;*@3@eeeitet0660@<$&@ye0$@#*449w%&&&:0e500titeet<*#@;0e93&#;;3er4>&4&re5005550et;>;;;prw:,;:>>ii1,,$:tt7yuiyyuyu22;$5ade52227iaa",
"03$5<shtuayyyuyu$533$f04:<;:350i$;3;8phttet00600@&&#-903*&#&-;8w**@3@00505007e70#3*:&r00&&##&*90#--@$9q5ie006006$*#%:ww:*#@&-39r*;$3@etetit76055+;%&Oq8:@@%*;;30@&#%;4995wiite6e;&O+*98:;%@$=;:e3:&8;ir000005eee;0::%r>:;$X::>>i#$$$:7yiiyutuutu2:;$>ai2;;:;>7ip",
"654e<ssaauayuyyu*r5q-r4:*::--:9r$8535rfttet70t0t$:3--8:=*&&=&&-9=**5#00545556600=3=8-w>*@==&%%3w#>3-:9050005066q#>>>398&%%%&&*:93335#eeeete06655@8-:@9-&&&=*&&-9&-:*-4000wttee5e---:3q3&&&&=&&:938>e&rreeee06e7r;>>w;w>;:;;:::>r;;::77iyytey7uyi:04:5i0:;5>;;59p",
"epta<taaaaysuuyu3grr:r8::33:#-8w-9e0ertettttttyt3qw>-8:%*-*=%O&8:83w*055<3355554*8:9-w*O%=*&O%>f8rr480w555055060*qfiq9>&----=&-9>e9r$0ee55555550*eq9%q-%=*--&@=8:89339ereit0e5ee-9www9:&&==:=O:98rri#35rreere7ee:rrr>r>O:::::;>i>7tt>eeettttttiu5pjw0w4:>>e>;:>i",
"eyuh3pahayuuuuyu0grr8r>:38:-3>-9*0t05rpiyt50tytt:r8q%8==>-%O==%>*w88@0qw3350e005@8>8=8=%&===-%-g3wfw330e00506000>qiqq8>--=--=%->350i$erpe557t765*q89%8-%>-&->==q=:9339reeeee70503w8w-q===:%O===99rrf=0eiettrte6e;wwf>q=%:>>:;:>>:tt7:5tte7yt77ty>gpg:r::25:;5>>u",
"etes1yupuauyyuyp3rqi8r>-=>::>*>f&80440ittte00ty0&9>9=9--%---=%=q-0*3@w003550e058o>>8%8&%O&->=O=g&>03>30000055060:8wqq8:=%=--%%-f393e$0ee7547te60%q>q=8-=%-->=X%r:3383ee0eeeee604-q8w-q-==:===%=w:98e@8ererer7e0e;w>>:q::%:>:%$>q1:7770tt7ttt7uyt;iri:u75;>>>:;>j",
"et5t,uuyuuuuuyus;00w>r:#*3933&:f&3435ti0t0e76605@8:q=9--%8w8:O%q->*-@w50500ee655O8*8%8%O%>>3>%@0%*3-3500i0005560:9q989:%%-9>%O>i8830$0040256t7ee%8-9=9-O%3q8& %f::8:99e4eeeee000*93w:9-&;>q:;O&w:3;3O0eeerte7045%0>>%0>:::>w:X:r$;:>>tt0t7y7yt7t;e0u>a>:;ri0>;>j",
"ee37<hkauuuuyayy:q3w-0**0fw93**0*<334ip000eet563%8:8&q-->ww93&&9->O=@w89q0re0003%>-:O>%%3q988=&q*:3;>0000r065500388:>8:&qq9q--:083$5$te5055tt60t-9->%9&O-q08*X%q:::;3e04ewe707ee-8=8&8-&:9w9:==9::&:O0eetre60544+5:>=q:;>>>>>;:e,;;;7itt7tt7ytuy;>:0:p0;paprt2>a",
"05,0<skauuuusays:039*e33f033w539*:3;4pt560776523&8*:%w>399--8:*8=-O*@q3900rr0550@:%*O93-0q3:83-0*=**3wee0005660w::-*:883i8339998:;$3#ee0te0t7355*3*-@9-*89>->;*8;;%&;9e40e9006e6*:@;%8--:3>>9::9::%:@eeeeeee0544@:;:%e>:p>;>r>:q;;$,:uut7tt7ttty;7,>;ae>uu07ue0i",
"23,5<aauauuuyyyy$534;few33*:r00r&;;;800350e75265$:#-%i90:*o@38-8*>O>%q350wir0330%*X*@w80:3*&3330O&=*;wre005000ee&*$&;8we9-$-9ew9;;@;@904t7005115@-#*@w83--$@:3;8=;=@;3ee4e405500@=O&@933%;;;983r::&:o094wee75552#:@%Oree>:$:0te0$$$,;tttt7ttttyy,>,6;sie:>,:ppia",
"953y<aayyauyuuya;0303f00;533035g;34<40t550755257*8*:$e58*;*-93;9->%>%8>ww0re4339#3&;#w33&33*333w*;3*390000555560#*:;-38833-3339e83*3@005e0602<15o-*>#933$:*$*--9=:::::4450445550#;@:*r3:&;::83:p3>:9O904ee007050#:&;@r0>;;>>>000;;;;:tt07t77ty7u,>;7;dt7;600t70d",
"yyth2ahuayuuuuuy3e5e3e3;3ri03#;g30w50ii00070250t<038*w-**90w9-*0-8=8%33w0wew5340:0:5*w**%0r93-*w8wq3330000000506;3433:;*89fe-@-900<0#07055551<35+33e-5-$&90-$@&0;>e9333;44424450;3*4:0*&:ee4>;:p993e#0w4e0ee7750#9:0:i:@;qp7::qi,:0ttit5t7tyt7yu;eeu5u>5>ajp7;:a"
};
