/* XPM */
static char *out[] = {
/* columns rows colors chars-per-pixel */
"256 256 52 1 ",
"  c #A6A353",
". c #A9A753",
"X c #ADAB55",
"o c #AAA758",
"O c #AEAB5A",
"+ c #B0AF56",
"@ c #B1AE5C",
"# c #B2B156",
"$ c #B8B857",
"% c #B5B45D",
"& c #B8B75D",
"* c #BBBA5E",
"= c #B2AF60",
"- c #B6B461",
"; c #B9B663",
": c #BDBB64",
"> c #BAB769",
", c #BEBC69",
"< c #BFBB71",
"1 c #C0BF65",
"2 c #C1BF6A",
"3 c #C1BE70",
"4 c #C0C15E",
"5 c #C3C265",
"6 c #C9C966",
"7 c #C5C36B",
"8 c #C8C76D",
"9 c #CBCB6D",
"0 c #CFD06B",
"q c #D1D16F",
"w c #C6C471",
"e c #C9C772",
"r c #CDCC72",
"t c #CAC778",
"y c #CECC79",
"u c #D0CF74",
"i c #D1CF7A",
"p c #D3D374",
"a c #D7D872",
"s c #D9D976",
"d c #D5D47A",
"f c #D8D77C",
"g c #DADA7A",
"h c #DFE07B",
"j c #E1E17E",
"k c #D6D480",
"l c #D9D781",
"z c #DCDB81",
"x c #E0DF84",
"c c #E0DE88",
"v c #E1E182",
"b c #E4E388",
/* pixels */
"6sqs9jashshjgapa4ssg1ssfgsssasss6aq6shssaasssssg6sffqqsgsuufcdyi5uduwuiuuuuir79p2pup5fslgsdppass5gg0qpaspgsapghf5qd09dggvzsapaas9uua:fggzfgxhpff:pps:q0shaa000aa6qq96asaapappppa:9ddrpdgsfgghsss9paj4qagqaapppag1fpp4upgssssssdd6qaqqasasshhsssp1spjqssjgssshssh",
"6aqs6sashsahhsss5suf2gsggsssssss4aa60aassaassgsg6qau90psgsffi333*7r77ufdiuudduip1dup8fphsdapapsg5aa0r0qssgfqqssp7iur8dffggsaappa9u9q:ggffpalzdps4pup5apshsapaq0a49q96qppgpgasapp5rppupfggfgggsss8qua4ppsappaaaad1uud1fdssfsfsssa69q000sssssssssp1huf1sqgggshshss",
"6aqa5ssgspqpsssx6s2a0jhggsssasss4aa62ppsspqasssg69966qqpgjgdr32-:7657dzfprrulgff1iup5ffgssappasg4pu690ufgfu9ussp80r68dgsffspappa906r:gzaau0dffff5uua5safshaaaaa0*6964qsggppppgdp6rrrupfgfssfsgss666u*pgggu9qgggu1q9d9gddsdsssssa49qq0qssspqasfss3p2s1hpgsghssshs",
"6p695jjxaq6qffsj2s2q1jsggsassass6a06qssgp062qsfg99911qsppgfi3y3*777:7ffdi818fgll5p8r1dpgpppppass:097rsas09660sgl89858pfssspp0ppa99795zzdu770alfg4u805zsspssaaa0a47659agg9676uspu69979dfgssfsgssa661q1gggu676pggp198u8xsddssdsspd66966dssar00qsggqs1q2gsggssshhsh",
"9r167vgfu8169udh2a101gsdssspaass1q24pgfp96452afg11151afspgfppii37w7:7id0u5;48ifl5u55&upgppaapass*61:uzdu8515rplz88815udpsppppppp9919:hd98759udaz1u5u5hapqaqhhaaq1511efgr55:59pdp58559pfgdasssssa881r1ffp85215rfz19192gsdpssdasas8611rgp9q251rsfj2a505hfgssssssss",
"7r:77xdr861888uf1p2q1fssfsaaaaas1244qgp255*:13uf11456pspfgfpddiu17::5ur781$;47rf5u55$upfpdpppppp:7:,plr777578eif59855ispdpappapp6819:ar761:77rdg49695sppqqppa0aa:711edr1:,,78edf55558pgggasssafae81r1die717117uz19161sdsadssspps16129dr1115423pg10524ssfhsssshsh",
"8d8d8fr8818222ef2s2p1jsfsspapasf2s22pf31292151ri12611qpssppfduyu299779w:55,1**7i5r58*pppsspaappp1r88ide23738828i5ru89pgsasppadpd898i:i9:7:5677uk:u6u1fpsgaadaa0q,7eeeue2127777yd79978pddpsfsgdadue8i2ie2227222ed19896fddpsdasspp1ee99ie1116222uf1u1u2ssfhsshshhh",
"ezlz8de82888228f2sas1hsfssapaasa3fd3dh322322142y9uu69qassuupdu3irdput97&:587:%5u1u7r5lppdsspaqqq7lzykd831,8e3,7d5ipu8plgppasaaaa9duf7dr5117711rz1u9u5spfxzhappqq1iliere2,772:,wi8rrr9uppdfaasaaduiek2dr227ww727e1u9d8xsddapapaad1uddir9322r2213fqgps0gsjsssssshs",
"3cdc8i88r32221ed2jgg1hsgsfssasas1gxddi22u351312d2dfp20uapapppuu3ridf8d&597*&112r#upu*ppsddaasapp1kkkyl222732727k5dlp9pfpppaaaggg9dlf7z77:1:51:7u:prp:r9agahpaaqp;lllei,222;2322l5upu89dgagagdaafyidi,d,w7e,,w2wi1dud1spsfsggsssa2xix3p2q2e21223xrfjsqugjssssshsh",
"3filed8228ee818f2saf1sajsfsaaaaa2jf3uu3342222*1f2ifp23papppppudd79ip7f:5*5221:1d*u0r:uuapsdssssf;ktkyl33-we73:3l7pgu9iffgsfppaag7rur1l:5::17::79&r8r1dud0rqqupaa>kikek22;222322l19ur89ppdaadgadaeytdwf,7;wew7:,i*iqu1fdssssssspp1jidrd2313r2319g2ufq0usgshshhsss",
"8drdef821edi213f2s0q1hsgsssssaaa2ii3pi3213uu2*1f3ii26qppssdssddf579i5f*1;9d97*1a:u88*dppppassggg;y7rel7,>rky8>2l8up88ifpgpgpagap7rt95l7717871&:w&758:arp999rqqdf:driei,:;3yrr12c569rrupufgassgpgeeey,k>1,yiyw;,d1986*gfdfssssssd2d3fud222ypiy12f9q999pfgsssgsshs",
"9u8u3f82ifffr88f2p1q1jssggssasps1iq9dg24udduu22f33345pfpspspffsf77995i:59ffd9::i:r58:sddppppssgg1y17wl77illdd77l88556pssgggaappp9w77:k127wrr75::#,:7:ldpaduurupd2dweed:>eiiiu38l58889dggdsfsagafr87e,k,,rdiyr72i1u16*gfdfsfsadap1d2y9d22uffffr2pq2029pjghsssshsh",
"ru281fu8giuuiuud2p621jsfggssasaa5921pf92pd29uu3p13251qdppqpapfsd6557:i58dkr9u87u:957:gfspppaapap1r&11k8ekdr8krei51117pdgglgagpap71:2;d:2777wee7:#:;7:zdrfapuqrqu1u172f86di32uyrd85559dfgagfggsagr8777lwrdy77irrd1911&ssdfssdsdpp6u122g2pupppfurf2266qagfssshhssh",
"2q161xfud868udds1p1q1gsssgssasaa19149fdd93559q9p23211qspqquqpppp7336:z9d98:2ruuf:0684zdsqppaappd*8;11kri87:1ri9i51417upgagggaapp2::7:k1t;;27wyt3%,*7,hdddduppprp&r>5wlui8811euri55118ufaagsssgag777e7brle9,7idyl1q881fffdssasaaa19412jps9322ppuj20152assshssshss",
"1u1q8gdu699uu6ug1a2p1jsfssssaaaa1p21uduq4992999f33321pppqqqpuppp999r7x7r5755889z1pru1suqqqpppsas&r1w7d8r1888i88f85588rpdpfahafapw7wr2i,t;7ttwwre%7292fddypdddpap;u8e8lei2u82888d88986uppgggagsss8rud7zwp7e98e78f1d99*fdspdsdspap1p209f9d1rqquqrj2rq02ssahssssshs",
"9dqd6h966ixj916h1aas6jfsgsssasaa0shpsd144sjf912j3idq12pppqqqquuupiyp8x552rd97*5f7suu1durqupasgfg&d9uwp111dllp88z99r980pdasgaaaap9ety:t%11dzy779r&7391fudfffhzhpp1fupef186xcs918j8ufpipiqggggggggrdfl9f:55dzd6*:f4ddi*ffhssspappi0judqp110sgfu12jqpsppfghhssshhsh",
"6jsg1q86ggsapq004ass4qqsspshsaas2dfupq66sssssp986qud1supquqfauqi7ddl1988apr09999:ggz5uuppppsdssa1dk98758puggdpp95uzd9pdd0ass066q7dyd:w:,rudfr756$upa5fdfdghldppd*fdd1u1pgggsq6ud5ppg8prpgdfgpupz1sdf7d99fdppuq96*ass1fisdudggsds1isd9688ddfssapq6sss0ssgsqsjjgsj",
"1dds6spfhsssaaaq4aqa4apshssssaqp1ydrpuuassssppqr5q2q1dqddppsdq3q798h5ddudpq00000*pup4pupdduppddd8kfru889pddgsdqp7pzu9aaagaaa00002yei2y7reeifu98u:pui1gdapddgdppp4fuu6d1qpsfsqqps5u9d5dpfggppdppp7dps7fupaaaappqq*ppd1sdfsppsffsf59fuuudfpfassapp5aap1ssgjsdjjsds",
"8pqd8jghsssssshs4q004pashsasappu:uu8uuqgsassspqq1q134fdffdqsdisp797a7fgapdaauppu$r68:ddpdur9rpdd7ur79879udgggsad8qu99dgpg090ap002y7y2iyfurufdpuu5p89:guduupdffpp1d868g9uqpssapds19595fdgfr89pguu5u7r7xsfaddaappp&u9u1ffdsu9dffff68uuufsspafsssdp4q9u1gdxgppsgfgg",
"8p891jggsssssssh4q164sdsq01qpssf2r81rqussqaafppp1241*fddp223pdfg995p5faupagfhaaq*955:zldpr878udd5e2:7715ppdggggd59899dzu07580ppd2r7e:urlddppddu91r77*duur9r9ifff1u411xuq6usfsaps16&82gffr517uddd16*51gffuqqqqqqq&9881jsii888ufff86889pgdadsssssf1q1r2jggpr2udgjx",
"89661gsgssssssas1q181gpu6412uppfer1:rspppapaspdd12424duu31103pdg885r:ffupaghggpp:9:7:zfi87557rdl77118717quddgada45759gfr75,57rrk2w:7>uufpuuppsdr:9:2&dr887528ifz19&11xu9ppsgssap;1%5,fid51259ruf17%1*gfgqpqpq0q918282lfr3112eudx88618ddpafashsss12422bfp9118udjc",
"19286hggssssaaaa6p291gr9151122rf2e::dgssaaaspsdf1p131du232122u3d674r5zhffaghgaap*717:dr7522,:7iz,7:1e545rppppada47759du771122:3r;7>7:duder9rdgsi:922;i87:;%%:rif19*11g9qusgsssqu18;82der777722ed59*65gdspppappqu1u8e2xu211*128yl11618fsgssfssgsj2q122xpee11139dg",
"6u6u1jsghssssaas1dri9fe2022221rf3r86dgsfsapapsdf2d232d321223223d787d7zhpaahfgaqq:r7e,i2::27,:,rl577785*8uuuppppp70r8rur,22,3,>,t,81r7fuu8ru0pfgs:yer:i7,*-;*>,ry1u188f9upsdsgssp2e8i7iw772w22:wi7p8r5lppdaaaaaaf1iei3ke1221222yd1688rpgfjggggsgf2i2i9fr2928882rf",
"qgds6gsfssssssss2dyfeg312222113f2dfdpsusssaassfs3gdf2i321223222prprf5hfpfffappqu1yyy7i2%,382--8kerrud85upupppppp8pprru7&2>>,,,33eiefrfrrrppuufsd:dii2i7:-:2227wr*d996d6dpapssgsd8iuked22222222ei7p9p7surquddassg2dud3d2;2232113i8udiqiffjghgsggsqfff3jr3222e223k",
"2sxdqpsjsfgssssh8fdxef392r22922f2fxfpdgssaqasppr2zfi:iu2312u222irpuf:rppsfsfsgfhrkyu2y2>:2,2832i2izu8rpppdgaadpp5p8ded7>;;>,>>,t:udf:ffuuupassdp1kii2r2;,72,7:,r1rfd9udssfssspap2fii>e232122::7rrdpf5pggupaagafg8iyi8d322221812i8ufuuffspaadassf8ldl3d929328922x",
"6fguqdsfssssssss1fif3f211222222j2ifpudsaaaaqpspu1idi2d921522242i9u9p:uuppssfsssf7dyk7d7:%,122,,k;8u88iddpddgsdpp*rei7k7:@->,,>3t2uud1fsuuppapdsf:did7d7:%:::2:,i19u98uffdsfsapad2iri1u77;;22,:7irppg;ggpppdaagsf1iei3u222222211d1usi9dfsdfafssaf2dif9fe81813r12c",
"6dd99sgggghsssss1dtdef112392223feryrrssqsaapsspr132f2d222193212i885u:duqppsasssf:ueu7y2;:7777::r:7r78dzddgfzggad:r7u7d3:>:37,>3r7u9u1zfupppppaas1iry2d2&:777752d*6r69fggsdapppaa1uwu2i2227e72:7drr7p;ggppgagaaaa1e8i2r2&38823*1d1udu9ixfaaadasss1i9d8le29y9eu29x",
"9u666fjfssssshss9d3i2d21dfurp12ierr2rffsaaqapdpr222d2p22u3quu22p75194aprpuppasss*87e:9:&9i88971r7e757dfdddgaaadu1r7r1i2:retre2wt8e79:zgpapppppps1y7e:i7&ifiyu72p11819gxgspaqappd8u2r1i51drrr877r96,9*zgpggapappp1u8e1r21ddure11e16969ffsdfsgssfs6u2u8f91gfuru92d",
"26816gxhgsssssss1p191g99sdq9ue1p22229gjsspqqspuu224u2s22qq1q9uup65*9:fp00uaaaapp*6:5&975uu88pr8u777:7pdpdadaadpp5t27:ie7r788urru67:84fgssdppqapa*845*dr7ip96ir7y11669sjgsppaqpps28&8*i68p976r99r55*7*fzpgggpppap16261i98ip88iu8u18619fgdssgsssfs6u161gp9df99durd",
"89616sxgggsssshs49121gsd9962pprf26218ssssaaappau10422fpp21129pip87194lpuupppaapp*6:7*duu8958pu9d:7747igdddddppap1r,w:kur1:*8uupg75*6*sgdsapppqpp*815:fdp55;5r08a41216ifqupqqqapa*6*11guu5,:8rupd57:6:ggpgggaaqqq&8161fpd1861uduf68619gsufsfasshs49691hsd6686ssdj",
"6uu8qsgggsssssss4u9q1gpd2r9eue9j2re68sdqpaaasppu4u2q1hp21q9222uu995u1aaiupasspqu:959:dqu5r89u88g,8878igpgdddaapd2y7y2kr8157990pg991u:asdsdaaaqp0:u804su0*5:5656d18968ii9uqqppapp*9691g96556r969p797r5gggpgpapqqp*9691suu499899us2uu89dgfsfsssfss4i6d6gqq1qq9qpqj",
"ussqqsgssshsshss1gpf6d910ssp941s9diuqdssspapspau1fpa1su4qsha642quu8p1dauppasaaq05uw04d968pp0915f8ddr9pdpggsadaddekyiwde19ufp6*5auu6p:ppuadsaap005sup1y656upr645d6ufu9dpq9qqapqau6sig6d51pggg657p9p9g7ggggpappqpq5u6d6d616jju966p6us99ifjsfssgshg6sss6s96abxaq66s",
"6sss6sdsgssgsaaf1fsf5u99ssaaq0001afspssqapafappd2sfdpq3qspppqqq05spa40pshaalguaa7drd7auuppppp0r0:hh009uaapppaapp2ilie788rdsdp0005uus*rpsupsdsspp1pps8u66ippadpqq1hhj9aqppppqpppa7gaz7p9paappqqpq9sqs8spsp00sspps1ppf4e8ugssdsppq1aaa6sasssssssss6sgj6p9pjhjsspqq",
"6sqa6aasgssghsas1pus5spsssasaaqq5qsqqpfsgppssfsg2auq3qsasfdppqqq4p0u*upfgapaaupu:uwu:druppippu0r4pp990uapppagap92eireriddsgspq0q69rp*rpppdsdfddu&qui1p9uquqpadsa4pqd5pqqpqqaaapg7ppf7prpdpppqpqp6d6p6spssdqsssqp*uup1pqsgsdspsqq4q6a1sassssssssd1dpg8gpsgsssssaa",
"5apa4ssshaasggfs1sqp6ssfssssssaa5qsu9fggguqagsjj6323qpdsffaaappq5p694pupau0iaapu:u79:druuuppuqq0*q959pdgapuafgu9,weweddldgggpaqq687u*pdpgddpdfsd19891sdguppaasaa49694aqpq99ugggp7u8p7fpspaqpppap6u6u1spgjp0psddp*q9q1gpgsdssspqp496q6hsssappsgsg1u9p6gdggsgssshh",
"1u9q1gsfsq9qsggf2s205gpsisssssss1pr6rfjfsq2adfgc0q203udpsaappppq50564hapu669uu0d:977;u0u0uuppppp4065rhdau96uppur22727udduppappaq865r1dfdfpeudfff89581ddassssaada16481gppq8669ppg6r7u6ldgppqqaapa6q6q1sdjd919dsgg1r1e1fdssdpssssp494q6xgfp900qsgg9q2q6gpssssshhhh",
"6r566cssp616qpfj6q2q4spfssssssas0921rffra212qsdf21541ppppasppaqq18*81zpu7*:799ud:85w*uruuupppppp:952yfp997158rur::::7rdu66900ppp77:9,ffid77erpdl5915*ddgggssaddd16*81fuu95115rdg76:85fds0pqqpapg19191fug9111updg1q291gddspdsdsss19198xsu91169pgf6q102sdshsshhhah",
"68:88cp282522qdj5q29:ssfpaaaasaa19129du23111233s*65513upppppaqpq*7:71k98::;57w9d,r78:urruuuppppp:971rd8772::179r->::7udd77669pqq77;e;dr875,7eerz*918*dgggspapsss18>81g8855:;28ud16:61drppupppaag8r2r1u938111223u12192gdspssssssp191r8gr881111edf1e1q1jsgshhhshhs",
"ey2p8fu2862222rf1pqa5ssfpsssaaap1uy3rir11122223s41311qpspssssapp5y2r5i5,1:5552wi1rw01urrpppppppp1yr3yi7:22::::2w,2w27idd99690pqp8e7r,i827,,77,wf*98r1ppgfdadaass1e2i2f2;:222,7ed797u5susppapapggru2y1d2122222&221q9p6gdsdssssssd1prd3d82222122tg9p2p0gsgghhashsh",
"ucdf8de222e8212p8fsf1sqsdssssaap1ulduuy22202212p2pspqppfdasfsspp9kyiwk3:223w,:wi2u8u5dr9dppppppp7kirdiw::22:;;,7wyuteuidr0990aq0ditf7ie,7,,w7-7d1iup1ppggsapqppp1iuiekw>-,7w22eiepusezfggggaagggiled3g3222222&122dpd2gudsggssssp8fixux92939142rdqfsg9sdsssaahshs",
"rcfcwde32922q33f1sfg5ppgsssssaas1fidyf222u21222f4udq2qppfssssapd9kii,iw3ww;,w73y,r8r1piuppuppspd7likey,32:;:,:>:2rrewrdfpuu00uqpidki2k2e27,,w77y;p9p1gpgpppaaqqr,ktdwd,,27,,,2wk6dzprpfgsfsfshsfdldi2k2t2321333i1dfg2spjsgsgsdsp2xifrf22392182ef9pduqsjdgsshsshs",
"2difefe8223261ef2fpf6ssgssfsasaa1fidif221222212g1upq03ppssfssaps,ytr,iw,:7322:2d2i8r1duupuupppsf,itdyi:2>;>::-;:-,22:eyppu0p0ppp5eir2f22,w777,2d1uup1diggpapaqpp;dtyed,,22;,eewy7udr9udsdssssfsseyey2k232221222d1ppf1fpffsgssssp1fyitx221922228g1pdqqdgggsssshhs",
"2irdef822ru3312f2srp1gfhsssaasas1f3duf2113u2225u12q22sffdfsfsaad5r3rwk8,:ei8,-,k7i88:dippippppsf:iwyed:,>:272-->-;:;,ruiupppappp5eei7z227yrw7;2f5prp5dpgggapqpad1d7twd,*-rkke>2l7upr9dgfadasssssreey3l282re2211d2ueq1didssssssss2i8iyj922tire13f9pdq9qgggsshsshs",
"ed8u2f21rffuq22g9a6r1gfgfssssaas1s2uuh11piqqq15u12152psfadaapapp3r582k8,tiiy8:,i2r28*pipupppsppd5y28wy;:rwryr,::-;;:2uipuupdasaperrr5c51dffdr77f,u9p1piaggaq9qap7r,7,d,>2lzlr:2z79r6rsfspadsadsduyee1f233ppe312310194fpssddsdssp1d28ef21uffdp28f2qq16djsgsgsshsh",
"6u281d96pfurp23f1u296gssssssssss1p512j99fpq0u92a11151sgdappapqqp:7&1*i73riery87r:8*7*dipupissdpf5r,85i27yrryyr62@--&1rpuuppsaaqp8555;g85pdprd99f*8795dpsggp99qqa1r;1,d77fd7eddee:55*6rp0pppaaadae811&d23upteu22u49491fpfpdspsssp6d111j89uddud98d12646gjdhssshhss",
"2u691guu2q99pqqf1p096spppssasssa4a511jup3q11q02a51152dspppppppqq*7:3,furr953pr8i:8:2:dppuppssssp,r,88k9ir7wuiyrr#%;;2yfddppsapaa76881g9u7r89pe9d*8595ddpgpq990qa;e:17ferye77iued16512udupaaddaad82121f8i3ueeir2f19224fddspsspsps4u168frq99e9pqef20619sjphssssssh",
"1prp6fuu2u9rp90g6s9u1fsssssasass5a100s0q1002911s12q20pfppssppppp5y8d7zpr8r87877f,8,81fuuupdfffpf:d9drf8yrrpiy8ri>77w7pfffspppupp9uuq5x9u8q99975p*9795fdggaqq9qqp:i7e7f777rdr8:8v6rr79dzdpadaasdaueuu1f8u2piuq22g1u1q1ppspppsssps4d8u9f899puqu99j2us99pssssshahhs",
"8gfg8f960fgaa22h1sah1sadaaaasssh5jap2a440saaq46s1qaq3pspfssfsaaa5dif7f739khr7:7z7r595lu9upassssp5zizrf589dzs858d7yyw68ydfaapqq0u9pgi1a15rggp6**r5u6p7fpdgpaqr0pp5fpder**ufdp977d8uu98ahsddasssss9idi1u&1efgpu12g2prp1iqqapppspss1gdgug11uggdp89j6pjs9qssssssshsh",
"9fjf99qusgsssaqq4aqa6sspapaasaaf2pgp8quupssssq066qsqqassassssapp8akfrrrrhddu860u:yrr:dr0updss0up4rzaurr9paaadpu96pu66uaspppu00pa9pud;ur79pdu99665prp1pppdpdppppp1pzd8899dpppp99950p9qappssshsdad9eff*969aaspp999*sap*qusqaphghsp1fgfa33qgsfsappp6asqqassasshhsss",
"8pdpqussggsssaqa4qqa4sassaashsps1uppedggssdssp0040a96qapsfgggsss3rir99rdfadr09rq4p79*p09ppaaauaa59dy9r09pddaappq709650ppgsaaauu08iud:pp9rpp06909:r6r*pupspppdppp*ufp9upuppapqqq049p96qapdaafhsup88ii1g9ppaadpqqq4ppp4ppsppppgsds13pq2qsfsfssssaf5qsq6qssssshshhs",
"6quqqpggggsssssa4aaq4ssghaushssh9qq29gjgdssppppp4qp21qapfssafguu:9u879dkfdr00rup1u62&urrpppuuaaa70888uurqpppdaah566660apapppsdu08urd*upurpp99uap*06r1ppdppuupdpp19p99pdpapppapqq48q67upppuusssup828u1gugpaaaqaup4u0a1hppaaqpdsfs1qq2qpfjsffssfsg40a66qssspaahggs",
"ru99qfjggsghshss6s1a5hgjp90udsfs9e818ggpgssaqppa5qq12pfpq220pppu78978yfahp08rqqp:r1:%urrr9869pdd86779dfapapaaagg56677psdr969pdai7e5e&ddr69u90ppp*9791dpdu969pddd16977ppppppgpapq46659ggp0656yuapu289*jpgpaasppdd4p1a5hpqq202usff103quffsgsssssss1r069djfu02qufgj",
"99669assssshhshs1p121bjgu161audf19241dgpddppqppp51112ffq11111ppp72::8dfddu990ppp:e,:@iyr62116rif75458afggdaaaagg*5757pfd81159udf77&7&dp76rur00u9*958*puu5555rppd*77,7up9pdaaapqp455:9gfr8:*:6rule2261jpapaaappss1p121gda21519pff120qaffpgggssssf6911ajju96129sgj",
"57758pfgssssshss1q122gp3155102pf16146dgdssp0q0qp51112ps311-113uu::*:8ffdddu90uup,e,2;ir7,:;::6ya*:*18dfagggdgppp*7778ir7771,27rd77&7&dr55rp0ru09%518*u55*:117epd*5757uppppappaqp:,:,9dd51:&::7yle2181gasaaaappfs1311;iq211122rpf12112agggggsssss1211rff216111ufl",
"76869psggsshhsss1f3u1fq2211212uf2ee18dgsgssppqqq53322p321121113d27778pddqpppr0ru,t3w>yw>;,1:;:7u45778ddqpagaaapp57tetpe:2772:,7t7w5r;du76rur9upu*758,u5;*11115ep*6968udaagpppqqp57e7ere,,;:22:eduweu1jpasaapqpid1i331i311222113i12203ffgdsfssfsf9r32epy112222rif",
"qddpqsgggsshasaa1zxf2d223292113gpppqedgdgsssppq01dju33q31111-:3iedfi89ppupdpu00u<kwt,y,=;27:-&2r780ruaduppgssappeidiiie;:7w22:7rwrup:uu980u06qas;r8u5u5*:171*:7r5pdpeppppgaaaq097ifiete2:,772,2yiidf1s9psaapqqpd1ipi2i2:1332113p63sfdfspppaassssqfxirur11rq2123i",
"9dfsqqgjjsssssss1gfz3u22r2;2r23f1djirpddssggspps2f3i2i2222113123>riz5uuuupuquupp2ktk>3>>,,>>772y:rduysfpppqqqqqp7illel23232>222irdrf1ur8ruu06p095uru1r7:575:775d:pzg9upgppppqqqp8dlk7k>7,>>77:,ryuuf1pdspaaq0quf2i3i13323u22323d5pgdqpsfdsapssaf3cfu2lp2q3213q3s",
"8upu9ufgggsshsss2i3f2iq31222312f1pppepdqdsssspps1iyi3322O212312i7ryf1uuupupppppp>t3k>t,-=372,;,d:6reuffspppqappp7yyy3l7w28222>1itued:r86uuu09uu9$red7p1;;7755;1f:9dr8rppppqqqqpp7tid,k,7--,w2>2ieyyf4daspqaq0qpd1iii3f23:322222f4qdq2dpfaddspssf2fif3gu213r3222c",
"99q99pgggsssssas1i3i2f321ryr242x1qu0rpsqpddsppqp133p2i11=3ui3123rr7p:uuruuuppppd-twt>t,>;eye,#:f*5660fhdppqpapaa7eee2zw22uee2;;ier7r*u97udpu0ppr%e9d7i5;;er75&,k1rr67upppupqqqpp1wty7f:>,7et2;,d3r9u4uasaaqqqqud133i3i31:3322-2f2qqq3pfpdadassss1p3g2gq21ii3212x",
"99969pgjghssssss4uqu2g143fffr12f20e2ugfppssspqqp1i3y1i2133iiu32iw7:7&9urpuppppad>t3t;t,>eiir7>:i165:6idruppaagag8errwz2,eiiuw1>u97:7;uu9uapu0pp0*ewr2r1>9dre8,2d56755pfpqqqqqppa7w77;f:-trdu7>2r2329*upaqqqq9qqu1uuu1i213fd3212i2222qfgfapsspssd2u2u2d23pjgfp22g",
"98679dsgjssssaas502u2gr2psrrpr2p4616rgjipdsssqqp13291f32uu22iu3f22&2%ppuuppppapd,t,3=eweyy88y87r17142pp0upaagsag8e782c88eirey82i7,&7%uprppppuppu*w7e:r77rr77ye7r575*5pgpqqpqpqpp77::*f77errt87er2219&qqpqa0qqquu1u232fu2fd23p33u12212gjfadsdpssf3q431p3ppjppfu3g",
"86656pssssssshas12411gpp9r12uppp41119fgpsdssqpqp42122ffy3911uiuf2:*6%iipapippppi;w,2-rryw7:1rr8r:55:6idpupdsadad772,&lrd8w28u8ef::&7%uurpdpp0pp9&728,iyr7w>7dyer55;$1rp9pppaaapa5,,,;l8r:177erid8226%qppaqq9qupu131q2gdp3q12fgsf60112hfsdaaaasss03402jsf2222fssc",
"68999pgsggshsass60191gap1r91q0rj12222ffdsssssqqs2u1e1ju32p31223j575y:adpsddaapup>w2w;yer1712968d17967pfauadaaaap5757&fri5885822f7719$uuuuppuuppu;e7t,ite>7wwe77f575*19puppspaapp5757:z9e,79e8rule819*psasq9qqppp1u032gd312q3p33j1qq23pfpspspssss2p1q2js22a20p0ux",
"9ppppsjgjssssaha5ppj3jq15psq112j9sprufjsdggsdsps9s2u2s242ggq1:1f2r8f5dipfdfapaup:ywr:y721rr86:1f6upr9pdpuaasdapr1rdd7f25riu86*1f8red1upduppr0pp9,rer1r72>pfr7;7l5r957pgppggggppp79rr5f779dfp678uuu2u4dgssaqqpspu2duu3fq11djs241j3sgqppfsdpsspash2fqq1xq40jha251j",
"5ssg7ssjssgjhsas1dds1a9pfssfsdpu1sjpupddspdgfdss2pdu229upppppq921ppf4uqduuuppuud1irr%88uduuuuuuq*pd56uppuupasdpp1rpu7799fdq9909q8pdg1ggd969ppupf1fis8p99fsppquud1rp919dddgjspasd1iuf199igfapqpqq992p1sfpappgduus*uru*urdssssspqq1pgdqasfpsgggasg9gag5u0pgsssaapq",
"5spa4ssggfsghpds1ppd1fpppfssssaa5ppuqpfpsddssdpd429010uapppppqqq509f:rpqpuqpduup1iee&88uyppqpupp*pu56uuupppdpdpu19p96rpdspq0q90q6u9d1sdufuuddrqu&uud1duddpqqqqaf1qp98qdpdgfduddu6u9i6dusggsppqpq898p4uddfsdgsuud*uru1uusdppdaqpq49sq6pssgaasgggg7prs7apgggsssaaa",
"6p9u6gsfhppsfffs2p3p2fppsssssspp1ququffdhpuuippd41211uupfspqqqqq101p*puupr9upuuu1y26&rrupupdpspp4r816duupurrpdsd58877pggadpqqqqp9u9u4dddfuuuppuu1u881spspquqpass9qq29pdddduqudfd196r1fpsdaadapap198p*9dfgiuudddg*96u1dpapapqppps$9p66ufsfp90sggd7u9u6sggsssssaaa",
"8p7q7cgfsp2apdfg1p192jsfppfsssps1q22ufxdi912rupi22012uppsspqqqqp121q:dduy618uupd2e12&uruupdfffpa:96:rddue657rflg765:5rdgapppqppa992e4dxfu819uddd6u86*fuduqqqpass29918dgu91819dff86161dpppdaapapd998u1dffu919udfg1q2r1gpdpppqpasg16989ffdp977rlzs6r595gpgsggshahh",
"2r187cgfu112upff2a121jfsfpdsssps1q203ffpr21223uf22559uspdppq9qqq11*r1fdr2:;18yyd29:1%uuuddsfsdaq:75:rfiu87:17pdf55;*:9ppfdpppapa1929*ffd21189uif8918*uqdpdppapps12829ddu81*29udf16&61dudpppaappp821e1ffd31119ruf*8291fppppqqpasg1868uxfe55157ufg69165spfssssshhs",
"2r1e2jyr921233if2q101hdpsssspsds1332uii2214122uf54451spppqqqqqqq11;8;iu21;&:22yf2r11*puudsfdfspp&72:rue8777,27td114*5pggaaaaappp2219%iie211223rd1816*dpsaapaappa19313uu322*128eu&1&11adhqupappaq81*82iu38111223u16161sdpppppppps8812ufd1::7177dl76,65gshgsssshsh",
"9i8uefu2222222uf2p2u1fdfssspspps23p33pu22222123f1229rpfppppqqpqu8e3i2i312--111tf2u28:fppsfsspssi:eewye2277w,,,8r15557pfffdappaqu2e3y1y312211;23i*96u4dispdaafdad19u9ey322112223y*8*84dpgpppaappu822y1ie22122113u198q1gddpdapapqp18e8ydy1;77,77rf7r7u6ggxgsshahha",
"dfyfefr2r2q2152d0dup2hpsgfspaspp2ifiui322222112f9sduupfpqqaaappqiiyf2d31-121;13d6u9u1fpfpspppsss8iiiir22,7w2,2ed8rpr9pdgsssapqqqudtf3fe=212111rf1uui1iqappdaaaaa2ydt9y3=2112329f89891i9ppdasaapu9yyf2t821223213d1d9d2gfsasssapqq2uiuyur2777777eu9p0s6gaggsssaaha",
"effcefe2u32993up1fpf1ppgsffssaap1lif3f2u3q2122239pfpqpddqpppqqqrulci1i2222;;228f1prs1prpuqqsppaq2lyied22,7,:2:7f5pgr8udgpgdaappd9yfk3f212;%;312f2uds1i6u9qdqqqqd*kid3y12122221ed2qfu89ddpppaaagg3dkd2i132321212y1sfd1gsfsdpppapp1iifed25722712ed5fga1ggggssssjsh",
"2fyfufe2229r212s2dpp2ffgfsssspsf1d3f3f221323212d2upu8qpppppasqpp2uiy1i12-322212f1u99:pqsqpqapaaq*i7uek22>7726>,d1rd98usgpaadqqap3eyi3f2212222&2l1dud6dupqqpaqqpa1dydeu121238213d29u81qpppqpqpaaa23id3d121993212d1puu1fppsssaaqau1fuied7e277872ef8dup1gagggsjhshs",
"2yedrf8223dd212d3sap1jsggfgsfssp5p3pif221uu32:1f499319uspaspsppp82ep8d:2;rdr2:1d19194spfppppaqqq$e177d22:rrrw::y59978dggpddaaqqp639r2f211eyr3&1f1u6u1fdsquqapqap1iey3i1122yr318d18961qdpqppqpppd92uu2f11%rur3&2i1d89*dpqssspqqqq1i8e8d258err77rf8p994aggshsssssh",
"9s2r2f81spddp39i2a231jffhgggssfs1g233f213fdiq22p41912upfppppapssr22u2d*1rddrr22d1962*sssaaaaapaq*r;12d77ridii75r:7515pfdpaappqad99292f12rduru21u*9191sdsqpppapqp1u298i22urddr8eu68818isppqpppaaa99131f123dir912u1u824fddsfsapppu*u88rf51dduur9rp89595ggggssssjss",
"9p161fr6gp9qpupp2p121jffgggsssss2u422g22gs3qu30p11443sdqqqqqqpsp24*25q:2ur26ur8p*6:5*pqaaaaaqaqq49%::f8rrpr9pr9d151*5pgpassgdpps96181f29du26u98u&6*21sdduqppppqp1q411g9ufu89r99p18116isqppqpaaag81114f29du92ue8p1q661ffsfaadpsps*9488g98gr9uu9rp68*85ggjsssshsha",
"1r561gpaf962ppps1a1q2gsfgggssssf4q422japq351up3s11558ppq9909qqpq24421f8q62:1ru8d*645$q9qqsqasqqa*9*15frp6755ryrz47858pfpgssaaadg11121j9u96119u9p&816*duppqqaaaap*e411guf921888ud18611ud9ppaagpgg1141*gepu844uu9d*918&ffaippassss49*15jpa97769qra16*65aajshsashah",
"6q691gaq900q90qg1u0q1jdsgsfsspsp4p13pjaq1302011f1962rppu9990qpps96891j8q5666816s4919*qqqaqaaaaaa$r686d675978969z59u89pgpffggdaaa69992g2p1q91868d*66u4dpspaqpasap*e111d991688169d69986upqpppappaa61691g6p1911911g*i89*dfdadspdass4p568hqq669q96qs695p6dphshshhahh",
"9sas6s961ags949s1pup2fsfssspssps1gadqg116pjh051s1pdp9qdf90600qaa6pp95f115pff9*1s5sqs4ppsqaqsaaaa4d0u8u**6asu645h8ppuudgppagapppaqppp1s191hxd6*4p1uup1ddjdqppfaap4s9q9u416qfs848s6ud99dfpqpqppppaqrqu1f411qdq041g1suu4dfsssssaapa5sqaqg549qaa949sqp9s9aphssahahha",
"9fgs99qqsshsaq064aas5aajapsssapp1ggqiu22happ00305phsq2pp020qaqqq2pps4u26qpfpq3024aas4qphpsasppap*aip5u50qqqq0u0u1auh8fpfauqpppph9dsg430qffsdp0164spp4sshspqqqapp1qdp2692sspspqqq4apa5ppjqqaap9qsup9p*296dsqpq0994dsd4qpgpqpsspps;fgpuq09aapspqq06gas6pajappssshj",
"8pfpq9pdssaaaaaq4aqu4aqhsassgaaa:puuupupsapppqaq40aa00ppa00aqq3q6u2p4aa3ppfpsupu$969*qqsappaspap:fuu5p5uappgapaa5p9p5adazapdpupp2pig1upppsspsqqq*q99*apafpqquapq42qeeqpqsdsaqqqq4q9u4qqaaiupapqp9e2q*rpqqppqqqq04qq04qsshdssspua4ifquq9asaadspdp5aqp4aaghsashssh",
"9qp9qpggsashhsss6a1a4ppsgaqssssf4qa2usdgssaapppp52q11asdp21aqqqq411q*pdpippppffa*619*pppppqppssp5a906f9ppaagagag5u795ffffu9upuud621p1pssqsqspsss*918*dppd969qppq1112qiddsdpaqqpq5q864dqqgq69pgpp291r*idsppsqpaqq$0194sddhdadsppd13u2rpapspsssgfd6p6q4sdsspqasssh",
"86869sgjpssshsah1a611fsss920ussg1a313hsfdupaaaaa60162sgpa1613qpp5152$ifdpuq3usdp46564dps9919updp:u576zpgpppppgag6u57:hfar758uddfe9294dfdfdsqqppp46664hsuq8669ppi16111pspsppqqqsd69561apu95*6rppf6110*ufsppqppqsp49101ggs966qddsf1i219ppsaasssggg50595jgau669fssj",
"78619sjgsssssssa1a525hpp95412usf095*rffppppqaaap51112sfq16*523ap5152$dfpdu3quudu*2121spr21;12pdf&8:55lufuqpppapg7r:3:kdu7:*18udf91*24dfdgsapqqqa*r181fue11118upf614;2pdqpssqpqsd16281fiu5;*155rd2242$pffsdsqqqqp19181cfu11*19iix2y242sdpqsassggg59;66zgi6116udsx",
"68889agggssssaaa59131su94:*520pf224*uxjpqppqpqqp51112iu22114122q4140:ffpppupupuu*8421d8211*129ud&8:57huapppaapaf19:7*i732:::27ri614e4fgssdqqpqqs*9181d81111118if14442pdpppqpssss18188fu21111;;5r2149*pfddpqqqqqp4r181gi921*212rd1321rpsaaqasssff48185fu9811288uf",
"99q99dgggssssaas5i2p2d21111212ef2a91rfsfppppppqp1330uu2;21221123122u1ff29uuupqp3122e2y212221*23f:d887grddadpdapa,y3r:y2,2,,,,>wiee1u1ffddsppppsp*y3e;y21;122;1ef12111qpuppspspsd1y3y2d8111221;1rq61q1fspppqqqqqp1tei3f322212223f1yu2usqsqaasgdgs8u8u8fr5888828ef",
"9pdpqpgsgsssssss2hff9f312388213d2fs2rpifpappqqqp2iii3d3=1122212d9u3p1f9112u3303q1tey2y222222113u7zru8f9dpppppppp3iyi3i3,2,2,:>wippqg1pdssssssspp1iiu2y31;281;;3iuqq26ruqqqqsdsss8ird3d2>2222227rpu2u1fpqqqr00qad2did3lr1222212tk2ffqupappassssfdrfikele2388882yl",
"8sjd9qssgsssshshwlff8y822212812f1gjpppsjdppqqqpp1ff333u32222213p43fu2uu1*:3p2322:33i33212311212y2lxi7ud9pdgaahar1iyi,y,,23,>2,3i3upg1dfjsdspaaps1yyi131>2311112i2pdq2quqpqqpsssp8dtt2d212313312d3upf4uugpppsqsqp2did2u323322311k3fffussqaaasssfd3xdk3i838r82r88f",
"8pgp9pgggsssssss2fidefr25112222x1pp3uuufspqaqaqp1uipu33211221=231ufp2pi112pd3pd3:q3i23211221223k:ilr8dldupurrqr7*t3t,t<,,32>,>2i9qug1fggdpappqpp1yti2y21@=11222i*2q66epdpu0psssp2tei3d2>12222--i9qrf1pffpsppspsp2d3k3i3128322%1k1yfu3asppaaadpgs2dyf8f981883833c",
"8qp69sgggsssshss2drd8de12e22812f1pq5rpuppppqpqqp13u33uq123321=133qu22ii2113iqufi1323232%2322322f,ei8rdluuddr9upr:w:3-t,:3ew,2>,i292d1gsppppppqqp*e3u2y1;11133-1i&1e12qfgpppssppp1u3u2i3123e83%1y2r2s1ufsppappsds1itd3d212e983;1i1yiq2qsdaapssssd1u9d8fe23yrer29x",
"79878fjggshsssss6deu2d21dfprq22i1a25rppspspqqqqq22323331ipdu322322211ud2453p2qff2322:u1:3uuyd33i2e828ir79ri99uda;3;:-r,,yy8ww22ie14e1gdppq0pqppp2y9t1y1-332t31&y19911ugfsppppsuq2u2e2i82riryy21y621q1fppuqqaaasd2u2t2i31ryrty22u23r2rpjsqpassddf8u2y2f92dfuuu93i",
"68656sgfssssssss8u191dr2ps99pr8p1915qffgdsqqqqqq221123p2fu3pupu321121ui2-%233udd2241%322up2ufird:22:797:18975588%:@:%y83re22ye8i91*1&ffdppppaapp29281u22i313i22d21119sgpsaapspp018181i883u9eir3u11424fpuqqqqppsp1r131dreer29duei1e119sjspaaassgd2r181fu9df9ufd9f",
"28616sgsshssssss1r191fqp1911pipf*925rgdgsppqq99q12110fgu211333uq21222331;-2u233u*1@1%idp2222iiyf,:::271;:8r84*:5 -+*-yrr73,,ryrk91*6&pdsspsppqqp431e1du91141ruuf41442sgpsppapapq18>21duy12219r9d2249*iuuquqqqaqp19181fiu1322idid23119dd0paasdsfs1q182sdp8928ffdx",
"9uu69sggssssshss5u9p2sqq:862988f4392updspspqq09q42223ff3222u323a3223222:1-22113q$1:24quu122up23jww2222:#;9fd8753X:*3*yrr7888rw8lqe1p4ppppspqqqq0&99u1u23&92189rp42218dspppppappp*82r1drr1e92889d021r4usppdsppsqs*r392dr91r82rurf9rr22psqpaaassgd1u6u1guu6qqrdqqg",
"9ppq9sggshsssssa6fdg6d826sgq151q1ppepfdsdppqq9qq1uiqqpp32qss262pu3pd322+1%;&X@12*32u53512dpu212xiiew72;@@7dfprr9*939:9739lli927huuqf1dpqdpsqq090*iuf2y111fx911221qdq89dpdpppsspp1r8u2i818xgu112g2q0a1ufpfssssdsd1ddd1y119gd9818f2pfuqsggppsdsfsg1sdg6p86dgjfq16f",
"qsqa6jassapsssss5dpf7d69pppqqqu64pgpppuppuupdqpd1udu22updppuu0215spd12*.+%515551&rru1819fuupu6698dky3;oo22tli38f:rir78989upuu9uq1spg1spqpqqpdpps1uui*8119uuu968619du6ddupupqqupd1puf8f9usdppq99q9rdd:fpduipdupif5fff,956ppapppqr2dpf2gsdgspfspuf2ssj2a0pgjhspapq",
"6aqp4sasgsssgsas5dqd5fuusppsqq90*uu9pipdp99qquup1uuurppdpupuq9qq4q3p1u:X%&23210a*yrd2urqfpudpquu1uy2;O O33kdieeu,ru88ru9uuupquup199s4dpupq9papqu%e9u1q9u9899qqq918q96dsdppuuudup1q6d1fusppqqqqqq86rr*fudpdduu9uu;uup1urppppqqqqq4puf1sqpffpffppf1prf2sassssssaaa",
"6pqq4sdjjaqssgsg7p9r5gdsdpspqqqq*u95ufifdu6euuui12902pdddppuququ492a2d1O-%129uqp1r2u1fddsppspqqd*81Oo  =33yieyyy18978ddupuuppppp1919*dgpue9ugdur1r291i9u968quduu16859dsddu99uuuu*6191fdspppqppqp95e7&zpdpuurrre9*98r*pppgpppqqqq4pqp1dupjuuuffpf2q2s0hfjsdssssss",
"6p6q1jsgp969pgjj6u595gffssssspqp1982uggsd959rpdf29322ppuffpuq90q524u23@.@@%122uu*1121fdddpuddpps&2+ oOO=-3333idu:21:7dfudpupaggp9918*ffur219dgdd2u22*iuuu989papq18612ddu98689uuu1811*dpupappppaqr555&ziie7758rur:956*druspapappp2u2u2fpdpr2ripff2q2q2gpspsssshsh",
"79166cfp95479qdg8u474fsdssssppqp1971rfii95:28rif39112eurfspuq90242:223@ =Oo2rrup%1%11didpuupdqup*1+X;2==@>2>2uiu:::*2idyppupagap8218*ddr31*13rip1821&iuudq9qqau911111eu222112err1841&pqusssappque227-lye2:,27eui*8;7*pppppsppsap1r1r2xdq3112qiff20505sppssssssss",
"79182ju88717778u7q79:fississsssp*ew:eiew:;;:12ed12218upp9uuuauqu11:32u=oOoo1212319121fpud9qppqqp11&;wy3-;>2;1189:21:6ua0dpuppppp1213%t3131%%*123*328*dqidi99quq9&2822821&1;;229y*241*dupssdsapq9822w;k7,122222ee$5*7*dppgppapaap13*23xr1111133yf40121sphhsshsshs",
"6dey8fe28778218u5i9u4fpssisppsqp1yywiy2::;::::wi29r3rpip99uppppu221i3y=OooO1--292u3r1ddppquppqqp*822yr2-3222;12i7r767iayppppu0uu3r3y1t312=-@%@13&r8u1d9upuq99909&eie822;;;11&13r*98u2suppppsapqqw3yy,k2;,322:>3t;966*pppaggsspsd1i2i3f31111112rf2q1p0hsghssssass",
"effc8i8857e872ed7sif7fpipssssppp5dfydi7::222:;5i3ipuuuuu9pdsspauuu3d23@OOO=2112p2uuu2fppduuppq9d1ui9y3;;3;221*8f9iirrddyupdu099refyk1i311--1-%231iif1i6uquuq99qu>ukie81&112;&;2r1dpg1d9qpppappqqetkl3l3;;,32;>3y5p9u,p9pdpsppasd2fif3f322233113iqfpg2hpfssahshhh",
"tcffwde7re11877d4ddf6fussffppsps2fidtf273w::22wd2piu2rpd9updsdpp3i3i331=2==12222&ieu*e9pppppppqq$pud8e&>;3221*1f7yy78yprupspu06r2iky1y2>=>====13,ddf5uup9updaqqu1didwt;>>:%%>:2f19d98usdqqppassd2klk>k>322>>teei;gdp&rqppapspaap2xilif112332312f2pjpqpggsssssssh",
"wfifefe2:e77722f5puf7fsfsssssspp:deitf72;7227:2f1eu82rpduupppspp3pud33=====22223&ieu*9epuipppuqu&irr2e>2;3832&1f7up96rprudddu0uu3yyy2i=2=2>11@=y;rip1urp9udppqq9&ieiei11&21>1;1d1ud98udppppppaps:eki>i;,;222322f;duu*uudppgpspap2j3y3f221222213frffq9pgghhhsshhs",
"wiedege1:ydye;2f7d9i6ffgssspspps:y7urf2::eeew::i18r28rppuqqpqppq1s3f3i1==2221%13*r3u*reuqruuquqq1u882u>12uie6*&u2ru66rppupdaau0u333t23%112322%2i:eer1iui9qddpu9u&r2uef1;1ee82;;p19u869pdpppaaqpd7wyi2i;2>eye2-,l*p69&upaapssssap2i2u3f2213u3211x2ss09sffssssshsh",
"9ueref818ffi922d8u892gfgsdsspssp4i2eef2:9iure1:i2e868queppuquuqu1u2i33-=33332:42*e9q*req9rquqquq*u5u8i>;uiiuu119:7e77yirppdaappu311223@22333322i,r581fdpquppqqqu&e188f1>efdur1;u*8611udpapaqpqppr22r2i-weiiuw::i:955&ddgdspssppg4p2rrf14rfppr12g19q12pgsssgssssh",
"eu1e5fueddrru98d7u691fifsssdpsps2u:75f74ru96974u12228ru9dpuuqqqq5259131-33232112&322;rerqrqququp$9168f22ii88u86u:11:7ds9ppdpaduu81%2@3%33332i33p2r581sdfqupppuqu49&12s58rir8965i41442ds9papaqqqq7*%7;r;9uireu85e&611$ppdgpgpasad*r122j21rpqqi92g11212hjshshssssh",
"5q597gpuuq77uu9f7u691spssdssspap4r477f997977977u*:112uuupupppq9u45491p222292221q*r994qruuuqrqquq49*12fuiee22u96f:7718dfrdpppapu02111%9131212ir3i:e77;duuuuppqqqp*8*16f885655988f11118fdqdpppqqqq5;*1;g7p9e58iu8u;916&gpppgpsppag1q411frp2r29iq9d10062sgshssssssh",
"5p9u6fp98p99p99f2puu1issssdsssps*u799d6959u9r65p12826ruuuppfppqq62592s2229uu910q432r1iupppuquqqp4p581fwu8ueuu66f1er67ududpuppp0912e3&r11*3rru23f,e5r;p9uruupqqqu1u668f865886958g89918dsdpppppqaq6er91z9r6888u88p*p99;ppppsappppa4u261s9rqurruq9p2up0qsgasssssshs",
"9gdg8d616sjgq47s5spp5sisdssppsaa4fqsrd446fgfp74urup98rquuupsdppq0s2p2p152ufs1*401qrq1dpddppuqqpu1siauf;&elxsi65u5dfr7rpdppuppp961yfr*i%%1uffr16g5dru1uuuqupuuqqp8seu6i4;6ppq915p8sgr1qdsqpqqqqqp9gg91d515dgp911g1pup5dpfpppaapag4fpdqd41pgspq21sqpsqpsgahssssshh",
"9dfpq9q9ssshsaqq4asg6spsqsssspqp5fgddr6usssppq6649q659qqqqpppapp30uu29p22qaa92164q9p5suppssspqqu1ufu9865aasapq696pp96qsdpaspu69u12e8#*81pdpduquu*uru1p999quuqupd*6fu9965puqqqq906qsq76pgquaqpqqprprp1pu5pagggp96$qps6pqpqapsgapp1sxuu99issadppqq1shq0pssgssssdsh",
"6ufpqqsgassssaaq4aqq6apsssssssap4udupuqppsdspuqq49u646uqsppppqqq21991qpq99aua001*09q400papppppps1eiurppqaqqpquq916u666ppgappqp961188&286ppdppuqp*pqr*puupppipppu*8988uu9pppqpqqq*9p669agaaqqqpqp6r9u&uu9pppaap09*q9q4pqpapppdsap*ui9qdpfddsasapp1ap96ssdhdssgssg",
"5udq9ufjsasssaaq6a9q5saafapqafss49r6udifppspaqqq46u646qqsp9qqqpq010q50puqquq00qq4010*q9aaq0pqssf5ri9rggaqqqapqpp*69659pssu66psu61&11;6iqpdddpqua;u99&uupfpuupdpu*8886ipupppqpaap$69660pppu99ppad598r$upupuqqqpaa4q694apppppqaagd1uu6ufssqpdassss2pq29dgdgsqdgfgj",
"99999psfssssssaa6p6q5fsssq69qsff1e75quqspppssssp59945qpu9676qdpd261143p09qq00qqp49104pppa2112apf8ee58pga0q0qpppd46616usp66570ppr5;;118dupdfapppf4r55&dddr85rudfp;699ufp6qppappap$6757pgp9867qpfg8859&daupqqqqpgg5915*pupp667upgf6p91uffhppsfssgf0q20ufjppe2pfffj",
"9965qsgdsssassss5q585gdd96259ufg464:rupddsdspssp575:8dd911:1eudd3**4*up29q09qqqp52414duy11112pif7e515papqaqqpqpp18116fi8::157err5;11*9suuddapppa:8;1;fir11;18uip*1558ppupqpqqapa45:*5udu85118uid75&8*ff9pqppaqap18*5;dii75:59uff1u84ufdpssssssfs1222agji9119ipfx",
"9655qsjsssssssss4r584du9754229pf:724rudsssspppqp15::7ii5221:17ru1&$51usqqq90qqqu42&21d31::14123d;2515papqaqqququ82118fu1*151:57r2;111ulfpppdppps:8:2,fr7;;1122er$1;$;ugfuqqqpqqq17,*,ru87511259r11$5;ggqppdappqq18181g9r5,::79dl*81*6ppdsffssaas59923pfp1219eudg",
"6999qdgghsssssss5iri7d87255214ei2992uppgssappaqp:ww23ee5271::2wr262152duuqq0pqqq%33i2i21;11212id;7e88pgpaqqqqppu2ew8wu2;;:5,::7e52851ifdqpdpqupd,ree,d7:;11>>:7e*56;59ggpqppqqqp7w877te2277,::7e585r4pfqaaapppqq1ewu1i82,57,:7rd19929ddssfsssdap1ri3uiu2822ee3yx",
"9pfp9pggsshsassswfdfedw727e2::7u7dr9qipgsppapqsd4idy77772272;;ei9qpq55uqppqusapq*dif2u21-23111332rdq89pqaqq0qppd8iiuew8;;;;;:,7treuu2rfuquppauqd:fdk,r,:;121;:wu;rgpupuqppqqqqqp7rdtrde,;172:>wr9pdg1uuuadaqqqqu2iei2u22,7w7,,ei8fd9ududdsfsssadqffiui318e3q123d",
"7djdqpsgggssssas8fdf7i7285:2e72u4ugdqidqfpppppqq2iti3y31231;222r2ppp$rr9pppaqpqu*flc3f312212222d;edu89apaqqapppp2eiiw7,;-;;;->9i7rrd;rpppuuuppds8fik3t21:2;;222r5rdu9upup00pu00p7drdwyw2w2>,,2we8dfj1paugppq0qqp2kii2i228e22322y1dfuufggpsaaasdsrfcf2d282e12u93f",
"5pfu9psgggsssass5iifwde212277;:f7uduqpdpsppsssaq1yriwdw1=7w22;2i2a3u&upqppppqqqq*333133222112&1i:ei889apapaapppd:8ttee2;-;2,;>7ywred:puppupqppfs2iyi2e21@122:;>i19pr8rpppup00p0p,dtd2kw,2272,;7i8uud*iiqgpaqqqpg1iei2i22;332213l1udq9ddsdssddsss3ydd2x291832929x",
"6ru99pgghgssssss4iyd7i7129ee7-:f7eq9rdfpppsssfq91e3y3dw>=rie2;2d2919&ppuquqq0990433r;i2222232&1u2er55ppasaappppi17eeee5;;7ee,:7eer7u,ddpuuupppss1e8u1r&&@8ue1#&u*9q759pdp9q00ppu2ywy2i7>2eir2>7d898u*upuggpppppa1e2e2i2;;ey82%2c89u89sfuspdspssd6ryu8x822uu9923x",
"6q968fjggsshssas7i8y1i71uiur952i59629dfqpppssq447r1w2u7;7idt322du249&ppq9qqqqq09:y2u2d312d333;-u2w758ggasaappqqu2252we7>7tirw,77e7,r:fdrppppappd1e28&81&8ddu8;;u478559ppppup000p2r7e,t7:iiiir7wi8619&afpafppqppg2e28>u2>edir312f6898rffppdasasss88992g12pgfiu11d",
"e9658sgggsgsssss5u58*i99ip78uu9r47547ddqqqpap04$1w*1-y71ry77eewuq2*24ppq9qqqpqqq%2121d21uuu3p223;2518pgaaaaqqqqu221:2ee5ee77eeee77;8:ddrdpspppqu*811*988ipr6u85u555*7pdrqp0uqp00:7:7;de8deeyiue881*6&pgfaapaapqp1e121ir3iue8y82u16619fgdsdaaadas86164x99usu9u99d",
"68656pgpghsshsss58164fipr945piuu46746ddqqqqssq97*7*:*irr8e:;erriq142*pup99qppaqp4312:diu2311uu2q;1115paqapqqqu9u25217rii75777erd87:9*ppppddppuqq#616*u9u9811uu9f771*7pg0p0p00qpp$2&1:fddr218iuuu1;#8$uupppqqqqqq1e181fui3822iiud11118dfppdspassd61111xqs1866pqpx",
"7q956pgsghssssss5q595gpu5u95999f26979dfqqqppssqq*8:8:i9r7r77e9rd925u*u9pqupsaqqq5p23*dpu12213p2p;7e58rpqqqaqpqpu28e88rur7ere77rfee5e;ddpudpdpppp*6191u991511966f58677pdppp000up0:7:77lre578987ei81*9$rupuppqqqqq&82r2duu1118ur9f18818dfpasdsssss66991j9q6q99q0qj",
"9pfqufjjgsssssss6d9u8f955sgu649g2ru9edfqfpppqpqq5y8i1u755pdr956fu91s*92qpaappq264ipi:21:1up1222s5uur9pp9paqaqppp8ufue855rdzp756d9e5r*pdd9qpadsds1d9d1q1&$696811g:9p679ppu0pu0p0u1r5r7f6159fi5&8f866d1ruapppqppqu1uud2u886ddu911f9qu89sgspdaaadss6qqa6j66phgaq16s",
"8gpg6gazaghvzq0a1gdd1prpfaapr0005par0ruduaga090p1ru9556rpppuuur050rp&r0adpppp00p*ipi&r8qp0r9990r*ud060gp0rpppppp7rd08r0idydua0u09r9p*pppu69uppua:uui*9789ru0098050p09pp0pppppppp5ipu5590pppqq0rr8urp:qr90qpppupd*rrp1y9rrupflaur5qgq0pssdaszaapp6ggg6p9aggsaaaqa",
"6g0a5gaazaazgggg4i0p1dpffaapprr0*0u9r0rapkaprr0u,wu9779rppppp00r5870$0rugapadpri1iui*iqiirr00990$8077pgugapapppr*7w77rdpaadauppu666q*qppau0ppu0u&r8u:p9p9rur090u49pr80q9ppqupppp:8u060qqapqpur0r688u$8rruidu0rru:y8u1pryupdaappq40q99pfaadaaagap5prg8aazgssssaaa",
"9p905zgdzp0pzvga7p9r7gagafdpa0p0$ru9r0rddpurrrup577779ypuuppppuu5710*pdipr8rpipa:pre:dpdrr0r90r0&5747pgidprrrppr:,717rdkddadaup07749*ppddr6rpuur;728:ipp00r0u0uu:9u980u9i099ipdi*5669paaapqppqru1679#88rurrrru0r1e781dpuppppaddp48969agappq0dggg7q8q6gavgsssaaaa",
"r08r6vffa958pgzf9i791gpdaaapaaad4r88ududur756rip,51:2rpprupppppp87:81dar5**1rpdf:u57*dipr0rr0e0r*55:7ggr65159ryr27,18rppdadddapu77:9:dfd9716uuup19:7*irrruuu0u0u59857iir8757rppp:1556qaqpaappuur51;7&riy85579iid18:7:dpupppppfaa16650gzf0978qdgg89595gpgsgsghhsh",
"7r197xgpr7789rdz8i191adpdfdaapad5r11izuu75:178ik::*&1euruprdpppp85&e1di8:%%*7erd-e:1%drr09rqrp0p&*:*8di7:&&:59yy121:7rupddaaauup52&8;ddr5;&1errp2r:5*p99ppuru000751;7dd81:::8rip:1416qaqappppurr1;O:&ir7,::18rik:7&1&kipyprpqpdg1751rkf087148idd69*94adsgasashhs",
"7r787fir777757rz1048:zdgfapaaapa87:>ykr8,:*>,7rd:::*1erpr0rppp0p51&8*iw1,&-:,,ei*w11%q089rrqrpp0:*>,8t8,,::;,2rr&:::18pradddapuu21;8;pt71:;,77wt:9:5;iuriaur0u971,:%2ir2-&&->7ri*::45qaaqppapire:%o:%iw:,,,,,3ri&w:7&pupprpppppp*777eur771,11eqd58195gsgsgghshah",
"8iei7kr77777,2rd5q7r5gfgaaadp0pp1ww2yy73:,1,:,8r577,7rpar0rpp00r72>r>iw-,--&&:2y*u88*i9899r00p0p,253tr3;222,;,wy;7858rripdpdauur87>t,i7>,;>,,,wt,r291fpdpur0r008;7w28tw:-:>::>8r175159psuqppuur8,>%3;t3-:22>>>wy-81w:pupppippapp1ereerw:,5,,,5ri7q707gagggssahha",
"izdfwd777727777d8grp5gdfddaapppp:tyrir73,3w,>,3t38r78rpdrrr0u0r9wwwi,iw-----==2y,irr*i9889rppppi7w8yuy3-,2,;-;2y7rurw0ripppaa0uryewywfw;:>,,,:wy2i9y5dpiu9990r09:tkitt2>:>1>--7ter95580p00qpurr83e3y>w3:>,3>--wi&r79:dispppdpppp7rkiyyw:,777:,wirard6adgggshaaha",
"rlifwkw577,,777i2dig1adzzddaaup0,ikyyt333,,2,,2t5tir78upr0rpp009wyyy>y->>-O->=-y:irp*r70999rrr09,itkti>3,3,>,>,k2ydr9ryuupduuuuatyyy>y-,>,--,,7y;uud1urd0rr0u608:kyk3t>>:,-%,,3y>rfu80pp9ap9771--y3t-3>>3>==>->k&rrr*irfpppppppp;kizri,7,,:,7,wy8lpl5apzgahagahh",
"wkrk8fe5,777717f7pqp1d0gadaapapp;tytyt,2-,33>-,y:7877ruuuupppdpr,ytw>y--:>>,,=-k&e7r%e78r890p0r0>t3ywk,2;3322>3k:8r77upuuadaa0up22ww>y->-,,>>-,k%rer:urpppppuppu%yty3y:>=>>>>%>y1ud86rppppp81:&+=33t-t,>,33<>=>l,uer*uupddpppqpi;rwy3t>2>,7w,:wd8p0d5aphghagahah",
"7i9pwze15rurr47f7p8r4dpdppapp0pp;wwwyr,:;3yr,@,t:55570uu0r0uaaprwtee,d>-:wtw,@-y%725#88re08000rr*w,8wk,2;8ttr,,i:5715upraydpuuuu2,,w>i;>;tt7,-;d;e79:r9ruuuu0uup%e2w2y>:=2w3,->y2rr75rp0ipi5*%+XO3,t>t,>,tkt>=>c7i8r1pyuippppapd;y3r7r:,:wii7>wd5u605aslgagaahhh",
"9r5r5gr1rgdri77d8q18,gdpaaap09601ww2rt2>tryy3:5w::,:8iduuruppdpprrww,k>,wrew7;-7-711#rrp0r8er00r:w;33i>2wyyuyw2y7w715rdruuapu00a7,,,;i,,wyrtw,>r2r79:u98r99000up;t,2:y,,wirte2,r277>1ui9r091%+OO=3>3>t2>3kktw=>k3r281fuuippppppp:r2yri:;ruikw7ri6r105vsvggahaaha",
"9i171g09dd99pp9u5r574zdaggaap0007w,:tyw8kt78t7t8::*:7uir0u0ppgpp7,:,:k,wew,,ew,2&7*1#0rir0800rp018-,,i7wrtrwyr3u287:7udryddp0rup2:-;%r:7tr7wdt7t:e18:u99rruuupap:r>::y7tiy22rt7e>2>*1upur985&XXO@:->-y73wyewtw3y,8581liuppipppap&7&77k77krerrrru59485hazhssshahh",
"50495zdpp945pd9p58585zgzdfdaadag18,:ryuyy7,38rry::*&5r09uurupppp2::,:krk72&:ri8w&7:1%repr0800r0r*3%25kwuwr2wyred:7515rdpppaur0pd7,::-d7y77,7yr7t%7:2;pru9900puuu*e:,,dede8;,re8t>21:1upiu0r8;XX@X%%,-rte2w23kyti:8181fppquppppds:e;15kuky717triu58485gpgggssahha",
"5a909g006090090a5p8q5zdgaddadhdg1w72rdrr778r738k135:5ryruuru0puu87wr7k8d2r52ee7r:w12&r80rr98r00r:r5r8k3rwrrrr77k:3957uddpdpp0upp8eee:k7r,e77w,5d%617&r9u699uuu09%r885r7r2877877i28e27uppuquu5@@-X,,8:e382te8reek,r7r5fdduuuppasd5u7r7krd78r878rd796u5apfgghaahah",
"9gag6a995sgs055g7p0p7zpaaaaa0ppa7urryu735uzd7*8d89877rpud0r0u0u09wrp7i&77dfe1*1r2r78*prr0r89r0r0:drktp159kxdr,5d7ry96rddpappr0paruiu:u&:7pfr5%*d:y68*98r9rdaspu0;kri2r,57dvlr:1f7ii88ipprrip7&&2X27t>8::2dkr2,7p7u8u7fdsuqppppds:p8dru&*7uzz9&9z8p9s9gshgssssahh",
"0gdv9099zasap0006apa5aazapaadpad1pzuur88paappr60*uru*0rarruppp0u7kid1716yuu08755:u0r$rudarr0r00r:ukr7587pr0uu86r:0pu80puppdprppd8gup1811puqpq999:ipd499pppppu00r*9fi8888uqp0q0981rprrddyrrur7;:,:78i&7779ruupu991fpp:prppupsspps1dzp7885ppppq0rr6aav1ahzaghhpphv",
"7arg9g0gggssaaap4p905dagdpaaaapa4ip9uu0rpdap00r0&069*urduuuppddu7prp1859uuu008994r89$9ugfa0upiip,rkr8tr8u0ru0r6048r88rdupdpppupd6i8u1u69pppqqqqq$09u*98uppuuuuur*9p989080r0uu00r*8y87rppur881&&1:27r&999uuupppu01pu0*pppfuuddiud1rp989uppppaap0q6qpf4agazgpgzaga",
"8p906hahaassssah6u795zagduruayda4rr1rdup0ppp0ppa*919*pupi0r90ipi2e,r:r8r90rupp0p&969%rrdzrrrpppr5rr88pduur0pd0r0177570drprrrupdp881r5aupqpappapq$859*urudr989uur:6958ppp0upqqq00:8e75rpdp91:&&*5::*8&ipiuppapppp4u89:fidp99upppd18988pfppsfssaap6r9p4ggdhp0phvza",
"90195gdzggsssahs8u505hfdd078ruad:85*8adgpppppppg19:81dpur7158rur:7&7&r0r80rupppp*817$rudd87ridpp:7777dgku0udpp0d551*5rprr769rpdd18$81fppqqqpqqqq:8:6:durr7556rpu:5145plsfsapu00918717pldr7&&%$*7:;#5&pfupupdappp*r17:ldp8518uddd58618ppppppsapps69705zzpp719pzzz",
"8r485gazsgssssas6r182zp007:180ud*6:&8aadadapp0ag1e:82due5:&*18ru*2%4&uerr0ru0uu0&827*urr81*,rrri*51:7kgpuu0pappd571*5yi87,:29rdp11%1*fquqqqpqppd:8:71frr5:*;79rp*41*1pgpspppqq0r41**7dgr7*%&$::51:#1&pprupupppap:8:7*fpe5::18rid555*5uppppaaaagg58:91zlp7178rpdz",
"19195gavgssaaaaa5u781ke81::177rd:85*9kpddadp0ppp1e:71d71,*>*,7ri:7&7&u0rruu00009&w2e:yew1&&:27er*3556idpp0iddppp587,3rr5:1::2ryy16&6*u8qupppadaa:82w:i71;;&*>7tr:15:7pdpppu0qqpa*1:&7pi1:&&&*;1771&7&uir0uuppppa:e77&dew7,:,,58i15547plspppppppp571e:ld877788wpl",
"5qra6ggvgsssaaas7yry7y8,111,,28y10850dppapdap00a2rwt2k2;::,:>:8i2r2e:prudp0r08rr*r7r2y7,:*:11,8i,8t68pdupuuapp0d7tr78r8,,,::,7er89681u9upppaaaqd2y7e:y1;*;:>*,7e:5878pdp0r0uqpap:7757r8:1:::$;,87719-ppuruu00pdd1p8e>uw17721>:7y79878plapppaasap8rwp1lr7e78877rl",
"0fpz9a0zgssahahg8fyd8d8,1,771&7r5ui9iguprpaaappp7ded7kw:>15,*>7y8r8u7yrpapr0800u1twy7d2;,,>,>:7i7rirrkgdpuudau0p7yiy8t7>772,:,wr8d9d5p9pqqqqqqqq6iry2y:;&,,:--,9:8p88pprpp00qqqp1udr885:514:&#1rwe7i1ddppupppdda7kyy1yw13222::wdudf98pgfppspappppkil8ly1775ww8il",
"8dgp9palggagahaa8kik7pw877,,8::i7pgp9rddpppaappa2rtkwd2:2:>:;;3r2rrf:rupppppprpr:tri2i7,385>:>:u:uku9igzddpupppp3r7i7i3:;212w,2r889s&9udqqqqpqpp1dii;e21,:;,7*;r5rqr89pdaap0900d6p9p:e*171*;$:5r7rrd&rppuuu00pdf7kyi2i211722w27k5ilurpdpfappaaagekki7z8w78w7e77d",
"8pfp9phgshhagaag7prdwd87*7177:1f7rpr8raappppaaap2reuwdw1;;:,:;7i7red:urrpipp00pr&rwu7k7:%,::,*,k:8dirdddgpp0pppu1r7i7i1:-221212i899i*upduqpqpqqp;iey:e1;&--;,%;i:8998rppfdp000pa1red7r15::*:$:7i7ewp1uuupuupppad:yri2y1>-722717k50p99udpadfaappg9udd7l77:w77e58l",
"0pp88ahagghgaaag7prr7d7:,877w12l79087pdpppapaapa5u7r2uw:12782:7iee7r*pr0rrrrr00r&77y2i71&5735>:i>8r89kgpddpppppp3r7u7u,>1e91711u8889*uppppqqqqqq1uer:i1;&1,:,&*r*465rpppdaqq0ppp5r7u7u7552771:7u7w19&uddppudppdf1ewr2i2&1e877,2p79978psudapappad9e9d8z177rr885el",
"89058szgggashaha7p7r,d74pprr077p78858dfa0ppaadpp5r1e;r11urrr8779e7:8%rr80r0r0r00*e2r1r7,tur8741r:7757pdudapupppu17183u55eueee27u6818*uppdaappaqp1r58;u8;7e757::e:::16pppapppp00979185u77d089875877*e&pdduppppaap1r181p7:iir8871u79858fgpadaapapa951u8k1eplprp88f",
"58616avgggahaaha5r471p08pp88r0ep47518dzaauauaapp49:7:u86r859r99952&5%pr9r00000rr*716*i98uu75877i575>7ukugpp0pppp:5&5*r58rr15re9u81*8*upqgdapappp;8*5&f959955977p1:**7pappuppap9077&5:u8rd9wrru9r71:7&udurup0pppp:8*51gu9uu58u98u78748dspapffaapa914e5g8ppp88du9d",
"58658fzaghaagaaa49481app8r550p0d*5747udpuauadapa&5&5*pur1**79rru72*7%pr8rrrrr0pr&5*5*prr674:869g575:5rpiddipppp047*5&r9955*19r9p6618*9uugadaapaa*8*1&gpr*1**9prd514*7udpp000aaa9*7&7:uru71:7uyud7718&uupu0uuu0p9$5:51gdd1111uuuf561:7pd0pdaafaap65565g9a8656pppz",
"5u099sfsgghagaha40705a005096669a18978aauppapdppa*6191ar91168659drw2r&yr0r0r00000&616:p095875757g7rr78pdpgpuppppp58494u985e65959g8r6u*uupppppppap*958*gq8*751769g15658ppuu090adaa*85r1urrw677w79f7eeu&ruuuuuppp9u$5581pp04555989v78858dfuppagfaaq69004h806009000z",
"9psu0pgsshhaahaa7aaa5p659ga9645a7pd0raduppuaaaap9u9r1u61uuau5*4u0r8p:prr8788999r*96r5p756dg06$:p5rk0udd0ddppppp05r5u5p870gar6*1a6u9s1pdqqqqqaqpp1p9q1p5*5pa75*4u1799ruu9p099psdd5u8d7u77dafu7*7ueu9d1uudupppppp0&rrp1q118psr6*5g6qq99fgsppaafaaq5uap6z66azzp046h",
"0hqs6gasssshsaas5lfh1969gapqu009$ad0pppar0pda0pa5rr98889dppu0975ip0i*pdrr88r0rrr*rrr*r9upppp08664uhdr0appppppppu*8ur78rupupuuuur996p4ppqq9qpp09q5ddd5u78uuua9556*9096uuu6890pppd1i0d*9wdafadp0998yrp:dp9uppfprrp:iuu:u9ipuauuuu04uqs7sasppaggafa5apz6p0agfaaspqp",
"6sqp4aashaphhaaf1adi1puggggppqq0$006000pa00adapd7rd978rrgdpp0u009r8r&rpr089rurrd:r8r:uupkpip0r99*6u080ppdpppdap03rur88uuupuaa00u166p4ppapqqqpqqp1i9u5dr0uuuu0669$6u96rq0099rqpsp:uwd1rrdduudpp0u5r9p*uippuippuip:y9i1puppddpapud4q0q5apdapdaagaa8pua7apgzasasaaa",
"5p0q4aghhu0apash1d9u5gdfgfgaapap48849p0pd080udad7rd979ukppddpdad7w78%pdir87ripdd5r7r1dpdpu0udap0$7757rdudur0gzdi8rr88ruuu0puu0p0*61q*dadaq6qpppp5t28:didur0uu669&7u979uuur86rudd5t59:duauuuupppp5rer&pddir8iiuud19791dpfppupaupa10696gapapqppfaf6r8p6aphgghaahaa",
"6q696vgzs089pdaz7p891fpagaaggaga*05*9dupa8590adg79827rpdpppppdap8848&ddrr5:5rrpk>8:61kppprr0adap:55>7pgipr88pddd58715ruuuuuppu0u44*6*gsfu6589upg5r,5*duu990pu900*5577uaur7158uud5w;5:dud00uaappp8979*kzfr7789rid7u58:dipipddaaps19195lspp088ppdp50185lagggahhahh",
"8r198vsur7589upf5u681guddadaaagp*81*rddu81158rdk25:*7uprupuuprrr97&7*kd87*&:57rp*3:5>puu0969padp55:*7ikrr7::7rui11::7ruuu0upupp061+**ffu65*189df19:5&drruuu0papu::*&5udw7,::7rud57&7*diduuupaupp77*7:glr81:1779i5r57*diupdppuapf58,85lu9w5158pdp59:64hazsssshahh",
"6r487zu7951578rp5r581fdhddaapppa*8219i985;;:57rd21;17uur0uu0000087&7*dr::*&>::79%717*u9rr886uppp,2,*,ur771*&>7ru111:7ru0ruuppp0u21+1%ir25;;;15rf&3:5*pdpuuuuuppu*:-%:te:,:-::7ri:7;7:prpuiupppuu57&8:du1::::117r;w7w:fpfppppapap18:81p85111178id5r191aphsssaahaa",
"8iei7d877527579i5u8r5fdfssgaapap1rt7tr2:::,2::7r:7827ppurrprr00r8r2r&r7&*;*:*&,e&r7r:urrr889r0pp57323rw,,,,>:,8y,7e9euuu0uuup0pu832e&i81,:::;:wi&97r5iuduppuaspu&7w22w2;,,5::,8y5t795dupupppppp07eeu;y7&&;11:*2r&r7u:pdfppduppau1ewr,i3,;12727ep8p8p6gazfssshaha",
"8lkz8k88,5w925td6fud5gpafssdaapd2ydrrt,-:,27:;,t:8r99rdk0rr0puap8iyd:e7;::,,&-*e*yup1u8ur00999pd7tywtuw,>,35,,wtwruuruduru0ppppu8iix2u311,22;;2r:iyd5d90uapuuasr:ykke3,-,232>:3t7y9u3dupuuuappppeddk:e1%&:11>%1r:uud1drddpppp0u07iri7i71;7w31,wyrarp8gazggshahah",
"rzdzwdw7991:9w7p1dpp5pdghgdaaadd:zykwy,7:2>>2>>r;8r87rpd0u0r0padryyy:u;2%,::,&:t*y9u:u9rrrr00upd:kti3i,>>;*>>,3yedku9udu90puu0uptdkr>y-7;,;;722i:yui5dru0rudqqrp;ktk3w-2-33,>->k:8y99rup9r0uuuuu1dkr>d1>:>*%>:,d;uri5ddfppdapppu2iik3e,32,,737ei8fsg6ppvssshahsh",
"wdukrkw7:ww3w:2l5dru1ddgsdappaag;dyyty,,=3872-:i;8811ruuuur0r0ud27er:y;,:;%-22,8%878&96rr0u0uupp%ywt3k2>->23,,3y2rr87rduruupu00u7rit;r-,%,;,,>2d:y9d:drrpdppu966-y3y3t-::,->73,t,8r95wuu09uuaapp:eyr:k>:-2215>7l:u8u1dudpppdpppu,rek3r221,37,1wi8uup5pqgggggshhs",
"7iek9zw1:tur9:5k7p8r5sdzfgaappad:iwywd>;%wir7-;d:77:1rduuur0rp0d227r2k;,-7r2:@,d@7,7@97ruuuuuup0%t3w3i2,>,ty3>3r28817uduupppu00uwrrt,d;,-w72,&,i:r79:d9rrdap0677%e3t3u;>=7ww2:>r,8r757ruruuauaup77ty2k::>8tw7:2l:y8r1dudippppppu1e7i2r>:7eir7;wi6u6r5pusggsahaah",
"rdwr7fw:9duui77d6r16:fsssgdaaapa1u288d::7dirw:>y:11:1udu0r0r0pad222w2k::,yky7&,k%757%99ipup0p0pu&t,77i,,8tii8:5t7e717uu9uupuu0u0rt87>f:,7ree5>,i:8:3*dru80rp0r0r-7:37y>:,eyr8>,i,87529ri0uuu0uaue77r2y;12rir8>,i:e1w1duudppapupu7e,e1r1:rikiw17i79194spgssghahha",
"9u585fr6dd67pd9d7r151sdddsdaappp:r:27kw7ry87t8:r>1:&1idprrrr0ppu,:>2;k,,dt,2ki37%753%98pupu00uuu*w>,,i37yt7tt77t277:1ru9uuup0puu7,*;%d,5tre8e7,r-5:5*duu89uqqu0p%3%:2d7eiw:,yywe25::7upr9ru0uu0u7,>2;t&23rtet2,r;7,81fuppppppquu17-7:i7wrrrirw8p56*65safggshshsh",
"6r595zuui975ddup79561fpsadaapaap*w;77zruw9::988r&11&:ri0rrr00ppu:,,2,k3www>2ut3w@747%9800uur00pu%8*,,d7r75:7w8wr-11119u9u0uppppu::::;l8e7e57r77i$3:5&iud9uppu00r+1@22keyw7;,ryer5,:*7uu89rru09091,,3-i,w,w73t83i%758:duduuupppuu*2&7>dyy73w9r8yi:6:71adasssshsha",
"7u9u6fuq8u99098g7p8u5fdsaddapauu:u799z88199w855d:781180r90r0r0uu7ety,k2r;rit3-;i#858&r9rrr9r000u&r385u385,57777r-7877rururrpaapp78891z79798795,r%857&99uuuppr668#2:77u57;8re8:2z,7778rrr0r0u0uur,ere;k37,eww8,2k;87r:urppuu0qp00:81r5p8878ryr8rd7r505apsgsssahah",
"6fdf8s956svgu45f6dup7zsfpppaaaau7zrdrk11:dzk8&1k7udr79iu99rrp0prwrii,r-;7yir7@@8%t8r1uru990rru0u*kri7y*,57rir7781rdurupu0rr0dggu8uur5d:;7pdr7*:u-r89&8699uur0887&97t7w%;7urri7,85yai99rprprqpu0r,ikt;k:;2yre2->i:rrr$rruudupp0qu7i9d5u1*rplfr18p9sus9sasggshshah",
"6dgs969pggsaqqqq5dpp5ppggppgdprp,rkdr899updrr988*rpe17uurrr0rrer18ti&7557r0i0887*r8r1prir9rupuru:8dr8755uur098681uzr56ru0rrrrruu7rrd:r610rurr09r#99u;98p8rdu9879-wir2277ryrrrr871ra979r989udurr97rrk*e559888yrww;t99&u9duuuupppu7ri0679upasasp0r5app5sahsssfsggv",
"8ufiqqsggsssaaaa5p9u:pdffppggppp:9uu89rruupp0009*9r719uuurrrrrrr,35r&rrr60ppprr8&86r1pupur8upurr;7r8eere0rrr0996:rp8,7rrrrrrrurr777d1ur9pupppu0r#87r&96y9rrrr888@2e3:w9wrrrr9988:8r87rr9r9rpupu92eed:pprrrrrurt8-92w&r9iuur0uuqp:wr770uaqqppppuu5a0p4ppgvfsggssh",
"8quqqdgggsssaasa5u6r1sdfgurddddd:8989yu0u0ppappu*7811riuuurrrurr,3,r*0u000ppuur0%858:iipur7rduur:1789uur990rrr0r:8r758r9r989rpur771r:diuyupppp00&816&r8989899998#:2:18rtrr989999*5877dd9r979rduu277u1pap0rrriire-7:7&uruir99uuuu57779uaaqpaapppu5u9q4psggspsgssl",
"99969pgsgsssssss7u7e7fdfr98rpddd,7889dkdrpuuaddp:1117udure77rurr31*7%u06r000989r#5,7*urir718uurr17117uu9rru00u00:7757uir97,7rurr77;8*ip990upp098*8:7:irr85279yre;12:1tu79898899r:75:7iir835,9iii77:e:dduprqpppye&3,7,iyrr9579uuuww779aap0qqppspp5u6r5lffu98rfglv",
"99818dsfssssssss59775fdr8517rudf12759dkpupppdaag:11:wyiw7212wery::%5#99600u06778@5*5%t7w3:-17rrr11:17rr8990uu0uu&:5,3di82:;,7rrr25%5%ru99uuuu008&2-2;d8e,:*2wrry;::&:tu79888880r53:-,yir,:;:3ryi31&7&pu9qrpryi8e&3;3;ytt2::17ruuw21:7aappqaqapsd78:75vfu8118pdlv",
"86869shggssssssh5r7w>de71;;17eyd:2528uuurrupppdp&,1>3re11:::,wwr>*%3#80rupu09688#3>3&t5,:%%>,3wy:,:18uu0r0rpup0u%:,,8tt7;;;;,2wt:;&2#rpuuupqpquu%,-2;yw2>;;;,wyy=;:-:ru9r8090r0u,2,-:8r3;;;:,7yd,:%7&uprprrryrew@,>:@w53>:;::79r::*:70dpqqaqpppp18;77vi871278ril",
"89969sgjgssssaas5yey,y72,::,,,ed78w88ruruuup0u0r:ww3wtw-;:,>:,wt:11r$ru0r0pur9rr%7,3*t:>;--;>>3r:5778uir0uu0pupu:38wwi3,-;>>>,3t22:8%ypidpqr0uqu;7,w>y2;;;;;;,3e&55:5ru99rrrrrrr,8w,,w3,;:,,:,ty231r*uuuurrpprrw=<>,o:>:;:,>:5wi12759paqqq0qpapd7u7r7k82w777779l",
"qpdpqpfsgssssaas7fdd7dw21,21>;7iwrduruuu0u0uu0992tyttyw;>33,;=2t3rti&rr06r0009ru>w3w>t>%>;-;%=,t38r88rr8uuupp00u3tkyyiw>-,,:;;2rr97p*rpppqr099uu,ywy,y,>;>>---,w5tuw79utrr0pqq0r,yiett2->,3,;,3yrrei1u08pqrpyiew=3,<o>>,:22:;;3ytuiuupaqaaqaqppd8lif7d827787258l",
"1dgsqusjgsssasaa2kikwi2272:2r22i2pzdrupuu0uuu00u2iyy>w,>>2;;,,>33tiu28p990ppuury:twt,t:%-;==:>>w:rd88rpprrrpuppu7kyk3i32,>;>23wt:ryy&uu9uuu99999;yyy,k3=,-@-2>-e;9y989uuur090r0r,kik3y,;,--,,,3i7e8i$rudpfdpdirw=w3t>w>--2,:22wi2rpu79agappappppydll7i181777727d",
"8ufu9psggsssaaps;iuf8i72>2277;,d2rirruu0upupuu0r:twr,t2>;33:,;,r27r818p6900ppu0r%w3r,y,-=---,;,y,8r75ruu00u0p00u,tti3k3,;,22>;2y7r9y&uu9uuu00009:ywt,i3,-;;;:@-i:9r77ru90uuu0ru0:yty,y83;,3,:-3i7e8r$rr0ppfddret@33t>t,;@23:1:2i2yi990agpaapappd8udkwl7e>78ww1wz",
"9upq6pffsgsssaaa1uei2d51;7e87&:k1wr88pkuuuupu0u9;e2e,y1-:etw,-:y2,75*rp9r0u000ur%w2t,t:-;35,:;:y:77:50irruupp00i:w3y3k7:>3rr,%,r7879&up9uuuquu09:w2y,y,:-232;X-d79977uu9u0ppqp0u:8,e,d82,8ye:-,iww5r;00ridddieee=2,w,y,-;ww51>1y2t978uafapaapapp88rp8l778pre917z",
"9q869pgsssdsasas5r5r2i8;rpree25i28759kkpuupp0u0u:7>7>r1;eyr8w:,w2:,:*ua9r00uuurr%w27;8:-wir7w*>r,55>3uk00ruu0ppu58,8,u5>rrty7,2ew7:8&ddu0uiaapuu;2,i79;;7ye72-;y78779psu0uuapaq0-3,r3k3:yryy7,3ye8,8*iu90pfpreer>3,w:y2;wu97775r52779dapsaapapdd885r5z55flppp87d",
"26616dgshsssaaaa5r181p95uq75pr8r1771edgu0uup0p0017&:&u81ru71re1w3::::udr0900ru0r-7:1&e51ru8581:8:5:*2uprruup0ppu78&:*i77y979uu9e21&7*dduuupdapqu*1:r59,7rr5:8729*7145dau0uapapq0*5&2:f85y759rrrr32;7$pirudfpr8ti;w;5;y929uw59850:2516uaapaaapadp95571z9rpsu0py8g",
"68669sggggsssaaa5916;fuu6815ud9u17118udrppppppuu:5&1&dre75&&9r782:1:10a0r0r00urr$5*7-uer:1:1887u*,:*2up9uu0ppp0p:7&5*irrr517upyr72;8:ddiuupapppp:7&1&r9d77&&7978$:7419u00ppaaqu015%*-ady7::3rr9r82&7%uqrupdprrri-5-:&urr5w55898u12257uppgaspafad65164v0s7855pppv",
"89999phgssssaaaa1q895aqq1967999g1ee5epdrpupp0pp048171p91:711515rw2w51rdrr090r9ru&71r1p88&115877p:7757ipruppppppu*657:p98e88988rd972i5pupuupppppp1917&iu9171&5759&59760uuuqqq0q0059:5*d9r5578358d981w&uu0ppiurrer@2:7;u891995655d2w979paaaafafpda56605v9p508900rv",
"9ppqqdggssssasap6dia5u871gg9758g5uprrdguppppppuu1u8u5u1*4up91&1p7w861ra00909900u*r8u7p5*50r981:u59r8rggd0uupppp05u8r4r75rpzd5*6lr98h7puppququpap*p9r1a8:1r01:*10:0pu9uaupq0uu0au5r9d7d5*5uha5$5fiiwu*upipurrrrre-9wr:9517pf0545d59999ufggaaaafap0rpa6h56qshp046h",
"6sgq9asshsshsaas1sgg1u9qgsdspp0q4qs99qpqupagapp95ru978rrppppr996408r400p0860090p,ipp:87r0rprp0rr40r09paadrppp00p5ryr579u9rppr08990pg*9pgqr0000pf#rrd:878u0r9666649q98ppar000r0qq7dpf798990dpapu98uud:ppupr0iurui:iyu:990appfd9891p0u4puaqssgfsdp5pps5u0agggsssap",
"6as96psahsssssps2sud1duudssaapq049q669pagapaapqr5er87ruuuuppppu0*050*06pp0896090-ytp:p0ap0ppprr0$60660apap0pappa2ru978rprpdfappa6960$90pau0pp090&rrd:u9udpu009r9:6r66pprdpuu0u0r*y9i5i9duuuadu007r8u:idrdqrur888:ytu1u9upppaauuu4u89:ppddppdfpdp7prs6ppgggssaaaa",
"6qq66sspgsqpdssg6d9u1gdsdadasppp$6901qsdapppdapp77779rdpuppppppp5048*00ra656669r-e7r:ppppppppprr44515papar0pdppd58e679pdppgggadd7659$00up09ppu99$e7r1fudduuuupuu47858pprpu899ur9:w791dupduupup0p8819$ddru878r888:r791duppuuafddd1958:apdpiruifpp8p9p6gsgaagssaaa",
"9q96qgjsp61qpsgj1u191jdspdappaad42616psdq678upgd,775erdu9u9pppap86454prp05$45790*t2e1k000prpprpr155*5dap951600pp76217rddrpdddaaa6546*ppu95590u0u;717:ddauqur00qq151:7pd985559ipi79:8:drdauuu0qpp87:7;kd871:78r9r>w:e:ap000ppafpd7u5e5zdiu8559pdd6r596gfvgsashsah",
"6981qggd96169ddg6r181fdssppadsps11119dd985118upi:1,17ppu99r0pupp17&51prr7:%&417r:e,81dr00p000r0r55215pke1**1errp251:7uddaypppuu075&e:fp95*&188ri&5;1;duurr99900u11&$1iir,*::7rii1w*7:pudfpip0upu77;7&iu7,-:1eeyk;7>7:duuupppppdp7e181lur81:17rdd79:65ssfasssaahh",
"18818ddu9111269d19191gdssssppass12418de1521:17eu,7717rdpuuru0u0p:7&5*r8w2&%%*:7r:w2e1daar00rrrrr15517rr5*&&278rk27217ruudapuppp055&9;pr77:*:118p;5*1%u9rqr000quu&;&@-w81::-::28e;5&7:dippfuupupp52>2=rw>2-:238tr>w:5*p000apppppu181w1iw7,,::28ik79495saggsssghha",
"9uue9uy23888819u6u8q1jsdgsdappsd1r328r3*2222:2eu57e759pdppu00uup:e2r2r2:::::&&,r:t7e:dpdp0r90r0i*7twwe7&:&*,,2wd2e878ruudur0pppuew1r;y7>1111>;7r>r77&r9ri0ur0r0q;,,>3e7:>,,::>3e:7:7:pidfpapp0uu7333;t3>>>,,,>2r,e27*puppad0udad1y7e1y7;,521,2ed6u6q7ssgggagahah",
"ifliyur21139223f2d9d2fdsgfapaaag8idyey31;27722tf7eu979ddgdpuu00u5yrkwy,>222,:=,t2irr*r0ppr000rrr2rirrt7--:,,:&2y7rr98rpyr0990u0rrrek1y,&;;,31-7y2d89:r9u0qr9999r1eyrry3%:22>%:3y7i7d7pudafpppppueyek:kw:-:>,--3t7y7e:p0qpdappfzd7ity7i,138w7,1ey9drd6sslgghssaha",
"tlfl3fe2921222eu1gds1ddgpdpppsss2cyi3i221222222kwrr758rppppprr09:iry2y7,,,;-:-:y,yri4r0p0ppppprr:dydri>:,2--::>y7rrreupdrr8ruuur7ykk2y;2>1;;773r:fi9&iupr99968087kyitk>>,,>>==,r1yd85rddadu0u00i7tii3i-,-,>->-,k>ity*r9pqqpapfdd7iik7r,2>>121,8d7fdz6favgssssshs",
"3difig9123ee213u2dud1sufpsasaadf1kyytd22;3322>2k7rr979rpppppp09r*w2t>r:--,::,->r&w,8&r9900prrppy-ywitd,,:32,,-,i,err78rpaauuaaaa2wet;r-:;7,>>;,y:i98&r9989909098=ywtwi>,->,,-%,t:rd87ifpudu00u0u7tty2k;>-22>:--k,r8r;09prqrpspdk1yed7r2211882>8k8d0a5auzhgshshah",
"2frdege28rdi812d8s9u1fdsadspssss1i3ryf222yiee21i7w778rrrrrppppq91w,t,r:@;7732;;e&2:1%079000rpppp-w,ewd1:>ryr2:,k:7r717raddaadddde77e>r->1tr71-1y>r77&u88680uqq09-e,w3y;,,2ww,-,t&wr88dfu0uuuup0uewee>i%:>et8,%>i1e78:p9u0quppppp7r7y7i1:78yi728d8u695adggsssaahh",
"3p2u2xe1ddffu28u8d181gppapapppps1i283f22eiuee2:e,7725rp999uppp9pwe:7*y,%7r8272>7>w&,*pu000r0r0rr*e:2,y,>rkirt22p117,5rudauuppaaue722-r&:ekyww77y:918&i988ruuuqrr&t,7>r>,etre2,,8;77:7up8puppuuu0r822&i-:8iire:,r>e1w:a0urquppppi78:7>r71didir78i70495gahgssshhah",
"9u191fi8jp9ruuuu1u161gddpppappap1u112f88ye12u82u&>:*7epr9rrppp902w&*%u7:we2;7727,w:7*ppprp00rrr8:e&*:d77ii72re7r,1&*5ippr0ru0u00,:&&%r:2yp77iitr%7:7*i89up009090:r>2:y7tye83728e::*;1ruruuuppapu7511&d:28r88r82r;e17;p0rqappppid75%1*p89pr8889rp58*64ggxssssaahh",
"1p121jdpu211updd19161gpsdppaqaqp*y122lru82*;ew8i&:1:19rr999q0ppu:w&1-yrr:7;$277e:w,7:p0par099898&e&,1krir8:*e87r:*&&8rrrupppu0uu1:&1&d7e17;1pirr%1:8*r8rdpur9999&e121dri87,222wr&*;&:rdpudadpppp1>:1*k791217r87i;87w:pppqqpppppp11$1:fpu811588uf16*65sagshssshah",
"2p9q6guue99q989g1p891gdpfsaapppd*u282f388882r88d:77558rrp9p9909p5p5w:ire$75:157e%w,8*r0u0p009899&r287d8r1887712p,7778rrrppap0puu77771d78:771wwwp&87r:r8puuu00998%e287d7827e8227i,5255rudu0uqqpup1758*p1r1755855i;yw8:prapqqppuup45:05s995688719f795u5sphhsssahhh",
"qgps1s969pjg948s2sqd8gpdssfsssas2d9u8u118ffuu11d7er657rrppr999rp5ier*9**%ri71:49%w79*rrur0r7999r1drdrd17:ikp8&*k7ipr89ripdakpuuaurr8&r&,;pd91*:p7prf5u9p9r0i0099&ier8i;-7uld7:7i8rr988rq0rr9r0uurur9;0;59pu8841u&y8r*rpp0r0pp0rr5p8p8p119pgs646s0sus9zazgsshsaha",
"egjfe90qsssdaq064aps1pagsdpsaups:yfu8e67piddu099:ri87798rrprr9rd,eu9571*rrrr9751&rrr&8wp8989990e;ylyeer6yrruu9774rfr880rprpdkpddrkri1858drrr98894d9r4duq98rq089u:eire271iipir8855rdi99ud79rurr0u8irk-788iuupr558#98r*ursrppppiru:urp708uappdu0009hpa6adgsshxgafx",
"2pfpqqddsdssaqq04qqq4qqsgsqaaqqp*eu9eru9rpppr09019r728rrdiuyuiiu-wtw378wrrr09765&r9e&99ppur0e9w9%7ie7rrepdddpu0r1rr98rrrdppdduruwdty,r7rpiqir869$956$qqrq00q9669&7ee7888rrrur0r9*69779rru999rurr8eei&er8prup0889&879:pudip9rippi1r9p5u9udpapaqpq6u0u5apsxaashaas",
"6qr09shgssssssaa1q20*sussq6qppup:8928psuuuppu00y1w7:,erede7eildy*7w7:wrrrrrr9997&0w0*ruiiueeere9&2727rpudpppuprr18877rpidrrrprrr7r7r,rrdiqipu099$7::#uqqdr889889:2737err89999uqp*51179uru0w79rur772r&yirpirui089*858:puir8889ppp59595puauaaaauup5u594gfgxu0usxgg",
"99209dgsssssssss0a104gdp9118qupf29717idrupaur0up22:-:eyw2:;,riii,7,,5errrrr09999%758%repe755epyu2w2,2ypyrrrr0rpp:71*1rdr8217riry,w,7&iidrrrpdrrq$7**#dui85:5789i71>:1er8888899up::::7rurr7:7wruy72-7&ipuiu9upuu9;5:7:diurw118yii18*85lpfudpaasad69197zfa07:9dgzz",
"68616ssdsgspaaas6u192jfi2**18rud672:7uprapduuqaa,2,-;ew2-@-;:3ryw,-*5uierer99999#7,7%eew5:-:7tyi72,:7ryprr89rruu:,:-:wrw1&&17eri;,-,%rrg9rrupr9r&7&:%u9t:$%::78i1,:%,8r899888ruu5:>;5trw2:;:2wru,>&1&dpyrr9rupu8&2&3:dre72::2eri15*51gpduuaasasa19:75xdi7::69udz",
"19260dgjgssspaqa1e122gp32111118u,2517idupddauuup,73>,ew>-;>;-;2e5:-%7diurr809999-7>7-t5,:;--:2ry>::,7rpyrrr9r0ua:7,:>ww,,-->,,3t:,-:&rrdr88pq889%2;:@r71:%%-%:2r-:-&18r88889990u:::>:ww1;>;;:7ty71;w-ip89rr99pu9-72w>i831>>:,7tr15*85fpaaapaaaaf181w:d9w677777rz",
"9q99qsgjghsqaaaa2u2y3d222222113u,8878dprupppu09r2ttwwtw>>,>>-=,w>,::2ypprr087979=w,w:t>---;==:wy:,278eryrrrrr0ru>wtw,w7:,:,>-&,r:7:7;urir88r899r;e,7;y:==-:-%%,8->1,28e78889rurr5332,3,>;:>:>:3y377e:iir9ipr9ppr,rwy3r,;>2,,,2ey56195fdappapappa5i8u7dw7777w759d",
"pdfuqpsdssaaaass2dyf3f24>122113i79y9ruu6uudp09692ykyyt3>>>>>=>,t,7w,:7rrrr8w7698:w2t,t:%=--=@=wi22etr89rr8999rr0,yytww3->,>>--3y7t,w,dudur9999991y3t:y,@@%>:-=,t278378715789rr0uwtyw23,>;>3,>;7teewi1ipeeplp9upu3ktk,e>=;333,,ti7r5r5fikappaaapp8kdf9k972127wwrk",
"2djp00sgsgdshaas3xid3i223112213f2rai88uipruu0u0r;wyw,2<>,->,>->t;7w7,5er9rrr955w:twt;w;-:==>>-,y:wr778r8uyr9uu0r,yyy>w,>:,:->:-r2ttk&rudiu99998u=yyk;w,-2>->->>w=8yw,2w7789r99rr:ytk,t,>;;>,,,3i3iii;idruupppuuu3kyy-e>>12,,;;3y:u9u1pdpdapappqp8kdi1z25w727e27k",
"9sfq9pggssssasah1fyi3d3221222-3i2ri988upprr00pr0=<t3,33,==;,>O=3>772,79r8rr96599-w2t:t:==%-:-@,i-wrw28ruuurruuur&rty>r,,->>->&>y,77r&truuur99998%tty>k2>>>;;-;,e-8t85898riiu0r9r:yti3y5>-;>:;;3i1e8y&yuryuuppu0y-rty>w>:=-,,;-wi1969:adapsadappq8rpi2k557728878x",
"9qu99dgjssssasas2i3d2f313223213i78888uddprruup0r@,722w7;;;,w>#-2352::wr9e9r9989r-w,t:e;=>-:::-,y&7r217uuuurpuppr&w3y>i,::77,,;:y772r;ruuuuur9998%e7t>y7>::<,>->e:28,5erruipp0998:t7t1y2;,:2,>-5r1w7e&pp8uiuupuur=w3e-e>->,7w1;7i:857*fdpapaaappp878iwl:7wre8878z",
"19916djgssssssas9f3t2f31iree922y,2727uddp0u0uq0r-,>>,w7;wwww7>>22,*;:ere9e99990r*7&7-t:%w75w2:2e,w3,,8yeuuupdaur*7,7:i,*rywww,:e77,r:iiudidupp9r=7>2;y3&e3783::2%,,;5eurruu98868*w&2;iw:93735:3t331e;iieuuuuuu0p&828&71:rryrw,18*5*1*ppdpdpppapp814r8f1rdauuuw7d",
"10110sggsdssssas2p1e1fr3ur99ee9r2:116udpp0ruuuu9;,;%>rw2e7:,2277::-%:eurr99e0rrr&2%:%u72r7157ww8,2,&2ypruyrppppr:7&,*p82ir78rr7rw7:w&uurruupupuu&3&&%y72r773w317%>:@:wr8wrr9869r*5-:%i9w85,5888r77>e:ppruuuu0rpr*817%878irrir778*7*:&prppapaapap84*85g8dpd98durd",
"1e616dgsssdsssss2u131duu92239yry15737iduuuu0q0u0*::;:yy72:-->2wr:,>;5uyurr99rr0r#*&:&prr7117799e:,:;7fdrurrrppyu*7*1:drr1717rrrd32>7%9ee89rruppp&7-:%kyr3127722w-::%:er899r9r9qu*7*5&r79,&&5789r771e-rrruyu99uru&8:5;pri7778r8ri*6:5*drpqpapaapp65165g9a7655ppag",
"9qu90sgssgsssass1u8u1dru289929ud58989ipupu0u0pu9;7712997:625::7r,752wuiuqrrr0prr#8:8*r8818981599:7w7eddpuur9rupp*r1r1pr8:878r77de7,e%ererr989uup:w12-i9827ww1:18:22,1eu8ruurruua:989:u551157115uww7y&8ypuururr0r*8581d991788819p1r70:pupppppdaap69005h605000qqqg",
"0pd0qdgdssssssss1dud2u212dgr119i3rurrupduuuu0u0959r8797;9isr5;197wrweuprirr9rpr0*r0p1r1*wpgr4*1r2rdyerpyur889upd7rrp7p7:9adr8**0rr7r-ruupuu99uud:u77&r7:wudu*+:r,8e77rurruuu90ud1ddf6u5159ur1$:9erwd:rrluuy9r0rp1u8u1p1*9pfp1*1p5arp5duapppdapap6psu5g660vvp966a",
"9gqa6gsgppsggsag5dpd5r89ppppp0995ap8upppupppppur5udu96789r0puu69*8591rrdurru999p&iqk1p99qi995445&pi59ddidqrr8rip1ipl:87rruuuu09659ua*rpzurupur9q;rer&8119ur81:46:7r729uipiipupuu2rfi8780uuur66555rrd*rupu9uui9ui1iiu4969qquqqr0e7d0u5duppadfdapu6aps509asssaapqq",
"6aqp6gsggasggppp1urp5prpppappaqq:uu69uudpppdpdpp5tur77rruruuu00r1717&rrduquui99i:rri1i9rrqr96679$rr17ippii99rqpd1uyp198ppppppu0958ep&9uppu0ipqrr%87r&97899096569%696529pdpuuupdd29ur789ruiu0u986585r&rrriuupdu8u2t9t1uqpqqqququr4r9r1pupdpdaddpu1urd7augfsssaaaa",
"7p9p5agzggppggdg1q9r5gdddspsappp*rr79upfdurrpddd28e67rrruuuuauuu57%1&prui9riirrr&r791dur0rrr9000$er17qqii988riid1r7r:prpppppu0uu8859&rppd09uiurr:858&u8989uu9689*58517ripy9ruidi:7877rdupppp0099875r&ruru8uidpuu1329*upduuppuuuu:r69:ppfdprypdpi5r6u6fszhfhgaaha",
"7p7p7zzld98rppgl5u591dppppspagag:0859ddgu956edpd:22159r00r90000u57#1&drdr87rr9er&7:7*iupri0p0rqi:r81ediir717eqir17:7;pripuu0u0009819*dduu878uu0u,817&r8899p00969*:256ryuu8218idd15358udppppuar0987:8&dir8518idii13121pqppqpqppur18585fddrr66rdds60595safsssghhhh",
"6r597bfpu7159ruf5u56*dapppppapsg182:ilu985::78yi:11:58rrurrr900u,1#:;itr7,>,57ry-5*1%irqppip000d5w2:rkt872::7err;7&7&prpprprr0uu77&w&ddr71:58rri:811&98890u09668*;&>riiw22;>7ryd::::7rdppupuu0uu52;7;iue5>;18eui1313&uqqqqpuquur29>72zi877:17udf79*61apssssssshh",
"9t187zr7r517178u1r595dpgpapappap182:rdw,1::;:28r:22158yppppuuuuu:,@>;r73,:&;>:wi-511$r9ippp0prpp,7,,ri7,2:>:,27t17;7&prppipppapp71&7&ie7,&&,278i%8,5&r89ru999665;--:eie>:>;;>7ry::::1899puu00u0u22-7;ew2w2;>>>2i13194dudqqqpuqqr17;71f8:2:::2eil16*61sagassaahha",
"eded7fw7w7571:7u1uru,dpfpaappaad1yrwrr2;>,1;;:wr18r879ypppdaau0r2w>w>w>;>;:;%-,y*e5w%rrpprp0rrrp,twwyt,,>,,,;>3r2r79:r8pppppppqp771e;re1::::::8i&878&r9ur9998998;,3wrt2;;:,>;:wy,77559r9upu0upip232e;w7>21:>;-1t1y3u1dpspqpppuqu2y7r2y2:,:2122ri7r7u5sdgggshsaah",
"ezflwd7577w722ed8fdg5ppsgpppapps1klyyr22:222;:7i2rdr7rpduppau068wywy,e;-;>,>-@>e:u9e*rep0rrpr0pa:yiyit3w>,2,;;3t7ueu1r8y9rpppp0ryrei,yw:::>>%-2i,irr*98r99869900,tyyte2->,22->2y9ryr8rdupuuu0papettk>t2>;>>:;->t3fif1pqpppppppii2fik7r2,,772,:eprsua6safggsahaha",
"rldlwf877ee2517l1ggf5fpgppaappqp1fyiwr>7,2:;;;2d7rdr8rudpppppp0ueyiy>e@>>,>;,>;7=uui1rrrprr90r0d,ktiti,,>2>;,>3k3rr8e8pp9rpppppperyy:y&2>7;--%>r&r8i:r9ur99990uu,ket,3@,,,>>3,3k,ryrw7uuuuu000uueeyk,k>t;>-;223k-tri1fdspspspppf7dil,e,772:222ei9ppprpggssssssss",
"7fifele78812ee7u2gpd1ppfppppqqpp:i8iry:7,2;>72:t27r88ruuuupuuuuu33tt:t#:@::>>--e#weu*r9pr0080rpi;twyti>3;2,,2:2i7er75e9rrrrpp0qr77we:y-1%111:%;u&e89:rru9999600u;ywy3e-:-2,,2;,d,9ir99uuuuuppppp2wet>i;>;2>>222i1e2y1gpspsppppip:yrd7r22>:772,edrpp99psagssssssh",
"7iedrze1;uiu8*5f8pru1piasdpapqq0:rwrwi>:%rdu7%:d17517rpuruuppq0u77wr>i;>>7w,;#-e@518*iep09800rrp%t5rwy;:,8w7w>,r177158rrppppq0ur77w81k::-7ew7%&e:828*irq88969r0r%e:w7r;>,7222,,y298779uupppppppp7wer2k;,2w822;1i>e281spppppppuup:77y7y21:7ry7:7dr9666pggsgasahha",
"ep6r7f815fgi8;5z5u881fppggapaqqp1u,86p*;:izf8%:f:21:7rdp90r00u0ur727:i::2re71--e%5:7*druere000pp*e,w1e-:trtwt7,9271&7rpuupuu0rr0987e1f:17ipr8:-r>715*pru999990uu;7%12y>:we8we2,r,7515uuufpppppuurewe2k::3ue22>>r13121fpdqpqpuuuu5r,r5u2:7riir2rpr9779sgggagsssah",
"8u585fu6gi16fg9918161ffgsfsaaq0p79*17u:5u956di8e:1::7ruu9ru000u951&:%r:27e77e1*r%2*1&p08rrur0ppp*e:5:e*5rr77r87r:1&&,9upuur00uup85:4%p159p989510:8>5;u0r9rr0qpqp&2#*:u177727re8u,::*5ruuipuppu0r75*,&d178u28822u1e12&suppquqquuu26;6:u62r0rr76ri67556gggssssshss",
"60585surp056ppup1r691spffsdpappq19*55d6982$:rp9p;1::18r9u0uuu90951%*%d5817:1711r%5&1#e78p0uppppp$w*51u5e88:4987u#&1&*8ru9990u0pp5141&g7p8851885i*r79*irr0uuppqpp&2#:1d8r11*1rr8d:5::5riu9uuap009:::5;f9u1811ur8d;311&uqqqqpququq17&6:d90876888rd55556pfghsssssss",
"6u0u6s061pap646j5u8i8fpfdspapppp1r166d5649r96:5f:79678rupuuu0u99775e1g591751611u&w*2#e8rrrr00ppp&e197i597987855r&,7117rrr9900upa55881g8p8855655u:r8r:08rrrupqppp*6*77i581751757s5w752ruu99uuu0u057895f7r2828881d1t28*uuuqppquuup18595u8866rr968p69666pssasssssha",
"6hdg6a659ahsq54p6dup5aupsapaaaap5a9p9p*:0purr5167rur99upppppu096889r5u**59975**u*e58&prar00ppprp1d9i9p*:9zzp9:&9,r9e589u099990qq169u1p:59pu984:0&r9u:r80990uppu0:u5r6u*:6pu85$:d9ru9799990upau0u56rr:u&16uu8611r2ueu4dpspapppuui5u9a6u549pfhr66rrpppqqsssssahsah",
"8afa080ugssapqqq4app6apapppaappp1ui68858dppu999710u969ppp0qap0998rri&87588889888$545$rrq99990ppd1rky889rdddpr8511rr718up9900qq00788u&898uqu00669$r0q*080869000up18r989ur90r99699*8u9556pq99qq9qp5eef*977r9uuu9971p0p4pqqpquppqup2upq169pqsqsdpqr6qqa4assjsaggssj",
"6udpuuafhgsaaqqa7p9q4pqppappppap*9989urdpprrrr9r:99659u0auuddu0uet7i,rrr8r9r9996$845$q000960pdau*wueweuiipppr098#7r117u0a900aq0a577r&rru0rrr9996&850$9698680pr0u:7777rr9uuu9960u4696569up99ru99u,77i>urrrruu0r96$q2p*0qdpqruuqqu23iq22papqsaspuq69qq*qsshaasgssh",
"60u0uazhsggsahha6p695sppgp0upasp*661upugrr9pupuu:56:5rpudu99iuru7e3r,dir9rrrrur9*842&q9i9957rddd>7w7wudirrrprr08X185180ua089pppp7718%ru0rr9r0999*818*r8r855ru0rp*1117rr8uu0969up576756r9u8599uru,72r>pdppuuurpu9$22p*uufpq1quuqu1r226qqpaapssppp409q*qggspqaggsh",
"rr980dssssgsaaah6p695gppau66updp1811rpudrrrrpruu451:7dfiu82699udw7:w&uu8rrrp0uu0*7:5&iri75119pui27727rpurrrr0r0e#*1:5riru518uppp77:8#rur0rr00990*7*1*pr85115rrry::1:7rp990ur90pa55557rrr7**59rud7w,e-drriurr99rp*0124duf3122ruri22241qaqaasssppp6969*ggga96qaggj",
"8r769pgfssssahas7r595ldue6156rdd181&9duupruurprp%:**2ddr8:*:78rd7,&7;rr8rrqrupur&7*2&irr,:&:57rr,2,:2eueurrrr0r9&*&&1uue7:&:7eyi51&2%riqupuq0999$1%1&uew:&&:7w8y;;*:7rr99rppuuuu::*:7er7:&%;58ru7w:e;rrtuur999pu;2:21f33251133ff22141qaqqapssdsp67*95ggp6518upgg",
"66669aggssasasas5e171dr722,:78rd*6*1udpgupupprru&;>-:ry72;-::2wy::=7&rr8r89rrrp9&7;7:ir7:&&&&,ry;:*;:er9uqrr0e98*&##1ue;;-@>233t::;8$udddpuu9099#>%>%871&@&:17we&;*&:7r690ppp00u*;-&,777:**;;>2e27,e;idpurr99u9p12&22f311*=1333i21142qspsaaqdppp67;75xp551178udl",
"89r0ragggssasaas7r7t,i72:,1,:28r*268ugdguppuprur:77,,w7>:;;;;;28>,,e&rr87889999r>7:w:r,:&:>&=;7y:35259eerr99999r*1117r7;;&;>>>3t275u;udd0qqr0998&7,2@w;>;;>;>&1e*:::17er9uppu09r,,,27t7;:>;;;%1w2ewi;upirrr9uupu133i232=1112213f22229ppaaqaqpppp9r7d1dr,525875uf",
"uddu0psdggssssasefii2dw2>177>:7t1uu6pdrpuuuuuupd2yyw7w2;,,,;%@>w7e7y;r8e7889999r:w3e>t:==>>;@-wiwryeweurrer9999r&eirre7;>>,,>->teirp*rru899999691ywt;7;-;>,1;%>w:77776ppruu0690r7eeete3:-;;:-=,yeiyd:rrruuuupupu2fdg332212221;133iiq2r00pqaqpppfrlfl7de2888w22ef",
"6pgp9pgvssssssag7kdk,yw232>222wu18du8udpppr9updu,yyw>,,>-,>--@-t>ee2:er8588ruu96%w3t>w;--,>>--,k2wre8errrrr9999r7rpyw77><>>><><3e8yr7ufpqr9rqq96-twt=7>-,3:>,>>e:79779ru99rppp967tty,t,2;>;=>;>ewiik;rrddiuuuupu233d3321133111333psu9qapaqqaaqppydxf2i182w82828l",
"9pdp9pgggsassaas1iyk2y22;122222i&8986iuupurrrpur-3yw233,=,,,>@-e,77::er98eruu998#33w;w;-=>2,,=>k:3727888rer9999918ye8w2>=->>>><yw7r818p9r990uq99&w3w;e>-@23,>@;i>7776err9rppqq997twy,t>>;>>;>=>e7e7r%eriippuru9r1u3f3i2-1133=13y23302qqqqaaqpppf2eyd3f281e82228c",
"9ru69qfggagssass:yei2i2,12ee2@2u*6866udquu9ruu99-2w32e7;,ww7,-=w,,:;:er8e9uu0997%327-3;--7w73->y:,1:28r89r99999r5eewew1=>3w3==,ye27118i79980qq0r%w,w>e>%@7t3;X;k:5778ru9ppuu999r,t7t,w--:w322;=w2w,w%9rupprur99r;333232=21331O2322252qpaaqaqpppp89ry2x288iue813x",
"99969shzagssssss7i7e,y5:eeyy222e18116df99uuur997>2323e7-wrt3w:-2::-#&7reruupu997;w>1@2;-7twww::t:>>;2rirrrr9999r8ww77w,&tett<>,ee1171rp8rru0r0rr>7;7-e;-:trw:@;y,5*:7rr9ppp00999,7:w;7>;wew8w1;772;2%rduuiur9999:322-3213333311r22152uspqaqaappp938r2f12ilduu28i",
"76769pghsssaasas8u271ie7fe288eee11248du99rurr987:2:>2re,w7::w2:7:>%#&788uupu9978&7=:Ow23er,:772t;;;:2rdir8r9999r77>:1ww3iw1weew77:11:rp9upur9666:2&>@e1-7w,13,1t2,*&1er9puu9990q*,%,&w7,2722rw,ew2-7%uiruuuu9998@2;2;3223323r22i21140psaaqqaappd68161j89dfr9iu6f",
"77656aggssssssss5r171luui2;18urr41112uu69r0r9699*::;,ryw::@-352e::--:77erudu0768#,#:%rer1,;:777y&;;:7rrrrrr9r999>,>;,wyr7;&1r0r91:::*8prui0r6576#,%1-r73:>&&771e1,;*:596ur996999*,%>&e77&>;;ee5y2,;2+er9uuuuu988+4%1&iuu3112u23u21112apqqaaqpppp21111x9d1618dpux",
"69969ppsssssssss1u5r2dr88288818i16688uu89ru9889r:27:,rr7;:>:72:r,>:::17r8udu9578&,&7:i77:7,7w,2r:3727wr8r99rr99r>,,,2www1:17516r7771&7y9u0086567#,,7&r1>;1>:1;:r:75117889669999r,5&7;r,,&112e22i77:w%er8rrupu999%212:u222222rrry21212qqqaqqppppd61891x6u1q9ui9ux",
"pddpppgsgsssssas1iri5u2159gi2*1d19u99di699r988ru5er7777;:rrr8:;e::25,,78ruuu9767:r7t1i:#,rrr8,:r7rye7887rrr9999r,ttw7,1:7udp*#*8r897:7pr9r966458%87r:8;&1887:@&y;7r858758886696957:85e;%2eue8;:dwewr&re8rruuuq99132q131:13uu223y23q3qppqqqaapppd9qup8j18ugxsq18j"
};
