/* XPM */
static char *f79c6de55d514d51910a02d49d2c983f5eeikH5Gp5mVDwHg[] = {
/* columns rows colors chars-per-pixel */
"618 618 197 2 ",
"   c #433B17",
".  c #4B4319",
"X  c #51471D",
"o  c #554A1C",
"O  c #594D1D",
"+  c #5D521D",
"@  c #63551E",
"#  c #655A1F",
"$  c #6C5E1D",
"%  c #6C611E",
"&  c #71631F",
"*  c #786B1F",
"=  c #564C22",
"-  c #5B4E21",
";  c #575020",
":  c #5C5322",
">  c #5F5927",
",  c #5E5628",
"<  c #625523",
"1  c #645B24",
"2  c #6B5D24",
"3  c #665C2B",
"4  c #6A5E2C",
"5  c #705F27",
"6  c #6D6224",
"7  c #6D632A",
"8  c #726425",
"9  c #756926",
"0  c #7B6C25",
"q  c #73652A",
"w  c #756A2B",
"e  c #7B6D2B",
"r  c #7E7126",
"t  c #77702B",
"y  c #7E722C",
"u  c #756731",
"i  c #766A31",
"p  c #7B6E31",
"a  c #7D7232",
"s  c #816E29",
"d  c #847426",
"f  c #897627",
"g  c #867927",
"h  c #8A7B27",
"j  c #83752B",
"k  c #88772B",
"l  c #86792C",
"z  c #8B7D2D",
"x  c #907F2C",
"c  c #837532",
"v  c #897731",
"b  c #867A32",
"n  c #8C7E31",
"m  c #837639",
"M  c #8B7E38",
"N  c #907F32",
"B  c #907E38",
"V  c #8E812E",
"C  c #928127",
"Z  c #93842E",
"A  c #99862E",
"S  c #96882E",
"D  c #9B8A2E",
"F  c #9E902F",
"G  c #8E8132",
"H  c #8E8239",
"J  c #948532",
"K  c #988732",
"L  c #968933",
"P  c #9C8C34",
"I  c #948639",
"U  c #988739",
"Y  c #968939",
"T  c #9C8D39",
"R  c #9F9035",
"E  c #9E913A",
"W  c #A18E2E",
"Q  c #A3912F",
"!  c #AA952F",
"~  c #A18F34",
"^  c #A08F39",
"/  c #A49335",
"(  c #A99636",
")  c #A79836",
"_  c #AB9A36",
"`  c #A4943A",
"'  c #A9973A",
"]  c #A7983C",
"[  c #AC9B3C",
"{  c #B19E37",
"}  c #B19E3B",
"|  c #AFA037",
" . c #AFA03D",
".. c #B3A137",
"X. c #B9A537",
"o. c #B8A836",
"O. c #B4A23D",
"+. c #B9A63E",
"@. c #B7A83E",
"#. c #BCA93E",
"$. c #BFB03F",
"%. c #C1AD3F",
"&. c #C2B03F",
"*. c #958841",
"=. c #9D8D41",
"-. c #9E9141",
";. c #A59641",
":. c #A99741",
">. c #A79941",
",. c #AC9C41",
"<. c #A09149",
"1. c #A79A49",
"2. c #AD9D48",
"3. c #B09F42",
"4. c #B19F49",
"5. c #AFA042",
"6. c #AFA048",
"7. c #B4A342",
"8. c #B9A642",
"9. c #B7A843",
"0. c #BDAA43",
"q. c #BEAA43",
"w. c #BFAB43",
"e. c #BFAA42",
"r. c #BEA941",
"t. c #BFAC42",
"y. c #BFAC41",
"u. c #BAA847",
"i. c #BCA945",
"p. c #BCAA45",
"a. c #BFAB45",
"s. c #BEAA44",
"d. c #BEAB46",
"f. c #BFAD46",
"g. c #BDAB42",
"h. c #B3A249",
"j. c #B4A448",
"k. c #B9A748",
"l. c #B7A849",
"z. c #BDAA49",
"x. c #BFAA4A",
"c. c #BDAC49",
"v. c #BFB045",
"b. c #BFB04A",
"n. c #C1AB41",
"m. c #C0AB43",
"M. c #C0AC42",
"N. c #C1AC43",
"B. c #C2AD42",
"V. c #C2AE43",
"C. c #C1AD42",
"Z. c #C0AB44",
"A. c #C1AB45",
"S. c #C0AB47",
"D. c #C0AC44",
"F. c #C1AD45",
"G. c #C0AD44",
"H. c #C2AD45",
"J. c #C2AE45",
"K. c #C3AE44",
"L. c #C1AD46",
"P. c #C1AD47",
"I. c #C2AD46",
"U. c #C1AF46",
"Y. c #C2AE47",
"T. c #C1AE44",
"R. c #C5AF44",
"E. c #C4AF47",
"W. c #C1AE44",
"Q. c #C1AD48",
"!. c #C1AF49",
"~. c #C3AF49",
"^. c #C4AF48",
"/. c #C1AE49",
"(. c #C5B146",
"). c #C6B046",
"_. c #C3B145",
"`. c #C9B346",
"'. c #C8B547",
"]. c #C8B446",
"[. c #CBB847",
"{. c #C3B14B",
"}. c #C4B149",
"|. c #C5B249",
" X c #C7B14A",
".X c #C5B14A",
"XX c #C4B14E",
"oX c #C4B249",
"OX c #C9B44A",
"+X c #CCB64E",
"@X c #C9B54B",
"#X c #C7B84C",
"$X c #CAB94D",
"%X c #C5B450",
"&X c #C9B751",
"*X c #CCBA51",
"=X c #D0BD53",
/* pixels */
"T ( _ ' T J J T I U U U J J ' / k U I P ` ' J / [ / U I ' ' P K / ' ~ / / ~ / ` T ` [ ' ` ' ' 3.[ ,.,.[ ' [ U ^ / [ _ ] [ 3.] / T P 7.] J U T T T T U I U 3.} _ [ ] / U / / I Y U I ~ 3.~ Z ' O.O.[ ` O.r.} } ` ` 8.7.O.8.8.8.8.7.} } 7.O.} O.8.8.d.8.8.8.8.z.z.d.d.Q.[ ' 7._ 7.r.8.d.' ' ] / +.+.` ` ' ' ' ' ' ' ` } +.#.#.O.' [ [ [ [ ,.] _ O.d.( _ O.O.O.N.N.N._ ` ] P 7.O._ } [ 9.7.} 7.8.} 7.} 8.8.8.O.+.+.8.7.8.7.O.O.8.3.` 8.O.O.Y.8.d.O.[ O.` [ R.[ ' :.:.:.,.,.,.] 8.R.R.Y.8.,.,.,.,.,.,.,.] 8.OX7.[ u.+.r.|.Y.R.d.} ,./ 3.i.r.r.r.#.r.Y.Y.Y.Y.Y.d.d.Q.|.Q.|.Y.Y.Y.Q.Q.^.t.Y.3.` 3.O.+.8.O.8.8.[ } ] } Y.O.] >.,.,.3.3.,.3.S.|.Y._.Q.7.7.9.j.7.h.h.,.7.}.u.] 9.7.8.|.8.r.].d.3.:.[ Y.#.N.r.N.N.N.N.R.N.#.#.Y.Y.R.N.r.r.Z.R.Z.Y.Y.N.N.Y.7.3.u.7.|.|.r.Y.8.O.} / +.`.O.' :.:.,.3.3.,.,.d._._.R.Q.3.,.3.3.,.,.,.,.[ ^.7.' 7.O.d.d.8.Y.8.7.8.` 3.r.+.#.r.#.r.r.m.r.r.Y.Y.Y.r.r.r.N.r.m.r.t.r.m.#.#.7.` 8.O.O.|.|.+Xd._ 7.` 8.m.[ :.:.:.:.,.,.:.[ 8.m.%.#.7.[ 3.3.,.3.3.3.,.7.XX3.3.8.d.8.z.x.z.O.7.[ / 7.m.#.r.r.Y.Z.r.r.d.d.Y.Y.Y.Y.Y.Y.Y.Y.Y.Y.f.f.d.Q.8.:.7.7.8.Y.Y.Q.O.} 7._ i.}.[ [ 3.,.3.,.,.,.7.d.N.#.8.7.] :.,.:.,.,.,.[ Y.d._ 7.8.O.u.d.8.d.} ' T _ 7.O.O.7.8.8.} 8.O._ [ ] J 9 n / ' [ [ 7.7.7.+.O.8.3./ ,.' _ 8.8.8.+._ [ ' ( 8.] ' ' ' :.:.' 7.Y.r.r.r.#.t.r.[ / ` ",
"' _ / } ( U I T U U U U J J ^ ^ J T I Z / ] / ] ` T U U ^ ] / ~ ' ` / / ' ' / ` T ` ] :.` / ' 3.} 3.3.[ ' ,.T / ` / / 7.8.[ P T T P 7.[ P ` T T T T U U ;.O._ ( _ O.' P T T U U T I R [ T J ` ' [ O.7.8.+._ [ ] :.u.7.O.8.8.8.r.8.7.7.7.7.7.8.8.r.r.r.r.8.u.c.z.f.f.d.[ ] 7.) _ r.Y.7./ ' [ / +.8.` ` ;.] ` :.' ] [ +.+.+.%.+.] ] ] [ ] ,.] _ } u.( [ O.( } _.#.O.` ' ] P ,.O.O.7.O.7.7.7.O.7.8.7.[ 7.O.7.+.8.8.8.7.} [ } O.u.3.) u.[ _ Y.Y.f.[ ` 7.] } |.[ ' ;.:.] :.:.:.7.R._.N._.Y.7.,.,.7.,.5.,.] 8.OX7.[ u.O.7._.`._.7.] 3.` ,.i.Z.N.r.+.+.N._.R.Y._.Y.Y.|.|.}.|.Y.Y.Y.Y.Q.Y.N._.3./ 7.[ [ 8.r.r.[ ` 7._ } R.O.:.,.,.,.,.,.7.z.|._.Y._._.c.9.7.j.h.h.h.,.7.XXz.] z.7.} d.Y._._.7.3.,.[ _.t.N.t.N.Y.N._.N.N.N.N.Y.R.N.Y.r.r.Z._.Y.Y.Y.N.N.Y.7.7.z.O.7._._.Y.} [ 7.` 8.OX7.] >.,.,.3.,.3.d.|.R.Y.R._.d.,.,.,.,.,.,.>.] ^.7.:.7.[ } m.Y.Y.7.} 8.` 3.r.+.r.r.r.r.r.+.r.m._.N._.N.N.r.N.r.N.r.t.N.r.#.r.7.` u.O.[ _.OXY.7.] 9._ 8.Y.[ :.:.,.,.,.,.[ 7.Y.%.%.%.r.3.,.3.7.,.3.3.,.7.XX3.7.9.O.O.|.|.8._ O.[ / 7.t.#.N.Y.r.r.8.8.r.d.r.Y.Y.Y.Y.Y.Y.Y.R.Y.f.f.f.}.u.:.7.7.} 8.^.d._ } 8._ d.XX[ [ ,.,.3.3.[ ,.d.Y.#.+.r.r.3.,.:.,.:.,.,.[ f.d._ 7.+.( 7._.Y.7.` ,./ _ 8.O.} 7.7.7.O.O.} } ` ' n 9 I [ _ } } O.O.7.8.O.7.,.` ,./ ( 7.c.3.` / 3.' _ d.] ' :.' :.' 7.f.N.r.t.t.N.r.N.f.[ / ",
"~ ' ( / ( / U I U U n J J G T T x T I Z J / ( ` K K ` N T _ / / / / ^ ~ ' / [ ] / P ' ,.` / ' [ 3.7.[ / ( } T T ` T K ` O./ Z ` T J [ } T U ` ` U Y U :.,.' ( _ _ ( [ ` L I U U U U T / I L ' T D [ r.O.( ` } / :.7.O.8.7.8.8.8.8.8.8.7.7.8.8.8.8.8.r.8.8.d.d.d.r.r.d.] ' 7.) / } 8.` / ,.' / 8.8./ ` ;.' ' ` ' } +.+.O.+.O.+.O._ ' ,.' :.] ( } d.( ] 7./ ( #.#.( / [ ' K [ O.} 7.7.O.[ } O.7._ _ ` T ' 7.[ O.7.7.O.O.O.8.8.8.} ` u.[ ) 3.f.7.' _ 7.' } _.[ ;.' :.' ' :.7.Y.Y.N.R.N.Y.Q.7.,.4.7.,.,.,.8._.O.[ d.[ ] r._.r.] ] 7.` [ d.r.r.r.m.r.Y.Y.R.Y.Q.Y._.Q.Q._.Y.Y.Y.d.Y.f.Y.Y.|.7./ 7.[ / [ u.7.` ] 8._ O._.O.:.,.,.2.,.3.z.|.R.R._.R.R.|.c.7.7.h.5.,.,.7.}.8.] 8.7.( 7.f.N.+.[ 7.] [ _.#.N.Y.N.Y.R.N.N.N.r.N.N.N.Y.R.r.r.r.Y.R.Y.Y.N.N.Q.[ 3.z.[ [ 8.Y.7.] 3.7.` 8.].8.] >.,.,.,.,.u.|.R.Y.R.Y.N._.d.] ,.,.,.>.:.[ ^.3.' 7.] ' +.Y.7.] } 7.` 3.8.#.#.r.t.#.+.+.r.t.r.N.N.Y.Y.r.r.r.r.N.Y.r.#.+.r.8.` 8.O._ 7.d.7.[ ,.8.) 8.Y.[ :.:.:.,.,.] 7.Y.m.%.%.#.N.d.} ,.7.3.,.3.[ 7./.} 3.9.[ _ d.d._ ' 3.] / 7.r.r.N.r.r.8.8.8.8.8.f.Y.Y.Y.Y.Y.|.Y.Y.f.f.f.d.Q.z.] ,.7._ 7.i.[ ' 7.7.' d.|.,.,.,.,.,.,.7.d.m.#.#.+.+.r.8.3.] ,.,.,.,.[ t.u.` O.+./ _ d.7./ ] ,.~ [ 8.O.} } [ 7.} _ _ _ U ^ J 0 I ' [ O.} } O.8.O.+.7.] ^ ,.' T ' 7.' T / 7./ _ d.' / ' ' ' ,.d.r.r.N.8.8.r.t.t.N.r.[ ",
"} [ ( / ~ ' ( T I J J U J I ` / J ` E J G T T P J T ` J ` ] ~ ~ ] ] ~ ' ' / } 7._ ' [ 3.[ ' ' ,.[ [ / / _ } T T ) / K R _ P P ] ^ J } 3.T T T T U U ' 7.} [ [ O.} ' [ [ / U Y U Y I U ' T T ,./ J _ 8._ T ` } / ] 8.O.} 7.8.8.8.8.8.3.[ 7.8.r.d.d.8.r.8.r.Q.Q.d.8.r.f.[ ' 7.[ ` [ 3.' ' ,.] / 8.8.` ;.' ;.` ' [ 8.+.#.+.+.+.#.r.7.] ,.:.:.[ _ O.Y.( [ 7.( _ +.O.( ` [ ` U [ 7._ ,.} [ } O.[ [ / / ` I T [ } } } O.O.8.8.r.+.8.[ _ u.O.] ,.7.O.] ] 7.] O._.[ :.;.;.:.] ,.c._._.Y.R.Y.Y._.d.3.,.3.h.,.,.8._.O.[ d. .] 7.d.7.] [ 8.' [ d.r.r.Y.R.Y._.Y._._.Y._.|.Q.}.Q.Y.Y.f.Y.Y.Y.Y._.|.7.` 7.,.` [ 8.7.` ,.u.] 7.|.7.:.,.,.,.7.z.|._.|.|._._._._.|.u.7.7.,.,.,.7.}.8.] 8.7.` ,.7.7.[ [ 8.[ O._.N.N._._.Y.Y.N.N.N.N.N.N.N.R._.R.Y.r.Y.Y.Y.r.Y._.Y. .7.z.,.,.7.u.7.] 7.9.' r.$X8.:.,.,.,.,.9.|._._.R.Y.Y.Y.R._.8.,.>.,.,.:.[ |.3.] 7.[ ' 3.d.} ] } 7.' 7.r.#.r.r.r.#.+.+.Y.t.t.Y.N.Y.Y.N.m.r.r.r.r.r.+.+.t.8.` 7.O.[ 5.7.7.,.[ 9._ 8.Y.[ :.:.:.:.:.7.Z.N.N.N.%.#.N._.8.3.3.3.3.3.,.8.|.} 3.u.[ _ 7.7._ ' } ' ` 7.r.#.8.r.r.r.f.d.8.8.f.Y.|.Y.Y.Y.Y.f.8.8.f.Y.f.}.u.] ,.7.[ } 7.[ ] 7.9.] d.oX[ ,.,.,.,.3.c.Y.r.r.+.+.i.r.N.8.[ :.,.,.,.[ t.8.( O.O.` ] 7.[ ` [ [ / _ 8.O.[ _ [ [ _ [ [ / J / ` j U ' [ O.[ } 7.7.O.8.O.[ / 5.] / ' ] / ~ ] 3./ _ d.] ` :.' ] d.t.#.t.8.[ _ O.r.r.N._.r.",
"} [ / K ~ / / / I J J J J J _ / Z T / z J L z L J I U N T T U ' / ' _ / / O._ _ _ _ } } [ ,.' [ _ ` / ] } [ U T / / P U P ~ T ^ T K [ ' K T Y Y T ] 3.' } [ T ^ } O.( ( [ R J I U J U ' / U ] ` K T ` P K ' ' K / 7.} } O.7.8.8.8.7.[ / _ 8.8.8.d.d.d.d.^.Q.d.d.8.d.d.] ' ,.] ` ] ] ' ` [ ] ( +.8./ ` ;.E E [ 7.8.+.#.+.+.+.#.+.Y.O.[ ] ,.] ] O.Y._ _ O.( / _ ( ( / ` ) U ] } [ _ _ [ _ [ [ ` / _ O.' ^ [ [ _ _ O.} O.+.O.+.+._ ] 9.,.] :.,.[ ] ] 7.] O.R.[ :.:.:.;.,.d.Y.N.|.Y.d.Y.Y.Z.Y.u.,.,.h.,.:.8._.O.[ 8.[ ] ] ,.,.] ] 8.` [ d.r.Y.N.N.R.R.N._.R.R.Y.Y.Y.Y.Y.R.Y.Y.Y.Y._.R.N._.7.` 7.[ ` ] 7.[ ' 3.8.[ 8.|.7.:.4.,.,.d._.R._.OX|.8.8.|._.R.|.7.,.,.,.:.7.Q.8.] 8.7.` ,.,.[ ] [ 9.] [ R.N.N.Y._.N.r.t.Y.Y.N.N.N._._.R.R._.Y.Y.d.Y.f.Y._.Y.} 7.z.,.,.,.,.,.:.7.8.] r.OX8.:.4.,.,.9.}.R._._.Y.7.r.Y.m.N._.8.:.,.,.:.[ |.3.] 7.[ ' ,.3.] ' [ 8.` 7.N.#.t.r.#.#.r.r.r.r.Y.t.N.N.t.N.r.#.r.8.8.+.r.+.#.u.` 7.[ ) [ [ 7.,.] 9.) +.Y.[ :.:.:.:.} r.N.m.N.N.#.m.%.m._.8.3.,.3.3.[ r.|.} 3.9.[ ] ,.] _ ` ] ] ' O.8.+.r.r.r.N.t.t.r.r.r.Y.^.Y.Y.d.d.8.8.d.d.f.f.Y.8.:.,.3.] [ [ [ _ 7.8._ r._.[ ,.,.:.7.z.Y.m.m.8.[ ' 7.r.#.m.8.,.:.,.,.[ r.8.( 7.O.` ` ' ` _ _ [ ` _ 8.} } } _ ] _ } _ T J / ' j J _ ' _ [ 7.O.O.O.O.8.[ ~ ,.' T / / ^ ' / 3./ _ d.] ` ` ] 8.r.+.#.t.[ / ' ' } t.r.N._.",
"/ P G J U ` ~ _ / U J I T K ( / Z / P z G I J P G I I G U T / O._ [ _ / ~ _ ' 7.} _ [ [ } 3.[ [ [ ] [ O.O.[ P T / R P U U R T ` T K _ _ T U I E ' [ _ O.} T J J / O._ ( _ _ P G J U / [ ] P _ _ P E T K U ` ' I U ] { O.8.8.8.+.8.8.7.,.7.8.r.r.d.d.r.d.d.8.7.7.8.u.d.] ' ,.` ` ] ,.] ` [ [ ( r.d.` ` ;.` ] 7.+.+.r.8.[ [ 8.r.+.N.N.7.[ ,.,.] +.Y.( _ O.( / / / ) / ( _ P _ } } [ _ [ _ O._ ' ' } { [ ` [ _ _ _ } } +.+.+.O.O.] [ 8.,.] :.:.[ ] [ 9.[ O._.,.:.>.:.,.d.Y._._.Y.3.,.u.}.d.Y._.u.,.,.3.,.7.oX7.[ 8.[ ) ] ] [ ] [ 9.`  .r.Y.Y.N.N.Y._.Y.Y.Y._.Y._.N.t.r.r.Y._.Y.Y.Y.N.N._. .] 7.[ ] [ ,.[ ] 7.u.[ 8.oX7.,.,.,.8._._._._.R.7._ [ d.|.R._.Y.7.,.,.,.7.}.7.] 8.O.) 5.,.[ [ [ 7.] [ Y.N._._.r.#.+.r.Y.R.N.N.N._._._._.Y._.Y.d.f.Y._.N.Y.O.7.z.,.,.,.,.,.,.9.8.] d.OX8.,.2.3.7.|.Y.R._.Y.7.' [ f.m.N.N.N.7.:.,.,.3.|.7.[ 7.[ ] ,.:.:.] ,.9.' 7.N.t.N.r.#.r._.N.N.N.N.Y.N.N._.r.N.r.r.r.r.r.N.#.t.8._ 7.[ _ [ ,.7.,.] 9.) +.Y.[ :.:.:.,.r.N.%.N.Y.+.[ +._.N._._.7.3.7.7.[ r.|.} 7.9.] ] ,.] ] ` ] ] ' O.#.r.N.N.Y.Y.N.N.N.r.r.Y.Y.Y.N.Y.r.r.f.d.d.Y.Y.|.8.' 7.7.[ ] ] ] ] 7.9._ r.|.[ ,.,.3.z.^.m.N.r.[ ` ^ ] r.r.#.N.7.] :.:.[ r.8.( O.O.` ` ` ` _ ' ] ' } O.} O.O.[ } } } ] ' ^ [ ' n J _ ' [ } +.O.8.O.O.+.[ / ,.' T / ` ^ ` ' 3.` } d._ ` ' O.N.#.#.r.O./ / ] ' ' 8.r._.Y.",
"J k v J J I / ( ( ` J I K P ~ P Z ^ U g J U J J J J n n ' _ / ' } [ / ` ~ T ` _ } _ / } } [ [ [ ' } _ _ O.} P P / U Z U I J U ' K V / ( U U T :.' ' [ [ / L I I J P _ ( ( ( / L I I ` 7./ P ' T P E U P T U ` K I ' _ [ 7.7.3.} } +.r.r.r.8.8.r.8.+.8.r.r.8.7.7.8.8.9.] / :.] / ] ,.` ' ,.] _ r.8.` ` ` ] +.O.O.+.+._ / / ] 7.r.#.r.r.[ :.,.' } Y.( _ [ / ` ` R / R ( ` P [ } _ } _ ( _ _ _ _ ( ( } / / [ _ _ ' _ O.+.O.+.} O.' ' 9.] ] ,.:.] ] ] 9.[ +._.[ :.:.,.u.N.N._._.7.1.;.,.u.Q.Y.N._.9.,.,.,.7.|.7.[ 9.] ' ,.:.:.] :.7.` [ r.r.N.Y.N.N.N.Y.Y.t.m.Y.N.#.N.r.#.#.N.Y.N.r.N.%.N.[ _ 7.[ ' ,.,.[ ] 7.u.[ r.#X7.:.,.u.}._.N._.R.7.' ] ] [ u._.N.N.d.,.:.:.7.Q.9.] 9.O.` ,.,.] [ [ 9.[ [ Y.N.N.Y._.Y.Y.Y.m.m.N.N.N._._._.Y._.Y.Y.d.Y.f.N._.Y.[ 7.z.:.,.,.,.,.,.8.8.[ d.OX8.,.,.7.Q.Y.N._.Y.3.:.:.' [ r.N.m.N.N.7.:.,.7.|.7.[ 8.[ ] :.:.:.' ] 8.' 7.r.N.r.#.r.r.Y.N.N.N._.N.N.t.t.N.r.r.r.Y.N.r.#.#.N.+.( 7.} ` [ ,.,.:.] 7._ +.Y.[ ' :.[ 8.N.#.N.N.7.] ` } r._.N.R.Y.7.,.7.} r._.} 3.7.] ` ,.,.] ` [ _ ' 8.t.r.f.Y.t.t.N.r.t.r.r.r.r.r.r.r.r.Z.d.d.Y.d.r.Y.7.' 3.3.' ' ] [ ' } 7.[ r.|.[ :.3.d.Y.N.N.r.[ ` ` ;.` ] 8.t.#.r.7.] ' [ r.8.( } } T ` ] / ` _ ] / _ +.O.} } O.O.} ' / ' / / } U z ` [ O.} O.8.8.} } O.] ^ ,./ U E ' T T ' 3.~ } d.( ' 7.8.#.#.t.O./ / ' / ' ` _ 8._.Y.",
"n k J T G I T / P / / T U P / T J / U k J P J J J I n J ,.[ T / ' _ _ [ / ' ' } [ ' ` } 7.3.] [ [ } _ _ O.O.P T / P J P I J K T U Z _ ` K / ' ` _ } [ / L Y U T L J P ( / P ( ) U J ` ,./ / _ R K T P T R T / T U ] [ _ [ ' P / 7.8.+.+.r.+.t.r.r.8.r.Y.Y.d.f.u.8.8.8.] ' ,.] ` ] :.` ' [ [ _ r.d.' ` ] O.+.+.+.+.] T T ` / [ 8.r.#.N.7.,.[ _ O.Y._ ] [ / ` ) / / R ) _ / O.O.} } ( / ( ` _ [ ( _ _ / / [ [ [ _ [ O.+.+.+.O.7.] ] 7.] ] ,.] ] ] [ u.O.#.'.} ,.:.9._._._._.9.>.1.,.' ,.f.Y.t._.Y.9.,.:.+.|.7.} 7.[ ' ,.:.,.` ,.9.`  .f.t.N.Y._.N.N._.N.#.r.t.N.m.N.N.t.#.#.N.N.N.N.N.Y.O._ 7.7.] ,.,.,.[ 9.d.O.f.#X7.[ 8.|._._._._.7.:.:.] ] ' ,.d.N.%.Y.u.,.[ 7.}.8.] u.7.) ,.,.[ [ [ 7.[ [ }._._._._._._._.N.N.N._._._._._._._.t.Y.Y._.Y.N._.}.7.7.z.,.:.,.,.,.,.8.8.[ f.oX7.,.7.Q.|.R.Y.f.} ' :.:.' ' } r.%.%.N.N.7.,.7.|.7.[ d.[ ' ] :.:.' [ u.] 7.N.t.N.N._.N._.N.N.Y.Y._._.r.N.N.#.+.r.Y._.N.t.N.N.8.( +.O.' ] [ ] ] ] 9.] 8.^.[ ' [ 8.N.%.%.N.8.:.;.:._ 7.Y._.Y._.f.7.3.} r.|.O.7.7.[ ] ,.,.] ` } [ _ r.N.r.r.r.8.#.r.r.t.r.r.r.r.r.r.r.t.m.r.Y.Y.t.r.f.7.] 7.7.] ' ] ] ] } 8.} r.oXO.7.z.}._.Y.r.} ' ` ] :.' ] 7.d.#.r.r.7.' _ r.r.( } [ / / ] ` ` _ ] ` } r.+.O.+.O.} ( ( ` [ ` ' 7.] Z ` 7.O.O.8.7.} } } 7.] T ,./ T / ' ^ R ' 3.` } 8.[ O.8.8.+.8.7.` ` / _ ` _ ' ` [ 7.u.",
"n U I J I J J P ~ / T T J J ( / n T J k n I I G z L n k / T ~ _ / / _ ' [ O.} } ' ' ' ' 7.7.` / _ _ ' } O._ P / ~ P J J L J J T U J ` ~ P T / [ } [ ` I J T U J J I z S ~ ( ( ( / J I ' / P _ T V P P K U ` / J T ] _ O.[ ' ' ' 7.+.{ } 8.r.#.r.r.8.8.r.r.Y.Y.8.8.u.u.` ` ,.' ` ' :.` / 7.[ _ r.8.( _ 7.8.O.#.+.[ ` ;.' ' ^ ` ] 8.r.#.r.7.' ` O.Y._ _ O.( / ` ` ` T ` ] P ' [ } ' / / / _ ( _ ( _ / ~ ` [ ( _ ' [ _ O.r.O.} O.' ` 3.] :.,.:.:.' O.u.[ t._.[ ,.9.}.Y._._.8.:.>.1.:.:.] ,.d.Y.r.t.f.,.] 7.}.3.] 7.] ' ] :.,.` ,.9.` O.Y.r.N.N.N.Y.N.N._.t.N.r.N.N.%.R.R.%.#.#.N.N.m.N._.} [ u.7.] ,.,.,.,.8.c.O.Y.#X7.7.XX|._._.|.7.:.:.:.' ] :.` ] r.N.r.f.8.} O._.8.] 9.7.` :.,.] ] ,.9.[ } }.N.N._.N.N.N._._.N.#._._.N.r.Y._.Y.Y.r.r.|.Y.N._.}.3.7.z.:.:.,.,.:.,.u.7.[ Y.XXO.3.c.Q.N._.d.3.' ,.' ' ' :.' [ t.N.%._._.7.7.|.7.[ d.[ ' :.' :.] 3.u.' 7.Y.#.#.N._.N.t.r.N.N.N.N.N.%.N.N.r.+.+.t.N.N.N.#.t.8.( 7.} ` ] ' ] ` ] 9.) 8.Y._ [ r.N.%.%.N.8.[ :.,.,.[ [ O.Y._.N._.d.3.[ r.|.7.3.u.[ ] ,.,.] ( } [ ( 7.r.r.#.+.8.8.8.8.r.r.8.8.r.r.r.8.8.8.r.r.r.r.+.d.3.' 7.3.' ] ' :.] 7.9.[ r._.O.u.Q.Y.Y.f.[ ` ' ' ' :.:.] ' ,.8.+.8.Y.7.} r.8./ { [ / / ' ' ` / _ ` _ 8.+.+.O.} _ / ' [ ] P / O._ P ] 7.O.O.+.} _ _ O.} / U ] ^ T T ` / T ' [ / [ O.{ O.+.O.8.[ ` ` ' / ~ _ ' ~ ' / [ 7.",
"c n n n v n U P ~ _ ( _ / P _ _ G T P V G G J V G U J n I P ` [ / / / / ` ' / / / [ ' [ 8.[ ~ ~ ] [ } 8.+.[ P / ` T L I U K U / U P [ _ P T _ O.} ` U Y U L U U V k I K K ( ) ( | ( P ] ] / _ P V P P K L R T J P [ [ _ } 8.+.O.8.} } O.+.#.r.r.N.r.8.O.8.d.d.d.d.u.u.] _ 7.] ' :.:.` ' 7.[ _ N.+.( 7.r.+.#.+.[ ' ;.:.] ] ,.` ` O.8.r.t.Y.3._ +._.[ ' O.( ) ] ` ` R _ [ K T ( ( _ ` / ' _ _ _ _ ( ( / _ } _ [ _ _ } +.8.O.} 7.] ' 7.[ :.,.:.:.' 7.f.O.N._.+.8._.'._._.u.>.1.>.>.:.:.,.:.7.d.Y.r.f.u.[ 7.|.3._ 8.[ ' :.:.,.` 7.7.` 7.Y.N.t.Y.N.N._.N.N._.R.Y.N.N.N.%.N.R.%.%.N._.N.N._.O.[ Y.7.[ 7.7.5.5.c.c.7.}.#Xd.Q.XX|.|.|.9.:.>.:.:.] ] ' ' ` ] 8.N.N.Y.+.+._.9.] 9.7.` :.,.:.] 7.u.[ O._.N.N._.N.N._.N.N.N._._._.N.r.Y.|._.Y.r.8.Y.Y._._.Q.[ 7.z.,.:.,.,.:.,.z.7._ Y.oX+.d._._._.f.3.,.,.:.[ [ ` :.:.' [ N._._._._.8.|.8.[ f.7.' :.:.:.] 7.c.] 7.Y.#.N.r.N.r.t.r.N.r.N.Y.r.t.N._.Y.8.#.#.t.r.t.#.t.8.' 8.O.` ] ] ] ` ,.8.) 8.d.} r.N.%.N.N.8.,.:.,.7.[ 7.7.[ 7.N._._.|.i.} f.OX7.7.z.7.:.,.:.] _ 7.[ ( O.8.8.r.8.r.r.8.8.r.r.r.r.Y.N.N.r.+.+.8.r.N.r.8.f.7._ 8.7.[ :.] ,.[ u.u.[ 8.}.8.}.|._.Y.O.' ' ' ' ] ,.] ] ;.:.O.8.#.r.8.+.r.O.( } } / / ' / ` / ] ` _ +.+.O.O._ _ ' [ [ [ T P ( _ K T [ O.O.+.O.} } +.O./ U [ / T ^ / / / [ O./ } O.+.+.#.r.O.` ` ` ] ~ ' O.} / ` ] ` [ ",
"c n I J j n n L K P _ [ _ ( } / n I J J k J v z J U N k n / / ` ` U I / T P J T T / ` } } _ ~ ` ` ' 8.O.8.[ P T ] ~ J U U J T ' J K } ( / _ [ _ ` T I Y U J / [ P z V J J S / ( _ } _ _ ] ~ ' ( Z J U K Z P T Z J / _ } } } O.#.+.( } +.O.O.#.r.8.r.r.8.O.7.u.d.8.d.8.' ] 8.[ / :.:.` ,.8.[ ( r.+.O.r.+.r.+.[ ;.:.` ' 7.O.' :.` ` [ r.r.r.Y.+.+.Y._ ` } ) ` ] ` R R _ _ P ( _ / _ ( ` ` ( [ [ ( _ / _ ( _ _ _ _ [ } 8.O.[ [ 7.] / 7.7.' ,.:.] ' 7.f.[ t._.#._._._._.u.>.>.>.;.7.9.] :.,.:.[ f.Y.N.Y.8.7.Y.[ ' 8.7.` ' :.' ` u.7./ 8.Y.r.Y.N._.N.N.N.N.%.N._.R.N.%.%.N.%.%.N.%.N.N.N.N.[ _ _.f.[ ,.7.,.7.XXc.7.Q.#X|.XX|.oXoX9.:.,.,.;.3.r.} ` ;.` E ] d.Y.R.N.#.N.7.] 9.7.] ;.>.] ] 7.z.[ O.Y.N.N.N.N.N.N.N.N._.%.#.N._.r.t.|.f.f.f.r.t.Y._._.Y.[ O.z.7.;.2.,.' ,.c.7._ Y._.t.Y.N._.f.3.:.,.:.] 8.r._ / :.' ` } N._._._.N.|.7._ Y.u.] ;.:.:.] d.Q.` 7.r.r.#.+.+.r.N.r.#.r.N.r.#.#.N.N.N._.N.r.t.r.#.#.Y.8.( +.7.` ' ] ' ` 7.8.( +.r.#.N.N.R.N.8.,.,.,.:.9.u.[ 3.7.[ O._._._.OXr.Y._.7.7.c.9.:.>.,.` [ d.} ( 7.+.O.r.r.r.r.t.r.r.8.t.Y.t.N.Z.d.8.O.O.r.N.8.8.Z.7.' 8.u.[ ' ,.[ [ c.d.[ 8.}.}.|.|._.7.' ;.:.` [ d.d.[ / ' ' ' 7.r.8.8.O.+.+./ } O./ T ' / R ` ] / _ O.} } _ _ [ } [ _ [ T J / [ P U [ O.O.} O.7.} { O.` J _ ] P ^ ` T / O.O./ O.r.+.+.t.+.' T ` T T _ +.+.+.[ ~ ] ' ' ",
"n U T T J J n L J J / ( _ } _ P z U / E n I v G / E n n J ] / / E U L ' ` / / ` / ` ' ' [ } [ 7.[ [ O.O.8.[ P / [ ` L Y U J ` 7.P P _ ( ( O.( ) T Y Y U U ~ _ O.( / J Z P P P / ~ ( } _ / P } O.P J P K K / ] K J T / [ O._ O.} _ _ O.r.O.+.r.#.r.r.N.r.8.d.8.7.u.d.z.] [ /.7.` :.:.' 7.d.} _ 8.r.m.N.r.8.[ ' ;.:.:.,.r.8.[ ' ' / ` O.8.Z.N.N.#.Y.[ _ 7.,.` :.` R ) O._ P } } ( ( / / / ` ( _ ( _ _ [ _ [ ( _ _ O.{ O.[ _ O.8.[ ' u.c.] ,.,.] ,.u.Y.} t._._.'._._.8.>.1.1.>.,.d.Y.u.] :.,.] 7.r.Y.R.R.r.Y.[ ' d.8.' ' :.] [ Q.9.` 7.Y.N._.Y.N.t.r.N.N.N.R.R._.N.R.N.%.%.%.m.%.N.N.N.N.[ _ _.}.5.,.7.,.9.XXc.7.f.$XOXOX#X#Xu.,.>.,.,.3.Z._.#.[ ` ` ` ` } d._._.N.N.7.] u.f.[ :.,.' ] z.Q.[ O._.t.t.N._._.N._._._.t.t.N._.Y._.Y.t.f.oX_._.Y.Y.'.}.7.7.|.z.:.,.,.' 7.Q.7.[ Y.]._._._.N.7.,.,.,.:.7.R.N.r.[ ` ' ' ] } _._.]._.|.9.[ Y.}.,.;.:.:.3.|.Q.' 7.f.t.r.#.#.r.N.m.N.r.r.#.+.#.N.N.N.N.N.N.N.r.r.r.Y.8.( +.d._ ` ] ' ' 8.8.` O.Y.R.`.R.N.O.[ :.,.,.3.Y._.8.} 7.} _ 8._._._._._._.7.7./.z.,.>.>.' O.|.O.' 7.+.O.8.f.f.t.N.N.r.N.Y.Y._.N.t.Y.r.7.7.r.Y.r.+.Y.7._ d.Q.3.' ,.,.7.XXf.[ 8.oX_.#X}.7.] :.:.:.' 8.N.r.8.3.' :.] _ 7.Y.r.O.+.8./ } 7.` T ' / / 3.7./ } +.} O.} _ [ } } } [ / T ` 7.` ` O.O.O.+.O.O.O.O.+.[ U [ 3.T T ` P ' r.7./ +.N.#.N.+._ ` T ` T [ +.#.O.+.+.[ / ' :.",
"P P Z K ~ T N n J K P _ _ / _ ( k J ] ` J n v K ' ^ n n U T ^ U J T U I ` [ ` ' [ [ / [ ' _ } O._ / / O.O.' U ` [ ] U J J U ' 3.P J ( ( ( / ` E I T T I T } _ ( _ ( P J J K Z T ` ( ( } ' P _ 8.( K L Z P } _ J J T R / _ O._ _ O.( } 8.O.} +.t.r.+.r.r.8.8.d.8.8.8.8.' ] /.z.] ` ;.,.d.u.[ ( r.r.m.Y.8.] ' :.' ' ' 8.r.+.+.[ ^ ' / ` [ d.N.+.#.Y._ ` d.7.] E T R O.O.( D } } } ( / _ / / / / _ [ _ / [ _ / / [ _ } } _ O.} 8.,.` d.Y.O.:.:.] 8.d.f._ r.'.&._._.8.:.>.1.1.,.f.Y.r.v.u.' :.,._ [ r._.N.m.Y.[ ` 8.Q.[ ' :.] 8.XX7./ 7.d.t.r.t.t.r.t.r.r.R.R.N.N.N.%.#.N.#.#.m.N.r.r.+.r.[ ` d.XX7.[ ,.7.c.XXz.O.f.$X|.#X$Xc.,.,.7.:.,.f._.%.%.r.] ` ] ` ` 3.Q._.N._.9.' 8.}.8.,.:.' O.}.c.] } _.#.t.t.m.N._.N._.N.t.N.N.N._._.Y._._.|.|._._._._.}.7.O.|.}.3.:.:.[ Q.Q.7.] c.'.N.'._.7.,.3.>.>.7._.N.#.%.8.' ' ] ' ' 7._.`._.|.7.] Q.|.u.:.:.:.d.|.Q.` 9.f.#.N.+.#.#.#.#.N.#.+.+.r.#.#.t.N.#.N.#.#.#.t.r.r.8.( 7.Q.7./ ' ` ,.z.8./ 7.R.R._._.7.] ,.,.:.[ d.Y._._.r.3.3.[ _ 8.R._.N.N.|.7.7././.7.>.>.:.d.|.} ( 7.8.O.8.8.r.N.t.t.N.N.N.Y.N.N.N.m.N.d.+.+.8.+.O.Y.3.` u.Q.8.] ' ,.8.XXd.[ u.oXoX|.9.:.:.:.:.:.u.m.+.#.t.8.[ ' ] ' [ 8.8.+.+.8./ ' 8.O./ T T _ 8.} / } 8.O._ O._ ' [ O.} [ ^ U ` ' ~ [ 8.O.} O.O.O.[ } +.' K [ 7.` U T P } +.O./ } +.t.+._ T ` U T [ r.+.+.+.+.o.+./ / :.",
"P P K P ( _ P I J U P ` _ ( | _ J E [ _ U n J / ' ` n n T T U T P ' T L J T / ~ ~ ~ ' } [ _ ' ' ' T T ' O.[ U ` } 7.' L G / } 3.K J ) [ P R P P P T P T [ O._ _ ( ( / R P K K P ( } O.O.[ R _ r.+.R G Z ( +._ Z U ] / ~ ( [ } +.t.O.O.[ _ ( O.t.r.r.8.8.d.8.9.7.7.9.z.' ] Q.Q.9.` ' u._.d.[ ` r.Y.m.8.[ ' :.:.' ] 7.Y.r.+.#.7.' ` ` ` ` 7.+.t.r.Y.} ] d.d.O./ L _ #.+.( D [ O.{ [ } O._ [ / ) / _ _ _ [ } ` ` _ [ [ O.} +.O.8.7.] d._.f.,.' 7._.Y.f.[ f.'.].'.8.,.>.1.>.,.z.Y.t.#.#._.9.] ] [ ] O.r.N.N._.[ ` r._.d.[ / 7._.|.7.' 9.8.#.8.8.f.t.N.r.Y.N.R.R.R.N.#.+.r.r.N.r.r.r.8.+.f.O.` u.OXc.,.] z.XXXXc.O.f.$XOX$XQ.7.,.7.,.,.d._.N.N.%.N.d.,.' ] ` ] 7.N._._.9.' u._.Y.7.' ] f.OXd.] 3.Y.t.Y.t.#.Y.N.t.t.N._._._._._.'._.oXoX|._._._._._.|.7.7.OXoXc.' ' u.OXY.7.] f.'._._.7.,.,.,.,.3.Q._.N.%.#.N.8.' ' :.:.] 8._._.|.9.[ Q._.oX7.' 7.oX_.f.` u._.t.N.r.#.#.#.#.r.#.+.+.r.#.#.r.t.N.#.+.+.+.N.r.t.8.` 7._.d.' ` ' 9.Y.9./ 7._.`._.8.[ :.,.,.,.8.R.R.N._.|.7.,.,.[ _ d._.R._.oX7.7.XX#Xz.,.;.9.|._.[ ` 7.8.O.#.r.t.t.t.#.t.Y.Y.Y.Y.N.N.N.Y.Y.d.8.O.O.8.|.7.` u.Y.Q.7.` 7.Q.OXd._ u.$X}.8.,.:.:.:.:.u.Q.t.r.r.r.t.d.,./ ' ] [ 7.r.r.8./ [ 8.8.[ E T 7.m.} / } Y.+.O.O._ ` _ } O.} / E ` U U ,.7.+.O.O.+.8.} _ O._ T [ r.7.T U ` 8.+.} ~ } #.+._ ` ` ` T [ 8.#.+.+.+.+.O.+.8.' ' ",
"Z P P ~ / ( ( P z J U P / ( / ( T T ( ( P n U ] ~ ` n n ` / J P P ^ / E J I T / P / / ' [ ' ~ _ ' ' P U ] ' I L [ } _ ' U ` } [ Z J ` / P U J P T K U } O._ _ ( / P / / P K K J T [ +.7.] T ' +.O.( P ( { { ( z I ] _ _ / / O.+.r.#._ [ [ _ O.O.8.8.8.7.8.9.,.[ 7.u.j.' ' Q.Y.Q.,.O._.t.d._ / 8.m.8.[ ' :.;.;.' } f.8.+.+.O.8.7.) / ` ` ] _ 8.r.r._ ' 8.8.8.[ ( O.O.+.( D } O._ O.O.O.+.+._ ( / _ } ( ( O._ ' / _ ' O.O.} +.r.3.` d.t.Y.8.} Z.N.N.Y._ 8._.'.r.,.>.>.>.:.u.Y.t.r.N.#.r.Y.7.' :.:.] [ d.r.Y.[ ` r.N.R.8.[ f.N._.7./ 7.8.+.8.+.8.r.r.r.Y.N.N.R.R.%.#.+.r.N.r.r.r.8.8.r.d.7./ 8._.|.8.7.Q.}.|.d.[ u.#X$XQ.7.3.7.,.,.z.|.N.N.N.m.r.N.d.] ' :.' ' 7.N.Y.9.' 8._.N.d.3.7._._.u.' 3.Y.r.t.N.t.#.t.t.t._._._._._._._._._._.oX_.}.Y._._.}.7.O.|._.|.7.} |.R.Y.7.' d._._.7.:.3.,.,.3.Q.R.N.r.%.#.#.R.8.' :.:.:.[ d.Y.}.7.] Q._._.Q.8.Q._._.d.` u.Y.N.#.#.#.#.#.#.#.+.r.+.+.r.N.#.N.#.#.+.+.8.8.r.Y.8./ 7.r.Y.7./ 7.d.d.9./ O.R.R.8.,.,.,.,.,.7.Y.Z.r.Y.Y.R.Q.7.] ,.[ } r.R._.|.7.7.|.|.^.8.3.d._.Y._ ` 7.8.+.+.8.N.r.#.#.r.N.N.N.N.t.N.Y.Y.Y.Y.r.O.O.8.Y.7.' 8.Y.Y.d.7.Z.Y.R.r._ u.#Xu.,.>.>.1.,.d.Q.r.8.r.8.8.r.r.8._ / ` ' ' 7.d.7.~ [ +.+.8.[ ' +.+.O.T [ r.+.+.} ' _ / _ 7.[ T P E z U 7.[ } O.O.8.8.O.O._ ] U ` 8.8.' ^ 7.+.O._ K [ 8._ ^ ' / T ] 8.+.+.+.+.+.+.O.+.#.} ' ",
"J P / _ ~ ' ( / L I J L P / ~ R J L ` ( / U ^ _ / ` n n ` ' P / ^ P ` ` / / T ^ / [ ' ' [ ' / _ ' [ E U T / I I ` ' } } / ' _ ( Z U ( / P U L P U T _ O.{ O.[ / R / ( ) / P K K P ( _ O.} ( _ O.O.O.} } { { / z G ~ ( ( ' _ +.8.O._ ( } O.O.O.[ +.O.O.7.9.7.,.3.9.z.z.' ] Q.r.Y.d.r._.r.r.` ( r.r.} ] ;.:.' ] 7.d.8.8.+.+.O.+.t.7./ / ` ' ` [ +.r._ ` 7.+.+.7.} +.O.#.( P O.O.} O.O.O.+.O.O._ [ O.+._ _ O.} [ [ [ [ O.O.O.+.r.7.) d.r.t.Y.r.N.r.m.Y._ 8._.t.5.;.>.>.:.j.f.t.t.r.t.r.t._.c.,.:.:.:.] 7.8.Y.[ ` r._.N.Y.d.Y.N.}.7.` 7.r.8.Y.8.#.r.r.N.N.N.Y.N.N.N.N.r.N.N.r.r.r.d.r.8.Y.7.` 7._._.Y.d.Q.Y.|.d.[ 8.OXQ.7.,.7.,.,.z.|._.Y.Y.N.m.m.Y.Y.u.[ ] :.' [ t._.7.` 7._.N.Y.d.d.Y._.d.` 3._.N.Y._.t.t.r.N._._._._._._._._._.'._.oXOXoX_._._.}.7.O.|._._.Y.N._.N._.7.' f._.8.,.>.,.,.3.z._.Y._.N.#.#.N.N.N.7.' :.:.] 7.f.|.7.] Q.|._.|._.|.Y._.u.] 7.r.#.#.#.t.#.r.#.#.+.r.#.+.t.#.#.N.#.t.r.t.+.r.t.Y.8.' 7.t.Y.d.O.d.r.r.7./ 7.d.7.,.,.,.,.,.8.Y.N.Y.r.Y.Y.Y.|.c.[ [ 3.[ } r._.|.O.7.}.|._.^.S.Y.N.Y.[ ] 7.r.#.#.8.r.r.#.t.N.r.N.Y.N.t.Y.Y.Y.Y.Y.Z.8.r.r.N.7.' u.Y.m.R.Z.R.N._.8._ f.oXj.>.>.>.,.8.|.Y.d.d.r.d.d.d.r.N.8.] ` ' ' [ d.7./ [ +.+.+.8.} +.+.O.~ [ +.O.} } O.3./ _ } } / T T J / 7._ O.} O.8.O.8.r.O.[ T ` O.O.O.3.7.+.} _ P } O.` / ' / _ +.#.#.#.+.#.+.#.+.#.r.8.7.",
"J P ( / T T U / T U J J I J T P z V P _ ~ / ` / / ' n n ^ ` / ~ / ` P / / ` T U / ' } [ / ' ` / ` ` T P T ` J n P ' ( [ ' ( / ( J J ) R Z U P I U _ } _ _ _ _ ( / ( ( / ( / P J P / ( 7.} / ' O._ _ [ ( ( _ / G P / P ` [ ( _ O._ O.O.} _ _ +.O.O.O.+.8.d.8.d.d.d.8.z.;.' Q.r.r.Y.r.r.N.+.` ( r.8.[ :.' ' ] 7.d.8.+.8.O.} O.+.+.8.[ / T ` / ~ } 8./ / 3.O.} 7.} } +.+.( P } +.O.} O.+.O.O.O.#.+.+.} } [ _ _ O.O.8.O.O.} +.O.8.7./ 8.r.+.N.#.r.r.r.d./ 7.f.} :.>.>.;.9.f.r.r.t.r.#.r.N.d.Y.u.:.' ,.:.] 7.Y.} / 8._.Y.Y.Y.N.N.}.7./ 7.Y.N.m.m.r.+.#.N.N.N.N.r.N.N.m.N.N.r.N.r.t.r.r.r.Y.8.` 7._.r.Y.Y.d.Y.R.8._ 8.|.7.,.3.,.,.z.|.|.Y.Y.Y.m.r.N.m.r.Y.8.[ ' :.] 7.|.7.` 7._.N.N.N.N.N._.d.' 3.Y.N.Y.Y._.r.#.Y._._._._.Y.N.Y._._._._.|.oX|._.Y.N.Q.3.O.|._._._.R.R.N.Y.} ' d.Y.} :.,.:.,.c._.Y.N.Y.N.#.#.N.m.r.t.3.` :.:.:.8.|.7.] Q.}.Y._._._.Y._.i.` 7.+.+.t.r.#.#.+.#.#.#.+.+.#.+.r.#.#.N.N.r.r.#.N.r.t.u./ } Y.r.m.#.r.r.r.7./ 7.d.3.,.,.:.,.8.Y.Y.t.d.r.r.Z.Y.Y.Y.d.[ ] ,.] O._._.} 7.Q.|.R._.R.Y.m.Q.7.' 8.r.r.r.+.+.#.t.t.r.t.r.r.m.N.r.r.N.N.N.r.r.r.r.Y.O.' 8.Y.m.m.N.N.#._.8._ f.c.,.2.>.:.8.Q.Y.f.Y.Y.8.u.f.r.8.r.t.7.' ` ' ' 7.7./ [ r.O.} 8.} } +.} P ' 8.{ _ } O.7.[ ' _ [ ^ U J J ' } O.} _ } 7.8.7.8.u.[ T ' _ O.} O.} _ } ' K _ [ ( / T / 8.+.+.+.+.O.O.O.+.+.O.O.+.O.",
"P ( ( ~ J I T ` _ ` / L G L / ` z n T [ / / E T / ] n n ` / U T ` / T / / ] ' ' T / ' ' ' _ ' ` ` / P ` _ ] Y G ^ _ _ ' [ / / ) J P ) P Z U L J ' +._ _ _ ( ( } _ ' _ / ( [ R K R / _ u.7.R _ O.( / ( ( ( _ / L / _ ( [ O.[ _ _ ( O.#.} +.+.+.O.+.r.r.r.r.r.r.d.d.d.z.:.] Q.t.r.t.r.N.t.8.[ _ d.8.[ ] ' ' u.f.8.8.8.8.O.O.O.8.O.#.8.[ T ` / P _ 8.' ` 7.+.O.O.} } +.8._ P } +.O.O.O.+.+.#.+.#.+.+.O.+.} [ O.8.+.8.8.8.O.7.O.u.7.` 7.#.+.N.r.r.m.r.8.' 7.f.7.>.>.:.j.f.t.t.t.N.r.r.t._.f._.|.9.:.,.:.] 7._.} ` d._.Y.Y.Y._.Y.|.9.' 9._.Y.N._.Y.r.#.r.Y.Y.r.r.N.r.#.r.N.N._.N.#.t.N.N.Y.7.` 7._.N.N.Y.Z.N.Y.8._ 8.|.7.,.3.,.8.XX|.Y.Y.Y.Y.Y.Y.Y.Y.r.N._.8.:.:.] +.|.7.` 7._.N.N.N.N.N._.f.' 7.}.N.Y._._.Y.N._._.'._._.t.r._._.Y._._._._._._.t._.}.7.7.|._._._.N._.N.Y.7.] d._.3.1.>.,.d.}._._.Y._.N.N.t.Y.N.N.%.r.3.:.:.,.9.XX7.[ }.}._._._._._.OXd.] 7.r.r.N.t.t.#.+.#.r.#.r.+.#.#.#.#.r.N.N.#.#.t.N.N.Y.8.' 3.f.r.N.#.N.#.t.7.` 9.Q.7.,.,.,.8._.Y.Y.Y.Z.r.r.d.Q.Y.Y.|.d.] :.:.[ r.|.[ 7.|.|.R.Y.Y.Y.Y.|.9.[ 8.Y.Y.Y.+.O.+.t.N.m.r.#.#.N.r.r.r.N.r.r.r.r.r.r.Y.7.] 8.N.N.m.N.N.r._.8.[ c.f.7.,.;.7._.Y.d.Y.Q.f.d.8.8.t.r.r.#.r.3.' ` ' 7.z.' 3.8.+.+.O.} } +.O.~ [ +.{ } O.O.r.#.O.O.] T E L U ,.} } O.[ O.7.d.8.7.8.[ ~ ] [ O.[ O.} _ O._ P O.O.~ T _ O.#.#.#.#.#.O.{ { } O.+.+.+.O.",
"/ ~ _ ( K T ' _ ' ' [ E n J / E J J ` / / / K / ~ ' I v ^ / J P P ` / P / ' ' _ ~ P T ` ` / ` _ / / ` / _ ' J J ` ' ( ' ' / / / J J ` R G G J _ } [ _ ( / ( ( _ _ / / ( ( ( _ T K ` [ 7.,./ ` } ( / ~ P ( ( ~ J P [ [ ' [ O._ ( [ _ [ O.O.#.+.O.O.+.8.Y.r.8.r.8.r.d.8.' ' Q.t.r.r.r.r.#.f.[ ( f.8.] ' [ u.d.8.8.8.+.8.7.7.O.O.7.O.+.+.] T T / _ O./ ' 7.} +.} _ } +.O.' P } O.O.+.O.O.O.+.+.O.O.+.O.O.} O.O.+.8.8.+.+.O.O.+.8.[ ` 7.+.#.+.#.N.+.r.8.` 7.d.O.;.;.7.v.t.#.t.t.Y.r.r.r.r._.Y.Y._.9.:.:.] } Q.} ' d.Y.Y.Y.Y.}.Y.}.9.` 9.f.r.N.N.Y.t.+.#.N.m.N.t.r.r.N.#.r.N.N.#.N.t.r.t.N.O.` 7.N.t.N.m.m.r.N.8.' 8.}.7.,.,.z.|._.Y.d.Y.Y.r.f.Y.d.d.N.N.N.Y.8.:.] 7.|.7.` 8.N.N.R.N.N.N._.d.' 3.|.N.Y.N.N.N._._._._._._.t.t.Y.Y._._.Y._._._.t._._.Q.7.3.|._._._.N.N.N.N.7.' z.Y.,.;.:.u.|._.N._._._.N.N.N.r.Y.N.#.r.f.7.:.,.9.}.7.[ }._.|._._._._._.Q._ 7._.#.r.N.N.#.#.O.+.N.#.+.r.+.#.N.N.#.+.+.#.r.m.N.N.7.' 7.r.N.#.#.#.#.N.8./ 7.Q.7.:.:.7.Y.N.r.d.N.r.r.r.d.f.Y.Y.Y._.8.] ' [ r.XX3.7.|._.Y.R.Y.Z.Y.|.7.] 8.Y.N.Y.r.+.r.r.t.N.r.r.+.+.r.r.r.r.#.+.r.r.r.+.Y.7.' 8.Y.r.m.m.r.m.Y.7.[ z.c.,.:.5.d.Y.t.N.f.d.u.8.8.8.8.8.8.O.+.8.,./ ` 7.9.' [ 8.+.+.O._ { } } P ' 8.O.} O.+.+.+.8.7.` T :.:.E ' [ _ 7.O.7.} 7.8.O.} ' P [ O._ O._ ( } _ / P } } P / +.+.+.+.#.#.+.+.O.O.+.+.#.O.+.8.",
"( ( [ ( ' ] _ [ / / ` T I U ' / J E ` / / / T ` / :.U n T ` T T U ' / ' _ ' / / ' ` P ' ' ` / ' ` _ _ ( _ [ J L ' ' ( ' ( _ / ` P P _ R V n R +.+.O.O.( / } _ ( [ _ ( [ _ } O.) P P [ u.,.R ` [ ( ( / / ( _ / J U ] [ O.7.} _ [ } _ O.[ / ( O.+.8.O.8.r.r.r.r.8.8.8.u.' ] Q.t.r.r.r.r.#.Y.[ _ _.f.' ] z.Q.r.8.r.d.+.8.r.8.O.O.8.8.O.8.8./ U / O.8.` _ 7.O.7.} [ O.O.r._ / O.O.+.8.+.O._ O.+.O.+.#.+.O.O.8.+.+.O.+.+.8.O.O.[ O.,.` 7.+.#.+.#.t.#.Y.8.' 8.f.[ / 7.f.t._.t.t.#.#.t.Y.8.t.Y.Y.Y._.Q.j.:.] O.|.7.] Y._.Y._.Q.Y.Y.|.8.` 7.f.t.N.N._.N.#.r.Y.Y.Y.Y.N.Y.N.N.N.N.N.t.N.t.t.r.t.7.' 8.N.m.N.m.m.r.Y.8.' 8.|.[ ] z.|._.Y.t.Y.r.r.Y.Y.Y.Y.Y.Y.Y.Y._._.7.] O.|.u.' 8._.N.N.N.N.R._.d.` 7._._.N.N._._.N.Y.t.t._._.Y.N.t._._._._._.'._._._._.|.7.7.oX_.Y._._._._._.7.] f.Y.[ ] u._._._._._._._._._.N.N.N.N.N.N.N.Y.3.' 9.XX8.} |.|._.|._.|._._.|.O.7.r.N._.N._.N.#.+.t.+.t.#.+.#.N.#.#.O.+.+.t.r.r.8.8.7.' 7.Y.r.N.r.t.r.Y.8.) u.Y.} ' 7.Y.Y.N.f.t.r.d.r.Y.d.Y.Y.Y.Y._.|.9.' _ r.#X7.7.|.R.Y.R.Y.Y.Y.}.7.] 8._.t.Y.Y.N.N.N.t.N.Y.Y.r.8.r.r.Y.r.+.8.r.r.r.r.Y.O._ d.Y.r.N.m.m.N.R.7.[ c.c.:.,.d._.r.t.Y.Y.d.d.c.c.d.u.8.8.+.+.r.7.' ` 9.z.[ } 8.+.O.O.O.} } } T ' 8.+.O.O.+.+.O.O.7.` T :.Y I ' [ } [ 7.7.} 7.O.O.7.' T ,.+.[ O._ } +.} ' P } } ( 8.#.O.#.#.r.r.#.#.#.+.t.#.#.#.+.8.",
"( [ ( _ ( _ ' R P T ~ ' T K ( ( Z U _ ( T / / ^ ` ] K n T / / / L U ' ` ] ~ P ` / ~ / / / ` T ~ _ _ ( } [ ( V G ' } / / / ( ( _ K J [ R Z / [ [ } O._ ( ( ( } O._ _ _ [ } _ { O.P D [ 8._ K T _ _ ~ / _ ' ( T J L / ` [ [ _ ( ( [ } [ } ` _ 8.r.7.O.O.8.r.8.8.8.8.8.7.' ] c.r.r.r.r.N.#.8.[ _ Y.d.} 8.Q.r.8.d.r.8.8.8.+.8.8.8.O.O.} O.+.3.T P O.8.( ' 7.7.O.O.} O.O.+.( P O.O.O.+.+.} [ +.O.+.+.+.+.[ O.+.8.O._ O.O.O.7.O._ [ ] / 7.#.O.+.+.#.+.r.8./ 8.f.[ [ f.t.#.t.#.#.#.t.r.t.r.r.r.Y.t.f._.Q.7._ O.|.7.' d._.Y.Y.Y.}.Y.Q.9.` 7.Y.r.t.N.N.N.N.r.r.N.N.Y._.N.N.Y._.r.#.r.r.t.r.#.r.} / 7.Y.r.r.r.r.N.m.8.' 8.|.7.7.}.|.t.N.t.r.8.r.Y.N.N.Y.f.d.f.Y.N._.c.7.7.|.u.' 7.N.N.m.N.%.N._.8./ 3._.N.N.N.N.Y._.Y.t.t.N._._.t.Y._.N._._._._._._.N._.|.7.} |._._.Y.N._.N.N.7.] d.f.7.8._._.N._._.N.#.N.N._.N.N.m.%.N.N.N.N.d.7.c.#X8.3.|.|._.|._.|._.oXY.[ 7.Y.t.N.N.N.#.m.#.#.r.#.+.r.+.#.+.O.O.8.+.+.r.r.O.7.7.' 7.f.m.r.r.N.t.r.8.` 8.Y.8.7.d.Y.r.r.r.r.r.d.f.r.r.Y.N.Y.Y.Y._.Q.,.` 8.XX3.7.Y.Y.Y.Y.Z.Y.Y.d.3.] u.Y.N.Y.Y.t.r.r.r.r.Y.d.r.r.+.r.t.8.+.8.r.8.r.r.m.O.' 7.Y.m.r.m.N.m.m.O.[ f.u.7.u.Z.t.r.r.t.d.d.d.Y.Y.d.8.7.8.+.+.+.8.} } r.i.[ [ +.+.O.O.O.O.} ] P ' O.} O.O.} } } O.' L T :.n J ,.[ _ 7.3.O.7.7.} 7.3.` U ' O.} ( } _ O.O._ P _ } O.+.+.O.O.+.+.+.#.+.O.#.+.#.#.+.+.+.",
"_ ' / ' ( [ ` K J / / ,./ / ( / Z J ` ( ~ ` ` / / ,.T n T ] / ] P J U T ' ~ P _ ' ` [ [ / / / / ( } [ [ _ T G J / _ ( _ _ ( ( ` Z K ` ( / O.( / ~ / / ( / / _ } _ [ O.( ( ( } +.} [ O.7._ K P _ _ ' _ } ` T U L U / R ` _ _ _ ( _ ' ( O.O.[ +.r.r.O.O.+.r.8.f.d.r.8.7.[ ] 8.t.t.r.r.t.+.O.} [ f.Q.d.f.f.d.+.+.O.7.f.r.8.8.8.7.} O.[ O.O.8.[ / O.8.' ] [ O.+.8.O.r.r.O./ R O.#.O.#.+.O.O.+.+.8.8.8.+.O.O.8.r.O.[ } +.8.+.+.O.O.] / O.#.+.+.O.r.r.+.+.` 7.r.8.d.t.t.r.t.N.#.r._.Y.Y.t.r.Y._.Y.Y._.|.d.O.8.|.7.[ 8._.Y.}.Y._.}.7.7.` 7.f.r.N.N.N.N._.N.N._._.Y.Y.t._.|.Y.#.8.r.N.r.r.#.f.7.' 7.Y.r.m.r.r.Y.r.7._ 7.|.N.Y.Y.Y.N.N.N.r.r.r.Y._.Y.d.f.Y.Y.Y.Y._.}.Y.N._.u.] 7.N.m.N.N.N.N._.7.` 7._.r._._.N._._.'.oX_._._._._._._._._.Y.Y.f.Y._._._.}.7.7.}._._._._.'.r.O.7._ f.Y.N.Y._._._._.N.%.#._.N.t.#.#.N._.N._.r.N._.Y.oX#X9.3.|._.oX_.|.oX_.|.d.[ 7._.#.N.%.#.#._.N.#.#.+.+.#.+.+.O.+.#.r.+.8.r.8.+.8.7.] 7.8.N.m.r.N._.8.7.] 8._.r.Y.r.d.t.t.t.N.t._.Y.r.r.r.N._.Y.Y._._.d.[ r.#X7.7.d.Y.Y.R.Y.R.f.7.,.[ u.Y.Y.Y.Y.Y.r.r.r.r.+.8.r.r.r.t.r.r.r.N.r.r.r.r.N.7.' 7.r.N.r.r.Y.r.8.7.[ d.Y.t.f.r.#.t.r.r.f.Y.r.8.8.+.8.r.r.+.+.+.+.+.+.r.d.[ [ O.+.+.+.+.O.[ T T ] O.O.O.} _ } } 7.] L ` 9.T ` 7.O.O.7.} O.7.8.O.7.7.] T ` _ } } 8.O.+.O./ P [ +.#.O.O.} O.+.#.#.#.+.O.O.#.+.#.+.+.8.",
"( _ / P ` ' ~ T U U ` / ' / / / Z J U P / / ^ _ ' :.T J ^ / ( / / J J ` ~ / T / / ' O.[ ~ ` / / ~ ' _ / T U n G U U / ' _ [ P K J Z T ( ( ( ( / P D / ' ( ( ~ / _ ( [ / D / ( } O.+.} _ ` P / ` / _ O._ P P / J U ` / / / / ` _ ' ( ` ' [ ( } 8.8.8.O.O.8.r.Y.Y.8.8.u.[ ] 7.O.8.N.r.7.( 7._ ) Y.f.r.Q.d.8.+.O.} 8.8.8.8.8.} } } } } O.} O.8.O.O.+.( _ } ( +.8.8.r.O._ / T } O.O.+.O.O.} O.8.r.+.#.O.O.O.+.r.8.} } 8.8.O.O.O.7.] / 7.} O.+.+.8.} } } / 8.r.r.t.r.N.N.N.#.N.t.N.N.t.#.Y.N.Y._._.Y.Y.Y.r.t._.O._ 8.8.Y.Q.Y.Q.O.7.7.` 7.f.t.r.r.N.N.N.N.N.Y.Y.t.Y.f.Y._.t.#.Y.Y.r.8.r.r.d.,.' 7.7.7.r.#.N.7.} 7.' O._._._.N.t.N.r.t._._.Y.Y.N.Y.Y.Y.Y.Y.d.f.f.Y._.N._.u._ 7.8.+.N.r.N.Y.d.7.' ,.Q.N.Y.Y.N.N._._._._._.N._._.N._._.Y.r.r.r.Y.Y._._.c.,.[ Q.7.8.].]._.[ 7.O.` Y._.N._.N.N.N.N.#.N.#.#.N.N.#.N.r.N.N.N.m.Y.N._._.#X9.[ }.8.Y.|._.|.|.8.7.[ 7.r.N.#.#.#.#.N.N.#.O.+.+.+.#.+.O.+.r.+.8.8.8.8.8.u.7.' 7.O.O.r.r.Y.7. .7.] 7.Y.N.r.d.d.r.t.r.f.N.Y._.N.r.r.N.N.Y._.N.Y.Y.r.f.|.3.3.u.7.r._.Y.Y.O.7.3.] 8._.Y.Y.Y.Y.r.+.+.#.8.r.8.+.r.r.#.r.r.r.m.t.r.8.N.7.' 5.[ +.N.N.r.} O.7.[ 8.N.#.#.#.#.#.r.r.8.8.#.+.O.+.Y.r.+.+.+.+.+.+.+.r.8.' [ O.} +.+.+.[ T T U ` 7.} } } } O._ } ' U =.>.T ' [ } 7.7.7.O.O.7.+.} 7._ P ` T / O.O.+.O./ / P _ 8.} +.} O.#.O.+.+.#.O.O.} +.+.O.O.+.+.",
"_ O.( / ` / ~ _ ~ T T U ~ ~ / ` J T Z S P ] ` ] ` T I J ` / ' ` ` T T [ ' _ ` T / [ ] / T ` ] ` / / P P P E I I U U K / [ P Z P P J / ) ( ) ( ( / / / ' } _ / / _ _ ( D P [ ( _ O.[ _ [ _ T _ [ P _ 8./ Z ` ` J P ] ` / / / ` / ' } _ ( _ _ O.+.+.O.+.8.8.r.d.r.+.8.u.[ } d._ O._.#._ _ u.[ _ Y.Y.r.Y.d.d.r.8.8.f.8.8.+.O.} } _ } +.O.} O.#.r.+.8.( [ 7.' _ 8.m.+.[ _ ' / O.+.#.#.+.#.O.+.#.r.+.8.+.O.+.t.8.t.+.8.8.7.O.O.O.8.[ / 7.( / r.#.7.` O.7./ 8.N.#.t.r.t.N._.N.N.N.t.r.#.#.N.N._._._.Y.Y._._.Y.|.O._ d.O.O.}.|.c._ u.z.` 7.Y.N.t.t.N._.Y._._.Y.Y.Y._.f.Y.Y.N.N._.N.t.r.r.r.Y.7.' 7.] _ r.N.r._ [ 7.' 7._.N._._.Y.t.t.t.Y.N._.N.N._._.Y.d.r.t.f.Y.Y.Y._.|.u._ 8.8.[ r.N.N.r.O.8.' [ }.N.Y.Y._._.f.N.t.Y.Y._.N._._._._.Y.r.t._.|.Y._.N.f.3.3.Q.7.} Y.oX8.} _.+.` _._.N._.N._.N.N.N._.%.N.N.N.R._.N.N.N.N._.N.Y._._.#X9.[ XX8.[ |.OX_.+.O.d.O.7.r.N.N.#.%.#.N.#.+.+.t.#.#.r.#.+.#.#.r.r.r.8.8.r.f.9.] 9.7._ g.N.8.[ O.f.[ 7.Y.N.t.r.f.r.f.r.Y.Y.Y.Y.t.r.Y.Y.N.r.t.N.Y.Y.Y.Y.|.[ 3.c.7.} Y.|.8.[ u.7._ 8._.Y.|._.Y.r.+.+.t.r.r.r.r.r.r.r.N.N.r.r.r.r.r.N.O._ 9.O.[ +.+.} ( 8.8._ 7._.#.#.N.#.+.#.#.#.r.Y.#.+.N.N.r.#.+.#.#.+.+.+.r.7.' 3.9.( [ r.+.' / ] U ` O.O.O.} O.+.} } ,.E Y Y I ' 7.O.O.8.7.O.O.7.O.O.7.` P ` ` / ( 8.7.( ( } P _ +.O.+.+.#.#.+.+.#.#.+.O.O.+.+._ O.#.+.",
"_ [ [ / T / P ` ( T J / P P / ^ J P T Z Z / ` / P T N N ` ' ( ` T / / ` _ _ / T ~ [ ` U U ` ( ( _ / P / ` ` L T ,./ V U T P Z _ / Z ( [ / P ( [ ' P ( _ _ _ ] ~ ( } / / ' ( ( ( ( ( ( } ' P ` 7.( ~ / P T ` ` J U ` / _ _ / P ~ ' [ _ / / } O.} O.} O.+.+.+.O.O.O.+.8.[ _ Q.O._ 7.[ _ 8.8._ _ d.d.8.r.d.r.+.r.f.r.r.8.O.} } } _ O.O.O.O.O.} O.+.8./ ' 8.} ( [ } [ _ r.} P O.+.#.r.N.t.+.+.O.+.#.+.+.8.+.r.#.#.#.#.+.O.[ O.} O.[ P 3.7./ 8.8.( [ r.O.T 8.r.#.t.8.#.+.t.N.r.t.r.#.#.#.t.t.Y.Y.t.t.t.f._.Y.|.O._ d.c._ 7.XX7.} XX8.` 7.Y.N.N.t.t.Y.'._._.Y.Y.Y.Y.Y.Y.r.Y.N.N.N.N.8.r.#.d.3.` u.9.` 7.}.} ( 8.7./ O._.#.t._.Y.t.t.r.#.t.r.N._.Y.r.r.r.r.Y._.f.f.f.t._.7./ 8.f._ } _.d.[ 8.Q./ [ Y.N.N.Y.Y.Y.N.N.N.Y.Y.N.N._._.Y.N.N.N.Y._.Y.Y.t.t.Q.3.[ Q.Q.+.[ O.+.Y.N.+.` _._._.t.N.N.N._.N.N.R.R.#.#.N.N._.N.#.N.N._.Y.N._.|.7._ }.}.O.7._.8.} d.Y.[ 7.Y.#.r.#.#.#.#.+.#.#.#.#.t.+.+.+.+.+.r.8.8.8.+.7.8.7.` 7.p.[ 7.u. .O.f.r.) 7.f.#.f.r.8.8.d.d.r.r.N.r.t.t.r.Y.t.+.+.#.Y.Y.t.Y.}.] ,.z.u.[ 7.9.} O.d.7._ 7.Y.Y.|._.Y.r.8.8.r.r.r.8.r.r.r.r.N.t.+.+.+.r.+.N.O.' 7.r.+.[ ] _ } d.O.( O.N.#.r.r.r.r.#.+.#.%.#.r.#.#.#.t.r.+.O.O.+.+.+.+.7./ } z._ ` } _ ( } [ J / } [ } O.} } O.7.] / T T ` 7.} O.} 7.O.O.} 7.} } } ` J ' 7.) P [ ` ( O.u.P / O.O.} +.#.+.+.#.+.#.+.+.} O.+._ _ +.O.",
"_ } O.T U ` / ` ` P / ' ~ ` ' T j J / P Z K U ~ / [ U J T ` ( _ / _ ` ( ' ' / ` ' ] ) E P ` ` / [ _ R ( _ / P / [ [ P I I ` _ [ R Z ) [ / P ( [ ( / _ _ _ } _ / _ [ ( _ } _ ( / ( [ _ } _ P ( 7.O./ J / [ ' ` P T ' ' } O.' / _ O.{ } _ _ O.O._ [ O.+.+.+.O.O.O.#.+.8.[ [ Y.r.O._ ] Q.d.7.[ _ c.f.8.r.d.d.8.r.r.Y.8.+.+.+.} } O.+.O.7.O.} _ O.#.8.` ] 8.8.O.[ ( O.O.N.O.P +.N.#.8.8.8.r.8.O.+.+.#.#.#.r.#.r.t.+.#.O.} [ +.O.7._ T [ d.+.7._ / 8.r.O./ 7.t.#.r.r.+.O.#.m.N.t.r.r.N.#.r.N.Y.t.#.+.Y.Y.Y.Y.|.O._ 8.|.r.7.9.8.f.}.8.` 7.Y.N.N.Y.f.t._.Y.Y._.Y.Y.Q.}.Y.Y._.N.N.Y.t.r.N.#.Y.7.' j.XX7.,.5.O.8.f.7.` 7._.#._.Y._._.r.r.N.#.#.N._.N.8.#.t._.Y.Y._.Y.f.t.Y.7.` u.}.O.[ u.O.} |.d.` [ Y.r._._.N.N.t.Y._._.Y.N.Y._._._.N.t.Y._.Y.Y.N.t._.}.7.} Y.oXN.7.O._.N.t.7.` _._._.N.%.N._._.R._.R.R.#.#.#._.R.N.N._.Y._._._._.|.9.[ _.OXR.7.O.8.r._.Y._ 7.Y.#.r.#.#.%.%.#.N.m.r.t.t.8.+.8.8.+.8.8.+.O.8.O.8.7.` 5.}.8.7.,.7.f._.r._ 7.Y.t.r.r.r.8.r.d.t.t.r.t._.t.r.N.t.#.+.r.Y.Y.t._.}.[ ,.z.Q.8.7._ O.N.Y.7._ 8._.r.d.d.8.8.r.8.r.r.t.t.8.8.t.8.+.#.+.+.#.r.#.N.7.' O.r.N.+._ O.r.r.O.( [ +.#.#.#.r.#.+.+.+.%.#.+.+.#.N.r.+.O.O.+.8.+.+.+.8.' } Y.7._ ` ' 8.+.' P ' O._ } +.7.O.7.,./ ` :.` ,.7.} +.O.O.O.7.7.7.[ _ 7._ P ] 7.O.( / / 8.+.O./ ' +.O._ +.+.8.+.r.+.+.#.t.O.+.+._ O.+.O.",
"{ } _ / P ` ' / T ` P / ' / ] U d I U P / / J / _ 7.^ J T / / _ _ / ( ( / ~ ~ ) ] ] ~ ] E T ~ ( ( ` / P ( ` K J ^ [ / J U [ ' T U S ( _ / ( / ` _ ~ / [ } _ ' ~ ~ ( _ ( _ ( P T _ } ( ' ' P / _ } } / _ _ / _ P P [ ( ( } O._ _ O.8.} _ } } } [ [ O.+.O.O.+.+.O.O.#.8._ } t.+.r.+.7.Q.[ [ [ ` d.r.8.d.8.d.r.8.O.#.8.r.+.8.O.O.O.+.8.8.} } _ O.+.7.` ] u.+.8.+._ O.#.+.} R O.r.+.+.O.+.O.O.O.} } 8.#.+.+.#.#.+.O.} } O.O.} O.7.` T [ [ r.8._ 7.8.+.7.P 7.r.#.#.r.N.#.+.+.N.#.#.r.#.r.N.t.N.t.#.8.f.Y.Y.t.|.7.[ u.r.|.}.8.|.Y.8.8.) 7.Y.r.Y.Y.Y.r.r.t.Y.d.Y.Q.u.c.Y.Y.Y.N.r.r.r.r.r.#._.7.' 7.Q.f.7.7.c.r.8.7.' O._.N.t._.N.t.#.r.t.r.r.N._.t.r.f.Y._.Y._._.Q.Y.t.Y.7.` 8.Y.r.8.[ O.Q.8.7.] _ d.r.N.Y.N.r.t.Y.Y.Y.R._.r.8._.N.r.N.t.Y.Y.t.r.Y.Y.Q.7.[ d.8.Y.Y.Y.oX+.+.7.( N._.N.N.#.N.N.%.R._.%.#.#.N.N.#.N.N.N.N._._._._.N.|.9.[ }.N.Y.R.r.|.N.#.Y._ O.8.r.r.+.#.+.#.%.N.#.N.r.7.7.r.+.8.+.8.+.7.7.8.7.r.7.' 7.8.}.u.[ b._.#.r.[ 7.Y.r.r.d.f.8.8.r.Y.r.r.t.t.N.N.r.Y.t.r.r.r.Y.N.Y.}.] ,.z.d.r.m.+.N.r.8.7._ 8.Y.r.r.8.r.r.8.r.r.8.r.r.8.#.+.#.r.r.r.8.+.+.#.N.O.' O.O.8.#.O.8.+.O.O./ [ #.+.+.+.+.+.+.O.+.+.o.+.#.#.#.#.O.O.O.8.+.+.+.#.8.` [ 8.} 3.[ } 8._ / U ` [ [ [ } 7.7.[ ` U / ;.n P 8.+.+.O.8.O.8.7.} _ _ 3.' U ` [ } } _ } r.O.' / _ O...O.+.O.+.8.+.+.#.+.#.+.O.O.O.O.O.+.",
"( O._ ' / _ ( ( ~ ( / [ ' ` / T n ` I Z ' ' P [ _ / U J ` R P _ [ _ ( ( / ( ` ` P / ' ` / / P ( _ ( / P ( ) K J L ~ / / ] ` S P P P ` _ ( [ ( ` _ / / _ } ( ^ ~ P ( _ _ ' R P ( _ _ _ [ ` P / _ ( } O.} / R [ / R O.[ ( O.O.( / [ } _ ' ` ` [ O.O.8.+.O.+.r.r.+.+.#.8.[ O.t.O.8.'.r.O.` [  .) u.r.d.Q.d.f.f.8.O.O.8.m.8.r.#.#.+.+.+.8.O.} O.8.O.8.` ] d.} } r.+.#.+.O.[ / O.r.+.+.+.r.7.7.} [ [ 8.8.[ _ r.+.+.O.} O.+.O.[ O.O._ / 3.( } r.+.r.7.} 8./ 7.r.#.#.t.Y.N.#.+.r.m.%.#.N.m.N.N.N.Y.Y.Y.Y._.Y.t.|.7.[ c.+.8.|.|.|.7.7.u._ 7.}.t._._.Y.r.r.r.t.Y.}.d.7.u.|.Y.Y.Y.r.+.N.N.r.t._.7.] 9.7.7.Q.|.Q.O.} 7._ O._._.t.N.r.8.t.t.r.t.N.N.t.t._._.f.Y._._.Y.Y.Y.Y._.8.' u.r.#.Y.+.Y.Y.} 9.[ _ Y.8.8.Y.N.Y.t._.Y.Y._._.7.,.d._.N.N.t.t.t.t.t._._._.7.O.u.[ +._.OXt.[ 7.7.) t._._._.#.#.N.N.N.N.#.#.%._.%.%.%._.N.N.N.N._._.N.|.9.[ }.8.+.].OX|.r.#._.[ O.Y.N.N.#.#.+.#.N.N.N.Y.8.[ 7.f.+.r.#.+.+.8.8.8.8.r.7._ 7.7.f.oXf.}.7.O.t.[ 9.Y.t._.f.Q.d.8.8.Y.N.Y.#.t.N.N.t.N.N.N.t.r.Y.N._.}._ ,.u.7.O.Y.`.N.} 7.7.[ 8.t.r.Y.Y.Y.t.r.r.r.r.d.O.8.t.r.r.N.N.N.N.+.#.#.N.7.' 7.} O.N._.8.( [ O.( } m.+.+.+.+.+.#.N.#.+.#.#.#.+.#.+.+.+.+.+.#.#.#.r.8.` [ 7.` 7.Y.8.[ / ' T ' } O.[ 7.3._ [ ] T :.E 0 n ] 8.8.+.8.O.+.O.( ( O.7.' U ] ] ( [ r.+.O.( _ ( [ +.+.#.r.+.8.+.+.r.#.O.+.+.O.O.#.O.O.+.",
"_ } _ ' ( ' _ _ P ~ ` ~ _ ' P / K ` L z P T ~ / T T J K T E P T _ O.( ( / _ ` U I L ` ] T T / ( _ ( P R ( / J P I J U / ] P V E T Z ) O.( _ ] [ ` / / ` / ( ~ / P P / _ ( / _ [ _ ( _ [ / Z ' _ P ( O._ K R [ / / } _ [ ' ( ( / / ' O._ / T ` _ +.O.O.+.+.O.+.+.O.O.8.( } d.[ O.}.8.` ` 3.] ` d.f.8.d.d.8.8.r.O.8.+.+.r.r.8.8.8.+.O.8.O.8.7.+.8.7./ ] u.] ' +.R.r.( [ O./ O.r.+.r.r.r.r.8.} } 8.u.[ ` ' } 8.+.} O.} O.[ } [ 7._ / 7._ ( 7.8.,.` O.7.T 7.d.+.t.8.r.N.N.+.+.#.t.#.t.N.N.t.N.N.Y.Y.Y.Y.f.t.|.7.[ }.7.[ u.}.9.[ 9.u.] 7.Q._.N.Y.t.r.r.r.d._.d.7.,.3.z.|.Y.r.m.r.r.N.N.#._.7.] j.5._ f.#X9.` 3.7.( 7.Y.#.N.#.t.t.r.#.t._.N.t.#.N._._.Y.Y.N._.Y.Y.f.Y.oX8.' 8.8.[ r._.Y.O.[ 8.] ] f.8.+.8.r.f.Y.N.N._.Y.7.,.,.3.f._.N.Y.Y.t.Y.N.t._.}.7.O.f.[ ] u.c.[ [ 8.O.` f._.N.N.N.#.+.N.#.#.#.m.#.%.R.%.#.R.R.%.#.N.N.Y._.|.9.[ }.7.} Y.oXd.O.r.Y._ 8._.m._._.m.+.#.+.N.Y.d.[ :.,.7.r.r.+.+.+.7.7.8.+.8.7.) 7.O. ._.$X8.[ O.8._ 7.Y.t.t.f.d.r.r.8.#.N.r.N.#.r.N.t.r.r.r.r.Y.f.r._.}._ ,.8.,.] 8.OX7.` 7.7._ 8.Y.r.f.Y.r.r.r.+.r.f.7.[ } d._.#.#.r.r.r.r.#.+.N.7.' 7.[ ( 8.f.[ ( } O.( } #.+.+.+.+.#.#.#.%.%.#.+.+.#.+.+.#.+.+.+.r.N.r.+.O.` [ 7./ [ Y.8./ ` :.U ' 7.O.8.7.{ O.' ` ` / n v U T ` 7.8.O.O.} _ _ _ [ O.` P ] ] / / 7.7._ ~ [ / _ r.+.O.8.8.8.} O.+.8.#.r.O.[ O.O.O.O.O.",
"_ [ _ [ ` ` [ _ / / / / _ ' / ' P T J z J T ` / Z T U P T ' P T / _ ( ( ( ` P I I L U ' ` ` / / / / P / ( / L E T L Z T ` K J ` T Z ) O.[ [ [ [ ` P ~ ` / [ } [ ( P P ( _ [ O.O.O.} [ [ ` P [ 7.T / [ / P ` [ / / 7.O.} _ ' [ ' [ } [ ` / ' T ` +.+.+.O.O.} } +.+.+.+.( } d.[ ] 7.7.) ] [ ` / d.Y.8.d.d.8.8.r.r.r.O.+.+.+._ ' } 7.8.8.8.d.8.8.8.} / ] d.[ ` 7.Y.O._ } 8.` O.#.#.N.r.8.r.8.r.d.8.[ ' ] ' [ O.8.+.#.O.} } O.O.7._ / 8.3.` 7.7.` / O.9./ 7.f.r.Y.r.r.N.r.#.#.#.t.#.r.t.r.N._.N._._._.f._._.}.7.O.}.9.[ 9.z.5.[ u.u.[ 7.Y._.t.t.t.t.N.f.}.Q.7.:.,.,.7.Q.|.N.N.Y.N._.Y.N.|.7.] 9.5.' j.z.,.` 7.7.( +.N.#.t.t._.N.t.t._._.t.#._._._._._.N.f.t._.Y.Y.Y.oX8._ d.8._ 7.}.8.[ } 8.] _ Y.8.+.+.8.f.N.N.Y.Q.7.[ ,.,.[ 7.|._._._._._._.N._._.7.O.c.7.] ,.7.] [ 8.O._ t._.N._.N.t.#.#.r.#.#.N.#.#.R.#.#._.N.#.N._.N._._.|.9.[ }.u.7.9.u.7.O.r.Y.[ 8._.R._.R.N.r.N.#.N.Y.7.:.,.:.[ 8.8.+.+.O.7.9.8.#.t.7._ 7.7._ 7.f. ._ O.8.( +._.N.t.8.r.t.Y.#.r.t.t.r.#.t.N.t.N.r.#.#.N.f.N.Y.}.] 7.z.7.:.7.z.O._ 9.7._ 8.Y.r.r.r.r.f.r.r.f.9.,.,.,.7.f.N.t.#.r.#.#.r.#.N.7.' 7.7.( [ } _ ' O.O.( O.%.#.#.#.#.#.%.#.N.#.+.} O.O.+.#.#.#.+.+.8.r.+.+.O.` 3.7.` ' 7.[ T [ [ T ] } [ O.O.O.+._ ' T U v I ;.T U ` _ 7.O.} } 8.} } O._ T 3.} ` T ] [ ` / [ / _ #.#.+.8.+.O.} O.O.8.#.+.} _ +.o.O.O.+.",
"[ ' _ [ / / T / ' ' ' [ ' / ' ^ J T n J J J ` T J / P J / ` T T J / / ( ' P J U T U G U ' ) T P P / P P ( / J P / J G I I U U T T Z P _ } [ ' ` ` ` ' } } _ _ } _ ` P P ( _ _ } O.} _ ] / P ] ,.T T / / / / [ ( / [ [ ' ' [ / ~ ] :.T U / ` T U _ 8.+.O.} [ O.} +.+.O.( } u._ ` ] ] [ ] [ ) / u.f.d.u.8.8.+.8.r.8.r.r.+.8.} [ [ 7.8.8.8.8.d.8.} 3./ [ 8.[ ' [ 7.[ _ O.7.` O.#.+.r.r.r.8.8.r.d.,.' ' ' ' ] ' O.8.+.+.8.} O.O.[ ` / 7.3./ :.[ / ' 7.8./ 5.f.t.t.t.t.#.N.#.+.#.#.#.#.#.r.t.N._._._._.f.t.t.|.7.O.c.9.,.5.7.,.3.9.z.] 7.Y.8.t.r.r.t.f._.Q.7.:.,.,.,.,.7.Y._.N.r.N.t.Y._._.O.] j.,.] ,.,.:.' 7.7.' O.N.#.t._.N.N._.r.#.t.t.t.N._._.N._.Y.t.Y.Y.Y.Y.N._.+._ d.8._ 3.9.7.[ } 9.] _ f.#.+.r.r.r.r._.Y.7.[ ,.,.,.,.[ 7.|._.N.Y.N._._._._.7.} z.3.[ ,.] [ [ 7.7.( r.N._.N.N.N.N.N.t.N.N.#.N.%.%.%.#.%.N._.N.Y._.N.N.|.7.[ /.9.3.3.5.7.[ 7.Z.[ +._.N.r.m.N.r.r.N.Y.7.' ] :.:.] } 8.#.+.7.8.8.8.t.t.+._ 7.7.] ] 5.[ [ O.8.( O.Y.N.r.8.f.r.t.#.#.#.#.+.t.#.t.t.t.r.+.+.r.Y.t.N.}.[ 7.z.7.,.,.7.,.[ 7.7._ 8.N.r.r.r.r.r.r.Y.u.,.,.,.,.[ O.p.t.#.r.#.#.r.#.N.7.' 7.7._ ` ] ' ` } 7.( } %.#.%.#.+.+.#.%.#.+.+.+.O._ +.#.+.+.+.+.+.O.O.O.} / [ 7./ ` ` ` / ' ,./ ' } _ / [ } _ [ / G G v n E T T T ~ [ 7.O.} } O.} O.} / [ 7.` / / / ` / ] / ( O.+.+.+.+.O.O.8.O.} O.O.{ +.O.+.O.+.O.",
"] ' _ _ ' / U / / [ ' / ~ ' [ / J T J U J J / P J ' T J ` / T P T P ( _ / P J P P P J L U / R P P / R P ) ( K R ` T I I I T T T E Z P ) _ _ _ ` ' O.O.7.} [ [ _ O.O.( / ( _ [ [ _ ( ( [ / U [ [ T P T ` / / [ [ ( ` / ~ ' [ ` ` ' U J T / ` / U R [ 8.+.O.O.8.+.+.+.O.( 7.7.) ) ' ] [ ' [ [ ` d.Y.r.d.r.8.8.f.8.r.8.8.r.r.r.8.7.7.+.r.r.d.r.+.O.7.[ 3.d.,.] ,.] [ _ 7.7.` O.N.#.r.d.d.r.f.r.7.' :.' ] ' ' ' [ O.r.#.+.[ [ [ [ ' ` 7.[ / ' ] / ] 7.8.( O.v.t.t.t.r.r._.#.#.#.#.r.#.#._.N._._._.Y.f.Y.f.t.oX7.O.c.9.,.5.5.,.7.8.z.[ 7.f.r.t.t.f.Y._.Q.7.:.,.,.,.7.3.,.9.Y.Y.N.Y.Y.Y._.|.O.[ 9.5.:.,.:.:.] ,.7._ O.Y.N.t.N.N._._.#.#.t._.N.t._._._._.Y.Y.N.f._.Y.N._.+.[ Y.8._ ,.,.[ [ [ 9.[ [ Y.r.t._.f.Y.N.Y.8.,.,.,.,.,.3.,.,.u.}._.Y._.Y._._.}.O.O.z.,.] ,.:.[ [ 7.7.( 8._.N.N.%._.N._._._.N.N.m.N.#.N.#.N.%._.t.N._.N.N.|.9.[ XX9.,.,.,.5.,.7.f.[ +.N.#.r.m.Y.N.t.f.7.] :.] ,.,.,.[ 7.r.t.t.v.r.g.#.t.+._ 7.7.] ] ,.[ [ [ 8.) +._.N.t.r.Y.t.r.N._.#.#.#.#.#.#.r.r.#.#.#.t.N.N._.|.[ 9.z.7.,.,.5.,.[ 7.7.[ 8.Y.r.t.f.r.r.Y.u.7.,.,.,.,.,.,.[ 8.t.r.8.t.t.#._.8.' 7.7._ ] ] ' ' 7.7.( O.N.+.+.+.+.o.%.%.#.+.#.t.8.O.+.#.#.+.+.+.#.+.O.+.7.` _ 7.` ` ` ' ` ` ,._ [ 8.O._ [ _ [ _ T n I n n T E E / T ` [ 8.O._ [ [ 8.O.( 7.} / / / / ] ` ] ` _ O.#.+.+.+.8.O.d.O.+.O.#.O.r.+.O.#.r.+.",
"^ ' / ' ' ' U U T ` ~ / / / [ / z T U J U J P U J ~ P J T T Z / P P ` / J J I J J U I I J J J T T T R R / / P T / T J U L L P / / Z R ) / / / _ [ _ [ } } O.( ' } } ( / / / ( _ / ' ( ] / K [ _ K E / T / ( } _ / ' ( / / P ` [ / J I / T T / T U / [ O.O.O.7.8.+.+.O./ [ 7./ ` ] ' ' ' ] ` / d.d.8.Y.f.8.7.7.8.8.8.8.+.#.r.r.8.8.O.8.r.d.+.O.r.z.' 3.z.] ] ,.' ] ] [ 7.( O.r.#.r.8.8.r.d.7.[ :.:.' ' ' :.' ' ] 8.+.O.' _ ` [ ' / 7.' E ;.` ' ' 3.8./ O.t.t.t.8.t.r.N.N.#.+.#.+.r.t.N._.t.t.N._._.Y.Y.Y.}.7.[ Q.9.,.7.,.,.,.8.u.[ 7.f.t.t.r.Y._.}.7.,.,.,.,.3.3.3.3.3.7.Y.Y.t.Y.Y.N.|.} ] z.,.;.,.:.:.] ,.7.' 7._.#.t.t.Y.N.t.#.#.N._.N._._.N.N.N.N._.Y._.Y.N.N._.7._ f.u.' ,.] ] [ [ 9.] _ _.N.N.Y.Y._.Y.u.[ ,.,.[ ,.3.,.3.,.,.u.|.Y.Y.Y.N._.Y.O.} d.[ :.,.:.] ] 7.7.( 8.N.t.N.N.N._.N.N.N.N.N.#.#.t.N.%.N.%.#.#.N.N._.N.R.9.[ /.7.,.7.,.,.,.9.d.[ O.d.#.N.r.r.N.Y.7.[ [ [ ] ' ,.3.[ [ } d.Y.t.N.t.#.t.O.' 7.[ ) [ :.[ _ [ 7.( O.N.#.N.Y.r.N._.N.%.#.#.#.#.#.N.#.#.#.r.r.r.r.t._.|.,.7.c.7.:.,.,.3.,.9.9._ 7.Y.t.r.r.f._.d.3.,.3.3.,.,.,.,.] [ 8.f.t.8.r.#.N.7.' 7.7.] ] ` ' ` } 3.( O.r.+.+.O.#.#.%.#.#.#.#.#.#.+.O.+.r.#.+.+.r.r.8.O.} ` _ [ E ` ;.` / ` ] ^ _ 8.8.7.[ ' ] U z G U j a T T U ` / T / 7.O._ ( [ } } _ 7._ / ` ' / / / ,.( _ O.O.O.+.O.O.O.O.8.r.O.O.O.+.+.8.+.r.8.",
"/ ' ' [ { [ T U T ^ / [ ' / 3./ J ' P J U J U T J T P K / / P / ~ / T P J I I J J I n K L G z P ~ T P P / ` P / ` T U T U K P ` / J ) [ / ( ` ] _ _ ' ' } O._ [ [ / / ` ` / / ' ' _ } [ / J ` ( P ` / T / _ O._ ( 7.8.} / ' ] / U L T T / / / T T T ~ ` O.O.O.O.#.r.+.( ] [ ` ' ] ' ` ` ] / / f.Y.r.d.d.8.O.} } 7.r.r.8.8.+.8.r.8.8.r.r.f.8.+.Y.Q.[ 3.d.] ,.,.] ] _ [ 7.` O.r.r.r.8.d.d.7.[ :.,.,.' ' ' ' :.:.' 7.7.7.[ O.[ ,./ ` 3.] ` :.` ' ` [ 9./ 7.t._.t.t._.N.t.N.#.r.#.+.N.N._._.#.t.t.}.oX_._.Y.|.7.} c.9.,.,.,.,.,.9.u.[ 7.|.N.N.Y._.f.7.,.,.,.3.,.3.3.3.3.3.,.8.Y.Y.Y.r.Y._.[ ] 9.,.:.:.:.,.' ,.7._ 7.Y.#._.Y.Y.N.#.#._._.N._._._._.N.N._.t.Y.Y.t.Y.Y._.8.[ d.8.] ,.] ,.[ ] 9.[ [ _.N.N._._.}.8.[ ,.3.,.,.,.7.3.7.7.,.3.d.|._.Y._._._.O.} u.,.:.,.:.] ] 7.O.( 8.N.t._.N._._.N.#.N.N._.#.+.t._.#.t.#.#.N._.N._._.|.7.[ Q.7.,.3.,.,.,.9.d.[ 7.Y.Y._.m.Y.d.7.,.3.3.[ ] ,.[ 3.,.[ _ O.7.t.r.#.t.N.+.) 7.[ ] ,.:.[ ) [ 7.( +._.t.N.N.N.N._.N.#.+.t.#.#.#.r.#.#.r.N.N.N.t.t._.|.7.7.c.7.,.,.,.7.[ 7.9.[ +.N.%.t.N.R.d.7.,.7.3.3.3.7.3.,.,.[ [ 8.f.t.r.#.Y.7.` 7.7.] ] ] ' ` [ O.( 7._.t.N.r.N.N.#.+.#.N.N.#.r.r.+.O.+.+.#.#.r.r.#.+.O._ } ,./ ` :.` / / ] / _ 8.O.} O.} ` v c T E j a Y U T ` E E E ` 3.O._ O.O.[ ` O._ / ` ] / ` ` 7.` [ 8.O.+.+.O.O.O.7.+.+.} } O.+.+.t.+.8.8.",
"/ ~ _ } [ / T P ' [ ' [ [ _ [ / J / ~ J K J T T J / K J ` / P P T T J J U P L G J I J L I J G z L / J J ~ / P ( ( K U T T T P / ~ D / _ ( ( ` ' [ } _ _ ' _ } } ( P / ] ' / T / [ ' _ 7./ J ~ ` T E ` / R ` [ / ( 8.8.O.[ [ ` I I P T I T / T U T / / / ( [ 7.+.+.#.+./ ` ` ` ' ' ' / E ' ' / u.m.r.8.r.d.8.7.} 7.r.8.8.8.+.8.8.8.O.8.Y.d.8.r.r.d.] } 8.[ :.,.,.:.' ] [ ( O.r.+.8.d.d.7.] ] ,.] ] ' E E ` ' :.' ' ] 7.7.O.} 7.] / [ ] / ;.;.` / [ O./ O._.N.t.t._.N.#.#._.#.r.r.#.t._.N.f.r._.f._.|._.r.XX7.[ c.7.:.,.,.,.:.9.u._ 7.Y._.N.Y.}.7.,.,.,.,.,.3.,.3.3.,.3.,.3.8.Q.Y.r.N._.} _ 8.,.;.>.:.:.] [ 7._ 7.Y.N._._.Y.t.N.N._._._._.N._._.t.N.N.#.r.t.Y.t.Y._.7._ 8.7.) :.,.] ] [ 9.[ [ _.N.N._.}.u.,.,.7.7.,.7.,.3.7.7.3.7.,.,.u.XX_.Y.Y.Y.[ [ 8.,.:.:.,.' ' 7.O.( 8.N.t.t.N.N.Y.N.#.#.#.t.r.#.N.N.N.t.#.N.N.N._._.R.|.7._ c.7.,.3.,.5.,.9.z._ O.|._.Y._.Y.7.[ 3.3.[ [ ] ' ] ,.,.3.] _ [ 7.8.r.#.t.O._ [ [ ] [ ] [ ] _ 7.( O.N._.t.r.r.N.N.+.#.#.#.#.#.+.+.+.r.r.N.N._.N.t.N.}.[ 9.z.7.,.5.3.,.[ 9.7._ #.N.%._.|.d.7.3.7.7.3.,.3.7.,.,.,.,.] } d.Y.r.8._.7./ 7.7.` ] ] ] ` _ 7._ O._.t.N.Y.r.+.#.#.N.t.t.N.r.8.8.+.+.+.r.#.r.+.+.+.8.' { 7./ ` ' ] / R ,.' / O.O._ O.[ U 9 w G I b 9 I T U T T ` / / / 7.+.O.+.[ / [ ' ` ` ' ' / ` 3._ } +.+.O.O.+.+.O.O.7.O.O.+.O.O.8.O.8.O.7.",
"' ` / [ ] ~ P / [ { ' [ [ _ [ / J ' ` J U U T ~ D _ / P / / ~ ` ^ P P T T ` P J L U U J I T J n J T T ` _ / J T / P P U T E P ` / P ( [ } _ _ } } } 7.7.' ` O.} / ~ ' [ ' / / / _ _ _ O.] P / ) R T ` ` T ) [ / _ d.O.7.3.^ U I U U P U ` / E T / ' ] ` ` ` O.r.+.r.8./ ` _ ` ' ' ' ` E ,.,.` d.Y.r.8.d.Z.Y.d.7.8.8.8.r.8.O.8.8.u.O.8.d.8.r.N.m.f.[ } f.[ ,.7.,.:.] [ 7.) O.r.+.r.8.9.] ' ' :.' ,.' T T ;.;.` / ` / :.3.8.8.7.] ) 7.] / >.:.' ' O.7.( 7._._._.N.t.#.#.#._.N._.r.r.t._.Y._._._.Y._.|._.Y.XX7.[ c.7.,.,.,.>.,.u.u._ 7.Y._.'.Y.7.,.,.7.3.3.3.,.3.3.3.3.7.3.3.3.8.Q._.N._.[ [ z.5.] ,.>.:.] 3.7._ 7.'._._._.N.N._.N.N._._.N._._.N._.t.#.#.t.Y.Y.r.N._.+._ r.8.) ,.,.:.] O.z.[ [ Y.N._.Q.u.3.,.7.7.7.7.7.,.7.j.7.7.7.7.,.,.z.XX_.Y.Y.O.O.z.,.:.,.:.] ] u.+.( r._.t._.t.N.N.N.N.#.#.N.N.t.N.N.N.N.N._._._.Y._.Y.Q.7.[ c.7.,.h.,.,.,.u.Q.[ 8.oX_.oXY.8.} 3.3.7.,.,.] ` ] 7.7.3.[ ,.[ 3.d.Y.r.Y.+._ O.[ ] [ [ [ ] [ 8.( O.N._.#.N.t.N.t.+.t.#.r.r.+.+.O.+.N.r.t.t.N.N.N._.}.[ 9.c.9.,.h.7.,.[ u.8.[ #.N.N.|.u.7.3.7.7.7.7.3.,.,.,.3.,.,.,.[ O.u.f.r._.7./ 5.7._ ] ] :.` [ 8.[ O._.#.r.r.r.r.+.r.Y.t.t.t.r.8.r.N.r.8.t.t.r.#.+.t.d.} } 7.` ` ;.] / ' 8.} ( +.8.O.7.` J q 9 v G y e Y T E T ` ' ' ' ` ] 7.d.d._ ( O.[ _ ] ' ] ` _ 7.( O.#.t.+.+.r.r.7.8.8.O.+.r.O.O.+.+.8.O.7.",
"' / ^ / T ^ ~ ' / [ _ [ / / [ / J / [ U J U T P / _ / ~ K P / ] T J P / U U P T J U J J J I I I z J / [ 7.T J P / U J T U L R ] / Z ( O._ [ [ ] [ 7.} 7.} ( ' ` T ` _ ( ' ' / T ' } [ _ / P ] _ T / / E T ` [ ( ' 7.7.[ / T U T T I U U / ` L / ' / ` ] ` / _ O.d.N.O.~ _ 7.` ` ] ` E ] 9.[ ' d.r.r.r.r.r.r.r.r.8.+.r.+.d.O.O.d.8.O.O.O.8.8.t.Y.f.[ 7.Q.7.] ,.,.] _ 7.7.( O.r.+.u.3.:.' ' ' ' ] ] ;./ T ` :.E T ` ` / ' 7.8.7.` ` 7.] ` :.:.' ] 8.8.( 8.Y.N.N.t.#.#.N.t.r.N.N._._.t.Y._._.Y.f._._.f.Y.Y.|.7.[ d.9.:.,.,.:.,.c.u._ 7.Y.Y.f.9.,.3.7.,.7.7.,.,.,.3.7.3.,.3.7.,.7.8.d.Q.}.[ _ u.9.] :.,.:.] 8.8._ 8._.N.t.#.t.N.N.N._.N.#.%.%.%.N.N.#.+.+.r.Y.Y.Y.N.Y.7._ 8.8._ ] ,.] ] 8.Q.[ [ }.N._.u.,.,.3.7.7.7.7.,.5.7.5.7.7.7.7.,.,.,.8.Q.|.Q.} O.c.7.:.,.;.' 7.Y.O.( t.N.N._.N.#.t.N.N._.#.t.N.t.r._.N.N.N.N.N._.Y.N.N.}.7.[ c.9.,.,.7.,.[ f.Q._ 8.|.|.}.7.3.3.7.,.,.3.3.[ ] ,.7.7.3.[ [ [ [ } 8.Y.N.O.( 7.O.) ] ] ] ` O.d.( O.N.#.N.r.r.#.r.r.#.#.#.#.#.#.#.t.#.r.r.#.#.t.N.Y.}.[ 7./.9.,.,.h.,.O.f.8.O.r._.Y.9.3.7.3.3.7.7.7.7.,.,.,.,.,.,.,.,.] [ u.8.Y.u.] 7.7.' ] :.:.` 7.d._ O.Y.+.#.r.r.+.8.r.r.r.r.r.r.r.r.r.r.r.#.#.r.+.#.r.d._ } 7.` ` ;.` ` 7.8._ ( 8.d.7./ U U n n n G e v -.T T ` ` ;.' ;.;.` ] 8.d._ / 7.7.( ` ,.` ( O.7./ } r.r.r.r.+.8.8.8.O.8.O.8.+.} +.8.O.8.7.",
"[ ' / / U ^ ' ' ' ' ' / / ' [ ' J ` 3.T J U T P ' } / ~ T U K T J J T / U U J P J U J P I I I J G I J T / T K ` ' T L T T J ( u.' P [ } } 7.7.[ ] } } 7.7._ / T ` _ ' _ ( ` ` / _ [ ( ( ' T ] O./ / ` ` ` _ 7._ _ 7.[ / / / T ` R U T P T T U / ' ` ' ] ] ] ` _ 7.r.7./ } f._ / :.E E j.z.` ' f.+.r.Y.r.m.r.r.r.r.8.r.r.r.O.7.d.8.} O.8.t.8.r._.f.} 7.}.7.[ 7.,.[ [ f.u.( 8.r.O.3.:.:.:.,.] ] ] ,.] ' ` ' ' / E ' ` ` / ,.O.7.] ] 7.3.` ' :.' [ f.8.( 8.N.#.N.t.#.#._.N._._._.N._.t.t._._._.|._._.Y.t.t.|.7.] d.}.,.,.,.:.,.XXf._ 8._.8.7.,.7.7.7.7.7.7.7.5.,.7.9.7.3.,.3.7.7.,.7.d.|.O._ Q.f.[ :.,.,.] Q.d._ 8._.t.#.#._.N.t.N.&.#.#.#._.N.t.#.#.+.r.r.N._.Y.N._.8._ 8.Y.O.] ,.[ [ Q.Q.[ [ |.Y.8.7.,.3.7.7.7.7.7.7.j.7.7.7.7.7.7.7.7.,.,.9.|.}.O.O.|.9.] >.;.] d.|.O.( t.N._.N.t.#.#._.N.N._.t.#.N.t.Y.N.%.N._._._.N.N.N.|.9.[ }.c.,.,.7.,.3.Y.Q._ r.OXf.7.7.7.7.7.3.3.3.7.3.,.} 7.7.3.[ ] [ [ ] O.8._.8.( 8.r._ ) ] ] ` u.f.( +.t.#.t.t.t.#.t.#.#.#.r.#.N.#.r.r.t.#.r.#.#.t._._.oX[ 7.XXu.7.7.j.3.8.|.8.O.Y._.7.5.5.7.7.7.7.9.9.7.3.7.3.3.7.3.,.,.,.[ [ 7._.z.[ u.f._ ] ,.:.` 8.Q._ O.Y.#.r.t.r.#.#.r.r.t.N.r.t.t.r.8.r.#.#.t.f.8.#.+.7._ } d.[ ` :.;.] u.z._ _ d.7.` T T T T T J T n G E / / :.' :.;.:.:.' ` [ 8.} ` d.u.[ ` ,.' ( f.8.( } +.8.r.t.r.r.r.8.7.8.+.r.+.O.+.r.8.8.7.",
"} [ / ~ T ` / ' ' / ~ / ~ ' [ / J / [ :.J I I T ' [ T K ` P z I G z L T U U J J U U I L J I n G G n n Z ~ / U ~ [ ] P L Y P _ 8._ ~ [ O.O.O.7._ / _ 3.} 3.[ ^ T ' ] ( _ _ ] ] ] ] / P ( ' K / 7.` T ] / / 7.7./ ` 7.' ^ ' / T T / T U E T P E T ` ' ' ` ] ' ` ` _ r.8./ } Y.O._ E E ,.u.7.` / r.+.+.r.d.r.r.#.8.r.r.+.r.8.} 8.8.[ [ 8.7.8.8.r.d.f.3.7.XXc.[ ,.,.[ d.Q.7./ 8.8.[ [ ,.,.,.,.:.,.[ ] ] ' / ' ` ` / ` ` ` E / [ 7._ ` 9.9.] ' :.' 7.d.d.( O.r.#.#.+.8.t.r.N._.N.t.#.Y.Y.r.r.Y._.|.|.|.Y.Y.t.}.7._ d.XX8.,.,.] 8.XXu.' u.oXu.,.,.7.3.7.7.7.7.7.3.,.7.7.7.3.,.,.3.7.,.[ O.oX7.[ Y.XX7.:.,.,.9.|.8._ 8._.#.t.t.t.N.N.N.#.#.#.t.#.#.#.+.r.Y.N.r.r.Y.Y.r.Y.7._ 7._.7.] :.] 7.^.c.[ [ }.8.7.,.7.7.,.7.7.7.7.j.7.j.9.7.7.7.7.5.,.,.:.O.Y.Q.} O.|.d.,.;.` 7.Y.N.O./ t.N.t.N.r.#.#.t._._.N.t.r.r.N.N.#.t.t.Y.Y.N.t.N.Y.Q.7._ Q.}.7.,.,.,.8.OXY.( d.|.8.[ 7.7.3.7.7.7.3.3.3.} [ [ 3.[ [ [ ] [ ] ` } Y.O./ +.t.O.` ' ` 7.f.+./ O.t.#.r.r.N.#.#.+.#.#.#.t.#.#.#.+.#.r.#.+.r.r.r._.oX[ 7./.}.7.7.h.7.N.oX7.O._.d.3.7.7.7.7.7.9.9.7.7.7.7.7.7.7.3.,.,.,.,.] 7._.d.[ p.|.7.) :.,.[ Y.d._ O.t.#.r.r.r.r.#.#.r.r.r.r.r.r.r.r.+.+.#.r.r.8.O.+.O.( } d.7.] ;.` ,.z.8.' ' d.,.T E ` ` I I U I G J U T / ' :.;.;.:.:.:.' _ 8.3./ 7.Y.7.` ' ` 7.d.8.' O.+.O.O.r.r.8.8.8.O.O.r.r.} } 8.8.8.+.8.",
"} [ ` ~ / _ / ] ` ~ / ] / / ' ` K ~ [ 9.T I J ` [ ' U U :./ U L z J J P T T J J U T L n z J n n n n n J ` ' L T [ 7.` Y L [ +.8.' / O.t.+.O.7.[ / ] 7.7.} } ] ' ] _ _ [ [ ' T ^ ] _ ~ _ _ Z / 8.} ( ` E [ d.7.P ` 8.[ / ` ` / / ` / U T / ' ` T ' ] ' ] ] ] ,.` [ t.u.( [ f.f.7./ ' u.u.O.` / r.r.+.8.+.O.8.r.r.r.r.r.r.8.} 8.7._ 7.d.8.8.r.r.r.Y.7.7.}.XX7.,.[ 7._.Y.O.( 8.O.} 7.,.7.,.[ 3.3.,.] [ ] / ' ' ' ` ` ` ' E T [ d.[ ) 8.d. .' ` ] u.d.8./ [ 8.#.O.O.+.r.t.t.Y.t.#.t._.Y.#.r._.N._._.|._._.f.}.7._ u.|.|.u.] 3.|.OX8._ u.|.u.7.3.h.7.7.7.7.7.7.7.7.7.7.7.7.3.,.,.7.7.] O.#X8.[ Y.OXu.,.] ,.Q.OX+._ 8._.N._._.N._._.N.#.#._.N.t.#.#.#.N._.Y.N.t.f.t.f.d.O._ 7.oXY.} ' ] d.OXd.] } |.7.,.7.7.9.7.7.7.7.9.j.9.j.j.7.7.9.7.7.,.,.,.O._.}.O.O._._.d.] ] f._.t.O./ t.N.N.N.t.#.#.t.Y._.t.N.#.#.r.N.r.N.#.t.N.N.N._.Y.|.7.] Q.oX}.9.] [ _.OXd._ d.|.7.7.7.7.7.7.7.7.3.7.7.3.[ [ [ ,.[ ,.] ] ] ` _ _.+.( +.t.r.] / ] t.t.O./ +._.#.r.r.+.#.#.+.#.#.#.+.+.#.+.#.r.+.#.+.r.r.#._.}.[ 7.}.#Xu.5.,.u.oXoX7.O._.r.7.7.7.7.7.8.9.9.7.7.7.7.7.7.3.7.7.7.,.,.,.O._.f.[ u.[.d.[ ] 3.u.|.8.' 8.Y.r.t.8.r.#.#.t.N.r.r.+.+.r.t.#.8.+.r.r.8.+.+.r.8.' } f.f.7.:.' 9.Q.9.` [ u.[ ` :.E E T Y U G n K E P T ` ;.;.:.:.;.:.]  .d.7.( 7._.f.7.] [ Y.r.7.` } O.} O.8.8.O.r.r.+.+.r.#.+.O.8.r.+.8.7.",
"[ _ / ` / / _ / ~ / ^ ' / P / ' x / ^ ,.[ ` P ] _ ] I G ' ' U I G G J P J U U J U T I k n J n n n G z J / / J U ] [ ` U T } O.O./ ~ O.+.O.8.} [ [ 7.3.O.} [ [ ] ' ` _ 5.` J J / / / ( ' ` J P 7.8.O./ / 8.r.[ P / 8.O./ T ' ' ~ / ' T T ` / ' ' ' ` ] ] ] ] ] ] } r.u.( _ r.r.8.7.7.8.O.7.T R 7.+.+.O.O.O.O.8.r.8.+.r.8._ _ 8.} } 8.r.8.r.r.r.Z.d.} [ c.|.Q.9.} c._.r.O./ 7.O.O.9.7.,.[ ,.[ ,.,.,.] ] E ` ' / / ` E E T / 3.8.7.R 7.8.8.[ ` 3.r.r.7.P [ +.O.7.O.O.O.#.#.r.r.N.N.N.Y.8.+.t.Y.t.r.Y._.f.Y.Q.3.' u.Y.|.}.7.f.]._.7.' u.|.9.7.7.7.7.7.7.j.7.7.7.7.7.7.7.3.,.,.3.,.,.5.8.oX7.[ f.oXY.7.,.d._._.+._ 8.N._._.N.t.r.N.N.N.N.r.N.N.#.+.m.N.N.Y._.N.r.r.8.8.O.` 7._._.d.[ O._._.d.' 3.|.7.,.7.7.7.9.7.j.j.9.9.9.9.9.7.7.7.7.5.,.,.,.7.Y.Y.} O.R._._.8.8._.N.N.} ( r.m.N.r.r.r.r._.r.#.t.N.#.#.#.N.N.N.r.#.#.Y.Y.N.Y.|.7._ f._.`.Q.+.N.]._.r.( d.oX7.,.7.,.7.7.3.7.7.7.[ 7.3.,.[ [ [ ' ] [ ] ( [ _.+./ O.#.#.O._ 8.t.+.O.Q O.r.r.+.+.+.+.#.#.+.+.#.O.O.O.8.8.#.+.+.+.8.8.r.r.f.[ 7.c.XX|.9.7.}.'.|.7.[ Y.f.7.7.7.9.9.7.9.9.7.7.7.9.7.7.7.,.7.7.,.,.[ O.Y.u._ 9.|.Y.7.O.d.Y.N.O.( 8._.r.r.#.+.r.r.r.t.8.+.+.+.+.8.r.#.+.r.t.+.O.O.r.8.' } t.t.d.7.7.u.d.9.` _ z.3.' ;.` T T T J y j U T T T E ` :.' :.:.>.' } Y.7./ 7.r.r.d.u.8.#.+.7.T ` O.O.O.O.O.+.O.8.+.O.+.+.O.8.8.8.8.8.7.",
"' [ ( [ / / ~ / / ] ^ ^ ^ / [ :.J T ' [ 7.] ^ ' _ ] J z T ] J I I G J P K T I L P U I n n J n J G G I P ~ ` J J ` [ _ ' [ [ ( } / / _ ' ( O.} 7.8.i.} _ } O.[ [ ' ` ] ` T T ' } ' ` [ [ / J R +.r.d.O.} 8.+._ P ` d.O./ ` ' ` ` ` / / ' ' / ' ' ' ] ] ] [ ] ] ` [ f.u./ _ f.+.8.f.8.8.O.7./ T } O.O.+.+.8.} +.+.r.O.O.8._ } 8.7.8.r.r.r.N.r.r.Y.d.[ 3.z._.|.Q.d._.Y.8.O.~ 8.8.} 3.,.,.,.,.,.,.[ ,.[ ,.' ' ' T / ' / ` ` ' [ d._ K 7.+.#.8.[ 7.r.r.O.T } 8.+.t.8.+.O.r.#.r.N._._.N._.r.+.t.t.8.8.}.}.f._.Q.,.) u._.Y.|.Y.oX_._.7.) u.XXu.,.7.7.7.7.7.j.7.9.9.7.j.9.7.7.,.3.3.3.3.7.8.oX7._ f.'._.Y.f._._._.O.[ 8.N.#.#.#.#.#.N.N._.N.m._.N.#.#.r.N.N.Y.Y.r.r.t.8.8.7.` O._._.R.r.N._._.f.] 7.|.7.,.7.7.7.9.9.9.j.9.9.9.7.9.9.j.j.7.7.,.,.,.7.N._.} O._._._._.R._.%.N.O.( 8.r.#.#.r.t.r.N.#.#.N.N.#.#.r.Y.r._.t.+.#.R.N.N._.}.7.] Y._.R.`.R.`.`._.r._ d.XX7.,.3.,.,.[ [ 7.7.7.3.7.7.7.,.,.] ] [ [ ] ' O._.+./ +.#.#.#.+.t.#.O.+./ [ 7.+.O.+.r.+.8.#.+.#.t.#.O.O.r.8.8.+.O.+.O.8.t.+.f.[ 7.c.|.OXQ.Q.oX_.|.O.[ _.f.7.7.j.9.7.7.7.7.7.9.7.7.j.9.7.7.7.7.,.,.] 7.Y.d.[ 7._._.N.N.|.N.t.+.( u.Y.r.N.+.+.r.N.r.r.#.+.8.r.+.r.r.#.#.r.8.+.+.O.O.8._ } N.#.f.c.u.f.d.9.` [ Q.9.] ' ` T T E J 0 j T T ` T E ` :.:.:.:.:.] [ Y.8./ 7.8.Y.r.Y.8.+.r.O.P ' O.8.8.8.+.r.O.8.#.+.+.#.+.r.r.8.8.+.7.",
"[ / ' ' ' ` K T ^ ` ^ / / ` 7.,.K T ,.[ [ / T ] / / L z U R J n G L G J U U J J I U G I n n n J J J I U / T z J ` ( ( [ 7.' / [ / P ` [ ( ( [ u.z.} ( [ } } _ ] [ [ ,.] ` 7.7._ _ _ ` ` / K / O.O.+.8.+.O.O.[ P ` 8.[ ` ' / / ` ` / ` / ' ' / ` ' ' ] ] ,.[ ) ( [ f.7.P _ 8.+.8.8.7.O.O.7.R P [ _ [ O.8.r.#.+.O.+.+.8.8.7.} 7.8.d.8.8.r.r.f.d.d.u.[ [ }.Y.r.^.r.r.r.8.[ / 8.7.[ ' ;.:.,.,.[ ,.[ [ ,.,.] ] / T T / ' ' ' ` _ 7.` J [ 8.O.8.+.8.+.r.} T [ 8.#.#.r.d.8.+.+.N.t.N._._._.r.O.8.8.r.f.f.Y._.8.d.,.) 8._.r.Y.Y._._._.7.` z.XXu.,.,.7.7.7.7.3.7.9.7.7.7.9.7.7.3.,.3.7.,.[ @.oX7._ 8._.N._._._.#._.O._ d.N.#.#.#.#.t.#.%.N.N.N.N.t.#.r.N.r.N.N.r.r.m.r.r.8.7.` } _.R._._._._.`.Y.] 7.XX7.,.7.7.7.7.9.9.9.9.9.9.9.j.j.j.7.7.7.,.,.:.O.N._.} O._._.N.`.R.%.#.t.[ / 8.+.+.r.#.r.#.+.+.N.Y.t.#.N.r.r.N.N.N.r.r.N.N.N.N.}.7.] }._.N._._._._._.8._ d.|.7.,.3.,.,.,.,.3.,.7.7.7.7.7.3.,.] [ _ _ ` ' +._.O./ O.#.+.#.#.#.O.O.O.P [ +.} +.O.8.+.+.#.#.+.#.#.+.O.+.r.r.8.O.O.+.u.8.r.Y.[ ,.Q.|._.|.^._._._.[ _ |.d.O.7.9.7.7.7.7.7.7.7.7.7.7.7.7.7.7.,.,.,.] O._.8._ 9._.N._._._.N.t.O.' 8.r.#.N.+.+.#.r.t.+.+.t.r.N.N.r.+.+.#.#.8.8.O.+.O.O.' [ r.#.8.Q.f.8.8.9./ [ f.7.] ` ` / T U I y e Y E T ` ` ` ;.:.:.' ;.] } f.9./ 7.8.8.r.8.8.+.r.7.P ` 7.+.+.r.8.8.r.+.+.#.+.+.#.r.#.r.+.O.7.",
"} _ / [ } ' ^ T P ^ / [ ` ` ] ' P ' ,._ ] T / [ / / T I / T J J I P J L U P J G I U J I I G I J I Y G I P P n L / ` ( _ [ ` ( [ P J ] O.( ' } u.7.` / 7.O._ [ ` ' O.] / ` _ _ [ [ ' P R / T ] } } O.} O.O.+.[ P ' 8.[ ^ / ' ` / ` ` ' ` ' / / ` ] ] [ ] ] ] ` ` [ r.7.T [ 8.8.8.7.O.O.O.7./ / O.[ _ +.+.+.t.+.} O.+.N.O._ O.8.r.r.r.r.8.r.Y.Y.Y.8.[ O.c.Y.r.f.8.r.t.+.[ / 8.8.` ` :.,.:.,.,.3.,.] 7.,.` ` ' / T ` ] ] / / _ O._ T [ #.+.O.+.r.+.r.8.` [ +.+.+.r._.m.#.#.N.N.N.Y._._.Y.r.t.f._.Y.c.f.f.8.u.,.] u.Y.N._.Y._._._.u.[ d.&Xz.,.3.7.7.,.5.h.7.7.9.j.j.9.7.7.7.3.,.,.,.[ 8.[.8._ r.'._.N._._.N.'.8.[ u.t.#.N.m.N.N.o.#.#.#._.t.#.r.m.N.r.t.t.r.N.Y.d.Y.d.7.` 7._.R._._._._.].}.[ 7.#Xd.3.7.7.9.7.7.j.9.j.j.9.9.j.7.7.h.7.7.,.,.:.O.N._.O.O._._._._._._.#._.O./ 7.+.+.r.+.#.N.+.#._.N.t.#.N.N.#.%.N.N.N.#.N.N._.t.|.7.[ |._._._.N._._._.r._ d.|.8.,.3.7.3.7.7.7.,.7.7.7.7.7.3.[ ] ' ` ' ' _ +._.O.( +.#.o.o.#.@.O.#.+./ } 8.O.#.+.O.#.+.#.N.+.t.#.t.+.+.r.8.+.+.O.r.f.8.t.Y.[ ,.c.|.Y.|.Y._._._.[ [ |.Y.O.7.7.7.7.7.7.8.9.7.5.7.7.7.7.7.7.,.] ,.[ O._.r.[ 8._.N.N.N.N.N._.7._ r.N.r.N.r.#.+.r.#.+.+.r.+.r.r.#.r.#.+.r.r.r.8.+.8.O.' } t.#.r.Y.f.r.t.9.' 3.f.[ / ` ' ` U U U v e Y T T ` ` E ` ` ` ' :.' 7.d.7.` z.r.8.t.8.8.t.Y.8.P ` r.r.r.8.O.+.r.r.8.r.+.+.+.#.r.t.+.O.7.",
"8.[ P / [ _ ^ / U T ` ` ] ' ^ ` J T ,./ T ` / / / ` L J ' T J I J I P / U L J I I I I J J I J J J G n z P ^ n J / ) / ` ^ / [ / I K ' [ _ O.O.7._ ' [ } O.7.} ( ' ' / T ' [ _ _ _ _ / R / U ` O._ _ } } O.} ] P / 8._ T / / ` / T / ' ' ` / ` / ' ] ] ) ` ` ' ` _ f.7.P [ f.+.O.O.[ 7.O.O.( / O.O._ _ +.#.O.+.O.} } O._ { 8.r.8.8.r.r.8.8.f.Y.r.8._ 5.d.r.N.8.+.Y.8.+.} ~ u.O.` ;.;.,.:.] ,.,.] ,.[ ` / ] ] / E ' ` ` / / ( +._ T O.+...+.O.#.#.r.7.` O.+.O.+.+.t.N.#.O.r.Y.N.r.Y.N.Y._._.Y.Y.Y.f.u.8.8.f.7._ 8.Y.Y.Y.Y._.Y._.f.] z.&Xz.,.,.3.7.7.5.7.7.7.j.7.7.7.7.7.3.3.[ ] ,.[ 8.oX7._ d._.N._.N.N.N._.8.[ 8._.#.r.N.N.t.N.#.#.#.t.#.+.r.m.r.N.r.r.N.Y.Z.Y.r.Y.7.` O._._._._.R.].OXY.[ 7.#Xd.7.7.7.7.7.7.7.9.j.9.j.9.9.7.7.h.7.,.:.,.] [ N._.O.O.R._.%._.N.N.N.N.} / 8.r.#.r.t.N.r.#.r.N.%.#.#.N.r.N.#.N.#.N.r.N.N.N.N.|.7.] |._._._.N._.R._.d._ d.OX8.3.,.7.3.7.7.7.7.7.7.7.3.,.] [ ' ' ' ] ] _ O._.O.( +.#.o.#.O.+.+.+.O./ _ +.+.+.+.+.O.O.+.#.r.r.N.#.+.r.+.8.+.+.8.8.t.t.t.Y._ ,.f.}.Y.}._._._.|.[ ] ^.Y.O.,.7.7.7.7.7.9.9.7.,.5.7.7.7.,.,.[ :.:.,.+._.r._ 8._.N.#.t.N.t._.O.( r._.#.#.r.#.O.+.#.#.+.+.+.+.+.#.#.#.+.O.+.8.r.8.8.8.' [ Y.#.t.f.8.8.Y.9./ [ d.[ T ` ` ` T T I n e n U T T E ` ' ` ' ' :.:.O.Y.9.( z.Y.r.8.r.8.r._.7.T [ r.#.#.8.O.O.O.8.8.8.O.+.O.#.r.#.+.O.7.",
"} ' T / / _ ' ` T T T ^ ,.[ ^ / K U [ / / [ / / ` ] T K ] T J U I I U U L J I U J I I J J I J U L I J Z ~ ' I J / _ / ~ / _ [ ' I U ] ' _ O.[ [ _ [ _ _ O.7.7.7.O._ _ ] [ [ _ _ [ [ [ _ ` U ) +._ [ O.O.O.} ] P / 7.` / ` / / / / / ` ' ] _ ) / ' ` ` ) ` ' ] ` [ f.7./ [ f.#.O.O.O.9.O._ R P O.O.( ( O.r.+.r.+.+._ [ O.r.8.r.8.r.r.d.r.8.7.+.+.7.] [ f.Y.r.d.r.Y.8.r.O./ 8.7.} :.:.:.,.,.:.,.] ] ] / / ,.' ] ` ' / / / / ` 8.} / O.+...+.O.#.r.t.7./ O.O.O.r.+.t.N.#.O.8.r.N.t._.f.f.t.Y.r.f.f.d.8.f.8.oX9._ 8._.Y._._._.Y.oXc.] z.#Xz.3.,.7.3.7.7.h.7.j.7.7.7.7.7.7.7.,.,.,.,.O.8.XXu._ d.'.N._.Y.Y.N._.8.[ 8._.r.t.N.N.t.#.#.#.#.t.#.+.#.r.N.N.r.r.N.N.Y.Y.r.}.u.` 7._._._._._.].OXY.[ 7.#Xr.7.9.7.7.7.7.9.9.7.9.9.9.j.j.7.5.,.[ ,.,.,.} _._.O.O._.].&._._._._.N.} ` 8.N.#.r.N.N.#.N.#.N.#.#.m.N.r.r.N.N.r.t.N._.r.N._.|.9.[ }.oX_._._._.N.'.d._ d.|.8.,.3.7.3.7.7.7.7.7.,.7.,.,.] ] [ [ [ [ [ [ +._.+.( #.#.+.#.+.#.#.+.[ P [ 8.+.r.8.r.+.O.} +.N.N.t.t.+.r.r.t.8.8.r.r.t.t.r.f.[ 5.f._.Y.}._.Y._.}.7.[ |.Y. .,.5.7.7.7.7.9.9.7.,.7.7.7.7.,.,.,.,.:.[ +._.d._ 7._.N.#.N.N.t._.O.( 8.N.#.#.r.r.+.+.+.#.#.Y.r.+.#.#.#.#.O.} O.8.+.+.r.u.] } Y.t.r.t.8.8._.9.` } f.[ / ` T ` T U I I j n T T T ` ] :.:.,.,.,.[ O.Y.u._ 8.f.#.8.Y.8.r.f.[ / 7.t.+.r._.r.+.[ O.O.O.+.+.+.t.r.r.O.O.8.",
"~ ' ~ T U / ` ` ~ ^ ^ [ ' ' [ ' J U ' T / [ / _ _ ] T P ` / J I I I J J J I I I I I J J G n I T T T J J T ` J I / / / ` / ,.` T I I ' [ _ ` ` [ [ ` ` [ ' _ [ 7.[ ' ' [ [ _ _ } _ [ [ [ / P ' [ _ [ _ O.7.' ' T T ,.` / ` T E ^ / / / ` ] ) ` ` ` ' ` ' ] ` ` ` } d.7./ [ 9.O.O.O.7.7._ R R P } } _ _ _ O.r.r.+.O.[ +.8.r.+.r.r.r.8.8.d.7.` [ 8.7.` ] u.d.8.8.d.Y.8.8.} / 8.+.} 7.:.:.:.,.] ] ' :./ / ` ' :.] / ` E ` T ^ ' +.[ / [ } O.O.O.r.8.O.O.~ O.+.+.+.r.r.+.r.+.+.O.r.Z.Y.8.8.O.8.r.8.8.f.f.d.d.}.7.[ 8.f.Y.|.Y.|.Y.Y.d._ u.#Xu.3.3.7.3.5.7.7.7.7.7.7.7.7.7.7.,.3.7.3.3.[ 8.XX8.[ u._.N.N.N._.Y.t.+.[ 7.r.#.t.N.N.r.r.N.r.r.t.#.+.+.r.#.r.N.r.r.Y.Y.Y.N.}.9.` 7.Y.r.Y.Y._.oXY.f.[ 7.OXr.7.j.7.7.7.7.7.7.7.9.7.9.9.7.7.,.,.,.,.,.,.O._._.O.O.N._.N.N.N._.8.8.} ` 8.#.%.N.#.N.N.t.#.#.#.t.r.t.t.r.#.r.#.N.Y.N.8.r.Y.}.7.] }._.R.|.Y._.Y.Y.u.[ 8.OX8.,.7.3.3.7.3.7.3.3.,.,.,.,.[ [ [ } [ [ _ _ +.Y.+._ +.o.#.#.+.r.8.[ _ ~ } r.+.#.t.t.+.+.} O.t.t.+.+.O.O.8.8.8.r.#.#.#.#.#.f.] 5.u.f.Y.Y.Y.oXY.d.3.[ |.f.[ ,.,.7.7.7.7.9.7.,.7.7.7.7.5.,.,.,.,.,.[ +.|.d._ 7.d.r.t.r.N.t.r.[ ' +.#.#.r.#.#.8.+.O.+.r.t.r.+.+.#.#.+.+.O.} O.+.+.8.9.] [ f.#.r.8.8.t.8.7.' [ 8.7.' ` ` / T U I I j v L P E ;.,.,.,.[ ,.,.] O.d.7.` 7.7.8.+.+.r.f.[ ` / } #.#.r.Y.r.O.O.O.O.+.O.+.t.t.8.#.O.8.7.",
"~ [ ' / P / ^ ' [ [ ' } [ 3.} ,.I T ' R / 7._ } _ ^ U U [ _ P I L L G G J T I J I I J U J I I P L J n J U T I I U U / [ ] [ / U U Y ` [ _ / ` [ ] / ` [ ' _ R T / ( _ } } [ [ [ [ [ [ [ ` / ` _ _ } O.7.} / ` / ~ 7.[ E ` / / / / ` ` ` ] ` ' ] ] ] ] ] ] _ ` ` [ d.7.` [ O.[ +.8.8. ./ ` ` P [ O.O.O._ O.+.+.} O.+.r.+.+.+.r.8.t.8.r.Y.7._ 7.Y.d.] ] 7.8.8.f.f.Q.7.[ [ / 8.+.O.j.,.5.,.:.:.] ` ,.' ' / :.' ' ` / ' ] / / ( O._ ` _ _ +.+.+.t.O.[ 8./ 7.Y.#.8.r.#.+.t.r.d.8.+.O.7.7.O.8.f.f.r.r.Y.Y.d._.|.7.} d.r.Y._._.Y.8.u.d.] u.#Xu.7.7.7.7.7.7.7.7.5.7.7.7.7.7.7.,.7.7.7.7.3.8.XXu.[ 8.N.N._.N.'.f.+.8.} 7.t.#.#.t.t.t.N.N.r.N.N.#.+.r.N.m.r.Y.N.Y.Y.d.Y.N.Y.7.` 7.f.+._._._.Y.8.r.[ 7.OXd.7.7.7.7.7.7.7.7.7.j.7.9.7.7.3.7.3.7.7.,.,.O._._.O.O.r.O.8._.N.8.[ 8.O.` 8.#.#.N.N.N.N.t.#.%.#._.#.r.N.#.#.t.#.N.r.+.+.r.t.}.7.[ XX8.d.|.Y.Y.d.7.d.[ d.#Xu.3.3.7.7.,.,.7.,.,.3.,.,.,.[ } [ [ } [ [ [ +.f.+.} O.O.#.#.#.t.+.( [ ( } r.#.#.r.r.N.t.+.+.r.#.+.+.8.O.O.+.r.N.#.r.r.#.t.d.] 7.7.f.Y._.Y._.+.7.7.[ ^.t.[ ,.,.7.7.7.7.7.3.7.7.7.7.7.,.,.3.,.,.,.] 7.|.8.[ 7.+.r.t.t.Y.r.+.[ _ +.#.#.#.r.t.r.+.+.+.+.O.} +.+.+.#.+.r.r.+.+.+.8.8.9.] } 8.+.t.f.r.f.7.] ,.[ d.7.` ' ` T E P L I a v Y E ` ,.:.,.,.,.,.,.]  .f.7.( 7.[ 8.+.8.8.O./ [ ` [ r.%.+.+.O.O.7.8.O.8.+.r.r.r.+.8.8.r.O.",
"' [ / ' ~ T ' [ } [ ' ' ' ' 3.:.J I ] T P O.} / P T J J [ ' T T U I J I J I I G n I I J I U I J G J G z I U G J U L I / [ / K T T J E ,./ ` ] ] / R / ' O.[ ` ] [ [ [ [ O.[ _ ` [ [ _ [ / U ` ] P ' 7.O./ P ' T / 9.[ T T ` / / / / ' ' ` / ` ` ] ] ] ] ] ' ' / [ u.7./ ' O./ ( 7.7.( / } ~ P O.O.{ O.O.O.} O._ } +.r.+.+.+.#.8.r.r.r.8.u.8.Y.r.d.[ ] 7._ O._.Y.7.` [ ] / 8.+.O.,.7.,.,.,.:.,.:.:.' ' ` ' ` ' / ` ' ' ' / ) 7.( / } ) _ r.r.8._ O.8./ 7.r.t.r.+.+.+.+.r.Y.r.+._ O.7.8.Y.}.r.Y.r.r.t.Y.t.}.7.[ f.8.O.Y.oXu.[ u.z._ u.#Xc.7.7.h.3.7.7.7.7.5.5.7.3.7.,.,.3.7.3.7.7.,.8.XX9.[ d.8.+._.'._.O.7.d._ 7.r.+.t.#.r.N.t.N.N.r.r.r.r.r.r.N.N.r.r.N.Y.Y.f.r.r.7./ 8.f.} Y._.Y.7.O.z.[ 3.@Xd.7.7.7.7.7.7.7.7.7.7.7.7.7.7.,.5.7.,.,.3.,.O._._.O.O.u.[ _ }.v.[ [ Y.[ ` r.#.#.#.N.N.N.N.#.#.N.N.N.N.#.t.#.#.#.#.#.r.r.r.r.Y.7._ /.7.[ |._.u.[ 8.d.[ z.#Xf.,.7.7.,.5.,.,.,.,.,.,.,.,.[ [ [ [ ] [ [ _ } f.O._ O.( { #.#.+.( } 7./ } 8.#.#.+.r.#.t.t.r.+.+.+.+.8.+.O.+.+.r.r.N.r.#.t.u.) 7.j.O.r._.f.O._ 8.7._ Y.d.[ ,.,.,.3.7.5.7.7.,.,.7.7.,.,.,.,.,.,.,.,.O.}.8._ 9.7._ #._.8.[ +.7._ +.t.+.#._._.#.O.+.r.+.O.O.+.r.+.+.+.+.r.#.8.+.+.8.7.' [ 7._ 8._.t.+.) 3.[ _ d.} ` ` / / P T U a q n L E ;.:.:.,.,.7.,.,.]  .z.7.` 9.O.[ 8.d.7.( _ 7./ _ #.#.+.#.O.8.+.8.8.+.r.#.+.+.+.8.7.8.8.",
"} [ ' [ ` / [ 7.' / ^ ' / / ` ^ J U [ / J / ' P P ] J J [ [ P T I n J U J I G I I Y G G I I L J J Y I n J Y n I ;.E G T ` T L ] ' J T ,.` [ ] ` R R / _ O._ ` [ } O.[ [ 7._ / ' [ _ _ O.` T ] [ T / [ ` P ` 7./ ` 8.3.T T / ^ / / E ' ' ` ' ' ` ] ] ] ] ] ] ] ' ] 7.] T ] u._ R [ [ _ [ +./ P +.O...O.O.O.+.+.} O.+.r.#.+.+.8.r.r.+.r.u.f.f.f.f.f.[ ,.c.[ [ f.7.( _ u.[ / u.8.O.,.,.,.,.7.:.:.:.` ' ,.' ` ' ;.' :.' ' ' / [ 8.( / 7._ R [ 7._ ' f.8.T 7.8.t.t.+.t.+.#.#.r.#.+.+.8.O.+.f.|.Y.Y.r.r.f._.Y.}.7.[ }.Y.[ 9.b. .7.XXz.' u.#Xc.7.7.h.3.j.7.7.7.,.,.7.7.3.,.,.7.7.7.7.7.,.9.XX8._ Q.u.( 8._.O.[ _.f._ 7.f.#.t.N._.N.N.N.N.#.r.r.N.r.r.t.t.r.r.N.Y.Y.r.r.f.O./ u.}.[ 7.|.8.} d.XX[ 3.#Xd.7.7.7.7.7.7.7.7.7.7.9.7.,.7.7.7.,.3.,.5.,.O._._.O.O.f.7.] j.9._ u.Y.[ ` d.#.#.t.#._.N.#.#.#.#.N.N.N.N.N.#.#.#.t.N.N.N.t.t.Y.9.] XXQ.[ u.XX7.7.XXd.,.z.&Xf.3.7.3.,.7.,.,.,.,.] 7.3.] [ [ [ [ ] ] ] ] O.Y.O._ 8.[ ( +.+.[ [ t.8./ [ 8.+.+.#.#.#.t.8.+.O.O.8.t.8.8.8.r.+.8.t.N.r.r.t.f.) 9.z._ O.f.7._ O.f.7._ f.d.[ ,.3.,.3.7.,.,.,.[ 7.7.,.,.,.,.,.,.,.,.,.O.}.8._ u.f._ [ 7.[ _ _.8._ 7.N.#.#.N.t.+.O.+.t.+.O.O.+.+.#.+.#.+.#.#.+.+.+.8.7./ [ u.( [ f.8.( [ c._ _ 8.O.` ^ ` ' T E J 7 w T ' ^ ' ,.,.5.,.3.,.] ] 7.c.7._ d.9._ [ 9.] [ r.7./ _ 8.+.r.t.+.8.+.+.+.r.+.r.r.8.8.t.8.8.u.",
"[ _ _ ' ' ' [ _ ~ ^ ` ' ` ' ^ T N U ' ^ T P J P ' / U K [ _ K I G G n J J G G U / E J n n I J I I J U I I Y n G ;.' I U I L T :.` J L ] [ _ _ / P / / ( _ / P ` _ ( [ O._ _ ` ( _ [ _ _ ' T ` 7.[ / P T ` ] [ / / 7.,./ T E / / / E T / _ O._ ( ` ` ' ' ] ] ;.' ' 3.] U [ d.+._ R _ O.O.O./ P O.O.O.[ O.+.} +.+.} O.r.8.O.+.r.d.8.O.d.d.d.d.r.d.u._ [ }.d.} 7.[ O.8.f.7./ u.u. .] :.:.:.,.,.:.` E ] 7.[ ` E ;.:.:.:.] / ` [ 7.` ~ } 7.( / T ] 7.8.8.T } r.#.#.r.r.r.#.+.+.+.r.r.r.+.O.+.Y._.Y.8.t.f.r._.}.[ [ f.oX8.7.5.O.Q.Q.u.] 8.#Xd.7.7.7.h.7.3.,.,.,.9.XXz.,.,.3.3.3.7.7.,.,.8.XX9._ f.|.O.[ 7.[ 8.|.8._ O._.t.#.t.N.N._.N.#.#.r.r.r.r.#.8.#.r.r.r.f.f.f.r.f.7.` u.#X8.[ 7.O.r.XXQ.[ [ XXd.7.7.3.7.7.7.7.,.,.7.}.f.,.,.7.7.,.,.5.7.,.O._.v.O.O.Y.f.8.7.[ 7.d.8.7.` 8.t.N.r.#.#.N.N.#.#.#.#.#.N.N.#.%.N.#.%.#.N.N.N.r.Y.7._ c.|.d.7.7.O.Q.Y.d.3.d.#Xd.7.7.7.,.3.,.,.,.] 8.|.u.[ ] ,.[ [ [ [ ] _ O.Y.O.( #.t.O.} _ [ 8.r.+./ [ 8.+.+.+.#.#.8.8.+.O.O.8.8.+.r.#.8.t.r.#.8.f.r.r.d.' 7.XXu.[ 7.[ +.N.r.O._ d.r.[ ,.,.7.,.,.5.,.:.O.f.f.7.,.,.,.,.,.,.,.] O._.8._ 7.Y.r.[ ` [ t._.O._ 8.r.#.r.#.+.+.#.+.+.8.O.} O.O.#.r.r.#.+.+.+.+.+.8.7./ ] c.7.[ 7.[ _ u.f.] ( 8.O./ / ^ ` T T n q n O.+.[ ' ] ,.,.,.,.[ ,.] 7.Q.7.` 8.f.7./ :.[ d.8.} / _ +.#.+.8.#.+.O.8.8.O.8.f.8.8.+.8.r.8.8.",
"' [ ' / ' [ [ ' / [ 3.[ [ [ / ^ N ^ / ~ _ / z / O.` I T _ ( P J G L n G J J L ' / ` T n G T I I L I I J T ` G G E :./ I G ] ,.' / I U ] _ ` ` / T ( / ( ` P T ) ` / _ [ [ [ [ ' [ O.[ [ [ ^ ` 7.O.[ ` [ 7.' ' / / } 7.` T ` ` / ` ` U / O.+.O._ E T ' ' ' ' :.' ` 7.7.T [ 8.r.} ) O.7.} [ ` / +.O.[ _ O.+.O.+.8.[ [ 8.+.[ 7.f.u.[ O.Q.f.u.8.f.d.8._ [ f._.r.7.O._.r.8.7.` d.9.[ ] :.,.:.:.:.:.E :.[ _ [ ` E :.' ' ] ' ` ) O.u.` ~ _ +.+.} [ 8.8.O.7.T 7.#.#.t.t.r.+.+.O.#.r.N.#.r.8.O.O.d.Y.Y.r.f.f.f._.f.[ [ u._.|.d.9._.|.d.8.] u.#Xc.7.7.h.7.,.3.,.,.9.|.oX}.9.,.3.3.3.7.7.7.7.9.XXu.[ u.'.Y.8.[ u._.r.7.[ 8._.t.r.r.t.t.t.#.#.#.N.t.r.t.#.+.r.Y.Y.t.r.Y.t.t.f.7._ 8._._.7.] 7.#X|.8.,.[ |.u.7.7.7.7.,.7.,.,.7.Y.].'.d.,.,.7.,.5.5.7.,.O._._.O.7.d.t.Y.d.8.R.8.O.7.` 8.N.t.Y.#.+.N._.#._.#.#.#.N.N._.N.t.#.#.#.t.Y.N.N.Y.9.[ z.Y.OXd.O.f._.8.u.7.8.#Xf.7.7.7.,.5.,.,.:.9._._.Y.7.] ,.[ [ [ [ ] _ O.Y.O._ +.%.#.} ' 8.t.O.} / } 8.+.+.+.r.r.8.r.t.+.8.8.8.+.+.8.8.8.8.+.O.r.#.r.f._ 7.f.}.8.+.+._.N.O.} [ d.r.[ [ ,.7.,.,.5.,.3.f._._.f.,.] ,.,.,.,.,.] O.|.8.[ 7.t.].r.} d._.#.O.[ 8.t.r.N.#.#.#.t.+.+.r.+.O.O.#.+.+.#.+.+.+.8.O.O.8.7./ [ d.f.7._ _ t.Y.7._ ( 8.+./ ` T ` T T T I n O.%.r.} ] ,.,.,.,.,.,.] 7.}.8.` 7.f.Q.,.] d._.7.[ ' _ #.#.+.8.8.+.+.f.8.O.+.8.r.r.8.+.8.+.8.",
"~ ' / ' ' [ / / ' 3.[ [ ' ' ' ' x / ` A ' [ ~ _ _ P I I P ' K I J I n n n K P / P P P U G I U U J I G J / ` L G P / / T T ,.] U T I U ' ` ` P T ~ T / ( ~ ( _ [ [ ` / _ } [ [ } } _ } O.[ / ' ] ` } 8.8._ P ' ` T 3.O.T T / / ' / T ` } O.{ O.O.` E / ` ' ' ;.' ' 9.7./ [ +._ } 8.8._ ) O./ / 8.O.} O.O.} O.8.O._ [ 8.[ ` 7.d.7._ 9.Y.d.d.8.8.8.d.[ [ d.O.8.t.r.8.} O. .( d.+._ ] :.>.:.,.:.` ' [ ' / _ [ / ` ` ] / ' ' ` O.f._ ~ ' _ +.+.O.8.[ [ } T O.r.+.#.r.8.O.} +.#.+.r.r.+.O.8.8.8.8.Y.Y.f.f._.f.8.[ [ u.7.8.Y.Q.Q.8.7.u.[ u.XXc.7.7.j.7.7.,.:.8.|._._._.Q.7.,.,.7.3.7.7.,.u.XX8.[ u.8.8.Y.d.|.8.O.8._ 8._.t.Y.r.8.8.r.r.r.N.r.t._.t.r.r.r.f.f.Y.Y.r.r.t.Y.7._ u.8.+.Y.8.Y.|.8.9.3.} XXd.3.3.3.3.3.,.,.7.Y.OX_.[.'.8.[ 3.7.7.5.7.5.O._.}.O.7.d.} O.^.Q.8.[ 7.7.` d.N.t.t.#.#.#.t.t.t._.N.#.#.%.N.r.#.#.t.t.t.t.t.Y.Y.7.] c.7.r.|.Y.R.8.7.u.7.8.#Xu.3.7.7.7.7.,.] 7.Y.N.N.m.Y.O.] ] ,.[ ] [ _ O.Y.O._ +.O.} +.+.8.[ [ } / O.8.+.+.+.+.8.r.+.#.8.8.8.O.O.8.8.8.+.+.O.+.+.+.t.d._ 7.9.O.8._.N.N.O.O.3._ r.r.[ ,.,.,.,.,.:.7.d._.N.%.N.8.[ ,.,.,.,.,.:.7.OXu.[ 7.+.8.%.N.Y.+.O.3._ O.Y.r.N.N.#.+.#.#.#.8.+.O.+.+.+.O.O.O.r.8.8.+.+.+.7.` ,.8.| u.8.7.f.7.3.] _ 8.O._ ' :.T I / ,.Y j } #.%.r.7.[ [ ,.,.:.,.,.7.Q.9._ 7.O.u.8.8.Q.8.[ } ` ' r.#.+.+.+.8.8.8.8.O.O.8.8.r.8.+.O.+.8.",
"~ / ` [ ' _ ' / [ 3.[ 3.] / ] ] J ' ` Z P [ _ _ / z T J J ' P U J J n G V P ( / P J U ` U I I I I I G P / ' T T / T P ] ' T Z P / I U ` ` ` P T / T / / ~ _ [ [ O.[ ` ] } [ } O.} } O.8.[ / ' ` T [ d.7./ T [ ' / 7.7./ T T / ` ` _ O.+.O.O.O.O.7.] T E ' ' ' ' ,.8.7.) } O./ } _.O.R ( O.( ( +.O.+.r.O.7.O.7.] ) 7.u.[ ] 7.u.8.7.d.d.8.f.8.8.8.f.[ 7.f._ [ f._.7.) O.O.) f.7.[ ,.:.:.:.,.` ' [ O.( _ O.@.[ ' ' ] ] [ ] ) +.f._ / [ ( _ 8.} } ` ' 7./ [ +.+.t.+.+.O.{ +.#.+.+.+.+.O.8.r.8.#.t.r.Y.Y.Y.+.7.[ O.u.O.[ c.}.d.[ 7.c.[ d.#Xc.j.7.7.7.7.:.9.Q._._.Y.N._.}.7.,.3.3.7.7.5.u.#X9.[ p.O.[ _.'.d.[ O.d.[ +.|.N._.Y.8.#.N.N.N.N.N.N._._.N.N.t.Y.Y.Y.N.t.r.t.Y.7.[ f.9._ 8.|.|.u.} 8.7.O.XXd.7.7.3.3.,.,.O.Q.'._._._.].oXu.,.7.7.7.7.5.7._.}.O.7.f._ _ |.Y.[ ] 8.7.` t.N.#.t.N._.t.N.#.#.#.#.#._.#.#.#.+.#.N.t.N.t.N.t.f.7.[ c.7.} Y._.Y.} O.f.7.7.#Xd.7.7.7.7.7.] 7.Y._.N.N.%.N.f.} ' [ [ ] [ _ O._.+.[ 8._ ( t._.O.` [ O.( O.8.+.r.+.+.+.+.+.r.#.r.+.[ O.u.8.8.#.+.+.+.7.@.f.f._ 8.8.[ O._._.+.[ O.7._ 8.8.] ,.,.,.,.,.[ d._.N.%.N.N.N.8.[ ,.,.,.,.,.7.$Xd.[ 9.O.} r.N.8.[ [ 7._ O._.r.r.N.#.#.r.r.r.r.r.#.#.+.#.+.O.O.+.+.8.r.+.+.7.` 7.7.` 7.}.f.+._ 3.[ _ 8.7._ 7.7.T I ' ;.e y 7.N.%._.Y.7.[ ] ,.:.,.,.7.}.7._ 9.[ [ } c.f.[ _ 7._ _ 8.#.#.8.+.8.+.r.8.} +.8.O.8.8.r.O.8.8.",
"^ ~ / ' [ _ / ' / [ } [ ' ' ' ' J ' ' J J ` / T J U / K K ~ K J I n k V J T P / P P P / / P n G J I I K / ` P T ' J z E / J k P T G L ] ` U L T T ~ T ~ / T ` [ _ _ _ _ _ } [ [ O.O.8.7.` P ] [ T / ,._ T / [ / / 9.7.T U / ^ T _ 8.+.O.O.O.O.O.8.7.' T / ` ` ` [ u.7._ 7.[ P ` 7._ T ` [ ( ( +.+.O.+.8.7.[ ) ` 3.7.7.O.} 8.8.7.d.d.r.8.d.r.8.d.d.[ +.v.[ _ O.f.[ ' O.O.) 8.+.} ] :.:.:.:.` ,.[ _ { O.O.O.8.7.' ) ,.,.:._ +.f.' / 8./ / O.} ` / ] ,./ [ O.8.r.r.+.{ } O.O.+.+.O.O.+.8.8.8.8.8.r.Y.Y.8.+.c.3.[ u.5.] 7.c.7.] 9.z.[ d.#Xf.7.7.7.5.,.9.|.^.Y.N.R.N.N._.Q.7.[ 3.7.5.,.u.#X7.[ z.5._ u.f.[ ' 7.d.[ O._._.Y.t.r.r.8.t.N.N.N.N.t.N.N.t.Y._.Y.t.r.Y.t.8._.8._ f.8.` [ d.f.[ [ u.7.7.XXd.3.3.3.3.:.O.Y.|._._.'.OX_.'.oX8.,.7.7.7.5.7.}.}.7.7.d.] ' 9.7.` :.8.7.` d.t.t.N.#._._._.#.#.o.#.#.#.N.N.#.#.r.t.t.Y.Y.t.8.f.7.[ c.[ _ 8.Y.O.[ 7.z.7.7.&Xd.,.7.7.,.,.9.}.Y.N.N.N.N.#.N.d.[ ] ] [ ] _ +._.+.[ 8._ ( +.8._ ` [ } / } 8.+.8.8.O.O.+.+.8.8.8.+.[ [ 7.8.#.+.+.O.O.t.r.r.8.( 7.8.[ [ 8.r.O.( 7.7.( 8.8.[ [ ,.,.:.[ 8._.N.N.N.%.r.N._.8.[ ,.5.,.,.u.$Xu.[ 9.7._ +.7.[ _ O.8._ O.N.#.r.r.#.t.t.#.+.r.r.#.#.r.+.+.#.O.O.+.+.+.#.r.7.` O.9./ ] u.u._ ' 3.' ' r.+./ [ :.n Y :.I e J 7.#._.N._.f.7.[ ] ,.,.] 7.Q.7._ 8.} _ ' 7.7.( [ 7.` _ +.O.+.8.+.8.+.r.8.+.O.8.+.O.+.8.8.+.8.",
"[ [ T / [ } ( [ ' ' } } ' [ } ' Z ' ( T U R T P J / / J / _ J J I G n J T / ~ ( ( ( T / ) ` U I G Y L J ( _ P R ] J j I T G z T T G L ] / L J T T ~ / ` / / ` _ ' _ [ [ _ } } } [ } +.} ( / 7.7./ / ' / / ` [ ` / 7.7.P U ` T / O.#.+.+.+._ } 8.O.8.9.' T E ` E _ u.7._ 7. .R ` ] ` / ` [ ( ( t.#.O.+.8.8.O._ ,.u.O.+.+.7.d.r.8.r.r.d.r.u.+.8.Y.d.[ +._.O._ [ 7.[ _ +.O.) 8.8. .[ ] ,.' ]  .7.[ [ } O.O.+.O.+.7.[ ] ,.,.] +.f.[ ( f.( ( 7.O.` / [ [ / [ O.O.8.r.+.O.O.} O.+.+.O.+.+.+.8.f.8.t.r.r.g.+.t.XX7.[ u.5.] ,.7.3.,.9.c.[ d.#Xf.7.7.h.,.9.XXOX_._.Y.r.Y._.N.`.Y.O.,.7.3.[ u.XX7. .z.7.] ,.,.:.' 7.d.[ O._._.t.t.t.r.r.N.N.N.N.t.t.N.N.r.t.Y.N.t.Y.Y.t.N.|.7.[ f.8.) ] 7.7.[ [ u.7.7.XXd.7.3.3.,.[ f.].]._._.Y.Y.|._._.oXu.7.7.7.7.7._.}.7.7.z.[ ] ,.:.' ,.u.7._ d.t.N.N.#._._._._.#.%.N.#.N.N.R.%.N.N.N.t.t.t.#.#.Y.7.[ c. .[ 7.7.[ ] 9.z.7.7.#Xu.,.3.7.:.7.}._.Y.Y.N.+.r.R.m.R.r._ ' ] ] _ +._.+.[ 8.} ' [ [ _ ` } } / O.d.+.+.8.+.+.8.+.+.#.r.8.O.O.+.8.8.#.8.+.8.t.#.+.+.( 8.8.[ ] O.O.} _ 7.7.( r.8.] ] [ ,.] 7._.N.N._.#.#.N.t.t._.8.[ 5.7.,.u.$Xu.[ u.7.] [ [ ] _ O.8.[ O.N.r.t.r.t.r.r.+.O.r.N.#.#.#.#.+.r.8.+.#.r.+.8.Y.8._ O.7.` ` ,.3.` ] 7.' _ N.+.P ' T J T ` T ` / _ [ _.Y._._.c.7.,.:.,.[ 7.Y.O._ z.7.] ] 7.[ ' [ 7._ ( +.#.O.r.#.+.#.r.r.r.O.8.r.O.O.8.t.+.8.",
"O.} ~ / / [ [ { ' } } } / _ 7.' Z _ ~ P / T K P P P T J ' / J z k J P / P ~ / / R P / ' / ( ` T J I L P ( / P P / U z G J n J U U J L ` T U I I ` ~ ` ] / / / ` ' [ [ _ [ [ } [ _ } } } ] / O.,./ / E / ' / ] ' / } ] P U T T [ O.O.+.#.[ T / } 8.8.8.7.' P T T / 7.9.' 7.3.` ] ] ` ` / _ _ ( #.+.8.+.+.8.7.7.7.7.O.+.O.8.8.8.r.r.8.r.r.8.O.+.t.u._ 8.d.| [ ] _ _ ` [ 7.( 8.+._ :.' ;.] 7.7.O.} O.' T ] 8.O.+.8.7.] :.] ] O.d.O.( 8._ ` [ ] ) / ' ,./ O.7._  .[ O.} O._ [ } +.+.+.+.8.r.Y.t.#.#.t.8.d.r.}.7.[ 9.,.:.,.,.,.,.9.c. .u.#Xu.7.7.3.8.XX@X|.'._.7.] 7.Y._._.`.t.} ,.3.,.9.XX7.[ z.7.:.:.:.:.] [ u.[ O.Y.t.t.f.r.r.r.r.m.N.r.r.#.N.Y.N.r.r.N.N.Y.Y.Y.Y.|.7._ d.7.` ] ] ] ] [ 9.7.O.XXu.3.3.,.[ d.OX_._.|.Q.,.[ d.|._._.|.u.O.7.7.7._.|.7.7.z.[ :.:.:.] :.7.7.` 8.t.#.N.N.N.N._._.N.N.N._._.N.N.%.%.#.N.#.#.#.t.r.Y.7.[ c.,.:.,.:.,.] 7.z.7.O.#X7.,.,.:.7.Q.Q.Y._._.O.' [ d.Y.m.N.+._ ' ] _ O.|.r.[ 8.[ ] [ ] [ _ _ 3./ } 8.8.+.+.8.8.#.8.8.#.+.8.8.+.+.+.#.#.8.t.t.8.O.+.8._ 7.8._ [ [ _ [ _ 7.9._ r.8._ ] ] ] O.f.N.N._.t._ _ t.N.#.N.R.8.] ,.,.8.OX8.O.9.7.] ] :.:.` O.8.[ O._.r.r.t.r.8.+.O.+.+.t.r.+.+.r.#.#.r.8.+.8.8.+.r.7._ 7.7.` ' :.] ' ' ,.,._ N.O./ ^ J I ` T :.;.J / / O.r.Y.f._.f.7.] :.,.7.f.+._ u.7.] ,.,.] ] _ 7._ [ 8.#.+.#.#.+.8.r.8.r.+.#.8.O.[ O.8.8.8.",
"_ } ' ( ` _ ' } } O.[ [ / ( [ ' Z [ / P / T P R P U K T [ ` z z J U / / ~ / P J G G P _ ( ( _ _ T L I T ( _ P T / E I G G n n U T J L / / / J I T / _ [ [ ( ` ` _ O.[ _ }  .[ O.O.O.[ } [ ' 7.3./ / T ` ' / ,.] / [ ` U T T ( +.O.O.8.} / T T _ 8.r.8.d.7.` P P / 7.8.] 7.7.` ] ] ] ] ` _ _ ( +.+.+.+.8.8.O.8.8.7.8.8.+.t.8.8.8.r.8.t.r.r.8.+.8.u._ 8.f.[ ] ] ` ) ` [ 7.( 8.O.` ' ` :.7.d.7.O.O.O.T J U 7.8.+.+.8.7.[ ' ,.[ b.7.[ 7._ ` ] ' ) E ] ,.T } 8.} [ / _ ( O.O.O.( O.r.8.8.t.r.+.8.r.r.Y.r.f.t.}.7.[ 9.[ ,.,.:.,.,.j.c.5.u.XXu.7.3.9.|.OX@X|.|.8.:.>.:.7._._._.'.8.,.,.,.8.XX7.[ c.j.:.:.:.,.] :.u.[  .f.r.Y.f.r.r.#.#.N.N.r.t.r.N._._.N.t.N._.f.Y.Y.t.|.7._ d.7.) ] ) _ [ [ 9.7.7.XXu.,.,.,.u.].`._._.Q.7.:.:.3.Q._._.'.oXu.7.7.7._.oX7.7.z.,.:.:.:.] ] j.j./ u.t.t.t.N.N.%.N.N._.%._._.N.#.N.%.%.%.N.t.#.r.N.r.Q.7.[ c.,.,.,.,.,.] 7.c.7.O.XX7.] :.3.Y._.Y.|._.7.] :.' [ d.N.%.N.O._ ] _ O.oXt.} 8.[ ' [ ] [ ` _ 7./ _ O.+.+.+.8.+.+.#.r.#.+.+.8.+.+.+.#.#.8.#.8.#.O.#.8.( 7.9.] [ [ _ [ _ 7.9._ r.8._ ] ] [ f._.%.N.Y.} / / O.N.N.N._.Y.O.] ,.u.#Xu.O.u.7.' ] :.,.` [ 8.' O._.+.#.#.+.#.#.#.#.+.N.r.#.#.r.r.r.r.r.8.8.r.r.+.7._ 7.5.' ' :.:.] ' ,.,._ _.7./ U n T :.' :.I n ` / ` 7.f.f._._.f.7.:.] 7.c.7.[ u.7.] ,.[ ] [ ' ,._ O.r.O.| O.r.t.#.t.8.+.+.#.+.8.O.O.8.f.8.",
"' ] ( _ ' ( / _ } _ ' } [ / _ [ Z _ ' K P T J P U E I P [ ( V Z / ' ~ D ~ P Z G k n G U _ _ ( ( / L J U ' _ ( ` ` T J I J k l I P V L ` / / L J U ` ( [ [ _ ( ] } [ O.O.[ [ [ O.8.+._ [ ` / u.7./ ` ` T ` ' [ ' / [ ' U T / _ } ..+.7./ U ` ' T ] d.d.8.u.9.' U / 7.9.] 7.7.` ] ] _ ` ` _ ` / #.8.O.7.8.8.+.O.8.r.+.+.r.r.f.8.+.r.r.8.8._.8.O.8.f._ O.f._ [ ] ` ` ` [  .( O.O.` T ' 9.8.8.+.7.[ ` Y U U ' } 8.8.+.8.9.,.' [ XXu.( } ` ` ] ` ` / ' [ / [ O.+.O.' [ _ } @.O.( ( O.r.r.#.+.O.O.r.r.8.f.r.r.}.7.] 9.,.:.,.,.,.:.9.c.[ u.XX9.,.7.XX#X|.OX#Xz.,.>.2.,.,.8._._._._.7.] :.u.XX9.[ z.7.;.:.:.:.] ,.9.) [ f.t.f.Y.t.#.#.r.N.N.N.r.r.t.Y._._.N.N.Y.Y.Y.t.Y.|.7._ u.O.` ] [ ] [ 7.z.5.7.XXu.,.3.d.OX_._.].}.7.>.>.2.:.7.Y._._._._.8.,.O._.oXO.7.z.[ :.,.:.:.' 7.5./ 8.t.t.t.#.%.%.#.N._.%.#.#.&.N.N.#.N.N.N.#.t.t.t.Y.Q.} [ c.[ ,.5.,.:.:.7.u.3.} XX7.' ,.d.Y._._.|.7.] :.,.:.] [ Y.N.t.r.O.' ' O.OXr.[ 8._ ' [ ] _ ` ' [ / ' O.O.+.+.+.#.#.+.8.+.O.+.+.+.#.+.+.#.#.O.+.O.O.8.8._ 8.+._ _ [ ] _ ) 7.7._ 8.8._ ` [ t.N.%.%.f.,.' ] ] ` O._.N.%._.N.} ' 9.OX8.} u.7.] ] :.:.] 7.7./ [ r.#.#.+.#.+.#.#.#.#.#.#.r.r.r.+.r.t.r.Y.Y.r.#.+.} ` O.,.` ' :.' ' ' ,.' [ Y.7.T J J ` / ' ;.c c :.` ` ,.9.}._.Y.|.f.,.] 7.}.7.[ u.[ _ ] ,.] ] ] 5.) [ 7.[ ( _ 8.r.r.+.+.+.+.#.+.+.O.O.8.8.u.",
"' _ ( } _ [ ` [ [ _ _ 7.O.} O.7.J ' / Z P P J Z P ` L J / P J / / ( ~ / P J k n I J n J T ) ( / P J J K _ [ / ` ` P J L I n l I P Z T  .( ` E K T _ ( _ [ _ _ 7.O.O.+.O.[ } O.O.+.O.[ O.] / 9.[ ^ ' ` T T ' 3.' ( O.[ T T _ } _ O.O.' T E ' ' T T ,.d.8.u.u.7.' / 7.u.' 3.7./ ] [ ] ` ` [ _ ( t.r.+.8.8.8.+.+.8.r.8.r.+.r.r.+.+.r.r.#.#.N.8.8.r.f._ O.8.[ ] [ ) ) ` [ O./ O.7._ ` 7.d.8.+.8.7.` U T ` / ' / 7.8.+.+.f.9.,.7.}.7.( O._ ` ] ` ` ` ' ,.` [ O.} } O.8.} O.O.+.} _ O.r.#.r.+.r.r.#.8.8.t.8.t.}.7.] 9.7.:.,.5.,.,.z.c.[ 8.%X8.7./.#X@X|.#Xz.3.2.2.,.4.4.,.u._._._._.7.[ 8.$X9.[ z.7.' :.:.:.] ,.7.` [ Q.Y.t.}.Y.#.t.N.N._.Y.N.t.t.N._._._.r.t.Y.Y.Y._._.7.` u.+.` ] [ [ [ 7.c.5.7.#Xu.} d.OXOX_.]._.7.,.2.,.>.,.:.7.}._.Y._._.7.O._.oXO.8.c.[ ,.,.:.:.:.7.5.` d.N.#.N.t.#.%._._.t.#.#.#._._.N.#._._.N.t.t.t.#.N.Q.O._ d. .,.,.,.:.:.7.z.7.O.XX7.[ 8.Y.N.N._.8.:.:.:.,.,.,.] 7.d.N.N.N.8.[ O.OXr._ 8._ ' [ [ ' ` _ } ( O.8.+.+.+.#.+.#.+.+.+.+.O.O.+.+.+.+.#.#.+.O.O.#.r.8._ 7.+._ _ [ [ ) ) 7.7._ 8.+.( [ d._.%.N.t.7.' ;.] ] ] ' +._.N.N._.r.} 8.OX8.O.u.7.] ] :.:.] 7.3./ } r.#.r.t.r.8.r.#.r.r.#.#.N.r.r.r.r.r.Y.Y.d.8.O.r.7.` [ [ ` ' :.;.' ' 3.] [ f.O.U J / ] / ` U p m :.] ] :.5.u.|.Y._.oXu.3.8.}.O._ u.O.] ] ,.] ] [ 7.` _ O.+.O.+.O.8.#.#.+.#.+.r.r.#.O.+.f.8.d.",
"[ [ / ' 3.7._ [ / ' _ O.} } 8.3.J ` P Z P U J Z U T P J K J Z / / ~ ~ P J z z J U U J J I T / ( / / J Z ( _ P P U U J J I G k I J Z ` [ _ _ T T ` ` _ _ ' _ [ [ O.+.O.} [ [ O.+.} _ [ O.[ / [ ] T ` ` T U ' 7.` ' 7.[ ~ / _ _ } O./ T T ' ' ` ` T E ,.u.8.7.d.7._ O.8.' [ 7.` ` ] ' ` / 7.} ( r.+.r.d.O.O.+.8.O.8.r.r.+.+.8.r.8.r.N.t.+.r.8.t.t.8.[ | +.[ ] ] ] ) ( O.O./ O.7.[ O.8.8.+.8.,.` T E T ` / / ` ' 7.r.#.8.u.8.7.u.[ ( O.[ ` ' ` ' / [ 3.R [ 7.[ O.} O.+.+.} O.O.8.8.8.+.t.#.r.r.r.+.7.+.8.t.}.7.] u.7.,.,.5.,.,.c.XX[ 8.XXu.c.&XXX@X#Xz.4.4.h.4.4.,.,.,.,.8._._._._.r.t.oX7.[ u.9.] :.:.:.' ,.9.` [ c.f._._.t.r.t._.N._._.N.N.N.t.Y._.Y.r.t.t.Y.Y.N._.7.( 8.7.` ] :.,.,.7.c.5.7.#X8.8.#X#XOX].}.7.,.,.,.7.3.:.,.,.7.Q._._._.Y.+.N.oX7.7.c.,.:.,.,.,.] u.7.` f.N._._.N.t.N._.N.#.#.#.%.N._.N.#.#.%._.t.t.r.r.r.Y.7._ d.7.,.,.,.,.:.7.z.[ O.XXO.8.Y.N.N._.7.:.,.,.:.:.:.,.,.] } Y.N.N.N.r.#._.8.( 8.[ ` ] ] ' / [ 7.( O.8.+.+.O.+.+.+.+.+.+.+.} O.} O.+.@.+.@.O.O.O.O.#.8.) O.O._ ] ] [ ` ( 7.7.( r.+._ 8.N.%.%.r.} ' :.] ] ] ] ] _ 8._.N.N.N.r.t.oX8.[ u.9.' ;.;.:.] [ 7.' O.r.O.#.t.t.t.#.r.r.r.r.r.r.N.Y.r.r.8.r.d.r.8.r.r.9.' [ [ ' ' :.:.' ' j.] ( f.O./ ` ' / / T b i i U 7.} ] 7.3.u.}.|.}.|.u.8.}.O._ u.} ] :.,.,._ [ 7.( [ 8.r.8.8.+.+.O.#.+.r._._.r.r.#.#.8.r.d.",
"7.3./ / [ [ [ _ / / 7.7._ [ O.3.K ' ~ Z J U J J U ^ P K / / P P / ( P J G n J T P / U J L U P ( ( [ / D / / P P U U J G I G G U J J ] [ _ ` P ` } _ _ [ ' [ O.O.O.O.O.+.O.[ O.+.[ [ } } [ / ] [ / T E T T ] 7.' ' } } ' ' } } } / T ` ^ [ 7.] ` ` U E 3.u.d.d.d.8.8.8._ 3.u.] ` ] _ ` ` 7.O._ r.#.#.8.7.O.8.r.+.8.t.8.+.+.r.Y.8.t.t.r.#.t.t.t.8.8. .O.8.[ ] ] ] ) ) 7.7.( O.O.O.8.7.8.8.7.` T E / / 7._ ~ / ' ` 7.8.8.8.u.7.7.[ _ 8.O.` ] / ] ` 7.7./ ] O.O.8.O.+.+.+.O.+.+.8.#.7.} +.N._.#.t.r.8.8.t.#.}.7.] d.7.,.5.7.5.j.XXXX[ u.XXQ.XX@X#X@Xc.7.2.h.4.3.x.j.,.,.3.,.u._._._._._.oX7.[ d.u.] :.:.:.' 7.u.' } Y.f.Y.Y.t.t.t.Y._._.Y.Y.N.N.t.t.Y.Y.Y.t.t.Y.Y.Y.oXO.) u.7.) ] :.,.[ 9.c.5.9.#Xr._.$XOXOX|.7.,.h.,.,.c.z.,.,.3.,.7.}._._.OXN._.|.7.8.Q.7.,.3.,.,.,.c.9.] f.N.N.N._._.N.N.#.#.#._.%._._._.#.#.#._.t.t.r.N.#.}.7._ f.7.,.,.,.,.,.j.z.O.O.|.#.N._.N.Y.7.] :.,.[ 3.u.3.,.,.,._ O.N.N.N._.#._.+.( t.8.` ] ] ' ( 7.8.( O.8.+.} O.O.+.+.+.r.+.+.O.O.O.O.+.#.+.#.+.+.} [ +.O.) O.O._ ] ] ] ` _ 8.O._ 8.+.+._.%.%.t.} ' ] ] ` 7.7.' ' ) [ +._.N._._._.'.8.[ u.u.] ;.:.:.` O.u.[ O.N.+.+.+.8.r.+.r.t.r.r.r.r._._.t.r.t.t.d.r.Z._.Y.8.` } 7.' ;.:.:.` :.k.] _ 8.9.O.,.' / E I p q q I u.u.3.,.5.7.8.}.}.oXf.Y.}.[ [ c.7.] ,.,.,._ 7.9._ 7.f.#.+.t.+.+.+.#.+.f.Y.r.#.r.t.r.+.t.r.",
"3.,./ P / ] ` ` / ' 7.3.} _ _ [ Z ' _ / Z I I J P / K J [ _ P / / ` J G n J I Z P ~ P I I L U P / ' [ ( ' ~ J T T J G G G n J / U Z ` [ / / R ] 7._ ( ] [ O.7.O.} } O.O.O.[ _ [ [ _ [ O.] T ' 3.E T T U / 3.3.' ' O.} { O.+.} / T T ^ ] 7.7.3.' ` T T / 7.d.d.z.Q.Y.8.' } c.7./ ] ] / [ 8._ ( N.+.+.+.O.8.+.8.r.t.8.d.+.8.+.r.t.t.8.t.#.8.Y.#.+.8.[ O.N.O.` :.' ` [ u.7./ [ O.O.+.+.d.7.' ` ;.T _ 8.+.+._ T ` / ` } u.d.8.+.8._ _ 8.O._ ` ' ` ] 7.9./ ] [ [ O.7.8.7.O.O.+.O.O.8.O._ O.8.t.r.#.+.8.r.r.r.f.7._ d.c.[ 5.7.,.z.XX/.[ u.#XoXXX#X$X/.7.4.h.4.4.z.#X/.3.:.,.,.[ u.oX_._._.|.7.[ f.c.[ :.,.' ] u.8.( O.|.t.t.f.t.t.t.N._._.N.N.N.N.N.t.t.Y.Y._.Y.f.Y._._.7.( 8.r.[ ] ,.] ,.c.c.,.7.XX_.OX$X[.|.9.3.3.,.,.z.Q.Q.u.[ ,.3.,.7.Q.|._._._._.O.8.XX8.:.,.,.:.9.XX7._ _.#.t._.N.N.#.#.#.N.N.N.#.&._.t.#.#.#.#.r.t.r.#.r.Y.8._ Y.z.,.,.,.,.7.z.c.[ O._._.R.R._.8.] :.,.:.[ f.oXf.,.] ,.[ _ O.Y.Y.N.#._.+.( r.t._ ` [ ` ' 8.r.( O.8.+.O.} O.O.+.O.+.8.+.O.+.+.O.O.+.#.+.+.+.O.[ O.+.( } +.[ ` ' ] / [ d.} _ 8.#.#.%._.t.3.' ' ] ' } t.N.} / ] _ _ +._._._._.].8.[ u.c.[ ' :.;.` 7.u.[ O.r.#.+.+.+.+.r.r.r.t.r.r.t.N.R.N.r.r.Y.f.Y.r.r.}.9.` } 9.] ` 1.;.E 5.k.' ] u.O.O.,.' E J b p 7 w ` 8.Y.9.>.,.3.,.u.}.|._._._.} [ c.7.[ :.,.:.[ r.u.' 8.f.+.#.+.8.8.7.+.8.t.+.} +.f.8.r.#.#.8.",
"[ 7.' ~ ` O.' ` ` 7.3.7.O.( } _ Z ' O.O.P I I Z T ] P Z ` ' / [ / U G n G T U J T P / U n I U J U / _ _ _ _ P / ` U G I G z T ] U z P / / ( ` [ [ / / 7.7.[ ' [ } O.O.O.+.[ _ _ } } } O._ / [ 9.` T T U [ 7.[ ( _ 8.O.} 8.O.' T T T / 8.#.O.8.[ / ` ` E ] 7.c.Q.Y.Q.d._ } Y.u.` ' ' / 7.f.( ( t.r.+.8.8.r.+.8.r.r.r.d.f.r.+.8.r.t.r.N.#.r.N.+.+.r.[ O.'.t.) ] ` ` 8.Y.O./ 7.t.#.#.8.8.:.;.:.,.' 7.#.O.o.8./ T ' / / O.8.8.+.f.} _ +.8. .` ` ` [ 8.8./ [ [ ( _ [ [ [ [ O.+.O.+.+.O.[ 8.+.7.+.+.+.v.t.8.t.f.7.] d.XX7.,.5.,.Q.#XXX[ z.*XXX#X&X/.7.h.3.4.3.u.XXOX|.Q.,.,.7.,.[ f.|._._.oX7.[ f.}.5.:.,.` O.|.8.( 7.}.t.t.r.t._.r.N.N.N._.Y.N._._.Y.f.t.N._.Y.Y.Y._._.7.) r.oX7.] ,.] 7.XXXX,.7.$XOX$X$X|.8.,.h.3.,.z.|.Y.Y.|.9.:.h.,.] 9.|._._._.}.7.8.#XXX5.,.,.,.Q.oX7._ _._.t.N.r.#.N.N.#._.N.N.%._.N.#.#.N.#.#.#.t.r.r.Y.R.8._ Y.XX7.,.,.,.8.|.Q.[ 8.OX_._._.r.[ :.:.,.,.d._.R._.f.[ ,.,.[ _ 9.Y.N.#._.#.( +._.7._ ] ` } Y.8.( O.+.+.#.+.+.O.+.+.+.8.O.} +.#.+.O.O.O.+.O.O.} O.+.8._ } t.O.( ] ' / O.Y.} _ t._.#.N.N.O.' ;.:.` } t.t.N.t.} ` ] _ [ 8._._._.].8.[ d.|.7.' :.' _ Y.r.' O.t.r.r.+.+.+.r.r.t.t.r.N.N.N._.Y.t.8.8.r.t.8.8.Y.8.' 7.c.,.` >.;.` z.z./ ] u.[ O.,.T I l b c w b } #._.f.7.:.,.,.,.u.XX|._.}.7.[ }.Y.7.:.,.' [ |.z.' 8.r.+.#.+.8.t.8.8.r.N.+.O.8.N.8.8.+.+.8.",
"[ [ _ ] ] } [ [ _ } 7.7._ _ _ [ P ~ O.} / J G K / [ / G U ' ( ' U J n n J / / P U ~ ~ ^ J J J L K T / / ' ` T / / E J J n G ^ ' I G I T T / _ [ ' P / ,.7.' / _ } O.O.O.O.[ _ ' [ O.} O.} / [ 8.[ T U / } +.} / ] 8.O.+.O.] / T U T [ } O.O.O.+.O./ E ` / ] 8.z.Y.Y.z._ O.f.d.7.` T _ u.d.' / 7.8.+.8.r.r.8.+.+.r.f.r.f.f.+.O.O.r.N.#.r.f.#.+.r.8.[ [ _._.O.` ` O.r.f.O./ u._.#._.7.,.;.,.] ] O.8.O.} O.+.} / P / T / ' 7.8.8.O.( O.#.O.[ T ` 7.7.7.~ [ 7.} [ _ [ _ O.[ O.O.+.O.O.O.8.+.O._ O.8.d.d.f.8.f.7.] d.oXQ.,.] u.XX#XXX[ p.&X$X*X/.j.h.h.3.,.u.XX|._._._.d.,.:.7.:.7.}.|.Y.}.8.[ u.}.9.[ ' [ r._.8.( 7.|.t.t.r.t.Y.N.t.N._._._.N.N.Y.Y.Y.t.t.t.r.Y.Y.Y.Y.O.` 8.OXf.5.] ,.d.XXQ.,.7.XX[.$X|.9.7.7.,.,.z.~.Y.Y.Y.Y.Y.7.:.,.,.:.8.#X_.Y.Q.7.8.#XoXp.,.:.9.XX|.7._ Y.t.t.r.r.t.t.t.%.N.N._.N._.#.N.#.#.N.t.#.r.r.r.Y.Y.3._ f.oXc.,.:.7.}.|.Q._ 8.oXN._.r.[ :.,.] ] u._.%.N.N._.t.5.] 3.[ _ 8.Y.#.N.r.( +.N.t.O./ ' 8.Y.+./ O.8.O.+.+.O.O.O.O.+.+.} _ O.#.#.O.O.[ } } O.O.+.#.8.( _ r.r._ ` / _ +.t.[ _ t.%._.N.} ' ' ' ' [ r.N.#.#.N.f.[ ' [ ] _ d.OX_._.d.[ u._.d.[ ` ] 7.Y.8.( O.t.+.r.8.+.8.8.r.N.#.r.r.t.Y.Y.N.r.8.8.8.8.8.+.8.8.' } c.9.] ;.` ] z.9./ ` 9.[ ] E J n n U b 9 J O.O.%.N.c.,.,.,.,.,.z.}.|.XX7.[ _.|.u.,.:.] 8.|.u.' 7.r.+.+.8.8.r.r.Y.r.r.+.r.r.8.#.#.O.+.8.",
"' ] [ [ ' [ } O._ [ [ _ ' [ _ } P ~ [ } ] L V / [ ] T J T _ ( P J I G G T ' ' / P ` ~ ` ` U J L U U T ~ _ ` P T ' _ P n n E ] ` J n P / P R ] [ [ ' ` [ [ _ _ 7.} } +.O.O.+.[ _  .O.} +.7./ _ +.+.] / [ O.O.} ~ ] 7.O.8.[ ` ;.` T ` O.[ ( } O.+.r.7.:.` ' ] :.7.d.Q.c._ O.f.r.d.] / O._.d.' / } +.8.8.8.8.+.+.+.t.r.Y.r.Y.Y.8.O.8.r.r.r.t.O.+.t.r.[ _ N._.r.` _ f.N.r.O./ 7.r.N.8.,.:.:.,.] ] r.r.O.O.+.+.r.} T / ^ T T [ +.8.O./ O.+.#.O.' [ r.+.7./ [ 8.+.O.[ O.} +.} } O.#.+.O.O.8.t.O.} 7.8.d.u.8.8.f.7.] d.|.OXu.7.XX@XOXQ.[ z.&X#XXXj.h.h.h.3.u.XX|.|.|.|._.|.u.:.,.,.[ 9.Q._.}.9.[ u.}.f.7._ 7._._.7.( 7.oXN._._.Y.t.t.t._.'.Y.Y._._.N._.N.t.N.t.r.f.t.#.8.7._ 8.].'.8.] 7.oX#XQ.,.7.XXOXY.9.5.j.,.,.z.XX|.Y._.|.Y._.Q.3.:.,.:.,.u.R._.Q.7.8.oXOXXX9.7.oX[._.7.] u.#.#.#.#.N.#.t.#.%.N.N.N.N.t.t.#.#.N.N.#.t.r.t.r.d.,.] f.oXoX9.[ c.oX_.Q.] 8.oXR.f.3.:.,.,.] 8.Y.N.N._.N._.'.d.[ ,.,._ [ f.#.N.t.( +.t.N.r.[ O.f.N.+./ O.8.+.+.+.+.O.O.O.+.+.O.} +.+.+.+.+.O.} O.+.+.O.+.8.( ( +.N.O.` ( +.#.r.[ _ 8._._.+.` ' :.' ' u.Y.#.r.N.t._.r.[ ' ] ` [ d._.OXd.[ 8._.Y.+.] 7.N.N.+.( O.r.#.r.+.#.#.r.r.r.N.r.r._._.N.r.t.Y.f.8.r.r.+.r.u._ [ Y.d.,.` ' 8.c.3.T ' 9.[ T J J J T :.N 0 J _ X.%.N.}.z.3.,.h.>.,.9.}.XX7.[ }.Y.}.7.,.7.oXY.8.( O.r.#.+.r.8.r.N.r.8.8.+.r.+.+.+.8.8.t.7.",
"/ ] / ' ' [ _ ] ' ' / [ ' ' _ [ P ~ ' [ _ U P [ _ _ U G / _ ~ U I I n L _ ' ~ ) / ~ ` / / / U I I T I U ( ` J P ` ' ^ U T ] _ / J G E ` P T ` _ _ _ } } _ [ O.[ [ [ O.O.O.+.O.} [ [ O.+.} / ` O.+.O.} } O.+.[ T / 7.7.[ ' ' ;.^ ` [ _ _ ( ( } O.+.f.7.' ;.;.;.' 7.Q.z._ } Y.r.d.8.} r.Y.u._ / } +.+.8.+.+.+.8.+.r.r.r.Y.Y.Y.d.7.8.+.N.r.+.+.8.r.8._ _ r._.Y.7.+.Y.t.r.[ / [ 8.7.,.' :.,.,.[ 7.r.#.+.} O.8.+.7.[ / U T U / [ 8._ / O.+.+.+.O.8.+.+.8./ [ 7.O.O.] _ O.+.O.} O.+.+.O._ O.r.8.8.d.8.8.O.7.8.c.3.] d._.|.|.Q.|.|.#XQ.[ u.#X}.7.h.j.h.3.z.XX|.|.|.|.|.}._.|.8.:.,.,.] 9.Y.}.9.[ u._.Y.t.8.t.N._.7.( 7.}._._.Y.f.8.8.Y._._._._._.Y.N.t.t.N.N.t.Y.d.#.#.8.7._ 9._.].Y.8.Q.OXoXQ.,.,.XX}.7.,.h.,.,.z.XX}.}.}.Y.}._._.|.c.,.:.>.:.:.u.|.Q.7.7.oXoXOX}.}.XXoX_.} ' r.#.#.r.#.r.#.#.#.N.#.N.#.N.N.t.#.t.#.#.t.Y.r.r.8.u.[ _ f.|.OXY.8.|.|._.f._ 8.|.Y.7.:.,.>.:.8._.%.%.%.N.N._._._.8.[ ] ,.` O.t.N.8.( +.t.#.N.#.N.r.N.+./ O.7.+.#.+.+.O.O.+.+.+.+.+.+.O.#.+.#.#.#.+.+.+.O.+.#.( / +.t.#.} } #.#.#.[ ' +.N.+.] ] :.' ' 7.N.#.#.#.N.r.r._.f.[ ' ] ` [ f.$Xr._ 8._.N.t.8.t.#.#.O./ 3.8.#.+.+.+.t.t.r.t.N.N.r.t._.Y.r.N.Y.Y.f.r.8.8.d.8._ [ f.r.9.,.3.d.d.,.U ' 7.` I N U ' ^ ^ U e k ( o.%.#._.}.c.3.,.,.>.:.u.Q.7._ f.Y._.d.7.d._.N.7./ 7.8.#.8.r.r.r.8.r.+.O.O.8.+.+.O.8.d.8.u.",
"/ [ / ' [ } ' [ _ ' ] 3._ ' ' ' T ~ ' } _ ' ' [ ( _ T J ] [ P E T I I ` } [ / _ / / _ / ~ _ / P J J I U / / G P / ' ` ] ] ` P T L I E / / T / ] _ _ [ [ ( _ } [ _ _ _ O.O.O.O.} _ O.O.O._ P ( +.O.O.+.} O.O.[ / ` 7.7.` ` :.' / O.O.} } O.} [ } +.r.d.9.' ` >.' O.Y.d.' [ Y.#.r.Y.8.Y.r.8._ ' 8.+.O.r.#.#.r.m.+.#.r.r.Y.f.8.8.8.r.8.r.8.+.8.t.r.8._ [ r._.Y.Y.r.t.#.t.[ R O.p.[ ] ;.,.:.,.8.N.#.r.+.} O.r.+.8.7.] T U U L ` 7._ P O.#.O.8.#.r.O.+.7.R 7.O.O.+.[ _ [ } O.8.} +.O.O.[ } 7.Y.r.f.8.O. .u.r.d.,.] d.|.R.|.|.|._.OXQ.[ u.$Xc.h.h.j.7.z.XXOX|.|.|._.|.|.}._.|.8.:.,.:.,.u.}.9.[ u._.N._._.N.t._.+.( 7._.v._.f.8.8.f.Y._._._._.N._.N.r.Y.Y.Y.Y.Y.t.8.r.Y.7._ 8._._.|.^.|.|.|.XX,.5.$Xb.,.6.7.,.u.|.|.|.|.}.Y._._._._.|.z.5.>.>.:.7.|.XX7.7.oXoXoXoXoXOXoX'.O.] Y.N.t.N.+.#.#.#.N.t.N.N.#.N.#.#.#.t.#.N.N.N.r.+.8.d.3.] f.|._.|.Y._._._.f._ 8.oXd.,.,.,.:.8.Y._.%.N.%.N.N._._._._.u.) ,.:._ 8.N.8.( 8.N.#.N.N.N.r._.+.( 7.O.+.#.+.+.O.#.+.+.+.#.#.8.O.+.+.+.+.#.+.O.+.#.+.+.( / O.#.#.+.+.#.o.#._ ' 8.t.[ ' ,.,.' 7.Y.t.+.r.r.r.r.r.v._.8.[ ] ] ` 7.OX8.' 8._.%.%.t.N.#.t.} ~ 7.r.O.+.+.+.t.t.r.t.t.t.#.r.f.Y._.Y.d.f.8.O.7.r.f.8.` [ t.8.8.7.7.8.7.,.U ' :.K K T U ] P P / d n / X.&.#.Y.Y.|.z.3.,.,.:.9.Q.9.] u.Y._.R.Y.Y.N.N.7.` 7.8.8.O.O.8.r.r.d.8.+.O.r.r.+.O.r.t.r.u.",
"' 3.[ ' [ } [ [ ' [ [ [ ' ` ~ ' K ~ 3.' _ } [ ' / _ T G [ ] L T P P [ } [ } } _ ~ / _ ' / T ~ / J n G I / / z U ~ _ _ [ ' T U T I J ` ) / / / ` ' ` / / ( _ _ [ ' / _ [ } } _ _ _ [ } } / K ' O.O.O.+.O.} O.O./ ' 7.] ^ ^ ' _ } O.{ ..O...} } O.+.O.8.8.3.` :.:.[ f.z.' [ f.r.r.m.r.r.r.d.' [ f.+.O.+.#.r.r.r.N.t.+.r.t.8.O.+.9.g.r.r.O.8.d.#.N.8._ [ f._.N.Y.r.t.#.f.} / 7.u.[ ' ;.,.,.8.f.N.#.t.+.O.O.+.8.+.+.+./ U U U / } _ P O.+.+.+.+.+.} O.} T } +.} O.O.O.' _ } +.+.O.} +.O.[ } 8.r.8.O.O.8.d.r.d.[ :.u.|._._._._._.|.d.[ u.XXz.h.h.7.z.#XoX|.|.|.|.}.}.|.|.Y.'.|.7.:.,.,.7.XX8.] 8._.N.Y.Y.Y.N.N.O.` 8._.g.8.8.t.f._.Y.Y._._._._.N.t.N.t.f._._.r.r.f.Y.Y.9._ 8._._.|.|.|._.|.XX,.7.XXp.,.6.,.9.XX|._.|.|.Y.Y._.Y.|.}.}.|.z.,.,.,.,.Q.XX7.7.oX'.'.OXoXoXOX'.O._ d.N.N.N.r.#.#.N.t.r._.N.t.#.#.t.t.#.#.N.N.#.+.r.r.d.7._ f.|._.]._._._._.d._ 8.|.8.,.>.:.u._.N.N.N._.#._._._._._._._.+.] :.] +._.8./ 8.N.N.N.r.N.#.r.+./ 7.9.O.+.8.+.+.#.#.#.#.#.r.+.} } +.+.O.O.} O.+.+.+.+./ ` +.#.#.#.+.+.+.#._ ( 8.8._ ] ,.] 7.Y.t.r.#.+.8.r.t.N.t.t._.u.] ] ] 7.|.8.' 8._.%.%.%.#.#.t.} / 7.8.O.O.+.r.8.t.N.t.r.t.r.r.8.t.Y.f.Y.8.8.u.r.r.d.8.` [ r.#.+.8.O.+.O.] K ` ] J J ` U ^ Z K T d I / ( #.N.f.t._.}.z.,.>.>.7.c.z.] f.N._._.Y.t._.r.9.` 7.t.r.O.O.} 8.d.r.8.8.+.r.8.8.+.+.t.r.7.",
"3.[ ( ~ ` 3.} [ ' } [ 7.[ ` / _ T / [ ' [ [ [ ' ( [ T J ,.] U L L / _ _ / ( _ _ ( / ( _ T J P / P U G z / ' J T / ' _ ` / / / ' J Z ) [ ( _ ` / ~ / ~ / _ } [ [ [ _ _ ' [ [ _ _ ) ` O.O.T P [ } O.+.O.} } +.8.` ] 9.' T ` ' O.o...O.O...O.O.O.O.+.O.+.r.d.7.,.' [ c.z._ 7.d.r.t.r.r.r.8.u._ [ d.t.O.O.r.t.8.t.t.r.8.8.d.#.+.f.+.N.t.r.O.r.t.#._.8._ O.t.N._.Y.r.N.#.f.O.( 9.7.[ ] ' ,.8._.r.t.t.t.+.O.O.+.8.8.+.+.[ ] U U / 7.} ( O.O.#.o.O.+.O.+.} / [ 8.} O.O.O.} _ ( } +.} O.+.O.} [ 7.8.7.+.r.f.r.t.Y.[ :.u._._._.R.|._.|.f.[ d.XXz.5.7.z.#XOX|.|.OXoX_.|.|.}.|.|._.'.Q.7.:.,.8.XX9.[ 8._._.Y.Y.Y.t._.7._ 7._.t.r.r.Y._._._._._.Y._._.r.r.t.t.Y.Y.r.r.Y.Y._._.9.[ u._._.|.|.^._.|.}.[ 7.#Xu.,.,.9.Q.oX|.|.|._._.Y.Y.Y.|._._._._.z.,.,.3.f.XX7.9.oX'.'._.'.OX].'.O._ f.N.%.N._.r.#.%.%._._._.#.#.#._.N.N.t.t.#.+.8.t.r.Q.7.[ f._.'._._._._._.f._ d.|.8.:.,.8.Y.R.%.N._._.%._._._.N._._._._.7.' ] +._.8.' 8.m.N.N.#.N.#.t.+./ 7.f.O.+.8.#.+.#.t.#.#.+.8.+.O.O.#.8.O.[ O.+.+.O.+.8.( ] 8.+.#.#.+.#.o.#._ ( 8.8.' ] ] } Y._.t.t.r.+.8.N.t.t.N.t._.}.7.[ ,.O._.u._ 8._.%.%.%.N.#.t.7.' 7.r.+.O.+.r.r.t.N.t.#.N.Y.t.r.t.t.Y.N.r.r.}.Y.8.8.8.' } r.+.+.8.O.O.7.,.U / ,.U J T T _ K Z ~ j G P S O.t.Y.t.Y._.}.9.>.:.7.c.z.[ Q.N.N._.N.t._.t.z.' O.t.r.Y.f.O.8.t.r.8.8.+.r.8.r.+.+.+.O.+.",
"} ' P / / ` _ [ ' ' } 7.} } ' ' P ^ [ [ / ] / ' _ ' U L 7.` L J U _ ( ( ~ P P / ( / ~ / K K J P / / J z P ~ J ~ _ ( P / / P ( ] J Z / _ [ _ _ ` T U T ' ' _ [ 7.[ _ _ [ _ _ _ ` ( [ } } ^ U ] } } O.} ( } +.7.] ' 7.] U ^ [ O.X.X.} _ ( [ O.O.} O.8.8.+.8.f.7.' [ f.u.` } Q.r.r.8.8.r.d.u.[ _ 8.t.+.O.+.t.r.#.+.#.+.d.8.r.r.8.8.t.r.r.+.8.t.#.t.7._ O.f._.Y.Y.t.t.t.d. .( 8.+._ / [ 8.r.N.t.#.+.8.+.+.O.O.7.8.O.O.+.O./ ~ / 7.} ( 8.#.+.#.O.O.O.+.O.P [ +.O.} } O.} } _ } } O.} O.O.O.[ O.O.8.8.r.f.N.t.f.,.:.z._._._._.|.|.|.c.[ d.XX9.,.u.#XoX_.oXOX|.oX|._.|.|._.|.}._._.}.3.] 8.XX9.] u._.Y.Y.Y.r.N._.8._ 7.}.f.t.Y.Y._._._._.N._._.N.r.#.r._.Y.r.+.r._.N.t.}.9.] u.|._.|.R.Y.|.oXc.[ 7.#X7.] 7.}.|._._._._.Y._._.Y._._.R._.Y._.|.8.[ [ Y.|.7.7.OX'.'.'._.'.]._.O._ r.%.#.%.N.N.%.#.#._._.N.#.N.#.N.N.N.#.#.+.r.r.r.r.Y.7.[ f._._._._._._._.Q.[ d.|.7.] d._.%.%.%.R.#.N.N.#.N._.N._.N.N._.Y.3.' 8._.8.( 8.N.r.r.r.r.r.N.+./ O.d.+.O.+.#.+.#.#.#.+.#.+.O.O.+.8.7.} [ O.8.+.O.O.8./ ' 8.+.+.+.+.+.#.8._ _ 8.+._ / } _.N.t.N.N.r.r.r.r.t.r.r.t.r.Y.f.} ] 7._.8._ 8._.#.#.N.N.#.t.7.' 7.r.#.#.+.#.#.N.r.r.N.t.t.t.t.N.r.r.#.r.Y.Y.t.r.r.7.' 7.Y.+.8.8.O.O.7.:.T ` } ` J I T O.A x T e e P Q _ O.t.t.t.N._.Q.7.:.7.c.z.[ d._.N.Y.N.r.N._.u.' O.r.t.r.f.r.+.+.r.r.+.+.r.r.8.O.+.} } 7.",
"` ` ` [ ` ` ` [ ' } 7.3.] ' / ,.P P ,.[ ' [ ` ' _ :.L U 7.T J U / O._ _ _ T K R P / T J K P Z D ( ( P V J U k U ] ( P ) ` T ` [ U J / _ ( [ [ _ / T / / ' [ } [ [ _ [ } } O.[ [ } 7.O.} ` T ' O.O.} _ _ } O.O./ _ 7.) U ` +..._ ( ( ( / ( ( } O.+.8.8.7.8.d.d.7.} u.z.` } Q.d.8.r.8.d.d.8._ ' 8.#.r.+.O.8.t.r.+.#._._.8.r.r.t.t.t.t.N.#.8.t.r.8.8._ } r._.m._.t.t.t.f.[ / 9.+.( ` 8.t.+.#.+.#.+.+.+.#.O.+.O.} [ } O.8.7.[ _ O.O.( 8.r.O.#.O.+.O.+.O./ O.O.O.} [ O.{ O.} O._ O._ [ O.[ O.} O.r.+.8.t.N.r.f.,.,.d.|._._._._._.OXQ.[ d.XX7.7.|.[._.'.oXOX_.oXoX_._._.|.|._._._.'.Q.7.8.XX8.] u.}.f.Y.Y.r.t._.7.' 8.|._._._.Y.N._._.t.t._._._.t.N.Y.Y.t.#.r.Y._.N.t.}.9.] u._._.R._._._.oXc.[ 7.oXO.7.}.|._._.|._._._._._._.N._._._._._._.|.8.O.Y.|.7.8.$X'._.'._.'.]._.O._ r.#.#.N.#._._.N.#.N.%._.N.N.#.N._.t.N.#.r.t.r.#.t.Y.7._ Y.'.R._._._._._.f.[ d.oX7.8._._.%._.%.N.N.N.#.#.r.N.N._.N.N.N._.Y.O.#._.8.( 8.N.#.N.t.t.t.N.O./ 7.Y.#.O.+.t.#.%.#.+.+.#.+.+.O.+.O.[ [ O.O.8.+.O.+.8.( ' 7.+.O.#.+.O.#.8._ ( 8.O./ [ r._.#.t.t.t.r.N.t.8.t.#.#.t.#.t._.8.[ +._.7._ f._.#.#.r.N.N.t.} ' 8.t.+.#.+.#.t.N.#.#.N.N.#.N.t.t.#.+.8.Y._.Y.r.r.t.8.' 7.Y.8.#.7.+.8.7.' T / O. .T I / [ P J n 2 0 _ .._ O.#.g.f.f.Y.|.z.3.j.c.z.,.z._.N.Y._.r._._.u.` } t.N.8.f.8.O.+.r.8.8.8.8.+.O.O.+.O.+.7.",
"/ _ _ [ ' ] ` ` _ } 7.3./ / / ' P U / [ [ ' ' [ _ ] J K ] / U ` [ _ _ _ ' ` / T U P Z P K P P ( / / ~ Z Z K k J T / / / / _ _ / K J ` ( P ( ` _ ` ` / ~ ' [ _ / ' _ _ ' [ O.O.8.8.O.O.O.` ~ [ O._ _ _ } O.[ _ T ` 7.[ ) _ O._ / / [ } _ / / _ +.+.O.O.8.8.8.d.8.7.u.z.' [ d.8.8.8.8.d.7.3.] ` 8.t.r.r.+.+.+.r.+.t._.Y.r.+.8.Y.t.r.#.N.r.t.8.+.+.r._ 3.d.r.N.t.r.N.r.8._ / 7.O.[ 7.8.#.O.O.O.#.+.r.+.+.O.+.} _ _ 7.O.8.O.8.O.7.[ / O.+.#.+.O.8.O.} } / O.O.[ O.[ [ } O.+.O._ { } } ( } } O.O.+.8.r.r.r.t.f.[ ,.8.Y._._._._.|.oXY.[ 8.oXt._.oX'.'.]._.|.OX|.|.|.Y.Y._._._.|._._.oX}.t.|.8.[ u.Y.f.Y.r.f.f.d.O.` 8._.Y._._._.Y._._.r.8.Y._.N.N._._.N.#.r.Y._.Y.t.Y.|.9.] 8.Y.R._._.Y.|.Q.u._ O.|.8.Y.oX_._.`._._.`.|._._._._._._._._.R.N._._.N.N.|.7.7.#XoX'._._.]._.Y.O._ t.N.#.#.%.%.N.N.#.#.#._.N.#.N._.t.N.r.N.m.r.r.t.r.f.3.[ f._._.R.Y._._._.f.[ d.|.r._.N.%.%.%.N.N.N.N.#.%.#.N.N.N.N._.N.N.Y.Y.8.Y.8.' 7.r.r.t.r.t.Y.8.} / 3.f.#.+.+.r.N.#.O.+.+.+.+.+.O.O.O.O.7.8.+.8.r.+.+.+.( _ O.O.+.+.O.+.#.7.' ( +.O.[ t._.#.#.N.t.#.#.r.N.N.#.#.#.#.r.#.N.Y.8.+._.7._ 8.Y.#.#.#.N.N.r.} ` 7.N.#.#.#.#.r.#.+.#.r.N.t.t.t.r.#.#.t.Y.r.N.N.r.8.8.' [ 8.O.8.8.O.8.3.` T ' [ [ ' / ~ ~ ~ P e 2 r O.| O.+.#.#.f.f.f.f.Q.c.u.c.z.[ z.Y.Y.Y.Y.N.Y.u.7.' [ t.t.r.8.+.+.O.7.7.8.8.8.} O.8.8.O.8.7.",
"' [ [ ' [ [ ` ` _ } 8.} ' [ ] ] T T P ` [ } [ [ ` / L J ,.7.( / _ ( ( ( / _ ` T T K Z T P / _ { ( ( P Z K J z J J T / / ' [ / J J U ` ` R P / [ ` / / ` ` / / / ' [ _ ' ' } 8.r.8.[ } 7.' / } } ( } } } O.( ' ` ` } O.+.O._ [ { _ [ } [ _ _ O.O.+.O.+.8.8.8.8.8.d.c.z.' [ } O.d.8.8.u.[ [ ,.` 8.Y.#.r.t.r.+.#.r._.Y.r.#.+.8.f.r.r.r.N.t.N.+.O.#.Y.[ 7.7.O._.t.r._.+.7.) / O.+.#.t.8.+.+.#.+.8.r.t.+.+.+.8.O.O.7.f.8.+.7.8.+.d.} ( [ O.#.#.#.r.[ _ } ( } +.{ O.} } O.O.} { O._ [ +.} } [ 8.O.O.+.r.+.8.t.f.[ 3.8.+.`._.R.$Xf.r.Y.[ 8.oX_._.'._.'.].|.oXOXoXoX|._.Y.N.}._.|.|._._._._.oX8.[ u.r.r.Y.r.Y.d.7.[ ` 7._._._._._._._.|.t.8.Y._._._.Y.N.t.t.N.Y._._.Y._.|.u.,.z.8.r.|.Y._.}.u.9.[ O.OX_._._._._.].]._._._.'._._._._._.N.N.N.Y._._._._.|.7.8.Q._.]._.'.|.+.8.8._ t._.%.#.#.#.#.N._.%.t._.t.#.N.N.r.N.#.#.#.N.r.t.r.f.3.[ 8.r._.N.N._.Y.+.d.[ d.}.N._.N.N.%.%.N._.N.N.N.#.N._.N.N._.N.%.N.N._.r.Y.7.] } +.N.%.#.Y.r._ } ` } r.#.#.+.+.#.+.O.r.r.+.+.+.O.O.8.N.r.r.r.#.+.} +.+./ ' ' } +.+.O.#.O.[ ' ( O.#.r.N.#.#.#.t.#.N.#.+.t.t.#.t.t.#.r.#.#.N.Y.r.Y.7.[ O.+.#.%.#.Y.#.+.7.' O.t.t.#.#.#.#.#.+.+.r.N.r.r.N.t.#.N._.r.r.r.r.8.d.u.] } } _ 8.8.7.8.[ T ^ ,.} _ } } / ' / T d 0 k .._ +.+.@.#.8.8.f.d.Q.Q.c.Q.z.,.u.8.Y._.Y.Y.Y.O.3.[ } r.t.t.+.#.f.7.7.7.8.+.+.O.8.O.8.8.8.8.",
"[ _ } O.} 7.O.} _ O.7.} [ ' } [ T ^ ' R ` 7.[ ` / ' U J 9.7.( ~ ( _ / / ( / ` ` P Z P P / { ! _ { _ P Z P J k I I Z K / ' / Z J J J ` [ / P R / ` / / / T U P ` [ ] _ _ ' ' O.7.} { } O.] / } } / _ +.O.( ( } / / +.O.{ O.O.} { O.( ( [ [ [ O.} O.8.8.7.7.O.7.7.d.Q.8.` [ 7.[ 7.Q.d.5._ 7.3.` d.f.8.r.r.Y.r.+.8.Y.Y.r.+.8.+.8.r.t.N.t.t.Y.8.+.#.f.[ ,.7.[ 8._.t.#._ 7._ R +.N.#.#.r.r.+.8.r.r.r.r.#.+.O.+.8.r.8.8.8.8.7.8.r.d.} / 7. .[ #.N.O./ _ } ~ [ O.+.} } O.} } _ { { { O.8.+.O.O.+.+.+.+.+.r.+.t.f.[ [ c.O.r.].].Y.[ 8.Q.[ 8.|._._._._._._.|.oX|.OXOXoX|.Y.Y.Y._._._.Y.f.Y._.oX9.' z.8.O.Y.Y.d. .3.3.` 7._.t._._._._._.|._._.t.N._._.t.t.N._.N.N.Y.|._.Y.}.u.,.l.7.[ c.}._.8.O.z.[  .oX_.N._._._._.'._._._._._.N._._._.N.N.Y._._.Y._._.|.7.7.XX7.r.OX_.8.[ Y.O.( t._.N.#.#.%.%._.N.N.N.N.N.#.N.N.N.%.#.#.m.N.m.#.r.Y.[ [ 8.O.#._._.f.O.+.d.[ d._._.Y.N.N.#.N.N.N._.N.N.N.N.N._._.t.#.#.N.t.N.N.Y.7.` 7.O.O.N.N.t.[ } 8./ } t.#.#.+.#.+.+.+.#.+.#.+.+.+.r.r.r.#.#.#.+._ _ O.+./ ` ] _ } +.+.O.( } _ / O._.%.#.#.#.#.#.t.t.r.+.+.8.#.#.#.t.#.+.+.8.t.r.Y.7._ 7.O.O.#._.r.} O.8.' O.Y.#.r.r.#.t.r.#.+.#.r.N.t.t.t.#.N.N.N.t.r.+.r.Y.8.' 3.7.) O.d.8.7./ ^ ` } O.( / ' ] [ J l e c l ( ..+.+.8.8.8.8.d.f.f.Y.f.XXj.] z.7.O.}._.r.O.} 8._ [ r.r.+.#.8.8.8.f.7.7.8.8.+.+.O.8.f.r.8.",
"} _ [ O.} O.} _ [ O.} 7.[ _ [ [ U ` 9./ P ] ] T ( 7.E J [ _ ( ( [ } ( ( / / / / P P D P / _ ( { _ ( P Z ~ J l T T K J T ` K Z ' T Z ] [ ( ( / / _ _ / T / T I / [ _ _ [ [ _ [ 3.} } O.7.[ / [ O.R / 7.[ P } r./ R O.} _ O.O.} ( _ [ [ ( _ O.O.+.7.+.8.[ [ O.7.7.u.f.7./ [ z.[ _ d.7._ 7.}.O._ d.r.f.r.8.Y.r.8.8.r.Y.r.8.8.+.+.r._.N.t.t.N.r.t.#.Y.} [ f.[ [ _.8.( _ f.[ / +.N.#.Y.r.t.8.8.r.r.+.+.t.+.O.+.+.#.+.7.8.r.8.8.r.d.[ ( u.9.) +.+.) / +.[ P ( [ _ ( _ O._ _ _ O._ O.#.8.+.#.O.O.#.#.O.+.t.r.t.t.[ [ |.8.[ Y.oX} [ oX}.[ 8._.'._._.'._.oXOXOX|._._.|.|._._.N._._.f.Y.Y._._.oX9.' c.c._ 7.|.O.) u.8.( 7._.N._.Y.Y._.f._._._.N._.N._.N.N.N._.N.N.Y.Y.f.t.|.u.[ c.z.] j.b.u.[ 7.XX)  .oX#._.R._.'._.OX_.N._.|._.N._._._._.Y.Y.N._.Y._._.XX7.9.&X9.O.|.Y.O.+.OXO.( t.%.%.N.%._._.'.N._._.N.t.#.N._.%.N.%.N.r.r.+.r.t.Y.[ [ }.#._ N.N.O._ Q.Q._ u.|._.Y.R._.N.N.N.%._.%.N.N.t.N.N.N.#.#.#._.r.t._.Y.7.( u.8.[ 7.8.O.[ r.r./ } N.#.#.#.t.+.#.#.#.t.#.O.O.+.t.#.+.r.t.#.O.[ O.+.O./ [ 7.' ( O.O.( _ r.[ / +.N.#.#.#.+.#.N.r.t.N.+.O.t.r.#.#.#.+.O.+.r.t.r._.O.` u.8._ O.8.O._ Y.d.` O.Y.r.t.t.#.N.N.N.r.#.r.N.N.t.t.#.N.N.N.t.r.8.r.Z.8.` 3.c.[ ) 9.8.,.' 7.' ' 3.P T ' T J g 0 9 j z ( O.O.8.t.8.f.r.r.f.d.f.Q.XX9.] XXz.[ 8.|.8.[ r.f.` [ r.#.#.t.+.#._.u.O.} 8.f.+.+.O.8.Y.r.u.",
"} } ' } } _ / _ ' ] [ [ _ ` ` ] U ~ 7.3./ R U ` [ 3./ K ' [ / ( O._ } _ P / T T P P P ~ ~ ~ _ { / P P D P J l J / / J K L P ~ } P x ` ' / ( ` ` [ [ T U ' T I T _ O._ ' [ [ ] ' [ 3.O.8.[ / _ 7._ / _ / / 7.8.T U [ O.} } [ _ ( ( _ [ _ [ [ O.+.O.O.} } } [ 7.7.8.8.7./ [ c.9.[ [ [ 7.d.f.O.] f.f.r.f.f.d.r.r.8.r.r.t.r.#.+.+.t.N.t.N.r.r.Y.r.N.Y.[ [ f.d.O.O._ _ O.r.[ / +.#.#.N.d.8.8.8.8.8.+.r.r.O.[ +.+.O.O.8.7.8.8.+.O.8.[ ( u.u.[ [ ) ( _ } [ P / [ ( ( ( ( ( [ _ } _ { #.r.+.O.O.+.O.#.+.8.+.t.#.8.[ [ f.|.O.O.O.O.d._.}.[ 8.'.'.'._._.Y._.OXoX_.N.N._._._._._._.Y.Y.Y.|.|._.oX9.' z.XX7.} 7.] } d.8.' 7._.N.Y.Y.f.f.Y.Y._._._._.N.N.N._._.Y._.Y.t.t.t.f._.u.[ c.XXu.9.7.[ O.Q.p.) [ |.N.N.Y.Y.'.OXOX_._._.'._._._._.OXOX_.Y.t.Y._._._.XX7.9.&XXX9.7.7.#.R._.O.( t.%.#.N.#.%._._._._.%.N.#.r.N.N.N._.R.N.+.r.8.t.t.Y.[ [ _.Y.O.O.O.O.8.|.}._ u._.Y.Y._._.N.N.#.N.#.#.#.N.#.t.#.%.#.r.t.N.N.N.#.Y.} ( d.Q.+.[ _ O.8.r.+./ } N.#.t.#.t.r.#.#.t.N.#.O.O.r.r.#.r.#.r.+.+.} [ O.+.` [ 7.O.( ` / ( O.8._ / O.#.#.t.#.#.#.r.r.t.N.#.#.#.#.t.#.+.+.+.8.#.r.t.Y.O.` u.Q.8.[ ' } 8.Y.u.` } f.r.r.r.r.r.N.N.t.#.#.%.N.t.#.r.N.t.t.t.Y.r.+.8.7.` } Q.7.[ ] [ 3.3.z.` / [ P K T U k g j 9 9 Z _ O.7.8.t.t.f.f.t.8.d.f.f.XXu.[ /.XX8.7.c.O.8.|.7._ _ 8.#.#.8.8.t.Y.8.O.7.d.r.r.+.O.r.d.f.r.",
"} } _ +.} _ _ } _ ' O.[ _ / ( [ T ^ [ O.} _ T [ } _ / P O.O.( _ [ } [ ( P P P / P P R / P / ( _ ~ P P P P J l J ` _ / P J _ } [ P z / _ / ) ` ` [ ` U U T / / ] [ _ _ [ } [ ] ` ] ] [ u.[ P ` O.+.O.( ~ } +.} P T 7.} O.} ( ( _ [ ( ( +.} _ [ O.+.} [ O.8.O.7.8.+.7.7.( [ u.f.8.3.7.Q.d.7.[ ] Q.f.r.f.t.r.r.r.8.t.8.t.t.r.O.8._.N.t._.t.N.N.t._.f.[ _ 8.t.#.+.[ t.#.+.O./ O.t.+.+.8.8.8.r.7.8.r.Y.7.} _ 8.8.O.+.8.7.+.+.O.O.8._ ( 7.u.O.O._ +.O._ [ P _ +.O.O.( ( _ _ O.} ( ( +.t.+.} +.#.O.#.r.r.+.O...t.O.[ 7._.Y.8.O.Y._.t._.[ #.'._.'._.Y.N._.Y._._.N.N._.Y.N.Y._.Y._._._.|.|._.OX9.] u.|.f.7.[ 7.r.r.8._ 7._.t._.|.Y.Y._._._._._._._._._._._._._._.t.r.f.f._.d.[ z.oX|.}.7.8.|.d.9.) [ oX_.N.N.N._._.oX_._.'._._._._._._._._.t.Y._._._._.XX9.9.%X}.}.u.8.oXN.r.7._ t.%.#.N.%.#._.N._._.%.N.t.N.N.N.N._.N.#.r.N.r.t.#.}.[ _ 8.N._.+._ 8._._.Y._ 9.|.N._.Y.Y.N.#.#.N.#.#.+.#.#.#.N.%.N._.N.t.N.N.#.N.} _ 8._.N.+.O.f.r.O.+./ 7.r.#.N.t.r.t.#.#.N.N.t.#.r.#.#.+.#.+.O.O.+.O._ O.+.` ' O.#.} ` / O.#.} ( / O.#.#.#.#.#.#.#.t.r.t.t.#.t.N.N.#.+.#.N.r.#.#.t.Y.O.' 8.Y._.+._ 8.r.r.8.' [ 8.r.8.8.r.r.r.r.t.r.#.N.N.#.#.N.t.N.Y.8.u.8.O.+.7.' 3.d.u.8.,.,.u.8.8./ / 3./ J U U z k G 9 q P O.| 8.8.8.f.f.f.8.d.Y.d.f.XX8.,.z.c.}.8.7.7.[.t.7.[ [ t._.#.t.t.r.f.r.8.d.8.f.t.8.8._.r.Y.d.",
"} } _ 7.} } ' [ } } } [ ` _ ( [ / / _ / } O.[ } ( _ / ( O.} _ _ _ } ( / T T U T P P P / / ( ~ P D ~ ~ D ~ T k J P _ ' P ~ [ ( ( ~ Z T _ / R ) [ ` / U U T / ] [ } [ _ } O.[ ` ` ` ] [ 7.] U ` [ O.r.O.{ } } [ P / O.} } } } } O.[ ( ( O.O.} _ [ O.O.O.O.7.7.8.7.7.8.7.( [ 8.+.8.8.d.u.O.7.[ ] c.f.t.r.r.r.8.d.r.r.r.Y.8.8.+.r.t.Y.N.t.8.Y.r.t.#.t._ [ 8.+.O.t.N.t.O.+. ./ +.r.+.#.O.O.7.8.O.d.8.8.} 7.[ } 8.8.+.8.+.+.O.+.O.7._ ( 7.[ _ 8.8.+._ _ _ P [ O.+.O.( ( ( [ O.O.( [ O.+._ [ O.+.+.#.#.#.O.O.O.t.O.[ 7.#.r.Y.Y.Y.+.#._.[ 8.'._.'._._.t.t.N._.Y.Y.Y.Y.Y.Y.N.Y._._._.|._._._.OX9.,.z.8.7.f.Y.Z.7.8.8._ 7._._.|.|._.Y.Y._._._._._.8.Y._.R._.'._.Y.t.f.f.t._.f.7.f.f.#._.Y.Y.t.+.u._ [ oXN._.Y.N.Y.Y.Y.Y._._._._.N.N._.Y.Y.t.Y.Y._.Y._.|.XXj.9.%X7.d.#X|.Y.+.d.+._ t.N.N.#.%.N.#.N.R._._._.8.8.Y.N.#.%.%.%.r.Y.Y.r.#.}.} _ u.O.r._.r._.#.#.Y._ 9._._._.Y._.N.r.#.N.N.N.#.#.N.N.#.N.%.N.N.N.r.r.%.N.O._ 8.#.O.t.N.Y.O.O.+./ 7.N.t.r.N.t.#.#.r.t.N.Y.r.8.r.#.+.O.O.{ } O.O.} O.O./ ' O.O.} } O.#.{ _ _ / O.#.+.r.t.t.#.#.#.N.t.#.#.t._.t.#.+.r.t.r.r.r.8.Y.7.] u.8.+.t.Y.c.O.#.8.( O.f.8.r.r.r.r.r.r.r.r.N.r.r.r.t.r.N.N.t.8.8.8.8.8.9.] [ d.O.u.c.z.u.+.i.' / 7.' P J J J g j 0 8 T +.O.7.8.8.8.8.8.r.d.d.d.f.Q.9.[ c.7.8.}.8.d._.+.u.3._ t.t.N.Y.r.t.8.f.d.d.8.f.8.8.8.f.Y.d.8.",
"O._ T / } } ' [ _ [ _ [ _ O._ [ T ` _ D ( 8.8.[ P [ ( _ } } [ ( ` _ / / ( _ T P / P P ` ~ P Z Z Z ~ / P ~ / z Z P T U / } _ Z P / J / ` R T / _ ' ' / ^ ' / P / [ +.O.[ [ _ / / ' [ [ } ] T ' _ ( O.r.+.( ( [ / / +.O.{ O.+.O.O.+.{ _ O.r.O.} [ [ O.+.} } d.r.7.8.7.7.) [ 7.( } f.d.7._ 7.O._ u.r.r.+.t.f.8.f.r.#.N.f.[ ] 7.N.r.t.r.+.+.r.8.+.#.t.[ O.f.O.( r._.O.( O.O./ 7.#.t.t.8.+.O.7.8.8.O.[ O.8.[ _ 7.8.8.7.+.O.O.8.+.7.] / 9._ P 7.Y.O./ ( } / _ 8.O.O._ ( ( +.} O.O.O.( ( ( O._ O.O.+.+.O.O.#.#.N.7.[ u.O.[ t.'.t.[ +.Y.[ #.'.'._._._.N.Y._._.Y._._.Y.Y.Y.N._._._.|.oX|.oX'.OX7.,.z.7.] t.OXY.] O.u.[ 7.|._._._.Y.f._._._._.oXu.[ 7._._._.'._.Y.t.Y.Y.N._.f. .c.p.| f.[.r.O.O.u.] O.oXN._.|.Y.N.Y.N._._.Y.'._.N.t._._.Y._._.Y._._._.|.XX9.9.%X7.7.&XXX7.O.f.+.( t.R.%.N.%.%.N._.N.N._.f.[ [ d.Y.%.N.%.N.r.N.Y.r.r.}.[ _ f.[ [ _._.t.[ +._.[ 9.|._._._._.Y.N.N.N._._.t.%.N.N.#.%.#.#.N.N.r.N.%._.7._ 8.O.( #.`.f._ [ 8.( O.Y.m.r.N.r.#.t.#.r._.N.[ ' O.#.#.#.O.+.{ } O.} O.} ~ ' } _ _ +.%.+.( [ } ( } #.o.#.t.#.#.#.r._.#.t.#.O.t.t.#.#.r.#.t.N.r.r._.7.] u.7._ r.OXr.( 8.8._ 8._.r.N.N.t.r.r.r.r.Y.r.} } r.N.N.N.t.t.t.r.f.Y.r.9._ [ u._ 7.XXu.[ [ d.[ ( 7.[ T n n n k l j 8 n O.O.@.8.#.8.8.r.f.d.d.f.f.Y.7.[ c.7.[ Q.XXd.O.} f.} [ r.t.t.8.t.r.8.Y.f.f.d.O.} z.z.d.}.d.7.",
"[ / J U / _ [ [ ' ` / ] } } O.} P ( ] P P O.+.( / [ _ / } O.( ( _ _ _ _ _ _ / P P / ` ~ P K Z K J K T ~ ~ P k J P Z V / 7./ V T / J ` ] P P P ` _ ( _  .` U I I / [ O._ ` ( ` ] [ [ } 7.[ T ' O./ / O.O.R / [ / / 7.O.O.O.O.+.+.#.+._ [ +.#.O.} } } O.} O.d.r.8.+.8.7.( O.7.( ( 7.8._ [ 8.O._ u.8.+.8.8.t.r.r.#.N.f.7.] ] [ 8.Y.r.+.+.O.8.+.r.N._.[ 7.f.O._ 7.u.[ ` [ O.) 7.t.#.r.r.7.} O.8.} _ O.8.8.O.[ [ 7.+.O.} O.+.+.+.8._ ( 9.] T ` 7.) R ( [ / ' O._ [ ( [ } O.O.8.O.[ / / / _ } O.{ O.O.O.+.#.#._.7.[ 8.7._ 7._.+._ 7.f.[ 8.'.'._._._._._.Y._._.Y._._.N.t.Y.|.|._._.|.oXoX_.oX7.,.z.7.` 7.}.7.' 7.u._ 7._.Y.Y.t.t._._._._.oXf.7.[ 7.u.|.oX_._.N.t.Y._._._.d.} z.f.[ 8.|.8._ 7.8.] O.oX_._._._._.N._._._._._.N.N._._._._._._.Y.|.|._._.XX7.9.%X9.,.z.z.} 7.f.7._ N.%.%.N.N.N.N.N.N._.r.7.[ ,.3.f._.N.%.N.r.r.r.t.r.Y.[ _ c. ._ +.r.O.[ O.Q.[ u.oX_._.|._._.N.N._.N.N.r.#.#.#.#.#.#.r.r.N.N.N.#._.8.[ 8.O.) O.Y.+.) } 8.( +.N.N.t.#.#.#.#.#.N.N.O.` ' ` } r.r.+.+.O.+.O.O.[ _ T ` } ( / O.#.( W [ O.( O.r.#.#.#.#.#.#.#.#.#.#.#.+.O.+.r.t.t.#.#.r.t.t._.7.' 8.9._ 7.Y.} ( 8.8.[ r._.Y.Y.t.r.r.r.r.Y.f.O.[ [ O.f._.N.N.r.r.N.f.t.Y.8.' [ 8.( [ c.3./ ] d.] ` 7.[ / U n k j z n 8 9 / _ @.8.8.8.r.d.f.f.Y.r.t.Y.7.[ z.7.[ 7.c.3.] 3.u.[ [ t.r.+.8.d.r.Y.d.d.Q.7.[ ] 8.z.}.f.8.7.",
"^ K I T P ] _ [ [ ' / [ } } O.} P ` ] R T ] _ ~ / [ ` P [ } ( } } _ } O._ _ [ / Z T / P P P P ~ D Z P P P P k J / P Z / [ P Z / / J / ` / T T _ _ _ [ [ T U Y T U / [ ' / ' [ O.O.[ O.8.} T _ 7.( / _ _ P ( [ / / } } O.O.O.+.+.O.} O._ O.#.+.} O.} } O.8.u.8.O.O.r.7.( [ 7.( ( [  .) [ u.[ _ f.8.O.r.8.r.t.8.r.f.7.:.,.,.] [ f.Y.r.r.8.8.r._.N.Y.O.+.f.O._ ,.5.) ) 7. .) 7.t.#.8.r.8.O.} O.O.O.r.O.7.O.} [ O.[ O.} 8.#.8.+.8.[ ) 9.,./ ` ` / / _ _ / ` _ _ | [ +.O.} O.+._ / ( _ / ` } +.O.#.O.#.#.O.#._.+._ 7.7.[ 7.u.[ [ 9.f.[ #.'._._._.|._.'._._._._.Y.Y.t.Y.|.|.|.oX}.|.oX|._.oX7.,.z.9.] ,.9.,.] 7.u._ +._.Y._.Y.Y._._._.'.}.7.,.7.7.7.p.|._.Y.N._._.Y._.oXr.O.c.c.5.7.u.7.[ 7.9.[ 7.oX_._._._._._._._._._._.t.Y._._.|.oX_._._.|.|._.'.|.7.j.%X9.,.7.7.[ 7.d.8.[ t._.%.N.N._.N.N.N.t.7.,.3.7.,.7.Y.N.%.r.r.r.r.N.r.Y.} ] c.5.] ,. .[ [ 7.c.[ u.OX_._._._._._.N.N.#.#.#.t.#.#.#.#.%.N.#.N.N.N._._.8._ 7.+._ _ 7.[ ` O.8.( +.N.N.r.r.N.r.r.N._.7.] :.,.' ] 7.r.O.O.O.O.} } [ [ ~ _ [ / ~ } [ / P [ [ ( O.#.+.+.#.#.+.#.+.O.O._._.t.+.#.r.#.#.t.t.#.t.t.Y.7.' 9.7.[ 3.7.[ _ 8.7.[ r._.t.t.8.8.r.r.r.f.7.[ ,.,.[ O.r.N.N.r.r.Y.t.t.Y.8._ [ 9._ [ 7.[ / ] 8.' ` 7._ ( ` I I d k I 8 6 T O.#.8.t.t.f.r.f.Y.Y.d.f.Q.8.[ z.7.,.,.7.[ [ 7.u.[ [ m.+.r.Y.8.f.Y.d.f.c.7.,.,.3.7.XXd.7.9.",
"T T U ^ ^ / ' [ ' ' _ } 8.O._ _ P ` [ R / / T T T ) _ P ` [ [ [ } } } } } } O./ z P K x P ` P P ~ T J Z P P z V T / J T T T P P T U / / / _ [ ' ( O.[ / U U T E Y T / ` _ [ } } O.7.O.7.} / } 7./ T / ` / / _ ` / _ ( ( O.7.8.O._ _ } [ _ _ +.+.} } } } 8.d.O.O.+.+.+.( [ 7._ ` ] ] ) ] 8.[ _ f.Y.N.r.r.r.8.t.d.O.,.,.,.,.,.[ 7.f.Y.r.r.d.r.N._._.O.7.u.[ ] ,.] ] ) [ 7._ +.#.#.#.+.8.+.7.7.8.8.+.+.+.O.O.7.+.} O.+.+.r.t.+.7.} ` 9.] ` ] / ` / _ } / ( [ _ O.O.O.{ O._ ( / ' ` _ ` ` ` } #.+.O.+.+.+.#.t.O._ 9.7.,.5.7.,.[ 7.f.[ +._._.'._._._.|._._.Y._.f.r.Y.|.oX|.|.|.|.|.}._._.oX9.,.z.9.:.,.,.:.:.7.8.[ +._._._.|.|._._.|.}.7.,.7.7.7.7.7.u.|._._._._._._._.8.O.c.c.7.7.9.7.,.7.j.,.7.}._._._._._._._._._.t.t.t.Y.t._.oX|.oXoX_._.Y._.'.|.7.j.XX7.3.7.3.7.7.8.8.[ r._.%.N.N._.N._.r.O.3.7.,.7.7.7.7.Y.N.#.#.r.r.r.r.Y.} ] c.[ ] ,.[  .[ 7.Q. .u.oX_._.Y._._._.N.#.#.#.#.t.#.#.#.N.N.N.N.N.r.t.N.N.+._ 7.O._ _ [ ] ` [ 8.( O.N.m.N.Y.Y.N.N.Y.8.[ :.,.:.] ' ' O.#.O._ } O._ O.O.~ ` [ / / ' ` / / _ [ / [ #.O.+.@.+.#.r.+.+.#._.&.N.t.t.#.#.#.t.t.r.8.#.Y.O.' 7.5.] [ ,.,._ 7.8.[ +.N.#.r.r.r.r.t.f.7.[ ,.[ [ [ _ } r.t.r.r.t.N.t.8.7._ [ 9.] [ ,.] ' ] 7.] ( 7.O.( / ^ U J V G 6 0 ,.O.8.8.t.f.f.Y.Y.f.f.r.f.Q.8.[ z.7.[ ,.,.:.3.} 9.[ [ r.r.r.r.d.d.d.Y.c.9.,.9.9.,.:.7.7.7.7.",
"^ / U ` ~ ^ / [ [ [ ' ' } _ _ } P ` [ T T P K T P ` ] D / } O.[ } O.} } O.} O./ J ` T z U / ~ P / ~ P Z P T J z J J z J K / T U U U ' } _ O.} ( _ [ ` T U U T ` ` / / [ O.} } } O.O.O.3.[ _ 7.] P T / ` ( / [ ' ( } ( } +.+.O._ ` [ } _ ` ( } +.O.} O.} u.r.O.8.t.8.7.( } O.) / ) ) _ ) 7.} / 7._.Y.t.8.+.8.d.O.:.5.7.[ [ ,.,.:.7.f.N.r.Y.r.N._._.} 7.u._ ] ] ] [ ] ,.7.) +.t.#.t.+.8.t.t.+.t.+.8.+.O.O.O.r.r.+.8.#.#.N.r.O.+.} ) j.] ` ` / ) / ( O.( ( 7.} O..._ ..O._ ( / [ ` ` ] _ / ) } O.O.O.+.#.+.#.O.[ 9.7.:.,.,.5.,.7.c.[ 7._.'._._.|.|.|._._._._.Y.r.Q.oX|.|.|.|.|._.Y.|.'.oX7.,.c.j.:.:.:.,.:.,.u.O.8.OX_.|.oX}._.oX}.7.5.9.9.7.7.7.7.7.8.Y._.Y.|.OX_.'.r.O.c.c.5.7.5.5.5.,.9.5.7.}.t._.N._.'._.'._._.t.Y._._.t.N._.|.oX}._.Y._._._.XX9.9.c.,.7.7.3.7.} 8.8._ r._.N._.N._._.t.O.7.7.7.3.7.7.7.7.8.m.r.#.r.r.#.r.Y.7._ z.[ ] [ [  .]  .Q.[ u.}._._._._.Y.Y.t.#.#.N.r.#.#.+.#.R.m.N.N.t.r.t.#.N.O.[ 7.O._ _ ] ] ` [ 7.( +.N.%.N.N.m.N.Y.8.[ ] ,.,.] ] ] ' [ 7.r.+.O.O.O.O.+./ ( [ / / / / ' / _ [ / _ O.O.#.#.+.#.r.r.t.t.%.#.%.#.#.#.t.N.t.8.+.+.r.f.} ] 7.] ] ] ,.,.` 7.8._ O.N.#.t.t.r.r.f.8.[ [ ,.[ ,.,.[ [ O.8.N.r.t.t.#.#.7.' [ 7.] ] ] ] ] ' 7._ ( 8.+.[ ' ' P Z Z I 6 e z.O.8.r.8.f.Y.Y.f.8.8.d.Y.Q.9.[ z.7.[ ,.,.:.3.[ 9.,.} Y._.d.d.d.d.d.Q.9.3.3.3.,.,.' T T 9.7.",
"^ U U U ^ / T / [ } / / ~ ` } } ~ _ _ P U P U K K ` ) P ) O.O.O.} } } O.} O.} ( ~ _ _ / T ~ / P P T T P P T J K J z n I I P T / I J ] 7.O._ ' _ ' / T E T Y U E ] ,.] ] [ 7.7.O.[ [ [ 7.] / 3.` P / / / / / _ ( ( } O.+.8.O.[ [ } [ [ [ _ ( _ O.O.O.O.7.8.8.r.8.8.f.7.( _ O.( / ] ] ) ] 7.[ R [ +.+.8.+.r.8.7.[ 3.,.,.,.,.] ,.:.] 7.f.Y.r.r.N._.Y.[ 7.7._ ] :.' ] ] [ 5.) O.f.r.r.r.N.t.r.8.O.+.r.O.+.O.+.8.8.r.r.+.t.N.+.O.8.[ ` 7.] / ] ` ` / _ [ ( } 7.O..._ O.O.O.( / ~ / ` ' ` ' ` / ( | O.+.O.O.+.t.} [ 8.7.] ,.,.,.,.j.z._ 7._._._.|.|.}.Y.Y._._.|._.Y.Q.|.|.|.|.|.|._.}._.'.[.7.[ z.7.:.,.,.:.:.7.u.[ 8.oX_.|._._.oXc.7.3.7.9.7.7.7.7.7.7.7.8.Y.Y.Y.Y._.OXr.} c.z.,.,.5.,.,.5.j.,.7.oXY.N._.N._._.OX_.N._._._._._._.t._.Y.Y.Y._._._.oXXX9.j.z.3.3.7.7.,.,.9.7._ 8._.%.N._._.r.O.3.7.3.7.7.7.7.7.7.7.+.Y.r.r.r.r.r.f.7.] 9.[ ] ,.] [ ]  .c.[ 8.oX_._._.Y.r.r.#.r.r.#.t.N.#.#.N.N.%.t.#.r.N.N.#.N.+._ 7. .` ] ] ] ` [ +./ +.N.N.r.r.m.r.8.} [ ,.[ [ ] ' :.:.] _ 7.r.#.O.O.O.O./ _ ] R T / / / / [ _ ~ _ +.+.r.t.#.+.#.#.N.#.#.#.#.#.#.%.N.t.t.+.O.+.8.Y.7.] 7.] ] ,.,.:.) 7.9.` O.Y.#.N.r.t.N.8.} [ [ [ [ ,.[ 3.7.} O.r.N.t.#.#.r.8._ [ 7.' ' :.;.' ] 7.' ( u.8.O.[ ` / Z J K 0 8 :.+.+.r.t.f.Y.d.8.8.d.d.f.Q.7.[ z.3.] ,.,.:.,.,.7.] 7._.N.t.d.8.Q.z.9.3.3.[ 3.3.7.' T ' ,.` ",
"^ U L K T E K U / ' [ ` T ` } [ T [ ` K P E P L K ] _ ` O.+.} O.} } [ O.} } _ ( ' ' _ ' ( _ ~ P P / P ~ / P P R J J I T J I T E I Z ' _ / ' _ [ ` U T ` T Y U T ` ` E T ^ ] 3.} } O.} 7.] T ] ` P ` / T R P / ( ' O.O.[ _ _ } O.8.} } +.7._ } 8.} } 7.+.O.O.8.8.8.f.7./ ( O.( ` ] ] ] [ 9.[ ` [ } O.+.+.8.[ ] 3.7.,.,.,.,.:.,.:.,.] 7.f.Y.#.N.N.Y.[ [ 7.[ ] ,.] ] ) [ 7.) } +.+.+.N.Y.r.Y.r.O.O.+.+.+.O.+.+.+.r.r.#.r.r.O.O.8. .( j.' E ] ' R / _ _ ( O.O.O._ _ O._ ( R ~ T / / ' / ] ] ` / _ O.t.+.O.+.t.O._ 9.[ ] ,.:.,.:.9.z._ 7.oX_.oX|.|.Y.t.Y.|.Y.oX|.|.}.}.|.|.|.|._.|.|.}.'.#X9.[ z.j.:.,.,.>.:.7.u.[ @._._._._.oXc.7.,.7.7.7.9.7.7.7.7.9.9.7.d.|.Y.N._.oXr.O.c.u.,.5.5.,.,.7.l.,.7.XX_._._.N._._._._.N._._._._._._._._._._.Y.|.R._.oX}.7.7.z.7.,.7.7.,.,.9.7._ 8._.%._._.t.O.3.7.7.7.7.3.7.7.7.7.7.} 7.N.N.#.t.#.f.5.] 9.[ ] ,.[ ] ] [ u.[ 7.oXN.t.t.#.t.N.r.N.#.#.#.r.#.N.m.N.t.#.#.t.Y.N.r.t.7.( 7.O.` ] ] ] ] [ 7.( +.N.%.#.r.N.8.} [ 7.7.} 7.[ ] ,.,.] ' _ O.+.O.} +.+./ _ ) R T ` / / / [ _ R [ 8.+.+.#.O.O.t.r.r.t.#.#.#.#.%.%.#.t.#.+.r.r.+.Y.7.] 7.] ] ,.:.:.) ,.7.( +.Y.#.#.N.Y.r.} [ 7.} [ ,.,.,.7.7.7.O.+.t.N.r.N.r.8._ [ 7.) ' :.' ' :.7.] _ u.8.8.+._ _ ( ( ^ n 6 L +.+.d.Y.d.Y.Y.Y.r.}.f.f._.7.[ z.3.:.:.,.,.:.,.7.] } _.t.r.d.d.z.7.,.,.3.[ 3.T I J / U j n ",
"^ T L I T T T T I ` [ [ [ _ O.] P ' / J P T E U T ] ` _ 8.8.O.O.O.} [ [ _ ( / ( _ / T ' { } ' / P ~ ( ( _ / Z T T J G I I J J T K x T ` P _ [ ` / T T E T T Y Y T U U U U T / 3.8.} } 9.] T ` ` / / / / P P ] / ' 8.O.[ ' ` } 7.+.O.O.O.O.O.O.+.[ ( O.O.O.O.O.+.8.8.O./ _ O.` ` [ ] ` [ u.O.` 7.8.+.8.8.7.] ,.,.,.,.,.] ,.,.:.:.,.:.[ 7.Q.N.#.N._.[ [ 9.] :.:.:.' ` O.7.( O.+.O.#.r.Y.m.Y.m.8.} O.8.+.O.+.+.r.+.r.#.r.+.O.+.8.} ( 7.] / ' / ` P _ _ / [ O.} _ _ [ ( ~ / ` / / T / ' ] ' :.' / [ r.N.#.+.#.O.' 7.[ ] >.,.>.:.9.c._ 7._._._.|.|.Y.Y.Y.Y.|.|.oX|.Y.|.}.|.}.}._._.|.|._.oX7.[ z.j.:.,.,.,.' 7.u.[ 8.oXY._.oXc.7.3.7.7.7.7.7.7.7.7.7.7.7.7.7.d.|._.R.'.t.O.f.u.,.3.5.5.,.7.z.,.7.XX_._._._._._._.Y._._._._._.N._._._._._.'._.|._._.Q.3.7.c.7.,.3.,.:.,.u.7._ r._._._.8.O.7.7.7.7.7.5.3.7.3.3.[ 7.7.} 7.Y.N.r.r.Y.,.` 9.5.] :.] [ ) [ u.[ 8.|.N.N.r.t.t.N.N.r.#.t.r.#.#.N.N.N.#.r.N.N.t.N.N.Y.7._ 7.O.' ] ] ] ` 7.u.( 8.N.#.N.r.8.} } 7.7.7.7.7.7.,.,.,.,.] ` ` } +.O.O.+./ _ ` T / E / T P ] _ / [ +.O.+.O.O.+.#.r.r.#.#.o.#.#.#.%.%.#.#.r.r.r.#.N.O._ 7. .] :.,.:.' [ 7._ O.N.#.t.Y.8.[ [ 3.7.3.7.,.,.7.7.7.7.O.O.O.r.R.R.N.8._ } 7._ ' :.:.` :.u.] ( d.r.+.O.O.O._ ( [ n 0 n [ f.d.f.Y._.Y._.Y.Y.f.Y.f.7.[ z.3.:.,.,.,.' ,.7.' } Y.r.Y.Q.d.3.] ,.] [ :.n q p n I s s U ",
"/ / L I T T / / I T ^ ,.} } } ' P ' ` T T T E P ` ,.R ' 7.O.O.+.} O._ ~ P ` / _ _ Z J [ O.{ } } ( / _ } } ( Z T P z n J I I J / T x T [ ' ` / T T / ^ U E ` T I U E U -.;.T / 3.8.} [ 7.,./ ' _ / / / ` T ` 7./ ( O.+.8.} [ } } O.+.O.} O.+.8.+._ ( } +.O.O.8.+.8.+.[ ( [ 7._ ` ] [ ) [ c.O.( f.Y.r.u.,.' [ ,.[ [ ,.,.:.] ' ,.,.,.:.] ] 8.Y.8.m._.} [ u.[ [ :.:.] _ 8.7.( +.N.r.Y.r.t.N.r.r.r.+.+.+.8.+.O.r.r.+.8.t.r.O.+.8.8.} / 7.] R ' / ` P _ [ P _ +.{ [ [ _ / / / ) / / / / ] [ ' :.] ' ` [ Y.N.+.#.O.' 7.O.] :.,.:.:.z.Q.[ 8.oX'._.|.|._._.Y.t._.}.}.Y.Y.|.|.|.|._.Y.Y.|.|._.XX7.[ c.9.,.,.,.,.] 9.u.[ 8.oX_.oX}.7.7.9.7.7.7.7.7.O.} 7.7.7.7.9.7.7.c.|.|.OX8.} Y.u.[ 3.7.,.5.u.c.,.9.oXY._._._._._._._._._._._._.N._._._.Y._.Y._.|._._.Q.3.9.c.7.,.,.:.:.7.c.8._ f.OX_.d.7.7.7.7.7.7.7.7.[ [ [ 7.3.7.7.7.} 8.Y.N.m.Y.7.` u.j.] :.] [ ) O.c.[ u._._._.Y._.N.t.N.r.t.N.t.#.#.N.N.#.#.N.N.N.t.r.N.N.7._ 7.7.] ] [ [ ` 8.d.( 8.Y.r.N.8.3.} 7.7.7.7.7.7.7.} ,.,.:.] ' / ` O.O.+.+./ _ [ / / / / T P [ _ ( O.O.O.#.+.#.+.+.#.#.+.#.#.#.#.#.#.N.#.N.Y.r.#.#.N.O._ 8.7.] :.,.:.] O.u.[ O.Y.N.Y.7.[ [ 3.7.} 7.7.3.7.3.7.7.O.7.O.} O.8.R._.8._ O.8._ ' :.:.' ,.z.] ` d.r.O.[ O.+._ ( } J j n _ _.r.f.Y._.Y.r.f._.N.Y.Y.7.[ z.7.' ,.>.>.] 7.8.' } m.Y.d.u.} [ ] 3._ ` n e v U U z z ` :.",
"/ / U U U / P T T T T ' / / [ [ P ' 7.` U / P R ] [ P / } } } O.O.O._ ` T ~ ` _ ` Z T [ } } } O.} [ ` / ( ' Z P K n n J n G T ] ` z U ,.` K L E T T T T T ` U U T T T ;.;.` ' ,.7.7.[ 7.,./ [ O./ / / R ` 3.7./ ` 7.O.7.8.O.} } O.+.O.O.O.O.8.O.( _ O.O.O.+.r.+.O.+.O.( [ 8.[ ` ] ] ) 8.|.O._ d.f.8.[ ' :.,.,.] ,.,.,.] ] ] ,.3.:.:.,.:.,.7.8.m.f.[ O.f.O.] ,.] ) O.d.8.( 8._.N.r.r.f.r.r.+.r.r.8.O.8.O.O.8.r.r.r.Y.r.O.O.+.8.[ / 7.7./ / ` T / [ [ P _ O.O.+.[ ` ~ / / / / ` / ` ] ] ,.,.] ] ' ' 7.+.+.t.O.' 8.9.] ,.,.' 7.XXc.[ u.OX_.Y.Y.|._.|._.Y.Y._.Y.Y.Y.Y.|.|.|._.Y.N._._._.#X7.[ Q.b.5.,.5.,.7.}.z.[ 8.XXXX/.7.7.9.9.7.7.7.7.7.,.3.7.9.7.7.7.9.7.7.8.R.OX8.} Y._.O.3.7.,.7.XXc.,.9.XXY._._._.'._._._._._._._.N.N._._._._.Y.t.Y.Y.Y._.f.3.7.Q.9.,.,.:.] z.Q.8._ Y.OXr.7.7.9.7.7.7.7.7.7.[ [ ] 3.7.7.7.7.7.7.O.d.r.Y.3.] d.u.[ ] ,.] [ u.Q.[ u.|._._.Y.t.N.N.t.t.N.N.#.#.#.t.#.#.#.N.N.N.t.Y.r.r.+._ 7.u.[ ] ,.] _ f.Y.( O.Y.Y.8.} [ 3.7.7.7.7.7.7.7.3.3.,.,.' ' ` / ( O.#.+./ [ 7.` / / T P ( 7._ _ O.+.O.O.#.#.#.#.#.#.#.+.#.#.#.#.#.#.#.m.N.t.#.+.Y.7._ 8.8.[ ] :.:.] 8.f.[ +._.f.7.[ [ ,.[ [ 7.7.7.3.3.3.7.7.7.[ 3.7.} } r.Y.8.[ O.8. .` ;.;.` 8./.' ` d.8.O.} _ [ } } _ z j I / f.Y.}.Y.Y.r.r.Y.|.Y.N.Y.7.[ z.u.] :.,.;.[ Y.z.' } m.f.7.[ ] [ [ [ ` U N U T ' J k T ' ' ",
"/ / T P U T P T / ` E U P P } 7.T ' 8.} T P L P [ [ P / _ +.[ _ } } } 7.' / ` _ ' / ] } _ } } O.[ ( P Z / [ Z J U P J n G J ` } ' J U / J G U ` T U T T T U U ;.;.T ` ;.` ,.,.,.,.[ _ 7.3./ 3.9.` T E P ' 8.7./ ' 8.O.O.8.8.O.O.O.} O.+.+.O.8.O._ O.8.} O.O.+.O._ +.7.( [ f.7.` ] ' _ Y.|.[ ' d.8.,.' :.,.] ,.,.,.,.,.[ ,.' :.:.] :.5.,.:.[ [ r.f.[ O.oXu.] ,.] ) 8._.+.( r.t.r.Y.8.r.r.8.+.r.r.r.O.O.} O.+.t.r.Y.r.+.O.#.+.7._ / 7.9.` / ` T ( 7._ P ] O.} } ` / T / / / ` ` / ] ' ] ,.3.] ,.:.] ] [ +.Y.O.` 8.c.3.:.:.] z.XXz.] u.oX_.t.f.|.|.Y.}.Y.Y.|.Q.f.f.}.|.}.|._.Y._.Y.|._.oX7.[ }.%X9.,.5.,.u.$Xc.] u.$XXX9.7.j.9.7.7.7.7.7.7.,.7.7.9.9.7.j.9.9.7.7.r.OXd.[ Y.oX8.,.5.,.8.*X/.,.9.XX_.Y._._._._._._._._._._.t.Y.oX_._._.Y.Y.f.N._._.f.3.7.XXc.,.:.:.,.}.}.7._ }.|.+.7.7.7.7.7.7.7.7.7.5.,.,.7.7.7.7.7.7.7.3.O.8.Q.7.] d.Y.7.] ,.] 7.}.Q._ u.|.N.N.N.#.#.N.r.N.t.N.N.#.r.#.#.N.m.N.r.Y.Y.Y.8.8.+._ +.Y.O.] ,.` O.|.t./ 7.f.8.[ [ 3.7.7.7.7.7.7.7.7.7.3.,.[ ` ' ' ` R _ O.+./ [ u._ / ` T P } u._ ( +.#.O.#.#.#.#.#.#.t.#.o.#.#.#.#.#.#.#.N.r.#.+.#._.7._ 7.f.7.:.:.] [ Q.f.[ 7.|.7.[ 7.7.,. .3.7.7.7.3.[ 3.7.7.O.} 3.7.7.[ O.N.r.[ O.r.7.` ' ' ] Q./.` ` d.+.+.8._ _ [ } ` d n T P 8.Y.Q.|.Y.r._.t.Y.Y.N.Y.8.[ Q.}.7.:.:.;.7.|.z.' O.d.7.[ ' ,.O.] ' ` T / [ T U n I ' ' ,.",
"/ / P / T T T / T T U T U T 7.} / [ 8.7./ J K ` [ [ K T } O.} } _ } } O.[ _ / ` ( [ _ _ } O.} _ ( ( / ~ ( _ J Z P / T J U _ ( _ ' Z T T G J T E T P T T U T T ` ' ` E T ` :.:.:.' ] [ 7.7.` } u.[ E L E [ 8.7./ ' O.O.+.8.8.+.O.O.+.+.O.+.+.+.O.} +.+.O.} [ | [ O.+.7._ } Y.8.[ ` ) 7._.Y.[ / 8.7.] :.] ,.:.,.,.,.[ ,.,.,.:.' ` ] ,.:.,.,.] _ 8.Y.[ [ }._.O.) ` O.N._.+.( t.t.r.Y.r.8.8.8.8.r.8.r.8.' _ +.+.r.#.r.+.O.+.8.O.7._ / 7.u.[ ` T / [ 7.[ P ] 7._ / R / / / / ` ` / ` ] [ [ ] [ [ ,.] ] ` ] O.Y.O.( 8._.8.,.' j.Q.}.8.] u._._._._._._._.Y.f.Y.|.}.Y.f.}._._._._.|.|.Y.|._.oX7.,.}.*Xc.7.,.9.}.#Xf.[ f.*Xz.5.7.j.7.7.7.7.7.7.7.7.7.7.9.9.7.9.9.9.9.7.#.OXf._ f.OX_.7.] 7.|.#X}.,.9.XX_.|._.Y._._._.Y._._._._.N._._._._._._.Y.Y.Y.Y._.c.,.3.}.}.9.] :.u.}._.7._ }._.7.7.7.7.7.7.7.7.7.7.7.7.7.7.3.7.7.7.7.9.7.[ 7.|.7.[ f._.8.[ ] 7.f._.Q._ u.Y.N.N.r.#.#.#.t.N.#.%.%.t.r.N.r.r.N.m.N.Y.d.r.#.r.7._ +._.8.[ ' ] 8._.r./ 7.d.O.[ 3.7.O.7.7.7.7.7.7.7.9.7.[ ] ] ' ' ' / / } 8./ _ r.7.` T T ] O.7.` ` O.+.+.8.#.+.+.#.#.N.#.#.+.#.t.N.#.t.t.#.#.+.#.#.N.8._ 8.Y.8.:.` ,.u._.r.[ 7.f. .[ 7.7.3.7.7.7.7.} [ [ } 7.7.O.} 7.7.7.} O.t.f.} O.t.8.[ ` ` 7.|.Q.` ` u.r.r.7.O.} / ( T d n T / +.r.Y.Y.|.Y.Y.Y.Y.t.N.Y.7._ f.oXd.[ ' 3.f._.d.( +.d.[ ' ] [ [ ] ] T ^ ` ] T I T ] ' ] ,.",
"` / U T T / P U L U T ` T / } 3.T _ 7.O.} ` ' 7.} [ P T [ _ ' O._ } } _ } [ / / ( O.[ _ _ } ( ( ( O.} _ ( ( Z K P ` ( ~ / [ ( ' ( Z / ` J J E T T / T / / ' / ^ ' ` T ` ' ` :./ T ] [ 7.,.E _ 7.O.[ / ] +.+.} / _ O.O.+.+.O.+.O.O.+.O.+.8.r.+.} O.+.+.O._ [ O.O.8.+.7.( } t.t.8.[ 7.Y.r.d._ T 9.8.,.,.:.:.,.,.,.,.,.,.[ ,.3.' ' ,.,.] ,.,.,.} r.Y.[ [ _._.N.[ [ t._.t.O.( r._.r.d.r.+.8.d.8.8.8.t.+.( [ d.8.#.8.+.O.8.8.+.+.8._ R 7.8.8.[ / _ 7.O._ T ,.7._ T / ' / T / _ ( _ ` ' ] ] ` [ [ ] ' ' ` ,.} r.7.( 7.Y.Y.8.7.Q.Q.f.9.` u._.N._._._._._.Y.|._.}.|.|.Y._.|.'._._.|.|.|.|._.}.7.[ Q.XXoXu.7.}.oXoXu.[ f.*Xz.7.j.9.9.7.7.7.7.7.7.9.7.9.9.9.9.9.9.9.9.7.8.#Xf.[ d.oX_.Y.8._.OXOXQ.,.8.oX_._._._.N.t.t.N._.Y._._.N.t._._._._._.Y._.Y.t._.c.,.,.}._.}.7.7.oX}._.7._ |.oX8.7.7.7.7.7.7.7.7.7.3.7.7.7.7.3.,.,.7.9.7.7.8.|.7.[ f.Y.Y.8.[ u._.Y.Q._ 8.t.N.t.t.Y.#.#.#.#.#.#.#.N.r.t.r.+.#.Y.m.t.r.8.8.f.7._ +.N.N.8.[ 8.N.N.r./ 8.Q.O.[ 7.7.7.7.7.7.7.7.O.7.9.7.,.[ [ ] ' ' ` ( } 8.( ( 8.r.[ / ' 7.O.7.` ` [ | [ [ O.| O.r.#.#.#.O.+.#.#.r.N.N.t.#.+.r.r.+.N.8._ +.N.Y.7.] 8._.Y.8.[ +.f.O.,.3.7.3.7.7.7.7.O.O.7.} 7.7.O.} 3.7.7.} +.t.d.[ O.N.#.8.} } r.N.r./ ` u.d.d.7.} ( P ` P j n U ` 8.8.f.8.f.Y.Y._.Y.t.N.Y.7.' d.|.Q.8.7.8._.N.d.` 7.8.' / [ ,.` ] ] T U U U U ' ' [ :.:.:.",
"` / T T ^ / T L L T T T T / } 7.P / } +.O.7.O.O.} [ P T _ / ~ [ O._ _ } _ ' / ' _ } } _ / / / _ _ } } ( / ( K K ~ ( ( ` ~ R ( _ / P ` ` P U P E T T / / ' ' ' ' ' ' ` ` ' :.' E ` ` ] 8.,.T _ O.O.} 3.O.+.+.O./ _ 8.+.O.O.+.+.O._ } +.+.+.O.+.} O.#.+.O.O.[ O.8.8.r.7.( _ r.t.r.d.d.t.r.d.( / u.8.3.:.:.,.[ 3.,.3.,.,.[ ,.,.:.:.,.,.,.] ,.,.O.Y.f.[ _ t._.N.r.#._.%.N.} ( 8.N.N.r.8.8.8.r.r.r.8.t.+.( 8.r.#.t.+.+.+.8.8.8.r.d.[ P O.8.+.O.} 8.+.O.' ~ 7.7.` / / _ ` / / ' [ [ ' _ ` ' ] [ [ ' / ' ' [ O.r.} / O.r.Y.Y.Q.Y.r.Y.7.] 8._._._._.oX_.N._.|.}.|.oXoX_._.oX|._._.|.#X#X|._.}.7.,.c.oXoXoX}.oX_.oXd.[ f.*Xc.9.9.7.9.7.7.7.7.7.7.7.7.9.j.j.9.j.9.9.j.7.r.$Xc.[ d.oX_.`.OX'.'.OXQ.[ 9.|._._._._.N.#.r.t.N.N._.N.t.t._._._._._._._.Y.N.Y.c.,.[ }._.}.Q.f.|._.}.7._ |.oX8.7.9.7.7.7.7.7.7.7.7.7.7.7.7.,.,.7.7.7.7.7.8.}.7.[ f._.Y.Y.r._._._.d.( 8.t.#.t.t.Y.t.#.#.#.#.#.#.#.t.t.#.+.+.r.r.r.r.t.8.f.7.` +.N.N.R.r.Y.#._.8./ 8.}.7.} 7.7.7.7.7.7.7.7.7.7.7.9.3.[ ] [ ] ' ' ` } 8.` ( +.#.O.O.O.O.O.7./ T [ [ _ O.} [ O.+.#.#.+.O.+.#.#.%.N.N.r.+.+.r.r.#.N.7._ +.t.r.r.8.Y._.N.8._ 8._.[ 3.7.3.3.,.3.7.3.7.7.7.7.7.[ [ [ 3.3.7.O.O.t.d.[ O.N.N.N.N.t.#.%.8.~ ` u.8.8.7.( P P _ U 0 J ` _ f.Y.f.f.t.8.t.f.Y.Y.Y.Y.7.' 8.Y.Y.Y.Q.Y.t._.8.~ 7.u._ / ' ] ` ` ] U v v U ^ ,.' ' ,.,.:.",
"` ^ / / T T / E T ` T T T / 7.7.K T } +.} O.} _ } } P P _ / ` } O.O._ O._ ' / [ _ ( } O.( / _ O._ ' _ ( P ( K K ` / / / P R / ( P ~ _ / P P P E / T E T ` ` ] ] ' :.:.` :.,.:.:.] ` ] 7.,.T [ 8.O._ [ } O.#.O./ _ } [ { O.t.r.O._ O.O.} O.} } O.O.+.+.#.r.O.O.O.O.8.+.( _ t.#.8.N.r.8.f.8.` ` z.8.7.,.,.3.] [ 7.7.,.,.,.,.] :.,.,.,.,.,.,.] O.Y.f.[ _ 8.N.#.t.N.N.%.N.[ ) O.8.r.#.8.t.r.r.Y.Y.r.r.8.} r.r.#.t.8.+.#.8.8.t.r.u.] T [ 8.O.+.O.8.O.O._ / 7.7._ ` ` ` ' ( / ( ] _ _ _ ' ,.[ ] ] ` / :.;.] 7.f.[ / O.t.r.Y.Y.d.r.}.7.] 7.Y._.Y._.|._.Y.t.}.|.#XoX}.Y.Y._.|.|.oX|.oX|._._.XX7.:.z.oX_.'.oX_._.oXu.[ Q.&Xc.9.9.j.7.7.7.7.7.7.7.7.9.7.9.9.9.j.7.9.j.7.8.$Xd._ u.'._._._._._.OXQ.] 7.}.N._.'._._.N._.Y.N._._.Y.g.f._.Y._._._.f.f.Y._.Y.c.,.[ }._.f._.f._._.}.7.[ }._.8.7.9.7.7.7.7.7.7.7.7.7.7.7.7.7.,.7.7.7.7.,.8.}.7.[ f._.Y._._._.N._.8./ 7.t.+.t.r.t.N.+.O.t.#.#.#.#.N.N.r.t.+.8.r.t.r.Y.d.d.8.( +.N.m._.N.m.#._.+.( d.Q.7.} 7.7.7.7.7.7.7.9.7.7.7.9.7.,.[ ,.] ] ] / O.u./ / [ +.+.O.+.O.O.7.T T O.} +.#.+.O.+.O.+.#.+.#.#.#.#.t.r.+.+.+.+.+.r.r.N.+._ +.t.#.N.N._.#._.#.( f.}.[ 3.3.3.7.3.,.7.7.7.[ 7.7.} [ [ } 7.,.7.O.O.Y.Y.[ O.N._.N._.N.#.#.8.~ ' u.8.7.} / ~ ( ] P j U [ O.Y.}.Y.|.Y.f.t.t.Y.Y._.r.7.' 8.Q.}.N._.Y.r._.7.T } d.[ / ' / [ / U v n ^ ,.' ' ' ;.:.:.:.",
"` T T / / / T / T T E T U / 7.,.Z / 3.O.} [ _ _ _ [ T / ' _ _ } _ O.} O.O._ ( ) _ } _ O.} _ [ } _ _ / ) ( _ K P [ / P ` ` _ / T T P _ ` K U E E ` ` T L T ` ' / ' :.;.:.' ` ' :.] ] [ 7.,./ [ 8.O.[ ( ( O.#.} / ( _ ( [ +.#.r.#.O.} +.+.+.O.+.+.O.+.#.#.m.r.+.[ [ O.8._ [ 8.+.8.8.r.r.r.8._ ` z.d.3.:.,.,.[ ,.3.7.5.5.,.] ] :.,.,.,.,.,.,.] [ r.Y.[ _ 8.t.r.t.t.N.%.r.[ ( 7.8.O.r.8.8.+.r.8.r.+.r.+.O.8.r.t.t.t.r.#.r.r.N.+.O.` T 7.+.O.O.O.O.} O._ / 7.7._ _ ' ` ( ' / ` / ' ' _ [ [ [ ] ) ' ' ' ] ' 7.d._ / 7.r.+.r.r.r.m.Q.7.' 8.Y.N.Y.Y._._._.r.Y.|.|._._.Y.Y.t._.oXoX|._.f._.}.XXj.[ c.oX_._._._._.oXu.[ c.$Xp.9.9.9.7.9.9.7.7.3.7.7.9.9.7.9.9.j.9.9.9.7.8.$Xd._ d._._._._._._.oXc.] j.}.Y.oXOX_.N._.'._._._._.Y.Y.Y._._._._.t.r.t._.Y._.c.[ [ }._._.t.t._.}.}.7.[ }._.+.7.7.9.7.7.7.7.7.7.7.7.7.7.7.7.7.7.7.7.7.,.8.|.O.[ Q.Y.Y.Y.N.R.N._.7./ 7.t.#.#.#.#.#.#.O.+.t.t.#.N.t.N._.Y.r.t.#.8.r.f.f.f.7.( +.Y.N.N.m.r.#.Y.8.( r.}.+.} 7.7.7.7.7.7.7.7.7.8.7.7.7.7.,.] ] ] ' ( O.8./ /  .O.O.O.O.O.O.O.P / O.+.+.+.+.+.O.+.+.+.#.#.#.#.#.+.O.+.+.+.+.+.#.#.N.8.' O.N.#.#.#.#._._.+.[ f.|.O.,.7.3.7.7.[ ,.,.7.} } 7.} [ 3.5.3.7.7.} O.Y.Y.} O._._._.N.N.#.N.8.~ ` d.8.7._ ~ ' O./ P U ,.O.8.Y.f._.Y._.Y.N.t.Y.d.8.u.7.' 8.}.Q.Y.d.r.t.t.7.U ,.9.U J / T T J n U ,.[ ,.' ;.' ' :.:.,.",
"T I I T T T U T T T T E U / 7.[ J ] 7.} O.} ' [ _ [ / / _ O.} _ / _ O.O.} ( / ` _ O.} O.} } / / ( ( ( O.O.[ P R [ / P _ [ [ ` ` P K ` _ P T E ` ' / L I T ` ` ` ' ;.;.E T T ` ,.:.` [ 7.] ' 7.O.O.O.( ( } +.} ~ / _ ( O.+.O.r.+.} } r.N.+.+.m.+.O.+.#.+.m.m.8.} _ +.8._ [ 8.+.r.+.r.t.8.d.[ ` z.d.[ ' 3.,.7.7.3.7.7.,.] ] ] ,.:.,.] :.] ] [ [ 8.f.[ O.f.r.N.t.r._.#.r.O.( 7.8.O.+.+.r.+.+.O.+.+.t.+.+.8.8.r.r.r.t.#.r.8.+.O.O._ ` 7.O.+.+.+.} { +.[ / 7.[ _ O._ _ / ' ' / / ' / ) [ ] [ ] ` [ ] ] ] ' } 8._ ( 8.r.r.N.8.f.Y.Q.7.' 8.Y.r._.Y._._.N.N.Y.}._.Y.|.|._.Y.|._._._.f.f.}.|.XX9.[ }.|._._.N._._.oXu.[ d.$Xf.7.9.j.9.9.7.7.7.7.7.7.9.9.7.7.9.9.9.7.9.7.8.OX8._ f._.Y._.Y._._._.z.,.7.}.|.|._._.N._._._._._._._._.t._.'._._.t.t.Y.Y.Y._.d.[ [ |.Y._.f.t.'._.oX7.[ }._.+.7.7.j.9.7.7.7.7.7.7.7.7.9.7.7.7.7.7.5.,.[ 8.|.O.[ Q.Y.Y.Y.r.Y.R._.8.` 8.8.#.+.#.#.#.t.+.+.#.t.t.N.r.N.N.Y.Y.f.r.8.8.8.f.Y.8._ +.N.N.m.r.N.#.Y.7./ 8.}.O.[ 7.7.7.O.7.7.7.7.7.9.7.7.3.7.,.[ ] ] ' _ O.8./ _ 7.O.O.@.O.O.O.O./ / O.8.+.+.+.O.O.O.O.+.+.+.r.t.+.} +.#.#.+.#.#.#.#.Y.8._ +.N.%.#.+.t._.N.7.[ f.}.7.,.7.7.7.7.[ [ ,.,.7.} 3.3.7.7.7.3.7.7.} +.Y.}.} +._._._.N.m.#.m.d.^ ' u.8.O.` P ~ ( K P K [ 8.8.Q.Y._.f.Y.Y.Y.Y.d.8.O.8.9.' z.}.f.Y.r.8.t.8.7.U ' ' n b I I J Y ;.,.7.' ] ,.:.' ` :.:.:.",
"K I I I K P U T U T T T T / 7.5.S ] 7.O.O.} _ ( [ 7./ ( O.O.} ( / _ [ O.' _ ` _ _ [ O.7.[ _ / / ( } O.} O.O./ / [ _ ( ` ' _ [ _ P P _ O.' ' E ` E U L T T T / ' ' ' ` T U T ` :.:._ [ 7.] ` 7.8.O.O.} _ _ +.8./ / _ [ O.O.+.+.O.} O.+.O./ ( +.+.O.+.#.r.m.r.+.O.O.8.8._ _ 8.O.8.8.r.r.r.d.[ ` c.8._ ] :.,.[ 7.7.7.,.[ ' ] :.,.,.,.' ] ' :.] [ 8.f.[ O.}.t.m.t.t.t.t.t.O.( +.8.O.O.8._.Y.t.O.+.#.r.#.+.8.t.8.+.+.r.#.#.+.+.O.7.[ _ 8.8.+.#.O.O.[ O.[ / ] [ ( _ [ [ ' ' ` ` / ` ( ` ' _ ` ] ] [ [ ,.] _ _ 8.[ ` 7.Y.m.r.r.Y.|.Z.7.] 8.t.t.Y._._.Y.N.Y.Y.f.}.}._.|.|.|.|.|.oX_._.Q.}.|.#X7.[ Q.oXN.Y.Y.Y._.oXu.] u.#Xu.7.9.9.9.7.7.3.7.7.7.7.9.9.7.7.7.9.7.j.7.7.8.OX8.[ d._.Y.Y._._._._.c.,.9.XX|.|.N.t._._._._.'._._._._._._._.oXY.t.Y._.Y.Y.Y.d.[ [ XX_._.Y._._.|.oX9.[ _._.7.3.7.7.7.7.7.7.7.7.7.7.7.7.9.7.7.7.,.,.,.,.8.|.7.[ Y._.Y.Y.Y.Y.Y._.d.` 8.r.+.#.r.t.N.N.#.#.+.#.t.r.t.Y.r.r.r.f.f.t.8.8.r.f.8.( +.Y.t.N.r.r.r.Y.7./ 8.Y.O.[ ,.7.7.O.7.7.7.7.7.7.[ 7.7.7.[ [ ] ] ] _ O.u.' _ 8.+.O.+.O.O.O.+.( ( O.+.O.+.O.[ O.O.O.O.O.#.r.+.O.+.#.#.#.#.t.N.%.#.N.8._ +.N.N.#.#.t.#.N.8._ u.}.7.7.7.7.7.3.,.[ [ 3.7.,.,.7.7.7.7.7.7.7.7.O.Y.|.} +.OX_.N.r.r.N.Z.u./ ' 8.+.} ( A Z Z / ,.k J d.8.f.Y.Y.Y.f.f.f.Y.u.O.+.8.7.' u.|.Y.r.r.8.#.t.9.U / [ T U -.U ;.,.7.] [ 3.,.:.:.;.' :.:.>.",
"K T L I U T T E U T T E T ( 7.} P ` } 8.} O._ _ O.7./ ( } [ [ [ _ [ ' [ _ ` ` [ ' _ ' ' ' [ [ } _ } +.} O.7./ T [ O.( / [ [ ] ' ~ ~ } [ T P T E T I T ` T U T ` ` E ` ` T ` ` ` ] [ _ O.,./ } r.O.O.O.} O.#.O./ ( O.O.} O.O.O.+.+.} } O.( / O.8.+.+.r.#.8.r.+.+.r.8.8.' ' 7.O.8.r.8.8.r.d.] ' d.7.] ' ,.[ ] [ ,.3.,.,.] ,.,.,.3.:.] ' ' :.' ) 8.f.[ O.}.Y.r.Y.N.t.t.8.O.( +.+.+.7.O.8.r.r.8.8.O.+.+.O.8.f.8.O.O.r.r.+.+.r.O.7.[ _ 8.t.+.+.O.@._ O.[ / _ [ ( ` _ ` / / / _ / / _ ( ` _ ` ] ] ] [ } ] ' ( r.} / [ t.m.r.Y.R.Y.8.3.[ 7.Y.N.Y.Y.N.r._.N.Y._._._.Y._.oX_._._.|.|.oX|._._.XX9.] d.oXN.Y.Y.Y._.}.9.] u.XXu.9.9.9.9.7.,.3.7.7.7.7.7.7.7.7.7.7.9.9.9.7.8.oXd._ d._.R.Y._._._.|.z.[ 7.|._._.N.N._._._._._._._._.f.}._._._.t.Y._._._._.t.f.,.[ }._._.Q._._.|.}.7.[ _._.7.3.7.7.7.3.7.7.7.7.7.7.7.9.9.7.7.,.,.7.,.[ 7.|.7.[ d._.Y.Y.Y.Y._.Y.8._ 8.8.+.N.r.N.t.#.t.t.#.#.#.t.t.t.r.#.r.Y.t.Y.t.r.8.f.8.' O.N.N.r.r.r.r.Y.7./ 8.Y.O.[ ,.7.O.7.O.O.7.7.7. .[ 7.7.[  .[ ] ,.[ _ O.u._ _ 8.+.O.+.O.O.O.O.` ) [ [ [ [ [ O.O.+.+.O.O.+.+.[ O.#.#.#.#.%.r.#.N.#.m.8._ +.N.N.#.#.#.#.N.8.` 7._.7.7.7.7.7.3.7.3.,.,.,.7.3.7.3.7.7.5.[ 5.,.O.}.|.O.O._._.N.r.r.Y.d.7./ ' u.O.} _ A J P +.7.g l u.8.d.f.f.f.f.d.f.f.8.7.7.d.7.' 8.Q.r.r.f.8.r.p.,.J / 8.] / ;.:.5.] [ ,.,.,.,.:.:.;.:.;.:.,.",
"P T P T U U T T E T T T T ` 7.] P _ _ _ } O.} +.8.} T / } O.[ 7.} [ ' [ _ _ ] ] _ _ / ( ` [ } [ ` ' O.+.+.7./ R [ O.[ [ 7.7.` / ~ T _ ` Z J E ` E U T ` T T T T E ` E E ` ` ' ] ] ` ( O.,./ [ +.O.O.} } O.[ ( P _ O.O.O.[ } O.+.+.+.O.O.8.O.O.O.+.+.+.r.+.+.+.+.+.r.8.` _ 7.[ r.r.8.f.u.8._ ' d.d.3.' ,.[ ,.[ ] 3.3.,.,.,.,.3.3.,.:.:.] :.] _ 7.f.} O.Q.Y.N.Y.N._.8.7.O.( O.#.t.t.O.[ O.8.#.r.O.+.O.+.8.f.r.7.O.r.8.+.#.+.#.7._ _ 8.+.+.+.+.#.+.O._ / [ 7.' ` / ( ~ / / ` / ( ` _ _ ) ] ] ] _ ] [ [ _ [ d.O.' [ O.r.Y.Y.|.7.7.7.] 7.Y.Y.N.r.r.r.t.Y._.oX_._._._._.|.|._.Y._.|.}.|.}.XX7.] u.Y.Y.Y.f.|.f.8.9.] 8.XXu.7.9.9.7.3.,.3.,.,.7.7.7.7.7.9.7.7.7.9.9.7.#.oXp.[ d._.N.R._._._._.z.,.7.|._._._._._._.]._._._._._.#.f.oXY.t.v._._._._.Y._.c.[ [ Q.Y._._._.oXY.u.7.[ Y._.7.,.5.7.3.3.,.7.7.7.7.7.7.7.7.7.,.,.,.3.,.,.7.|.7.[ 8.r.Y.Y.Y.|.f.8.d._ 8.r.t.N.N.t.+.#.t.Y.r.#.+.t.f.r.#.r.f.Y.N.Y.Y.Y.r.Y.7.( 7.8.t.t.8.r.r.f.[ / 8._.O.[ 3.7.7.7.7.7.O.7.O.O.[ ,.,.O.[ [ [ [ [ [ O.u._ _ +.O.+.O.O.+.( _ _ ( _ O.[ _ [ O.O.O.O.+.+.[ [ O.+.#.#.#.#.#.#.#.#.#.N.8.[ +.t.N.%.#.N.t.r.7.` 7.}.7.7.7.7.7.7.7.7.3.3.7.7.7.,.3.7.[ [ ,.,.,.O.}.|.O.O._.r.Y.Z.d.d.7.[ / ` 8.O.O.[ T P P } [ y n u.#.t.f.f.f.d.f.f.u.7.7.8.8.7.] 7.7.+.r.r.r.p.] J K ` 8._ T ' :.] ,.,.,.,.:.,.:.:.' :.:.,.,.",
"U U L U U ^ T E / ` T I L / [ _ P  .' / _ O.} O._ ' T / 8.#.} 8.7.[ } [ _  ._ _ } } _ [ [ _ ] ` / [ O.} +.O.R P / [ O.7.7._ R / / P _ _ P T ` ] E E T T ` / U U E ` T E ' / ' ,.] / ' 7.,./ ,._ ( } } [ ( / ~ P ` } O.} ( +.+.O.+.+.} O.#.O.O.+.8.+.8.+.+.+.r.+.+.f.7./ _ 7.' 7.d.r.u.} } [ ' Y.Q.7.,.,.,.3.,.] [ ,.,.,.,.7.,.,.,.,.,.:.' ] ] 7.c.} 7.7.7.Y._.Y.f.[ } [ / O.f.#.f.8.+.r.Y.r.t.r.+.+.r.8.r.Y.8.O.+.8.t.+.+.#.O._ ] 8._ [ r.#.8.+.[ ' / 7.u._ / ` ] / ` / ^ / ` / ) ` ` ] ' [ [ _ [ [ } +.f.} )  ._ O.N.Y.f._ 7.9.` 7.d.Y.r.#.N.t.r.}._.t.f._._._.}.|.|.}.f.t._.}.|.|.XX7.] 8.7.8.|._.}.O.7.u._ 8.XXu.7.9.7.3.7.,.,.:.:.] ,.3.7.7.7.7.9.7.7.9.7.#.oXf.} f.r.+.Y._._.u.u.c.[ O._.N._._._._._.'._.'._._._.t.f.|.Y._._.}._._._.Y._.c.[ [ c.O.8.|._._.7.} 8.[ Y._.O.,.,.7.3.7.7.7.7.9.7.7.7.7.,.5.,.5.,.,.5.,.7.XX3.[ z.O.+._.R.Y.[ O.d.) 7.t.t.t.N.+.O.#.N.N.t.#.#.r.f.r.#.Y.Y.r.t.Y.d.Y.Y.Y.7.( 8.+.+.t.8.r.8.O.} ` 8.|.7.[ ,.,.7.O.7.7.O.O.} 7.7.[ 7.7.[ 3.[ ] [ } O.d._ _ } O.O.O.O.O./ ' _ / [ +.O.O. .} O.O.O.+.O._ _ O.+.+.+.o.#.+.#.#.#.#.N.O.[ 7.O.+.N.t.N.+.7.u.] 7.}.7.7.7.,.7.7.7.7.7.7.7.3.3.7.,.7.7.7.7.7.5.O.Y.oX} +._.O.8.|.Y.7._ 7./ / 8.8.O.[ ' P x ( / j T u.+.8.t.f.d.d.f.d.7.7.u.8.8.7._ ,./ _ +.8.8.) V P ` _ d.[ ` :.:.:.,.,.:.:.:.:.' :.:.' ,.:.:.",
"U L J I U T T / / / U L L L ,.] P O.} ( P 9.+./ / [ / / 7.+.#.+.8.8.} [ _ _ } O.O.O._ _ _ [ _ _ ' [ } O.O.[ P P ` R ` 7.] / P ` ` P ( _ / E T T / / T ` ` T T T T T ` ` ` ] ' ' ] ] 7.Q.3./ ] ` K ( +.[ / ( } / / } _ ( } O.O.O.O...O.O.O.} O.+.+.+.+.+.+.8.r.8.8.8.7./ ' 8._ _ d.f.[ _ 7.3._ Y.d.7.] ,.[ [ [ [ [ [ ,.:.:.,.,.:.,.,.,.,.,.] _ 7.c.} 7.7.O.O.oXf. ._ 8.] / 7.f.t.d.8.8._.Y.r.t.r.8.8.8.8.r.t.r.O.+.+.r.8.+.O.+.[ _ 7.O.( +.N.8.[ ( ] ` 7.8.' / ` ' ' ` ~ / / / ( [ ( / ` ] ] [ ] ] [ _ +.N.[ ( O.O.( r._.O.( u.7.` 7.f.r.8.r.t.t.}._.r.#.f.Y._._.|.|.|._.t.t.t.}.}._.oX7.] z.7.[ p.XX7._ z.u._ 8.XX8.7.7.7.7.7.7.,.[ ] ' [ 3.3.7.7.9.7.7.7.7.7.#.oXf.[ f.8.[ +.[.}. .u.c.] O.}._._.|._._._._.oX_._._._._._._._._._._._._._._.Y.f.[ [ c.[ _ Y._.8._ 8.8._ r._.O.,.,.,.7.7.3.7.7.7.,.5.7.7.,.5.7.5.,.,.,.,.7.Q.3.[ c.7._ Y.Y.O._ d.8.( 8.t.t.N.N.#.#.Y.t.t.N.t.#._.Y.8.r.Y.t.N.t.t.f.f.Y._.7.( 8.7.' 7.r.8._ } 8._ 8.Q.7.[ 3.7.O.7.[ O.O.7.O.O.} 7.7.7.7.O.} [ [ [ +.r.( _ O._ O.#.+.) / _ ' / [ +.+.+.} [ 8.8.O.O.O.+.+.+.O.+.+.+.+.+.#.#.#.#.r.O._ 8.O.( 8.Y.7._ 7.u.[ 8.}.7.3.7.7.7.7.7.7.7.7.7.7.7.7.7.7.7.9.9.9.7.O._.XX} +.OXO.[ |.Y._ } z./ ` r.+.O.} ' U V T I J ,.8.+.8.r.r.d.d.8.7.O.7.u.8.8.7.` ] / ~ O.8.] Z R j.( [ f.O.] :.:.,.,.,.,.:.] :.' ] :.:.:.:.,.",
"J I T T I U ^ / E T P E U P [ ,.P _ +.( Z ] [ P } u.( ~ O.O.+.O.O.7.} } _ ' } 8.7.} _ [ _ [ _ O.[ ] } +._ / P ` ,.P K ` ` ( / ` ` D ( | / / T P E E / ' T L / ,.` P E T T / T / ` ' 8.d.[ T ' 7./ / 7.( ~ +.8.~ ( O._ O.+.} +.#.{ O.+.O.O.O.+.O.+.O.} 8.r.+.8.r.+.O.O./ _ d.7.` [ 7.[ O.Q.} _ Y.r.} / :.[ ] ,.[ ,.:.:.[ ,.] :.] ,.] :.,.:.] _ 8.c.[ 3.c.7.[ c.7.[ 8.}.] R 7.f.t.8.+.t._.r.t.r.r.t.8.8.r.r.r.r.+.r.+.+.+.+.O.7.] ( 9.d.( _ +.O./ _ 7.( [ 7.` T / ` ` / ~ ` T T _ +.[ / / ] _ ] ] [ _ ` O.r.( ( 8.t._ +.8.[ +.Q.7./ 7.f.#.t.r.8.f._._.8.f._.f.f._._.|.}._._.N.f.}._._.oX} ' XXc._ ,.9.3.7.}.8._ u.oX7.7.7.7.7.5.7.7.,.] 7.d.7.,.7.7.7.7.9.7.7.O.+.oX8.[ t._.+.| f.9.O.XXc.' [ |.|._.}._._._.|.|._._._.Y._._._._._._._.Y.Y._._.t.d.,.[ }.d._ 7.f.O.O.|.8._ r._.O.,.,.,.7.,.,.7.,.,.7.9.[ ,.,.7.,.5.,.,.,.:.7.}.} ] f.}.O.+.7.[ 8.|.7.( 8.t.r.N.N._.N._.r.t.N.t.#.t.r.#.r.Y.r.N.r.t.f._.r.Y.7.( 8.Y._ _ 7.[ ( d.8.( 8.Y.+.[ ,.,.} O.[  .5. .O.} [ 7.5. .7.7.O. .[ [ O.8.( _ 8._ ( #.O./ ( O.` / } O.+.+.O.[ O.O.} 8.+.8.+.+.O.+.+.O.O.+.#.#.#.#.r.O.' 7.d.[ [ 7.[ [ _.8.[ 8.}.7.,.3.7.7.7.7.9.3.} u.u.} 3.7.7.7.7.7.7.7.7.|.XX[ O.OXr._ 9.9.' Q.d./ / r.+.O.[ ~ J Z U U T 7.7.+.8.8.8.d.u.7.O.O.u.8.7.r.O./ _ O./ 7.8.` ( +.g./ [ Y.O.[ ,.:.,.,.,.,.:.] 7.7.:.' ,.:.,.,.",
"J P _ [ ~ P U T E T T E T / [ [ D ( _ [ P / / } O.7./ / O.O.} O._ } } } _ _ O.} ( _ } O.[ ' } 7.} 7.[ [ _ ` P ] 7.] J K / ( ( [ / Z ( _ ( E E E P E E ` T T 3.8.] T U T T T R / ` / [ 8.[ T ' r.O.' ` / _ 8.O./ _ O.O.+.+.#.r.O.} O.O.+.8.O.O.} O.} O.O.+.8.+.+.+.+.7./ _ 8.8.7._ [ r.m.d.[ _ Y.r.} ' ' [ ] [ [ ,.] [ d.z.3.] ] ] ] ] ' ] ] _ 7.c.[ O.c.}.f.7._ }.Y.f.[ R 7.f.7.9.8.f.Y.Y.r.+.r.t.r.8.8.t.8.8.+.r.8.+.[ O.+.7.] ` 7.d.+.[ ( _ ( O.O.R _ O.( / / / T ^ T / R _ { O.O._ / ` ] ] ' ) ` ( [ #.( ( 8._.#.+.[ +.Y.r.7.` 7.8.#.t.r.8.r.t._.Y.Y.|.Y.f.Y._._._._.Y.Y._._._._.OX} ] c.|.8.[ 3.Q.|.f.u.] 8.|.7.,.3.,.,.5.,.,.] } Q.oXd.O.[ 3.7.7.7.7.7.[ 7.oX8._ t.'._.8.O.+.|.#Xu.] [ XX_.|._.t.t._.|._._._._._.Y.Y._.Y.f._._.f.Y.f.t.t.f.,.[ _.].r.O.O.+.Y._.8._ r._.O.:.,.,.,.,.,.,.:.7.Q.}.7.,.,.7.,.,.3.,.,.] O.Q.3.[ d.N._.7.[ 8._.Y.7._ 8.t.t.t.t.N.N.N.r.t.r.t.#.+.+.t.Y.Y.N.N.r.f.d.t.N.Y.O.( +.Y.8.[ ] _ O.r.7.( 8.Y.7.[ [ [ [ [ [ ,.[ [ +.8.[ [ [  .[ [ [ [ [ [ O.f.( ( +.+.( _ ( ( O.O.` / O.+.O.+.+.O._ _ [ O.O.[ ( } +.+.O.O.O.O.#.#.#.#.r.7.' 7.r.r.[ _ 7.r._.u._ u.}.O.3.7.7.7.7.7.7.[ 7.Y.Q.7.} 7.7.7.7.7.7.7.7.|.|._ O._.f.8.[ ] 8.d.7.] / 8.+.O.[ U I Z T ' P ,.8.7.8.8.8.8.8.7.7.7.u.8.8.8.7./ ` 7.P G T ` +.O.+./ } _.O.] ,.,.,.,.,.:.] } r.d.3.[ ] :.,.,.",
"P ' _ _ _ ` K T U E T Y T / O._ S ( / O.{ [ ' O._ ] / / O.+.} } } O._ } _ } O.] K ' 7.7.[ _ _ } O.O.] ( _ [ R / O.O.R J / ) ( _ / P ( ( ( T T E U E E Y P O.7.} O./ U E / ` ' T / / ' 8.7./ } N.+.( ( O.+.} _ ( [ O.O.O.+.r.+.} } } O.8.8.[ _ O.} } O.} O.+.+.O.+.+.8.` _ +.7.d.7.O.Y.r.7.[ _ d.8.[ ] ' ] ] ] ] [ } r.Y._.d.[ ' ] ] ] ' ] ` ( +.f._ 7.u.d.}.u.8.$X8.7.7.R [ 8.+.7.f._.f.Y.+.#.8.r.r.8.8.8.+.8.+.8.r.8.} O.O.7.] ` 7.8.N.+.( [ O.+._ P _ [ / ' / / T / T P ) O.{ { O.O./ / ] ` / ` ` _ { t._ ( +.r.r.+.} Y.t.O.7.) O.8.r.r.r.#.#.v.t._.Y.}.|._.Y.Y._._.Y.Y._.oX_._._.OXO.,.z.f.Q.8.c.$Xf.8.d.[ 8.oX7.,.7.,.,.3.,.] } Y.OX_._.r.} [ 7.7.3.7.,.[ +.oX8._ t._._.OXt._.[.Y.8.:.[ |._._.Y.Y.Y._.oX_._.Y._._.Y._._.Y._.f.f.Y._.f.r.Y.c.,.[ Y.Y._.r.7._.Y.r.8._ r._.O.:.,.,.] ,.:.:.7.Q._.Y.f.7.] ,.,.,.,.,.:.] 7.XX,.[ d.+._.Y.8._._.8.7.[ 8.t.N.N.t.t.r.r.N.r.r.N.N.#.#._.r.r.t.r.N.f.r.r.t.r.O.` +.#.N.r.[ 7.t.O.7.( +.Y.7.] ] ,.] [ [ ,.[ O.N._.+.} ] [ [ ] [ [ [ [ O.f.( ( +.t.O._ ( O.+._ / / O.+.O.+.+.O.} O.O.[ O.[ ( _ O.+.O.O.O.O.#.#.+.#.N.7.] 7.+.f.7.' 8.N.8.8.[ u.}.O.3.7.7.3.7.7.[ O.Y.N.R.Y.7.} 7.7.7.7.7.,.O._.Y._ O.r.+.Q.7.} d.} 7.[ / r.+.O.[ U U J / ,.J ` 8.7.8.8.8.7.8.8.r.8.8.8.f.7.] J J ` G 0 n ` #.{ O./ { _.O.[ ,.,.,.,.,.:.[ r.m.m.m.7.' ] ,.,.",
"' } ( ( { _ ~ U U T U U L / O._ Z ) ( / } d.} _ / ] / R O.O.} } O.8.} } [ } O.[ T ` 7.O.} } _ _ [ _ _ _ [ [ / ( [ _ / ~ ` [ P P P P _ [ / R P T T T T T ' 7.O.} } ] ` E ` ' ` ` ` / ] 7.7.] O.r._ _ +.R.+.( ' ( [ +.} } O.O.O.O.O.} 8.8.[ ( _ O.O.O.O.+.+.O.O.+.O.8.8._ _ O.[ O.r.r.8.} 7._ _ r.8.} ' ' ] _ ] ' [ 8.Q.r.N.Y.8.] ' ' ] ' ] ' ( 7.Q._ 7.u.O.8.oXoXf.[ O.7.R  .8.+.u.f._.f.8.8.r.+.#.+.8.7.7.7.8.+.+.+.8.+.+.O.7.[ ` 7.O.O.r.} O.[ O.` P [ [ ( ` / / T ~ T / [ .._ { _ } _ ` T / / / ` ` O.r.[ ( +.O.O.r.t.N.O.} 8._ O.t.8.8.#.8.r.Y.t.Y._.|.|.|.Y.Y._._._._._._.oXoX_.oX7.,.c.7.7.|.#X}.7.7.f.} d.#X7.,.,.,.,.,.,.[ d.OX_._.'._.d.O.[ 7.3.,.,.[ +.oX8.[ f.t.+._.[.OXY.7.z.[ [ XXY.Y.Y.Y.Y._._.'.|._._.Y.Y.Y.Y._._.f.f.Y.Y.8.r.Y.c.,.} c.O.+._._._.+.8.8.[ r._.O.:.:.,.] :.:.5.f._.N.t.N.d.7.,.,.,.:.,.:.:.9.XX3.[ c.O.+._.R._.8.O.8. .8.Y.t.t.8.r.#.t.r.t.%.N.N.N.t.t.t.r.#.r.t.t.r.r.8.r.O.( 8.O.} 8.8.t.7.[ 7.( +.Y.O.] ] :.[ [ ] [ +.Y.%.%.N.8.[ [ [ [ ,.,.] [ +.f._ ( O.O.+.+.O.8.| / / ( O.+.O.#.O.} O.+.O.+.O.O.O.} _ O.+...O.+.+.+.#.o.N.7.] 7.O.7.8.O.8.@.+.7.[ d.|.7.3.7.7.7.3.3.7.Z.R.N.N.R.Y.7.} 7.7.7.7.7. .c.Q._ 7.8._ 7.Q.d.7.` 7.] / d.8.O.[ ^ U J [ ,.J ' 8.+.8.8.8.7.8.8.8.8.r.8.O.T J k n I ` ] 7.} _ _ O./ O.Y.O.[ ,.,.,.,.:.,.u.Z.N.8.m.8.} ] ' 3.",
"} _ _ { _ } [ T L U U T L / } [ Z _ _ D ` 7.[ / / [ R T _ O.O.8.7.7.} ' [ [ } 7.` ' O.+.O._ _ O.' O.[ O.O.[ R ( ' P P ' [ ` S K J J _ ( / ` T P P K U ] 7.[ } O.[ O.[ / / ` / _ ` / ' 7.7._ O.8.( O.`.#.( / [ / ( O.} O.} } 8.+.O.O.8.O.( [ 7._ } +.#.+.O.} O.+.O.8.9.` _ +.( _ r.N.O.) 7.[ ( r.8.[ ` ' ] ` ` ] 7.d.d.Y.Y.r.Q.7.] ] ,.' ' ] ' 7.b.[  .p. .O.XXf. .` 7.7.R 7.8.7.Y.d.f.8.8.8.r.8.+.8.r.O.O.7.8.+.+.+.r.8.O.+.7.] / 8.[ ( #.+.[ / _ _ ` _ [ _ ~ / ` / P / O.O._ _ ..( [ } _ T / ^ ` ` / O.8._ ( +._ ( O._.r.( [ u._ [ 8.8.+.+.N.t.t.t.f.Y._._.Y.Y._.Y._._._._.|.|.|.Y.oX7.[ c.7.[ }.|.9.] 7.f.[ d.#X9.5.,.,.,.:.[ f.oX|._.'._._._.d.} ,.,.,.,.[ 7.oX8.[ f.t.| 8.OXoX7.3.u.[ [ XXY._.|.Y._._._.oX|._.Y.Y._.f.Y.f._.Y.Y.f.8.8.Y.Y.f.[ O.u._ [ _._.8.[ 7.d.[ 8._.7.' :.:.:.] 3.c.Y.Y.Y._.r.Y.d.3.] ,.:.,.:.:.u./.7.[ c.[ [ r._.r.[ O.f.| 8._.t.r.r.r.r.t.r.N.N.N.r.N.#.8.r.#.#.N.r.t.r.8.8.r.O.( 8.O.( O.N.t.[ [ 7.( +.Y.7.] ] ] ] ] ] 7.d.N.#.%.%.d.7.[ [ 7.,.,.[ _ +.v.[ _ O._ O.t.r.O./ / ' ( _ 8.+.+.+.} } +.+.O.O.+.+.+.O.{ { O.O.+.+.+.#.+.N.7.] 9._ _ O.r.8._ O.7._ d.XX7.3.7.3.7.,.3.Y.R.N.N.N.m._._.7.} 7.7.7.7.7.}.Q.] 7.8.( ] Y.d.) ` 9.] / Z.r.7.' ` U J [ 3.( 7.r.#.8.7.7.8.8.+.7.8.7./ J U ` J I T 8.r._.O.( ( O.` O.N.O.[ ,.[ ,.:.,.d.|.Z.N.m.r.r.r._ ' ,.",
"{ { } } } } O._ P U T T P ` O.O.P _ [ P E ' ` ` ` ] ` T ` } O.r.O._ ' [ [ } _ } [ _ } 8.} _ _ } [ [ } [ O.} / ` ' P K / [ / S / T J ~ ( P / ` ] E ~ ] 7.O.} 7.} O.+.O.[ / / ` / ` ` [ 7.,.` 7.O./ } N.} R ) [ / R [ +.+.O.8.8.+.+.+.O._ [ 7.O.[ } +.#.} { } O.} +.r.O./ _ 7._ ( O.u._ ] 7.[ ` r.8._ ` ' ' / ` 7.f.r.f.f.d.d.Y.Q.9.] :.,.:.] ' 8.}.[ [ 9. .[ z.9.[ [ 7.5.` 7.8.t.Y.d.8.+.f.8.8.r.Y.N.Y.r.+.O.7.8.r.8.8.7.+.O.8.[ / 7.[ / O.8.) R _ } ( [ O.( / / / T ~ [ +.O.[ ( _ [ O.O.[ ` / T / / / [ 8.( ( 8.[ ( _ r.+._ O.u.[ O.8.#.r.t.N.N._._.Y.Y._.Y.f.f._.Y._.Y._.|.|.f.t.N.oXO.[ c.7.] 9.z.7.[ 7.c.O.t.#X9.,.7.3.,.5.d.oXOXoX|._._.|._.|.u.,.,.,.,.[ 7.oX8.[ d.u.[ 7.u.p.7.7.z.,.[ }.Y.|.|._._._._.|._.Y.Y.Y.f.f._.Y.f.t.Y.8.8.d.Y.Y.f.[ 7.u.[ ] 9.u.[ [ 8.u.[ 8.'.+.' :.:.] 7.d.Y.N._.Y.t.N.Y.Y.d.3.] ,.,.:.[ d.XX7.[ c.[ [ 7.f.O.[ 7.f.[ +.N.#.t.Y.Y.#.%.N.N.N.N.r.#.#.r.+.r.r.r.r.t.f._.r.8.O.( 7.O.) _ 8.O.] [ 9.` 8.Y.7.' :.] ] ] [ f.N.r.r.r.r.t.f.7.,.3.3.7.,.[ @.Y.[ [ 7.[ ( 8.t._ / [ ] / [ 8.#.+.O.O.O.+.+.#.O...+.#.O.{ _ O.O.O.+.t.#.+.t.} ' 7.[ ` [ 9. ._ O.7.[ d.XX7.3.7.3.3.7.Z.R.Y._._._._._.|.^.7.[ 3.7.7.O.b.Q.[ 7.8.` ' 9.7.` ] 9.] ( Z.8.7.' T T U [ O.#.t.r.8.r.+.8.8.t.t.t.} J Z / 7.7./ ] ] _ _ 8.+.( ( 8._ O._.O.[ 5.[ [ ,.d.|.|.|.Y.r.r.r.N.r.} ' ",
"{ O.( / ' O.} [ ` E U T T / +.7.P _ [ T T E T ) ` ' ` T [ ' _ } [ ( _ 7.[ [ _ } O.[ O.O.} O._ [ [ _ _ _ O.O.R / _ / Z K ` P D _ ` Z P [ P U ` ] ` [ 7.[ [ 7.,./ [ O.O.+.' / / ` ` / _ 7.] ` 3.[ / ' [ ) / ] 5.` T _ [ } +.+.+.O.+.+._ _ 8.+.O.8.O._ } O.O.} +.} +.+.} / [ 7._ / _ [ ` ] 9.[ ) Y.8.` / ` / ` 7.d.r.N.}.7.7.Q.Y.Z.}.7.,.:.:.,.' 8.}.[ 5.7. ._ ,.5. .[ 7.7.` ,.r.t.r.d.8.8.f.8.O.8._.N.f.t.8.O.7.8.8.O.O.O.8.O.8.[ / 7.[ / _ O.` / O.7./ } O.( / / E U _ O.[ { O./ / [ O._ [ | ( T E / / _ +.( _ u.[ ) ' [ [ _ 7.d._ +.#.r._.Y.N._._._._.Y.f.Y.|.Y.f._.Y.Y._._._.r.t._.oXO.,.z.7.] ,.5.7.,.j.c. .r.#X7.,.7.,.,.p.XXXXoX$X}.8.f.oX|._._.8.,.,.,.,.7.|.8._ d.8.[ ,.7.j.7.7.z.,.[ |._.Y.}._.Y._.|._.Y._.|.Y.Y.f.Y.Y.f.f.f.8.8.Y.t.Y.f.3.7.z.,.:.,.7.,.,.u.u.[ r.'.O.' >.;.,.f.Y.N._._.8.O.f._.m._.u.,.:.,.,.,.u.XX7.} c. .[  .7.[ [ 7.u.[ +._.r._.Y.N.#.N.R.N.#.r.#.#.r.N.+.#.r.r.N.Y.f.f.#.r.O.` 7.O._ _ [ [ ] 3.9.` 8._.} ' :.:.' [ 8.m.#._.8.} r.m.r.d.7.,.3.3.,.[ #.Y.[ [ 8.[ ( [ [ _ ' } ] / [ O.O.O.O.8.+.O.#.#.O.O.+.+.O.+.O.O.O.O.+.t.#.+.t.[ ' 7.,.] ] ] ` _ 8.7._ d.XX7.,.7.,.} Z.|.R.R.R.+.8._._.R.OX_.7.[ 7.7.O.f.Q.[ 7.9.] ' ,.,.' ,.9.] ( r.8.8.[ U U ' 7.O.#.r.r.+.#.r.u.3.' ^ / T K ' f.r.[ _ 7.[ ] ` O.} ( [ d.( O._.O.[ 3.[ [ 8.|.R.|.|.7.[ 8.N.%.R.N.O.",
"} _ / U T [ { { O._ P T T ` O.O.P O.] P E E E E ` ' T / 7./ ~ [ _ _ O.O.O.O.} O.O.+.O.[ } +.O.7.O.} } O.O.[ / / _ _ U L P T P ` ] Z ( +.` T T T ` [ } [ } 7.' U / 3.O.O.} ] / ` ` T / ,.' / 7.[ / ] ` ` ] ` ,.] T ' _ _ O.O.O.O.+.8.} [ O.O.+.f.O.} O.+.} +.r.+.O.+.O./ [ 7.` ` ) ` ] ] 7.,._ f.9.' T T ` 7.d.+.N.Y.7.:.,.9.Q.Y._.Q.8.' :.:.[ 8.}. .5.9.[ [ 5.]  .[ 7.9.` 7.f.8.8.8.8.8.d.r.8.O.8.Y.r.8.8.7.8.7.} [ 7.7.8.+.u.[ / 7.[ ` _ ` ` / } 8.[ [ [ ` T U E ` [ ( / [ _ T P / _ _ _ | [ / T T / ( 7.( [ d.[ ( [ ] [ ` 7.d.[ +.t.N._._._._.Y._.|.Y.Y.Y.|.|.|._._._._.N.N.f.}._.OXO.,.z.7.] ,.,.5.,.7.c.O.d.#X7.,.:.,.u.oXoXOX$X}.9.3.7.Q.|._._.Y.7.] :.,.7.|.8.[ t.8.[ 5.5.5.7.7.z.7.O.XX}.Y.f.Y.|.|.|.|._._.|._._.Y.Y.t.Y.Y.r.8.f._.t._.f.3.7.c.[ :.,.,.,.,.u.u.[ r._.O.' :.,.u.Y.N._._.u.] ] O.Y.Y.N.Y.u.,.:.:.,.u.XX7.} c.O.[ 7.,.7.[ 7.u.[ O.f.Y._.r.+.#.R.%.R.N.N.#.#.N.N.r.t.#.r.r._.t.#.+.r.O.` 7.O._ [ ] [ ] ,.9.` 8.Y.} ' :.' ] 8.r.m.N.d.,.' 7.Y.m.N.r.7.[ ,.,.[ 8.Y.} [ 9.[ ` ' / _ _ ] [ ( _ O.} O.+.8.+.+.8.+.O.O.O.+...O.+.+.+.O.O.+.#.#.t.[ ' 7.[ [ ] ` / _ 8.9._ 8.#X7.,.3.3.d.^.Y.`.R.8._ _ 8._.OXOXOXY.O.,.3.O._.c.[ 7.8.] ] ,.,.] :.j.,.( r.d.u.7.T / 7.7.O.+.O.#.#.7.` I e q q n E 7.} +.r.} _ 7.3.,.` ] ] _ [ 8._ +._.O.} [ [ 8.R._._.|.7.:.` [ 8.N.%.N.N.",
"' P J U U T _ +.{ O.' T P / } [ P [ ) P E ` T P / ` U ~ 7.P / 7.[ } O.} O.8.O.O.} +.} O.[ _ O.7.O.8.+.O.O._ / _ _ ` T P U R P / ` P [ 8.' T U ` ` ' } } O.] ^ T T [ O.O.+.O.' U T E / 7.:./ ,.` / [ ` ` ' / ] [ / [ O._ } +.+.O.+.8.8.} } +.+.8.r.+.+.O.+.m.r.O.O.8.7./ [ 9.` ` ] ' _ ` 7.5._ d.7.' ^ / } r.+.#.N.7.' :.,.] u.OXY.R.|.7.:.' [ 8.}. . .j.] [ ,.] [ [ 5.9.` 7.8.r.f.8.r.8.8.t.8.O.+.Y.N.+.r.7.8.8.} O.u.7.O.+.u.[ ` 7.] / / / ` T ` 7.( [ O.` T U ` O._ ( _ ( / U P P / [ .._ O._ T U T ( 8._ _ 8._ ` [ ] [ ) 5.8.[ +.Y.r.r.Y.Y.Y.|._.}._._.Y.Y.|.|._._._.N.t.Y.|.|.Y.oX7.[ z.5.:.,.,.,.,.9.c.[ 8.XX7.] :.9.oXoX|.#X}.7.,.7.3.7.}._.N._.Y.7.' ' 7.oXu.[ 8.7.] ,.,.,.7.7.z.7.7.|._._.f.Y._._._._._.Y._._._.Y.Y.Y.}.Y.N.r.Y.Y.N.Y.f.[ 7.z.,.:.,.,.,.[ u.u.[ r._.O.' ] 9._.N.N._.u.:.:.,.' 7._.N.N.Y.8.,.' ] 8.#X7.[ }. .[ 7.[  .[ O.u.[ [ 8.r.r.#.#.N._.%.%._.N.#.#.N.t.N.t.r.r.r.r.8.#.+.f.+.( 7.O._ [ ] [ ] ] 9.) 8.Y.[ ` ' ' 8.N.+.N.r.[ ' ' ' 9.Y.m.N.Y.3.] ] [ 8.f.} [ 7.[ ` ` / _ _ ] ] / } #.+.8.+.+.8.r.+.8.+.O.+.+.{ O.+.+.+.+.O.+.+.O.N.[ ' 7.] ] ] ` / _ 7.u.] 8.OX7.' 3.d.|.N.R._.8._ [ [ [ 8.OX_._._.Y.} [ O._.c._ 7.8.] ] ] ] [ ] 7.[ ( Y.8.8.9./ ] 7.O.} O._ O._ J y 9 e G U ] ] O.O.8._.O._ 9.3.,.] ` [ _ _ 9._ #._.O.[ [ O.|.N.N.|.u.:.:.:.] _ t.N.%.R.",
"~ U J T I L / [ O.+.O./ L P [ [ P ] / T E E E R T E U T [ ( [ 7.O.} } +.O.+.} [ O.O.O.O._ ( ( [ [ O.O.O.7.[ R _ [ ` P P T R R ) / P +.+.~ U ] 7._ } [ _ [ ` T ^ / T [ r.#.+.[ / P P ' 9.,.` ' / / ' ' ' / / ] ' ` 7.O.} O.O.O.8.8.+.+.O.+.r.+.O.8.O.O.+.t.8.O.} +.r.7.` [ 7./ ' ] ] ) ` ,.[ ' d.8.` / [ 8.+.#.8.O.] ,.] ,.,.,.c.|.Y.R.|.9.' _ r.oX .5.7.[ [ 5.,.[ _ 7.7.) 7.8.t.Y.Y.Y.r.t.r.t.8.+.#.Y.r.r.8.8.O.O.O.8.7.+.+.u.] ` 7.] E / / ` T ` [ ( O.+./ T ] 7.O.{ { O.( U I ` ` T / [ O.O.O.[ ^ T _ 8.[ _ O.( ` ,.,.:.' 5.9._ 7.f.8.r.r.Y._.|.|.|.}._.Y.Y.Y._.|.|.Y.Y.Y.Y.|.|._.oX7.,.9.5.:.,.,.,.] 9.c.[ u.XXO._ 9.XXXXoX#XQ.7.3.3.3.,.,.7.Q._.N.N.d.7.' 7.XXd.} 8.7.] ,.5.,.,.7.z.7.O.XX_._.|._._._.'._._._._.Y._._._.|.}.Y.N.N.Y.t._.N.d.,.7.z.,.:.,.,.,.[ u.8.[ t._.[ [ 7.f.t.N._.8.,.:.:.,.:.] 7.Y.N.N.N.u.,.] u.$X9.[ Y.O.[ [ ,.[ _  .7.)  .+.+.t.r.Y.N.N.N.R.N._.%.#.#._.N.r.N.N.r.8.8.r.N._.7.( 7.O.) ] ,.[ ] [ 7.) 8.Y.[ ` ] 9.r.%.N.r.[ ' ;.] ' :.8.Y.%.R.d.} ' [ r.f.[ } 7.] / ' ` ) ( [ _ (  .8.r.t.r.8.8.8.8.+.+.#.#.+.O.O.+.+.O.+.+.#.+.O.t.[ ' 7.,.] ' ' ` ) 7.u._ 8.#XO.} d.Q.Y.R.R.8.[ [ ,.,.[ } 8.|._.R.R.Z.} O.}.c.[ 7.u.] ' ,.:.] ,.7.] ( Y.8.8.7./ ` O.#.r.t.} P l l J ` ,.8.8.O.} +.f.f.Q.7._ 9.7.[ ' ' ,._ _ 7.( #.t.[ _ 7.Y._.N.}.8.,.,.,.' :.' [ 8._.N.",
"U U U L I L L T [ O.O.` U R ' [ T _ / T E E E P U E P P _ 7.7.} } [ _ +.O._ ( O.O.} } O.O.O.' [ [ _ _ [ } / J R ] ` K R R P R _ R P +.[ D / 7.} } } / ' ` T ^ ^ T P /  .O.} } O.` U _ 9.,.^ ` / T ` ' ` E / ' / _ 7.} O.O.} 8.8.8.+.O.8.r.8.8.8.} O.8.+.8.} ( } r.r.7.` [  ./ ' ] ' ' ] 7.] ( d.7.( [ 8.+.+.r.} ] ] ,.] ,.,.,.3.Q.|.R._.oX8._ r.|.O. .u.[ [ 5.,.,.) 7.7.) 7.Y.d.d.8.8.r.Y.r.f.r.8.8.8.r.r.r.t.O.O.O.O.8.O.+.d.[ / 7.` T ' / / R ( [ ( _ O.` ~ 7.+._ } _ ( P J U / / T P ) | _ ..O._ / [ +.} ( O._ ` ,.:.:.' 7.7._ 7.t.t.N.d._.Y._.|.|.Y.Y._._.r.f.Y._.Y.Y._.Y.Y.|._.oXO.,.u.5.:.>.,.,.:.9.c.[ d.oX+.+.|.oX_.oX}.7.,.7.7.[ ,.,.' 7._.Y.N.Y.f.} 7.oXd.[ 8.9.:.,.5.,.,.7.c.7.O.oX_._.|._._._.Y._._.Y._._._.Y.Y._.r.r.Y._.Y.t._.N.8.[ 7.z.,.:.,.,.:.[ d.+._ N.N._ 7.Y.N.%._.d.,.' ,.:.:.,.] ] 8.Y.N.t._.d.O.u.#X9.[ Y. .[ 5.] [ ] [ 7.) O.7.+.Y.r._.#.N.%.N.#._.N.#.#.N.N.N.r.Y.r.N.r.f.Y._.8.( 7.O.) ] ,.] ] ,.7.) r.Y._ [ 8.Y.#.N.m.3.' :.:.] :.' ] f.N.+.R.N._ _ r.f.[ [ 7.] / ] ' / ( O.[ ( _ 8.r.8.8.8.8.r.8.+.+.#.+.O.O.{ O.+.{ O.#.+.+.O.#.[ / ,.] ' ' ' ' ` 7.7.' 8.|.O.8.|.Y.m._.8.' ' 3.[ [ 3.[ [ 8.Y.Y.Y.|.r.+.Y.Q.[ +.u.] ' ,.:.] ,.7.] / r.r.8.3.~ / } 8.Y.7.K n U :.7.9.[ [ O.+.8.f.f.Y.}.7.] 9.7.] ] ,.] ] [ 7.( +.r._ O.Y.Y.N._.z.:.>.,.,.' ' ,.` [ f.f.",
"U U U T I J I P T _ _ [ / R _ ] R _ _ T / E T P L E P P _ 7.O.O.[ _ } O.} _ ' 7.O.O.} +.7.3.[ 7.O.+._ [ } T J T ` / P T / P R _ / P O.( P [ O.} O._ ` ` T ^ ,.' P T T R ` _ } O.3.` ( 7.[ T ` / P E ` ` / ` ' / [ 8.O.} O.8.u.d.8.O.O.8.r.r.r.+.+.O.O.7.8.} O.O.+.r.7.( [ O.` ` ] ] ` ) 7.] ( r.O.[ 8.8.8.8.} ' ] [ [ 3.,.,.7.,.7.d.|.Y.|.|.r.r._.O. .9. .,.5.5.,.[ u.9.) 9.f.f.8.O.O.8.r.t.f.8.t.r.} O.Y.Y.r.+.} O.8.O.+.r.d.[ / ,.` T ` / / / [ O.( { O.( ( [ [ { [ / P K P T P P / R R / ( ( ..+.[ _ #._ ( +.[ ` :.:.:.' 7.8._ +.Y.Y.Y.Q._.Y._._._.Y.f._.}.f.f.t.Y.Y._.N.Y._._._.oX7.[ z.7.:.>.,.:.,.z.z.[ u.|.t.}.|._.OX}.9.3.7.,.3.9.,.:.,.] 7.Y.Y.Y.Y.r.8.}.8.[ u.u.] ,.5.,.,.7./.7.7.}._.|._.|.oXY.t.Y._._._.Y.Y.Y.Y.t.r.8._.Y.Y.N.#.N.f.[ 7.d.7.:.,.,.:.3.c.O.[ Y.t.O.d.Y.N._.d.,.:.:.:.,.,.] ,.:._ 7.Y.N.t.N.8.+.OX7.[ _.O.] ,.[ ] ) O.7.) 7.8.+.+.t.N.t.N.#.N.%._._.%.#.r.m.N.N.Y.Y.Y.r.N.r._.d.( 7.7.] ] ] :.) 5.7.( 8.t.O.8.Y.m.N.r.3.] :.:.:.] ' :.;.,.8.N.%.R.8.} #.t.[ } O._ ' ] ] ` ( O.[ ( } +.+.8.+.+.8.r.r.r.+.O.} O.O.O.} O.O.O.+.+.O...#.[ / [ ] ` ' ' ' ] 7.7.` 7.|.8.Z.Y.R._.8._ ' [ [ [ 7.[ ] ,.,.7.Q._.}._._.}.f.} 7.8.[ ' ,.,.] ] 9.[ / 8.r.8.] P ' [ U k J K ] 7.+.[ O.O.+.+.r.f.f.d._.oX7._ u.7.' :.,.:.] [ 7._ +.r.+.r._.N._.c.,.,.,.' ,.7.' ' ] ` [ u.",
"U J T ] T n I T K T / O._ / O.[ P } [ P / ` T P L U T P ` O.} +._ _ +.+.O.O.O.} } +.O.[ T n T 7.d.8.O.O.O._ R _ [ T K U / R ( [ / P [ ( ( [ _ O._ / ' ^ U ' 7.7./ U T L P [ } [ 7.} _ O.' ~ [ ] P T T ` / ` [ / } r.O.} 7.7.7.7.O.[ +.8.8.r.+.8.r.O.O.+.8.r.f.O.O.t.7./ _ 8.[ ` ] ] ` ] 9.[ ( r.O.+.r.+.r.} ' :.,.] ,.f.8.[ 3.7.,.7.Q.|.Q._._.N._.+.O.p.9.[ 5.j.[  .}.8.` 9.f.f.8.7.8.8.t.r.t.#.r.Y.O.O._.r.r.+.O.O.8.O.8.8.d.] R 3.[ T ` ' ` / 7.7.( +.O._ O.} O.( / K L P L / _ T T / P P | _ O.O._ _ #._ ( +.O.' ;.:.' ` 8.8._ O.t.t._.Y.Y._._.f.Y.f._.}.}._.Y.r.t.N.Y.t.Y._.Y.t.oX7.[ /.9.] :.,.:.,.b.z._ 8.|._.oXoXOX}.7.,.7.7.:.7.}.8.' >.:.' 7.Y.Y.Y.N.#._.8._ d.u.[ ,.7.,.,.8./.7.7.}.t._.|.}._.N.N._._._._.N.r.Y._.f._.f.t.t.Y.t.#.Y.Q. .O.Q.u.:.,.,.] 7.Q.O.[ Y.N.t.Y.N._.N.3.:.>.;.] 8.d.[ :.,.' ] 8.Y.N.N.8.+.|.7.[ _.7.] ] ,.] ) 7.8.) 7.f.+.O.8.r.N.#.#.N.N.N._.#.+.N.#.t.N.R.m.r.t.N.r._.8.( 7.d.[ ` :.] ` 9.8.( 8.r.r._.N.R.t.O.' ,.,.' ,.7.' :.>.] [ r.N.%.N.O.#.t._ } 8._ ` ' :.` _ 7._ ( O.[ O.r.8.8.8.8.r.+.} _ } O.O.} } } O.} O.O.} ..r.} / ,.[ / ' ' ' ] 7.7.' 7.}.f.Y.Y._.r._ ` [ ' ' d.d.[ ] ,.:.:.7.Q.|.|.oX|.f.} 7.f. .] :.,.] [ c.,.T 8.8.7./ K } ' 8 2 U 7.+._ | O.O.8.r.r.d.u.f.Y.}.oX7.[ d.7.] :.,.:.] 7.7._ +.N.N.N._._.}.3.>.,.>.' 8.t.7./ ] :.` ,.",
"I I ` [ / U J U T T T _ O.O.+.[ P [ O./ E ` T P U ` / T ` [ [ [ } O.+.#.#.r.O.O.O.O.[ [ T G ` 7.8.8.+.+.[ ( / O.O.[ P L E / [ 7./ P [ | } } [ _ / ' ` U ' O.O.7.[ E U L P ` [ 7.8.7.[ 7.[ / [ 7.` T E E / [ 7._ ] 7.O.O.} O.O._ [ } u.r.O.+.8.r.r.8.O.O.+.r.8.+.#.r.7.( [ d. ./ ] ) ) 7.u.] [ Y.r.r.N.m.7.` ;.:.:.] 8.|.Y.9.,.3.7.,.7.z.XX_._._.'.+.O.oXb.5.5.5. .u.oXu.` 8.f.r.f.r.f.8.t.r.t.#.#.Y.+.8.Y.#.8.O.8.O.O.7.r.+.u.' E 7.7./ / ' / _ 8.O.( O.#.+.#.O.[ R U I T U P O.+.( / / ` R ( O.#.+.O...+.} ( +.r._ ;.;.` ,.c.8._ 8.r.8.t.t.Y.Y.t.f.Y.Y.Y.|.}.Y._._.N.r.t._._.t.t._.oX7.[ Q.c.] :.,.:.7.XXz.[ r.OX|.oXOX}.9.,.3.3.,.7.Q._.Y.9.:.:.:.' 7.Y.Y.N.#._.8.[ d.Y.7.,.7.,.7.c.Q.} 7.Q.8._.oX_.Y.N._._._._._.t.t.t.Y.Y.Y.f.Y.Y.t.r.t._.}.7.7.|.c.,.:.,.] d.}.O.[ Y._._._._.Y.} :.1.;.' 7.Y.N.8.,.:.:.] ] 7._._.v.8._.7._ _.f.[ ] [ ] O.d.8.) 7.f.#.#.+.r.t.r.#.N.#.N.r.#.#.t.m.t.N.N.r.r.r.r.N.Y.8.` 8.Y.O.' ] ] ] u.8.) 8.Y.N._.R.Y.7.] :.,.] ,.d._.} :.:.,.] [ r.N.R.#.#.t.} O.8.O.` ' ' / [ 7._ ( O.+.O.+.r.r.8.r.t.+.( } +.#.O.} } O.O.O.} { O.O.N.O.` 9.7.` ' :.' [ u.7._ 7.}.Y._._.r._ ` ] ` _ 8.N.N.8.] ' ,.,.] 7.XXOX|.|.Q.} 8.}.7.] ,.,.,.7.c.7.T 8.8.} / U ` J l ` 9.[ O.O.O.+.7.u.f.d.d.u.}.|._.}.9.[ Q.c.[ ] ,.] [ 8.8._ t._.N.N._.Y.7.:.2.1.:.8.N.N.f.7.` ] :.] ",
"U / ' ( _ ` I L U P J T _ } O._ P _ 8.( R E T K / 9./ T [ [ ( / [ +.} O.+.O.O.+.O.[ [ 7.9.7.7.8.} 7.O.( _ / / _ +.8./ K T [ 7.3./ / O.[ } O._ T T / U U ] +.} O.O.] T E T U ) 7.8.O.} 8.7./ [ r.[ T E T ` +.r.' K ~ _ } } 7.+.O.O.7.d.8.[ O.8.8.u.8.O.[ 7.+.7.r.r.+.7.( [ Y.7./ ` ` _ f.u.] [ _.N.m.Y.7.' ` :.;.' 7.|.N.t.Y.u.,.5.,.,.7.XX|._._.oX+.O.oXoX9.5.5.5.oX_.u.) 9.t.+.r.r.r.r.r.r.r.#.t.r.+.f.r.t.+.O.+.O.8.8.+.+.8.' / 7.u._ / ' / O.d.[ / [ t.#.+.O./ P P T U ~ O.O.{ O.[ R ` ` T _ O.#.#.X.o.} ( +.N.O.] ;.` 8.|.7.' 8.r.+.+.t.t.t._.f._.Y.f.|._.r._._.Y.r.Y._._.t.t.N.|.7.] Q.XX5.;.;.,.f.|.8.[ f.[.'.OX|.9.,.7.h.,.7.Q.^.r.t.Y.7.' :.' ' 7.Y.%.#._.8.[ r.oXd.,.,.:.7.|.Q.[ 7.|.r.t._._.N._._.Y._._.f.f.f.8.r.Y.f.f.Y.t.r.r._.N.Q.7.7.|.|.8.:.:.7.|.f.} _ Y.'.N.'.}.7.;.>.;.;.3.Y.%.%.N.8.' :.:.' ] u._._.t.oX7._ Y._.7.[ ] ] f.Y.7.( 8.r.t.t.+.#.8.N.r.r.#.#.+.N.+.r.t.r.+.r.m.t.8.r.t.r.8.' 7._.u.] ' ] 7.Y.8.( 8._.N.Y.Y.7.' :.:.:.[ d.N.#.+.3.;.;.] ' [ Y.R.N.#.t.} } r.u.` ' ` / +.8.) ( 8.t.O.} 8.d.8.r.t.O._ _ O.O.O.+.O.{ O.+.{ O.+.} r.O.' 8.d.[ ` ' ' 7.f.7._ 8.}.t._.Y._ / ] ` ' 7.R.%.%.N.7.' :.,.] ] 8.XX#X|.c.} 8.|.8.] ,.[ 5.f.f.7.P +.8.P J n n U j.3.} } 7.7.O.+.r.d.f.r.d.d.Q.}._._.8.[ }.XX7.' ,.' O._.d.( r.'.N._._.7.;.>.>.;.7.R.%.#.N.f.[ / :.:.",
"^ [ ( / _ ' / T J J J L J P _ [ D _ 8.[ / E T T } u.] T } [ / / _ [ } O.} } O.O.} O.} O.} 7.} } O.O.[ _ } [ / [ +.8. .P T 7.8.7./ / O.O.O.[ / U U U T :.[ [ O.O.O.} ` E T / / ] } +.+.8.7.' } r.+.] T T [ r.+./ K T ` } 8.7.7.8.8.+.8.7.} } 8.r.8.O.O.O.7.8.8.r.r.r.7.( [ Y.f.[ E ] 7.f.8.] [ Y.N.R.8.' ` ` ] ` 3._._.#.#.N.f.9.,.:.,.:.7.Q.$XOX|.+. .}.#X}.5.5.u.oX_.7.` 7.8.+.8.8.8.r.8.+.t.r.N.r.+.8.f.+.+.+.+.r.Y.+.O.O.d.] / 7.8.O.` / [ 8.+.[ ( [ +.#.O.` T T / T T _ O...O...O._ ( / ` / ` O.#.o.#.} ( +.#.t.7.` ,.f._.7.` 7.8.O.#.r.t.Y.Y.Y.Y.N._._.f.t._._._.Y.N._._.v.t.t.|.7.[ c.XXu.] ' 9._.|.8.[ f.#XOXXX8.,.,.6.,.7.c.Q.N.N.N.N.Y.7.] :.] ] 8._.N._.8.[ d.oX}.u.,.,.d.oXY.[ 7.XXt.t.f.Y._._._._._.N.f.f.Y.r.r.8.f.Y.f.t.r.r.t._.c.7.7.|.oX|.,.] Q.|.Y.[ _ f._.'.}.7.:.:.:.;.,.d.m.%.%.%.Y.7.:.' :.] [ 8.'._.|.7._ Y._._.7.] 8.Y.N.7.( 8.t.#.N.r.r.r.t.r.r.#.#.#.r.#.#.+.+.+.r.r.t.t.r.+.8.8.' 7.Y.Y. .` 7.d.Y.8.( 8._._.Y.O.' ` :.] [ 8._.#.+.#.8.:.' ' ] ` } R._.N.t.} } f.f.O.` / [ 8.8._ _ 8.t.+.O.[ 7.r.r.+.+.} _ _ _ [ O.O.O.O.+.O.O.+.O.#.} ' 8.Y.8.' ^ 3.d.Y.8.( 7.oX_.d.} ' ' ` ` 7.m.#.%.%.#.m.8.] ' ,.:.,.9.|.XXc.} 8.|.c.[ ] ,.9.}.Y.7./ 7.] e a l / 7.8.} 7.7.7.O.7.r.r.r.f.Y.Y.Y.Y.d.}.oX8.[ }.#Xc.] ] 7.f._.d.( r._._._.7.' >.>.:.7.|.N.N.N.N.t.Y.[ ' 2.",
"_ ' / P ( / _ ( U J J J J V ( [ P / O.O./ T U [ O.8./ P } _ ~ ' ' ` [ O.} O.} [ [ O.} } } O.} [ O.[ _ 7.d.7./ [ O.+.7.` ' O.8.9.P P O.+.[ / U T U U ` 3._ ' [ O._ O.O./ T / E T ` } +.d.3.` O.+.#.[ / / O.#.[ / ` ] ` [ 8.O.O.8.+.} O.r.+._ 7.8.O.[ O.+.8.8.r.8.+.+.O.( _ r.d.7.' 7.Y.8.r._ _ d.r.8.' T ` E ` 7.f.r.t.r.N.#.f.f.7.] ,.,.:.7.}.|.}.O.O.f.'.oX9.7.}.N._.[ / 7.+.+.8.+.8.t.+.O.f.r.t.t.[ O.8.O.t.+.t.r.8.O.O.+.d.] E 7.+.8.} ( +.r.+.( _ _ O.O.[ R / / ~ / [ [ ( _ O._ O.O.[ / ` E ` / [ +.r.} _ O.#.r.8.} d.t.t.O./ 7.8.+.#.+.t.N.Y.Y.Y.Y._.Y.f.f._.Y._._._._.|._.t.t.oX7.] c.}.Y.8.7.Y.Y._.u.[ d.OXoXz.,.,.h.,.7.c._.f.t.N.N.r.Y.Q.7.] ,.' [ u.Y._.8.[ r._._._.u.8._._.f.[ 7.|._.Y.t._._._._._._._._.t.f.Y.t.8.8.t.t.8.f.g.#.v.c.[ O.|._.oXd.8.|._.f.[ _ 8.Y._.9.:.>.:.;.,.u.t.#.r.N.#.r.Y.7.] ,.:.:.[ f._.}.7.[ f.N.Y.r.8._.r.N.+.( 7.N.#.N.N.t.#.#.t.t.+.#.+.r.#.#.O.+.#.r.+.t.r.+.+.8.u.` 7.Y.Y.u.O.f.t.N.8.( 8.Y.Y.7.` ` ' ] [ 8.N.r.r.r.+.+.8.,./ ] ] ` 7.N.R.Y._ } r.Y.r.} [ t.r.8._ [ 8.#.#.O.( [ +.+.O.O.} } _ } _ ( _ O.O.O.O._ O.+.+.} ' O.r.Z.3.' 8.f.r.7.( 7._.t.[ / ] ' ` 3.r.#.+.#.%.+.%._.7.] :.,.:.] u.}.f.} O.|.}.7.[ 7.}.d._.u.I b w e J T 7.} 7.8.8.O.O.O.7.r.r.f.f.Y.Y.r.f.f._.Y.u.] c.OX|.7.[ f._.Y.d.( 8.N._.7.' ;.,.:.3.Q._.r.N.N.m.r._.f.,.,.",
"{ ( P / / ( ( ( ) P G I J Z ( _ P / O.+._ / / +.+.7.U P [ [ ( ( ( O.[ ( [ O.O.+.O.[ _ } 7.O.} } [ } O.+.m.8.) ( } O.+.O.} 8.7.[ L U [ [ / T U U U ` [ [ [ [ _ _ O.+.7.[ / T E E T / O.f.[ / O.#.+.+.} O.#.+.' ~ [ O._ [ O.+.8.O.} } O.+.8.O.[ [ O.O.7.+.+.+.Y.d.+.+.7.( _ r.r.8.7.r.t.r.8._ _ Y.8.] / ` ` / O.r.N.+.r.#.#.r.N.N.r.7.[ :.5.] [ f._. . .f._._.v.t._.N.t._ ` 7.8.+.8.+.8.r.+.O.8.8.N.r.O.O.8.+.8.8.N.+.+.} +.+.d.] R 7.+.#.#.+.#.#.+.[ ) [ +._ / T ] / ~ _ O.[ ( ( ( O.} } O.[ ` E ` E ` [ t.[ ` +.#.+.8.8.r.#.N.[ / O.r.t.r.8.r.N.Y._._.f.Y.Y.Y.f.Y._._.N._.'.oX_.f.Y.oX7.] c.}.Y._.Y.Y.f.|.u._ d.#Xd.,.,.2.,.7.c._.N.t.N.N.t.Y.Y.Y.Y.7.] ,.] [ t._.8.] 8.'._._._.N._._.f.} 9.oX_._._._._._._._._._._._._._._.t.8.8.t.f.f.g.t.f.7._ O.|._._.|.Y._.N.Y.[ ` 8.f.8.,.:.>.' ,.c.N.#.t.#.m.r.m.N.Z.7.,.:.,.[ O.f.}.O.[ f.t.t.Y.N.N.N.N.O.( 7.t.N.Y.t.r.+.t.r.r.#.#.#.t.#.#.+.r.+.t.r.8.+.7.8.d.u.` 8.Y.r.t.t.N.#._.8.( r.Y.7.] ` ;.` [ 8._.#.r.8.#.+.O.r.8.[ ` ' ' ` O.N.N._ [ r.N.r.8.8.#.#.8._ _ 8.#.O.+.O.O.} O.O.} O.+.O.+.O.} _ } +.} _ _ _ } +.O._ 7.r.r.r.8.f.r.r.O.( 8.Y.} ' ' ' ' 7.d.+.+.#.#.#.r.%.N.N.7.] ] ,.] [ f.f.[ O.Y.|.Y.r.r.f.t._.7.I 1 1 -.] ' } O.7.7.8.7.7.[ O.8.r.Y.f.7.8.r.Y.Y.Y.Y.u.] f.|._.f.r.Y._._.d./ +.N.8.] ;.>.>.,.Q.Y.t.t.N.r.N.N.N._.f.,.",
"( _ P ( ( ( / _ ( P n G G K ( ( D T } O.} O.3.} O.O.U T ' [ _ ~ P _ ( ( ( } 8.8.O._ _ O.O.7.O.} _ O.8.} r.7./ R O.8.} O.} +._ / I T ] _ T T T U ` 7.[ [ [ } ' _ +.} ' _ _ ) P E ` P _ O.' / } +.O.+.+.O.| _ / ~ _ } } _ [ +.+.O.O.O.O.} 8.7.' ] 7.+.8.+.O.#.N.r.+.8.8./ _ r.O.O.8.+.8.r.7._ _ Y.7.' ] / / 7.N.#.#.+.+.#.#.r.N.r.N.t.7.] 7.,.` 9._. .[ f.t.#._.t.#.N.+._ ` 7.8.O.8.8.r.8.O.+.t.8.r.r.t.r._.+.+.O.+.+.8.+.r.O.u.,.E O.O.{ #.O.+.O.+.O.` O.+.( T ` ' / ( } O._ ( / ( | } ( O.+.[ E ` :.R ) 9._ / O.#.O.+.r.+.#.r.[ / O._.t.Y.t.#.t.oX}.Y.t.r.Y._.f.r.Y._.N.N._._.t.t.Y.oX7.[ Q.oXf._.Y.Y.f.}.8._ d.XX7.,.h.>.7.}.}.t.t.Y.N.t.t.Y.Y.f._.f.,.,.:._ #._.8._ 8.'.N.N._.N.N._.Y.} 8.oX_._._._._._.'._._.N._._._.Y._.Y.r.8.f._.f.8.t.r.7._ 7.}._._._.N.N.N.f.] ` u.f.3.:.:.:.7.Y.Y.N.r.r.#.#.m.N.r._.f.7.:.,.[ _ 7.}.[ _ Y.t.r.N.N.m.N.r.O._ 8.8.t.t.+.+.+.r.r.+.r.r.N.#.+.#.#.#.t.t.8.#.+.d.r.8.u.' 7.Y.r.t.r.r.#.Y.7.( 8.N.} ' ' ` [ 8.N.%.#.N.#.+.+.+.+.r.8.] ` ] / _ #.t.( ' r.N.+.+.+.+.#.8._ _ +.+...#.t.+.O.+...O.#.+.} { O.+.} } O._ ( O.} [ #.O.` O.8.+.r.8.r.+.r.O./ 8.d._ ' ' ' } t.N.#.+.8.#.#.r.N.#.N._.7.' :.,.] u.Q._ O.Y.Y._.Y.r.d.t.f._ [ I 6 ,.[ ( O.7.7.7.8.8.7.[ } 8.N.r.+.O.8.|.|.f.Y.|.8.] 8._._.Y.Y.Y.t._.7./ 7.f.} ' ,.,.,.8._.t.t.t.#.r._.t.t._.Y.d.",
"( ( ( O.' ( ( ( ( ` P n G P ( ( S / } O.O.8.7.} } 7.T T [ [ _ _ P A / [ _ O.[ [ _ } } O.O.8.+.O.} } O.7.8.O./ ` O.+.} O.O._ / ' U ` [ [ E T T / [ O.} [ [ [ } [ +.O./ ( O.O./ T ` / ( O.( / } +.O.O.} _ ( / / ~ ` O.+.O.[ [ O.7.7.7.+.O.8.8.7.[ 8.t.+.+.+.+.+.8.r.8.7./ ' O.O.O.+.+.8.+.8.[ _ d.8.} [ ` 7._.N.#.#.+.+.#.t.#.r.r.r.r.t.7.5.,.[ 7.v.O.[ 8.t.#.t.#.t.#.8.O.( 7.8.r.r.r.r.+.+.8.t.#.r.+.#.N.N.N.r.} O.r.N.#.+.+.d.] R O.O.{ +...O.{ +.+.) [ +.( ` ' R ( O._ } _ } _ } _ O._ { O.+.[ E ` / ) 7./ / O.+.O.+.8.8.+.r.7./ 7.Y._._.Y.N._.oX|.Y.r.f.f.Y.f.t.r.t.Y._.t.t.t.t._.XX7.[ XXoXf.Y.Y.Y.Y.}.9._ u.}.7.7.,.3.c.oXY.Y.N.Y.Y.N.N.N.Y._._._.u.,.,.] O._.8._ 8._.%.N.N.N.N._.Y.} 8.oX_.N._._.oX_.'.N.N.N._.Y._.Y.Y.Y.f.t.Y.oX|._.t.8.p. .7._._._.N.N.N.N.r.] _ f.p.3.:.:.,.Y._.t.N.t.#.+.r.m.Y.m.N.N.f.7.,.,.] 7.Q.[ _ d.t.N.N.N.N.#.r.O._ 8.8.+.#.r.r.+.+.r.#.O.t.#.#.#.#.#.N._.N.8.8.d.Y.r.f.u.] 7.t.N.t.r.r.#.t.7.( u.t.O.] ' ] 8._.#.t.t.N.#.+.+.8.+.#.r.8._ ' ' ( +.t.( _ r.%.+.#.+.+.+.+._ _ O.O.X.#.#.t.#.+.+.o.%.#._ ( O.O.O.O.O._ _ O.O.O.#.O.( O.r.r.8.8.+.+.t.O.` 8.d.[ ' ' } N.#.#.r.+.+.r.N.r.r.r.r.N.f.7.' ;.,.8.c._ } Y.N.m.r.8.f.r.u.` ` ` g ' [ O.O.O.7.7.u.+.O.[  .7.r.r.+.8.Y.Q.|._._.Y.7._ u._._._.N.N.N._.7.( 8.u.[ :.,.,.d.f.r.r._.t.t.N.N.t.N.t.t.Y.",
"( _ { [ / P ) ( _ O.' J G K _ _ S / [ } } } O.} O.8.P T 3.( ( O.( D P [ ( / P / ' O.O.} 7.7.O.O.O.} [ 8.+.[ / [ 7.} O.O.} } ( 3.E U 7.[ E U E ,.} [ } } ' [ } _ O.7._ [ O.} ] T T ` [ r.} ~ _ O.O._ _ O.[ ( ` P ' 8.+.O.} ( } 8.8.O.+.O.} 8.7.} 7.8.O.O.+.+.O.8.8.O.[ / ` 7.8.O.7.+.O.+.d.] _ f.8.] ` O.Y.#.#.#.#.#.N.+.#.r.+.r.#.+.t.r.,.] 7.7.g.[ [ r.t.N.#.#.t.+.f.7./ } +.#.+.r.r.+.N.8.8.r.t.+.+.r.+.N.r.+.+.t.r.#.+.#.u.` R [ O.O.} #.o._ O.+./ [ 8.( / ` ( O.O._ _ { +.O.O.} O.} _ } +.O.` / ` | 8./ ` O.O.O.+.O.8.+.f.7./ 7.t.N.r.f._.Y.|._.f.t._.f.f.Y.Y.r.f.t.N.N.t.t._._.XX7.[ b.|.Y._.Y.f.f.|.8.' u.XX9.,.,.c.XX_._._.N.Y.Y.N.N.r.Y.Y.Y.Y._.8.,.[ +._.8._ 7.N.%.%.#.N.N._.f.} 7.|.N._._.Y.Y.N.N.N.t.N._.N._._.Y.r.r.Y._._._._.t.8.f.O.7.|.N.N.N.m._.m.d.[ ' f.u.[ ' ,.d._.Y.f.r.r.+.+.r.8.d.Y.N.#._.d.,.] [ 7.c.[ [ r.r.N.r.N.N.+.f.O.' 8.#.#.N.N._.#.#.N.+.O.#.+.t.+.#.t.N._.r.#.8.r.t.r.Y.8.` u.t.#.N.r.+.+.Y.7.( u.8.[ ` ] u.t.N.t.r.r.r.+.r.+.8.8.8.+.t.O.' / ( +.r.( [ r.+.%.+.+.r.+.O.' ' O.O.O.#.+.r.+.o.#.+.#.#._ _ O.O.O.O.O.O.O.} +.+.+.O.' } #.#.+.r.r.+.r.O.' 8.d.[ / [ 8.N.#.+.+.+.8.r.r.r.r.m.N.r.N.Y.,./ [ 8.d.[ [ d.m.+.r.8.+.t.u.J 0 U ' } } O.7.O.8.7.8.O.} } 7.O.8.r.8.r.Y.8.f.f.t.Q.8.] Q.Y.N._.t.r._.N.8.' r.8.[ ] ,.7._.t.t.r.N.#._.N.t.N._.r.f.d.",
"( O.O./ P / _ O._ } O.[ K P _ _ P / } } _ _ _ [ O.7.T T [ [ _ O.[ / P ( _ ( P _ [ } } } +.O.} +.O.} } O.+.O.( _ 8.8.+.r.} O.+.3.E E O.[ R / ] 7.[ [ [ [ _ [ } O.O.O.+.O.} +.O./ T / O.t.O._ } O.O.} O.O.O.+.[ / [ t.#.+.O._ O.8.8.8.7.} O.7.O.7.7.} } +.r.8.7.} [ [ [ / ] 8.+.8.8.+.O.+.d.[ _ Y.7./ _ Y.N.#.#.#.#.N.N.#.#.#.r.+.#.+.#.8.9.] ) 8.g._  ._._.N.#.#.#.#.t.O./ O.+.O.+.+.r.r.N.r.t.8.8.+.8.+.r.+.r.#.#.+.r.N.#.O.8.) T [ +.+.+.+.o...O.+.( O.8.( P _ +.O.O...O.{ } { o.#.O.[ O...O.+.+.` / O.t.' ` O.+.} O.O.8.8.f.7./ O.Y.r.N.r.8.t._._._.Y._.Y.Y.Y._.Y.Y.t._._.t.}.oXoXoX7.[ c.|.Y.}.f.f.Y.|.8._ u.oX7.:.z.#X}._._._.Y.t.N._._.N.Y.f.Y.Y._.}.8.[ +.'.8._ 7.t.N.%.N.t._._.c.} 7.}.N._.|.'.Y.r.t.t.Y._._._._._.f.8.d.Y._.N.f.t.N.t.8.O.7._.N.N.N.N.N.N.f.[ _ f.u.[ ] u.}.t.Y.N.r.+.r.+.#.r.r.r.N.m.m.N.u.] [ f.}.[ [ f.t.r.t.t.t.t.Y.7._ +.8.t.N.N._.N.N.N.8.+.+.t.r.#.t.r.N.r.#.r.t.r.t.N.t.8.] u.t.#.r.#.+.#.Y.8.` 8.8.( ' u._.t.t.t.r.#.8.+.#.+.8.+.8.8.+.8.7.^ / #.N.( } Y.N.#.#.#.#.#.8.' ' O.+.O.+.#.#.#.+.+.#.#.+.O.+.O.O.O.O.O.+.+.O.#.#.#.O._ O.#.+.#.r.r.8.r.O._ u.d._ _ r.N.+.+.+.+.#.N.r.r.r.N.N.N.N.N.Y.d.[ ( 7.f._ } d.+.+.r.+.+.8.,.e q :.7.} O.+.8.8.7.8.+.O.7.7.8.O.8.7.8.r.r.8.8.7.f.}.u.] c._.N.N.N.N._._.8.' 8.d.[ ] u.f.t.t._.N.t.N._.Y.t.t.N._.f.d.",
"_ } } / / O.[ { _ _ } [ P P _ _ K T [ [ ' [ _ _ } 7.T P [ } ( ( ( / ~ ( _ } [ O.} [ _ } O.O.O.8.O.} O.} +.7.( ` 8.m.+.O.} } O._ L ` O._ / [ 7.[ _ } _ _ } _ [ 7.O.O.+.O.O.O.[ [ / P O.+.} { +.+.} O.+.[ O.+.} ` [ O.#.#.} O.O.O.+.+.O.O.+.} O.r.+._ ' +.8.O.O._ [ +.O.^ [ 8.O.r.8.O.+.8.8._ _ t.+.O.8.r.#.#.#.+.+.8.r.N.N.+.8.+.+.r.#.#.f.} _ 8.t._ [ f._.%.%.#.#.#.r.[ / O.+.O.+.O.+.r.r.t.t.8.8.8.8.+.+.+.#.+.#.+.+.+.O.+.r.] T [ #...+.{ O.+.+.O.( } +.( / O.+.{ { .._ _ O.O.O.{ _ _ O.{ } O.+._ / [ 8.[ / O.+.} O.8.7.7.8.7./ 7.r.r._.t.t.8.8.Y.oXY.Y._.Y.t._._.N.N.N.t._.oX}.'.[.7.,.c.|.}.c.Y.f.Y.}.7._ u.}.7.8.XX|._._._.Y.N.Y.Y.Y.Y.m.r.Y.Y.Y.Y.}.Q.u.8._.8._ 7.t.%.N.N.t._._.u.,.7.|.N.N.|.oX_._.Y.r.Y.f.Y._._.d.8.8.f.f.f.t.Y.f.t.r.8.O.+.Y._.N.Y.N.N.N.r._ _ d.8.O.8.Y.Y.t.Y.r.r.r.N.+.+.#.r.+.#.r.+.N.Y.7.[ t._.O.[ t.N.r.N.f.r.N.Y.O._ 7._.r.N.r.N.N.#.t.Y.+.+.N.#.#.r.#.#.+.t.r.N.r.r.#.+.7.[ 8.t.#.#.r.r.r.r.7.( u.r.[ O.t.t.#.#.#.#.#.r.+.+.+.+.O.8.8.+.O.8.' / #.N.( } Y.R.+.m.r.+.r.8.' ` O.r.+.O.#.+.O.O.+.#.+.O.+.#.O.....o.#.+.#.#.+.+.#.} ( 8.r.+.r.r.#.t.r.[ _ d.r.O.r.N.#.+.#.#.r.r.N.m.r.r.t.t.r.N.r.r.Y.u._ 7.d._ } d.O.+.+.#.m.' n w n 7.+.} O.O.8.8.+.+.+.8.r.8.8.r.7.7.u.8.Y.Y.r.8.Y.Q.8.] z._.N.N._.N.N.oX8.` 7.8.7.7.f.r.r.t._.N.#.t.r.t.N.8.8.f.r.f.",
"} } _ ( _ O._ _ } } ( ' / / [ _ J J ` [ } } _ O.} 7.U U [ [ ( ( ( ( _ [ ( _ } } } O._ _ } 7.O.8.r.d.+.O.O.O.( _ } +.} [ O.+._ ` P ` 7.O.[ 7.7.+.O.} O.+.O.' ' O.O.+.O.O.O.} O.#.O.( { #.} ( O.+.O.O.O.#.+.O.O./ / O.+.+.#.#.O.+.+.O.} O.+.+.r.r.+.[ } O.O.} O.+.8.8.7./ [ r.8.+.+.8.r.8.7._ _ r.+.r.t.O.#.#.#.r.8.O.+.r.N.r.+.#.8.r.t.#.N.t.+.#.f._ [ 8.t._.N.#.N.#.7.[ ( O.#.r.r.+.+.+.t.t.8.+.8.r.+.O.+.+.#.#.#.#.+.O.+.+.t.] T [ O.+.O.O.+.O.O.O./ [ +...O.O.{ { .._ _ _ O.{ _ ( [ } O.} O._ O.O.O._ 8._ ( [ [ O.+.+.8.[ O.O.` 7.Y.N.r.Y._.t.#.r.|.|._._.Y.f.Y._._.Y.t.t._._.oX'.oX7.,.c.oX}.}.f._.f.d.7.[ u.|.Y.|.|._._._.Y.Y.Y.Y.R.N.r.r.r.Y.Y._.Y.Y.|.}.Y._.7.' 7.g.#._.N.N._.f.u.3.7.|._._._._._._._.Y.N.t.t.N.f.8.8.r.f.r.f.Y.}.f.#.8.p.7.7.f.t.Y.R.N._.r.8.[ _ d.#.r.Y.r.Y._.Y.t.r.N.N.t.#.r.r.r.r.#.r.r.N.R.r.r.|.7.} f.r.N.N.r.Y.d.8.[ _ 8.r.t._.N.N.r.#.t.N.#.#.r.N.r.#.+.+.#.N.N.N.N.t.+.+.7.[ 8.r.#.r.+.r.r.8.7.` 8.r.#.t.r.#.#.#.+.+.#.r.#.+.O.O.O.8.+.r.O.+.8.O.#.N.( } r.r.+.+.+.r.r.8.' ' 8.#.#.+.O.O.O.+.+.O.O.+.+.+.+.O.O.O.#.#.#.#.+.O.#.} ( O.r.r.r.r.t.r.8.} _ 8.N.N._.r.#.#.t.t.N.r.r.N.N.r.r.r.r.t.r.r.t.r.8.r.8._ _ 8.+.O.+.} / V G J P 7.O.+.8.} O.O.8.8.8.r.N.r.N.Y.8.8.r.f._.Y.f.8.8.Q.u.[ f.Y.R.N._.N._.Y.9.` 7.r.Y.f.t.#.N.t.t.t._.r.r.t.N.r.#.+.r.f.",
"_ { _ O._ [ [ O._ [ _ } O.O.O.` G G J ` O.} } 7.O.' I U ` ( _ O.} O.} _ ( ( _ } O.} ( ( O.8.O.O.8.8.O.} { } ` ) / _ [ O.} O./ T / / [ +.} } 7.+.O.O.+.8.[ / _ O.O.} O.+.O.O.O.+.r.+.O.#.} P ( ( [ +.t.t.[ ( } ( ( #.#.+.N.#.+.O.[ O.O.O.8.r.r.8.O.+.+.O.O.+.8.t.r.+.7./ } 7.} O.+.+.8.[ _ [ _ r.t.+.+.O.+.N._.R.N.8.#.+.r.r.+.#.r.+.+.+.#.r.+.t.8.` 3.O.[ N.N.#.N.+.[ O.( } #.r.t.t.8.7.t.8.8.7.O.7.7.O.r.+.+.+.#.+.+.+.#.+.d._ T _ / O.O.O.+.( ( O.D _ O.+.o.{ { { ..{ .._ _ _ _ _ O.} { ..O.} O.#.+.O.+.( ( _ ( _ +.+.7.R [ 7./ O._.r.N.Y._.t.8.+.t.oX'.f.f.t.N.Y._.Y._.N.t._.oX_._.7.,.c.b.f._.Y.Y.7.7.u.[ 8.|.Y._._.|._._.Y.Y.Y.r._._.N.m.Y.f.Y._.Y.Y.}.|.|.oX7.` u.9.O.Y.N.N.f.O.d.7.7.|.Y._.Y._._.N._.Y.Y._.Y.d.f.d.f.8.d.f._.f.d.+.O.8.f.O.7.d.O.Y._.R.r.[ 7.[ ( f.t.r.t.r.r.N.N.N._.r.r.m.#.r._.N.N.r.t.#._._.Y.N.|.[ } 8.O.8.Y.r.Q.7._ 7._ 7.+.#.t.f.r.#.N.#.N.N.+.r.t.#.+.+.r.N.N.#.N.N.#.+.r.7.[ d.O.+.r.+.r.O.} 7._ 7.r.#.#.r.r.#.#.+.r.#.8.#.#.O.O.7.+.r.r.O.O.r.#.#.t.( } O.} +.+.+.r.8._ ' [ 8.+.#.#.O.#.#.O.+.O.O.o.+.O.+.o.O...O.#.#.#.#.#.#.[ ( [ O.r.#.#.r.} O.+._ O.R.N.N.r.r.#.#.t.m.m.t.r.r.r.#.r.N.r.r.t.r.r.N.m.8._ ' 8.#.} / n j I j./ P 7.O.+.8.} [ O.8.r._.r.r.N.N.r.t.r.Y.r.f.Y.8.7.8.Y.u.[ 8.7._.N.N.N._.+.7.` O.N.'.t.8.#._.t.t.t.t.N.N.t.t.t.#.+.r.d.",
"/ } } } _ } } O.} } } 8.O.8.8.` V L U P ( 8.+.O._ ` I U ` _ _ } O.O.O.+.[ ( ( [ +.} ' ' 7.8.+.8.O.} _ O.O.[ ` ' ' P ( +.O.( R ] / / } O.[ } [ } } 8.O._ _ [ } O.O.O.O.O.+.8.r.r.r.+.+.t.} P / [ ( [ 8.O./ _ +._ ( +.#.%.r.N.t.O.( [ 8.O.O.8.O.+.+.O.+.+.+.+.8.+.#.r.7./ 3.} ( O.r.8.[ ( [ ,.[ f.r.+.8.+.8._.N.N._.N.8.+.#.+.8.+.r.#.#.+.#.O.+.#.8.) } 8.[ } _._.8.} 8.7.( +.r.#.f.f.r.f.t.8.f.+.7.} O.+.#.+.8.+.#.#.#.+.#.#.t.[ / 7.( ( o.#.[ D _ [ D _ O.O.+.O...{ O.{ ..{ _ _ _ _ } } { #.#.O.O.O.+.+.+.( ( O.O./  .f.| / 7.7.( +.r.N._._.t.#.t.r.r.N.Y.Y.t.N._.N.Y._._.Y._.f.f.t.}.9.,.XXp.O.f.oX7.( r.d.[ 8.|.N.Y.Y.|._.Y._._.Y.N.N._._.Y.Y._.|._._.Y.Q.|._.OX9.( d.8.' 7.OXY.O.7.Q.7.7.|.Y.Y._.Y.Y._._.Y._._.Y._.|.Y.Y.r.d.Y.Y.d.+.O.8.d.c.O.7.S.[ O.OXt.( } Q.[ ( f.t.r.t.r.t.#.Y.t.N.r.N.#.#.#.N.N.N.r.r.N.N.N.Y.N._.[ [ 8.[ _ f.Y.8.[ 7.u._ 8.t.#.+.+.+.r.N.r._.N.#.+.#.r.#.r.N.%.%.N.N.#.#.#.r.7.[ u.O._ r.r.O.( 7.9.' 8.t.+.#.r.t.r.r.r.t.8.r.8.#.+.8.+.t.t.+.O.O.r.#.#.N.( } 7._ O.N.r.+.( _ [ [ +.#.+.+.#.#.#.#.+.O.O.O.+.+.+.o.O.O.O.O.#.#.#.o.#.O.( O.O._ r.t.} ( +.r.( +._.#.r.N.#.#.#.#.m.N.N.r.r.r.m.m.m.N.N.t.t.r.#.r.d._ ` r.#.+.[ L I ] 7._ / 8.+.+.r.8.7.O.8.f._.N.Y.N.Y.N.Y.m.Y.r.Y.r.8.8.d.Q.7.[ 8.7.+.t.oXt.+.O.7.` 7._.N.t.#.#.N._._.t.t.N.N.N.N.t.t.8.r.r.",
"( O.} _ } O.} } O.} _ O.O.+.8.' Z / ,./ Z ` ] / ~ ] I I ] [ ( _ O.O.+.8.[ ( ( [ } 7.} O.} O.8.8.} O.} O.O._ P [ 7.~ / } [ / ( 7./ P } O.O.O._ O.+.} ( ' [ 7.O.} O.O.O.O.+.8.7.O.} +.#.r._ P _ 8._ / ( ) ( +.+./ ( O.#.#.r.t.r.+.} } +.} [ O.} O.+.[ O.+.O.+.#.+.#.r.} / 3.8._ ` 7.7.) _ 8._ _ f.+.Y._.8.t.t.#.r.r.r.8.r.t.+.8.O.+.r.#.+.+.+.+.+.r.' [ }.8.[ 8.7.O.O.oX+.( 8.N.t.f.f.Y.f.Y.N.t.f.8.O.+.8.+.t.+.+.O.#.#.+.O.#.r.[ / 8.O.D [ O./ / +.( D _ +.{ } } _ { O._ _ O..._ .._ _ _ +.+.+._ _ [ +.{ +.( / +.t.( ( ] _ } t.} / +.r.r.t.r.+.+.N.N.#.#._.Y.Y.N.N.N.N.N._.Y.t.8.8.t.}.9.] XX}.[ O.u.[ O._.8.' 8._.t._.Y.Y.Y.Y.Y.Y.Y.N.N.N._.R._.|._.t.t.Y.|.}.Y.OX8.` 8.Y.} [ }.8.} }.c.[ 7.}.r.Y.N._._._._.Y.r.f.Y.Y._.f.f.N.f.r.t.8.8.8.f.r.u.[ } XXd._ 8.O._ Y._.[ _ _.r.r.t.8.t.r.t.#.+.r.m.+.t.+.t.N.+.#.N.r.t.t.Y.m.Y.[ _ }.u.' 7.7.O.} }.d.( 8._.+.O.O.r.+.t.N.t.N.#.+.t.r.N.N.N.#._.%.N.#.N.#.+.8.` u.u._ O.7._ [ f.7./ 8.8.r.#.#.t.r.8.r.r.t.N.#.+.+.+.#.t.+.+.O.+.8.+.+.N.( _ d.O.( 8.d.[ ( 8.} ' +.#.O.+.#.+.+.#.O.O.O.O.+.o.+.O.O.....O.+.#.#.+.#.O./ 8.8.( [ +.( O._.+.( O.R.#.#.%.#.N.N.+.r.N.N.N.m.r.m.m.m.Y.N.r.t.r.} _ 8.' / } / 7._.[ / 7.O.] / u.8.+.8.Y.f.7.8.f.Y._.r.8.Y.Y.r.r.r.Y.m.d.Y.r.8.Y.3.] Q.d.[ 7.d.O.} d.8./ 7.Y.#.r.#.+.#.t.N.#.N.r.t.N.t.#.t.t.r.t.",
"} O.O.} _ } } O.} ( ( ( O.+.8.} J / [ [ U z j J ' 3.U K ] [ _ [ } 8.+.O._ _ _ } _ O.+.8.O.8.+.O.O.7.O.} O.} P ( 7.7.( ` / _ +.O.` / [ +.} } [ O.+.O.( } 7.O.O.+.+.O.+.+.+.+.[ [ } +.#.t.[ P [ r.+.( R [ } O.O.( ( +.O.+.r.#.8.8.+.8.+.O.O._ O.+.+.O.O.O.O.#.#.+.#.#.} ~ 3._.7.[ [ [ } 7.u._ _ r.8.t._.N.r.#.t.r.#.+.+.r.t.r.r.+.+.+.+.+.#.+.+.#.Y._ } Y.r.d.O._ +.Y.Y.7.) 8.N._._._._.f.t.t.t.t.f.8.8.#.r.#.+.O.O.#.#.+.O.O.#.[ / +.+._ ( R ( } O.( D _ O...} _ _ ..O._ ( { ....O..._ O.#.O._ ( [ O.O.O.+.) / O.#.O.( R O.+.r.O./ O.t.8.+.+.#.r.N.N.t.#.N._._.Y.r.N._._._.N.t.8.t.f.oX9.] c.XX7.7.[ O.r._.8.` 7._.N.Y.Y.Y.f.t.r.Y._.N.Y._._._._.Y.t.N.Y._.}.Y._.OX8.' u.}.f.u.7.7.Y.|.u.,.7._.N.N.Y._._._.t.r.N.t._.Y.N.r.f.Y.t.r.t.8.f.d.t.t.f.[ } Y.|.r.[ _ r._.t.} _ oXN.t.t.r.N.N.t.#.#.#.t.t.#.#.N.#.#.#.N.r.Y.t.N.N.Y.} [ Y._.8.[ ` 8.r.r.d.) u._.8.+.7.r.8.t.t.N.r.N.r.N.r.t.t.N.#.%.%._.N.r.+.8.9.' 7.f.8.O.] [ d.t.7.` 7.r.#.r.r.t.t.t.#.+.#.t.#.@.+.#.+.+.+.+.O.8.+.+.#._.[ ( Y.Y.( [ } } 8.r.[ _ 8.#.+.+.+.+.+.O.+.+.O.O.O.#.O.O.O.O.O.+.+.#.#.#.#.O.( #.N.O.( _ O.#.N.+./ O._.#.t.N.N.N.N.#.#.r.N.N.r.m.m.N.N.r.r.r.t.t.O./ [ ' T T d K 7._ 7.f.8._ / d.8.8.f.Y.Y.d.f.Y.Y.t.f.r.N.+.8.r.Y.Y.N.Y.Y.Y.f.8.7.[ c.Q.z.] ] _ f.Y.8.` 7.N.#.#.t.#.#.+.#.N.N.#.t.#.#.r.t.Y.N.t.",
"_ O.O._ _ O.} O.} ( ( } O.} 8.7.K / ] / [ T d n [ 3.K P ] ] _ [ _ _ O._ _ O._ _ } O.} 7.+.O.} +.+.} O.} O.} P / } +.O./ ~ O.O.` / ( [ O.[ _ _ ( O.O.} +.O.[ } +.+.+.+.O.+.+.} +.8.+.O.r._ P _ +.O._ O.#._ _ O.( / O.O.O.O.8.#.+.+.#.#.r.+.+.+.O.O.O.} +.8.+.8.#.+.O.} ~ [ 8.8.r.O.7.Y.+.} [ _ d.t.8.Y.t.+.8.t.r.8.+.+.+.t.N.r.+.O.+.8.+.r.+.O.r.d.[ ,.u.+.Y.d.O.Y.t.8.7.( 8._.t._.Y.Y.r.8.8.t.#.f.8.O.+.t.+.O.O.O.O.O.+.O...8.[ / [ _ O._ / O.O.( ( P _ } { ..{ O.{ O.O._ ( ......{ { } O.O.( } +.+.O.O.+.( / O.O.+.O.O.#.O.+.} / O.r.#.+.+.r.r.r.t.N.#.r.Y._.f.r.N._._.N.N._._.Y.N.oX7.] c.f.f.f.8.d.r.r.7./ O._.N.N.Y.Y.r.Y.Y.m.t.Y.Y.N.N.N.N.Y.Y.Y.|.Y.Y.}.Y.|.u.] z.d.r.|.8.u.oXd.u.,.7.|.N.N._.f._._.N.Y.Y.r.N.f.r.N.Y.r.t.r.+.8.d.r.#.N.f.[ [ 8.r._.8.+._.r.O.} _ Y._.t.8.r.r.N.r.#.N.+.t.r.+.#.N.#.N.#.r.N.Y.r.+.t.Y.[ [ d.8.r.8.8._.+.O.d.( 7.f.Y.Y.8.r.t.r.r.N.#.N.t.r.r.r.#.N.#.#.N._.t.+...8.7.` 7.8.Y.f.} 8.f.+.7./ 7.f.+.t.r.r.r.8.+.#.+.8.#.+.O.+.+.+.+.8.+.+.+.#.#.Y.[ _ 8.Y.+._ _ r.r.O.[ _ +.+.+.+.O.+.O.+.+.+.+.+.O.+.+.O.O.+.+.+.#.#.+.o.#.} ' O.#.t.} ( 8.#.+.+.( O.R.r.N.#.#.#.N.r.+.#.N.r.N.N.N.r.r.#.r.r.Y.|.Y.O.[ J j n y ` 8.|.|.O.O._ / d.8.t.Y.d.f.d.f.f.Y.Y.|.Y.Y.r.r.t.Y.r.N.Y.d.Y.r.8.7.[ u.d._.7.3.8.f.7.7.` } Y.#.#._.t.r.#.#.#.N.N.#.#.#.r.t.r.f.Y.",
"} O.} _ } } } } } { _ 7.O.O.8.8.P ) [ P ( 8.] P T :.I U 3.} _ _ / ( _ { } O.+.O.[ O.O.O.O.} } O.O.8.8.+.} _ P / [ [ O.O.} O.( / ` / [ O.} [ _ _ } O.O.+.+.O.[ O.#.+.+.#.#.+.+.8.8.+.O.r.[ / [ O._ O.r.+.( [ O.) _ 8.+.O.O.#.#.+.O.} O.+.+.O.+.8.+.O.O.#.#.r.8.+.O.+.7.` ] O.O.8.|.OX}.O.7.] _ f.r.t.f.8.8.8.t.t.r.t.9.+.r.t.+.O.+.8.8.#.t.r.8.8.8.] ,.u.} 8.OX|.f.O.7.O.) 8.Y.N._.f.8.8.r.8.r.r.f.O.' } #.+.O.O.+.O.O...O.O.+._ ( } ( _ +.+.#._ ( _ P [ } _ O.O.O...+.o.{ _ ......( _ O.O.{ _ O.+.+.+...+.) ` O._ ( #._.#.( +.} / O.r.8.#.#.r.r.t.r.r.#.N.d.7.8.Y._._._._._._.Y._.N._.7.[ c.8.O._._.d.O.O.8.` O._.N._.Y.Y.Y.Y.R.R.Y.t.N._._.Y.Y._.|.|.|.}.}.Y._.oX8.] z.u.O.Y.|.|.f.8.u.[ 7._.N._._.Y.Y.Y.Y.Y.Y._.}.7.7.Y.Y.r.t.r.8.8.8.8.r.Y.f.[ } 8.[ 8.R.Y.t.O.O.O.( f.N.r.r.#.r.r.r.#.t.#.N.r.+.+.N.N.N.t.N.r.r.#.#.r.Y.[ [ d.O.} Y._.t.O.O.8.` 7.f.r.Y.Y._.t.t.r.t.N.Y.+.} 8.r.#.#.#._.N.t.@.O.O.r.8._ 9.7.O.f._.|.f.+.7.` u.f.t.t.t.r.#.#.#.#.+.8.r.#.O.O.8.t.#.#.+.+.8.#.#._.} _ 7.+.r.+.8.f.+.[ ,.[ +.#.+.+.+.+.+.#.#.#.r.O.( _ 8.+.+.+.+.#.#.#.+.+.N.O.' O.O.O.+.#.r.O.O.+._ 7._.N.N.N.#.#.N.t.#.N.N.r.Y.t.N.r.8.8.r._._.Y._.Y.] e q M U 7.d.f._.O.O.] ) d.8.r.Y.Y.f.d.f.d._.|.c.7.d._.d.r.Y.t.t.Y.f.8.8.f.7.[ d.8.r.t.|.d.[ } 9.` 7.Y.#.N.N._.N.#.#.t.N._.t.#.t.t.N.f._.f.",
"} } _ } } [ [ O.} +.} } +.+.+.O.P _ [ T T O.8.[ n I v n T ` [ [ _ } _ O.{ } #.O./ ' 7.O._ O.} _ } 8.O._ } [ P / _ P / 8.r._ P ) ' P O.O.} 7.7.[ [ +.O.O.8.8.[ [ +.+.O.8.+.+.+.+.+.+.+.+._ / O.[ / [ r.[ / | O.( O.Y.+.+.+.O.+.+.O.[ O.+.} ( _ 8.+.O.+.+.8.t.@.O.O.8.7.` 3.7._ [ f.|.7._ 7._ _ d.8.8.8.7.8.t.r.t._.t.t.+.+.#.+.+.t.+.r.r.r.8.+.O.7.' [ u._ _ _.Y.7._ 7.7.` 7.r.N.t.8.8.8.t.+.8.r.7.` ` ` +.+.#.O.O.O.O.O.O.O.O.( ( O./ / +.%.O./ ( [ / _ [ ( _ O.{ O.O...O._ ( _ _ ( ( } +.{ O.} } +.+.O.O./ ( O.) R +.Y.O./ +.7.' 7.+.+.r.#.+.r.N.r.r.r.t.7.:.,.d.|._._._._.t.t._.N._.7.[ c.7._ 8._.7.` } 8.] 7.Y.N.N.Y.R.N.N._._.t.r._.'._._.|.}.|._._.|.|.Y._.|.7.] u.8._ 7.|.Y.7.7.z.[ 7.Y.N._._._.N.Y.Y.N.Y._.u.,.,.7.Y._.r.r.t.8.8.8.N.N.d._ O.d._ [ d.f.7.( O.O./ 8.#.#.N.8.8.r.N.+.r.N.N.r.O.+.t.N.Y.N.Y.8.+.+.r.8.d.[ _ u.[ _ 8.Y.+.( O.7./ 7.d.+.r.Y._.r.Y.+.t.N.7.' ' [ r.r.#.#.#.t.#.O.#.r.r.8.` u.7.` O.Q.}.[ +.7.` 7.f.t.r.f.r.#.t.8.+.+.r.+.9.+.t.8.r.8.+.+.r.r.+.t.t.[ _ 7.O.} r.Y.7.) [ ,._ +.r.+.#.#.t.t.#.#.N.7.` / / O.d.+.+.#.+.+.O.+.#.#.} ' O.( ( O.t.7.( } 8._ O._.t.N.N.#.%.r.N.N.r.r.#.8.r.r.r.#.8.r._.Y.Y.Y.+.T q i ^ ' :.7.,.7.[ 7.[ ) d.r.8.f.f.r.f.d.d.|.}.7.' 7.Y.Y.r.Y.Y.r.8.r.8.r.d.7.] u.7.[ 8.OX8.` [ u.` O.Y.N.#.N.t.N.#.#.N._.t.+.+.#.Y.t.t.N.r.",
"O.} ( O.} } _ O.O.+.O.8.O.+.O.O.P [ [ R T ' ] ] K I n n n J J / ' ' 7.+.O.+.} ^ I ^ } 7.} O.} O._ _ _ ( _ } P / ] R P } 7.` T ] ` T O.+.O.7.7.O.} O.+.8.8.8.O.} O.8.+.} O.O.O.8.r.r.+.+.[ ( O.[ R ] 7.) R [ +._ } Y.Y.r.+.+.#.#.+.+.8.} _ ` ` [ +.+.O.+.8.O.+.+.+.+.7.[ 7.u.) ` O.8.[ [ 8.[ _ d.8.+.8.8.d.t.t.t._.N._.#.@.+.#.#.r.N.N.r.8.O.8.8.8._ } u.[ ] 7.8.[ [ 7.7.` +.N.#.8.#.t.r.t.#.t.O.] ' ` / _ O.#.+.+.#.#.#.+.O.O.( ` 7._ / } O.( / _ [ / [ O.( ( ( [ O...X.o.{ [ ( _ _ _ ) O.+.+.O.O.+.#.+.O./ ( 7._ / [ O._ / 7.d.O.+.#.+.#.#.t.t.t.r.Y.Y.7.,.,.>.7.f._._._.N.t.t.t.N.oX8.[ c.9.` ,.9.[ ` 7.8._ 7.|.t.t.r.r.Y._.Y.Y.t.N._._._.oX|._.|.|._.^.|.}.Y._.7.[ u.8._ [ u.9.[ 9.z.,.7._.t.N.Y.N.Y.Y.N._.|.8.3.,.,.,.9.Y.Y.N.Y.Y.t.N._.N.8.[ 7.u.[ ] 7.7.] ) O.O./ 8.#.t.Y.r.8.8.N.r.r.r.N.8.7.+.t.t._._.t.8.8.r.r.r.d.[ [ 8.[ _ } 7.[ _ } 8.` 7.d.8.8.8.N.Y.r.N.Y.O.' ' ,.[ 7.r.N.#.N.t.t.#.r.#.N.7._ 7.7._ [ 9.7._ O.8.` 7.Y.t.t.r.8.r.t.r.8.#.#.N.t.t._.t.8.+.O.+.r.r.t.t.r._ _ 9. .` 7.d.[ ` 7.3._ +.N.#.#.t.t.r.t.N.+._ ' ' ' ' O.t.#.+.+.O.+.r.#.t.} ' O.[ _ [ O.[ ` O.8._ +._.t.r.#.t.N.N.N.R.Y.N.+.+.r.N.N.r.r.N.t.N.Y.r.[ I 9 I :.] :.,.:.] ] 8.3._ Y.r.r.d.r.d.d.f.}.c.7.,.3.,.7.Y.Y.Y.f.f.8.r.r.Y.Y.7.] u.7.] ,.8.3._ 7.8.) } N.N.r.r.#.#.#.N.#.#.+.+.O.+.#.N.r.#.8.",
"O._ ( } _ O.} } } } 8.7.} [ O.7.T _ ,.R T ` T / / ' U T ,.E j b c v J _ #.+.T U U I U [ 7.} } O.} { _ O.+._ P ( [ ` P ` ' T / ] / P _ +.O.O.7.7.[ } +.8.+.+.O.+.r.Y.#.[ _ +.8.8.8.7.O.8.[ ( O.[ R / ) R T _ O./ ` d.t.+.O.#.+.+.8.8.7.` / ] [ ] +.8.+.+.O.O.O.8.#.+.7._ }  .` ` ] 7.[ ] 7.] _ r.O.#.8.r.Y.8.f.#.+.t.N.#.#.+.N.+.r.t.r.+.8.8.d.r.d.] [ 9. .] :.7.] [ u.7.` O.t.+.+.8.Y.f.8.t.8._ ` ' ' / / _ O.+.+.#.r.#.+.} O.' ` 7.[ ` ` / T ~ _ _ / O.O.( ( ( [ O.....+.O.O.} O.{ [ ( ( } +.+.8.8.O.} O.( ` 7._ ` ` ) ` / [ 8._ O.r.+.+.#.N.r.t.t.f.7.,.,.,.,.:.7.Y._.t.t.t.t.N._._.8.7.z.7.] ] :.] ' 7.8._ 7.|.t.r.8.r.t.N.N.N.N.Y._._._.|.|.|.|.Y._.|.|.Y.Y.|.7.[ u.7.] ] ,.,.] 7.8.,.3.Q.t.r.r.f.Y.t.N._.u.3.3.3.3.,.,.8.Q._.Y.N._.N.t.t.+.[ 7.u.[ ' :.] ' ] 7.[ / 8.N.#.r.f.r.+.r.t.r.t.r.8.8.O.8.N.N.t.t.r.Y.r.8.r.d._ _ 7.} ' _ [ ' _ } 7._ O.Y.t.+.+.r.r.r.N.r._ ' [ ,.[ [ 7.r.t.t.8.8.8.+.#.t.O.' 3.7.] ] ,.] ) O.8.( 7.r.r.t.8.r.#.#.#.t.+.+._.'.r.r.t.+.O.+.O.+.r.r.#.r._ [ 9.7.` ,.7.] _ 7.3._ 8.t.#.#.r.r.#.N.+.[ ] ] _ _ ' _ 8.r.+.O.O.r.t.+.#.O./ } } _ ' ' ' _ } 7._ 7._.#.r.N.N.r.N.N.Y._.N.r.r.Y.Y.r.N.Y.m.r.t.N.+./ j v >.` ] ,.,.] ' ,.9.3.} Y.r.t.r.d.Y.d.v.f.7.,.7.7.7.3.u.Y.Y.t.r.8.Y.Y.N._.7.[ u.,.] ] :.' [ 3.9.] } N.#.#.+.#.N.#.N.#.+.+.t.+.+.+.#.+.+.8.",
"+.O.} } O.+.O.[ ( } 7.7.} } +.8./ [ [ T E ` ^ / ) ,.U T u.7./ Y v j d P / I n T ` I n T [ 7.O.} } } O.r.m.O.P _ } ( E E / / / ] ` P ( +.O.O.O.} [ O.O.+.8.O.+.r.N.N.+.O.O.8.8.8.O._ } 8.[ _ O.[ R / ` R / ) } ( ( O.O.} O.+.+.#.r.O.` / ' ] ] ] [ O.8.+.} O.+.+.#.r.O.` [ [ ` ` ] ,.[ _ 7.] _ 8.+.+.r.r.r.r.N.r.+.#._.N.O.8.#.#.t.+.+.8.r.r.r.r.f.[ [ 9.[ ] 5.] 5.[ 9.u.) O.r.+.8.8.f.r.N.8.[ ) ' ' ' / ` ` [ } +.+.+.O.O.O.+.] ' 7.[ / ` / / / ` _ / [ O.[ [ _ O.O.+.+.#.O.O.O.+.O.O._ ' ( O.O.+.O.[ ( +.' ' 7.` ` ] ' ] ` ] [ / [ 8.+.#.#.r.r.N.Y.7.,.3.3.3.3.3.,.7.Y.N.t.N.N.N._._.7.7.c.7.' :.:.:.] } 8._ O._.t.t.t.t.r.t.Y._.Y._._._._.Y._.|.|.}.|.|.Y.r.Y.|.8.[ u.9.) :.,.,.[ 7.z.,.7.Q.t.r.r.r.Y._._.8.3.7.7.7.7.7.7.7.u._._.Y.Y.t.#.#.d.[ 9.z.,.' :.' ] ] 7.[ / r.N.#.t.8.r.+.8.8.r.r.8.8.8.+.8.r.N.#.t.N._.N.t.r.r.[ [ 8.[ _ _ ' _ ' } 8._ 7._.t.r.#.8.r._.8._ ] ,.[ [ ,.7.[ 7.8.8.+.+.+.8.+.8.7.` }  .` [ ,.,.) O.8.( 7.r.#.t.t.Y.t.t.#.#.#.#.#.t.#.8.+.+.+.8.O.+.O.O.#.r.} [ 8.7.' :.3.[ [ 7.3.[ 8.#.+.#.+.#.N.8.[ [ ] ] ] ' [ [ _ 7.+.O.+.8.r.#.t.O.' 7.[ _ ` ` ] _ } 7._ O._.#.#.N.N._._.N.N.N._.Y.Y.Y.Y.Y.Y.Y.Y.t.f.r.+.U j ` 5.' ,.,.,.:.:.,.9.7.[ _.N.r.d.Y.Y.}.f.7.,.3.3.3.7.7.7.8._.Y.t.t.N.Y.N._.8.} z.7.] :.:.' ] } 9.] } N.#.O.+.#.t.N.r.+.#.#.#.#.#.+.+.+.+.+.",
"O.8.O.O.O.7.[ ( ( _ } O.} 7.8.9./ [ [ T / ] / / ` ,.` / O.} _ ` / ] _ R k v c n U U U U T ] 3.} _ } O.+.r.} / [ } / E T T ` / ` T P _ +.O.} } 7.O.O.O.+.+.#.+.8.r.+.O.+.8.+.8.O.[ _ } 7._ ' } ( T ` / / / / } _ _ O.O.O.+.O.O.8.O._ / / ' ' ] ] ` ` O.O.} O.+.O.+.8._ / ] [ ` / [ ] ` ` ] ] ` 7.+.O.O.8.r.t.#.N.t.+.t._.O.+.#.#.#.O.+.8.m.8.+.r.d.[ } 7.' ] ,.] ,.[ 7.u._ +.r.O.t.r.r.r.f.7.' ' ] ' ' ` ` ` ` ] 8.+.+.+.#.O.O.] ` 7.` / / / ` T / _ / _ O.O.#.O.} } #.+.O.+.O.[ [ } O.[ } O.O.[ [ } } ( O.` / [ R / ] / ' ] ' ,.` O.8.+.#.+.+.r.f.7.7.3.7.3.3.3.7.,.] 7.Y.N.t.N.t.N.oX+.[ z.,.' :.:.:.' ,.8._ O.Y.r.N.Y.N.N.t.Y.r.t._._._._._._._.|._._.f.r.t._.|.u.[ u.7.) ,.,.:.,.,.9.5.5.Y.f.Y.r.d.Y.f.7.7.7.7.7.7.7.9.7.7.9.u.}._.f.r.r.r.f.[ 7.u.] ' ;.` ` ' 7.[ / r.m.r.8.+.t.8.+.8.r.+.r.+.8.r.r.+.8.#.N.r.f.Y.N.+.8.[ [ 8._ ' ' ` ] ` _ 8._ 8.r.8.Y.+.8.r.8.[ ' ] [ [ :.,.3.,.[ O.8.8.8.+.+.+.t.} ` ,.] ` ] ] ,.`  .8.( +.r.+.r.Y.t.t.#.O.#.#.O.#.+.#.#.+.r.+.+.+.O.} +.+.8.} [ 8.[ ' ,.:.,.[ 3.7.} +.#.+.O.+.r.8.[ ] [ ] ' ' ' [ [ ' ] } +.+.O.+.#.r.} ' } [ ' / ' ] ` [ 7.' O.Y.t.t.r.N.N.Y.N.t.N.N.N.Y.t.t.N.Y.t.N.Y.r.+.+.T J ] [ ,.,.,.,.:.,.:.7.7._ |.N.r.Y.Y.|.Y.7.,.,.,.3.,.7.7.7.3.7.t._.t.r.N.%.R.d.[ u.7.' :.,.' ' [ 9.' [ Y.+.+.r.+.#.t.#.+.#.#.#.#.#.+.O.+.+.+.",
"_ O.O.+.} } [ } } O.[ O.O.8.r.d.( } [ / ` ' ` ` ) 7.] ` 7.+._ [ +.+._ P U Y I J n I T ;.T ` ' [ O.+.+.O.O.[ ( O.O.` T T T ` E / / T } 8.O.O.O.O.+.r.+.+.+.#.+.+.+.+.+.+.+.+.+.O.O.O.8.8._ ( [ ` / ` ` ` / ` O._ _ r.r.+.O.+.+.O.[ ` ' ' ' ] [ [ ] ` _ O.+.O.O.O.8.+.[ ( } 7.] ` ] :.] / ] ] _ 7.O.O.+.+.r.r.r.N.N.#.#.#.o.r.N.r.+.+.#.+.r.r.#.r.8.[ O.7.] :.,.,.[ [ 7.u._ +.t.#.r.r.N.d.7.] :.' _ ] ,.] ] ] ] ] O.r.N.#.#.#.+._ ( 7.` / / / ` T / / R O.O.O.+.O.+.O.+.O.+.+.+.[ O.} } O.#.8.O._ [ O.+.[ O.` / ` R ` ' ' ' ` [ 7.` +.N.+.+.+.t.8.7.7.9.7.7.5.j.7.3.3.,.[ 8.Y._.#.N._.'.+.[ 9.,.:.:.:.:.:.7.7._ 7._.N.t.N._._.Y.r.+.t._._._._._.Y.Y._.Y.N.t.f.Y._.oXu.[ 8.7.] :.,.,.[ 5.z.7.7.}.Y.N.Y._.Q.7.,.7.j.7.7.7.7.7.j.j.7.7.c.}._.r.t.N.f.[ O.u.] ' ' ;.` ` 7.[ / r.N.N.t.r.N.N.r.+.+.r.+.8.8.+.#.+.8.r.t.r.t.r.r.#.d.[ } 8._ ` ' ' _ ( [ 7._ 8.t.r.r.r.Y.8.[ ' ] ] [ ,.,.[ 7.7.7.] O.t.Y.8.#.#.N.O.' ,.[ ` ] [ [ ] O.8.( 7.r.#.#.8.8.+.+.+.#.#.r.#.#.#.+.+.r.+.+.+.O.O.r.#.8.} } 7.] ' ,.:.:.[ 7.7.[ r.#.o.#.t.8.[ ] ] ] [ ] ' ] [ [ [ ' _ 7.#.+.+.+.#.[ ( } _ ` / ` ' _ } 7.` O._.t.N.t.r.#.t.t.Y.Y.Y.N.N.t.t.N.t.r.Z.r.#.r.] U ,.,.' 7.,.,.7.,.,.,.9.7.[ _.Y.Y.|.#XQ.7.3.7.3.,.3.7.7.3.7.7.[ O.f.Y.N.#.%._.d.} z.3.[ :.,.] ) [ 9._ [ #.#.#.#.#.#.#.#.+.#.+.#.#.%.+.+.+.+.+.",
"_ _ _ O.} } } +.O.O.} O.O.} 8.7.T 3.} ` / ' ' ` ` 7.[ ( 8.+.+.r.O.` U T / ` / E U H m m m I T / ' [ O.O.O.O.( } 8.( P / / E T :./ ~ O.O.O.8.O.O.O.8.8.r.+.O.7.+.O.+.#.O.+.+.} +.r.8.Y.r.( / _ _ / T ` / ~ _ } ( ( r.#.+.+.r.+._ ` ] [ ' ' ' [ [ [ ' / _ 8.+.O.O.+.8.O./ } 7.` ` ' :.' ` [ ' ` 7.O.8.r.+.8.8.t.#.t.t.#.+.+.t.Y.#.O.+.#.+.8.t.8.r.8.[ [ 7.[ ;.,.:.,.[ u.9.) #.N.#.#.r.Y.7.] ' ] ' ` ] ] [ [ ' :.] ' O.r.r.r.+.+._ ( 3.` T ' / / / ` ` / [ O.{ O.O.#.O.O.O.#.+.O.} +.} ( O.+.+.O._ O.O.+.[ [ _ / _ R / ` ' ' / 3.7./ +.N.+.+.8.r.7.} 7.7.7.,.,.,.3.7.,.3.[ [ 8._.#.N._._.O.} 7.,.:.:.:.:.' 7.7.) 7._.t.N.Y.N._._.N.r.Y._._._._.Y.Y._.N._.Y.Y.|.Y._.OX7._ 9.7.] :.,.,.] 7.z.,.7.}.Y._.|.d.9.[ 5.7.7.7.7.7.7.j.j.j.j.7.7.u.}.Y._.r.8.} O.7.' ' ;.` ` / [ _ / r.t.r.N.r.r.Y.8.O.+.O.8.+.8.O.+.+.8.8.+.r.r.+.+.r.f.[ _ 8._ ` ] ' ` ` _ 7.( O.Y.#.r.m.d.[ ' ] ] ' ' ] ] ,.7.7.7.[ _ O.d.f.t.#.r.7.` ,.[ ` ] ,.] ] O.7.( 7.8.+.O.+.r.+.t.r.+.#._.+.#.t.O.} +.r.+.O.+.r.+.#.+._ [ } [ ' :.,.] ] 7.O.[ r.#.+.t.t.} ' [ ] ' [ [ ` / ] [ ' ' ' [ 8.#.+.O.#.( / } ' / / / ' _ } 7.( 7.|.#.N.N.r.r.r.Y._.Y.Y.r.r.N.N.r.r.r.8.+.t.' 9 v x.' ,.9.,.,.,.5.:.,.u.[ _ Y.f.|.|.}.7.} 3.7.7.,.,.,.7.7.7.7.7.[ O.f.Y.#.N._.8.} z.3.[ ,.:.,.` } 9.' _ #.+.#.+.#.#.+.t.#.+.+.%.#.#.#.O.O.8.+.",
"[ _ _ O.O.O.O.+.O.O.O.7.O.O.8.[ T 7.7.` ` ] ] ` _ 7.[ _ 7.+.+.7.` U ^ ` T E T E ` ` M 4 = 3 H ` P T ` } +.O.( +.8.( R ' ' / / 7.[ ~ O.#.O.+.8.8.O.} O.7.8.8.7.7.8.r.#.+.+.+.+.+.+.+.#.r.( ( O.} / / ` / / _ O._ ( +.#.N._.8._ _ [ ] _ _ _ [ [ [ [ ' ' _ } +.8.+.#.N.7._ } O.) ` ] ] ' ` 7.[ ` 8.r.t.t.r.r.8.r.#.#.#.r.#.7.O.8.+.#.#.r.+.8.8.#.t.g.[ O.f.[ :.,.:.,.[ f.8.( #._.%._.f.7.] ,.] ] ` ] ] ' ] ] ] :.:.] ' O.f.N.+.8.[ ( 3._ / ' ` / R [ [ / [ +.O.O.+.t.+.} O.#.+.O.} +.} O.O.+.O.{ O.+.O.O._ +.[ / O.] E ' ' ' ` 7.7.( O.r.#.N.d.O.] 7.7.3.3.7.,.,.,.7.7.,.,.[ } r._.N._.'.O.[ u.5.] >.>.:.] 9.7._ 8._.N._._.Y.N._._._._._._._.N.N.N.N._._._.'.oX_._.OX7._ 8.7.] :.,.,.[ u.c.7.7.|.|.|.Q.7.3.7.7.7.7.7.j.7.7.9.j.j.j.7.7.7.d._._._.f.[ O.7.] ;.1.` E ` } ( / d.t.#.#.#.N.r.+.O.+.O.8.8.8.O.+.N.Y.r.#.#.r.r.r.r.Y.} _ 8._ ` ] ' ` / O.8.( +.N.N._.d.[ ' ] ] [ [ ] ] ,.,.7.3.7.[ ] ' 3.u.Y.#.t.7.] 3.[ ] ,.,.,.' O.8.` 8.8.O.O.+.r.r.t.r.N._.t.#.#.+.O.} +.+.+.#.N.N.#.+.+.[ [ 7.,.' :.,.] [ 8.7. .#.$.N.t.7.] :.[ _ ' ,.,.` / ] ] ' [ ] ' O.r.+.O.#.( / } _ ' / / ' ` O.7.' 9.oXN._.Y.Y.t.Y.Y._._.N.r.r.N.N.r.r.r.r.+.E w O U %X` 7.z.5.,.7.,.,.7.c.3.} Q.Y.|.}.7.7.7.7.3.7.3.,.,.7.7.7.3.7.7.O.O.f.N.N._.8.[ Q.7.[ ,.,.] _ 7.8.( } #.+.#.t.#.#.+.#.#.#.+.#.#.#.#.+.+.8.+.",
"} } O.+.O.+.O.O.O.+.O.O.7.8.8.[ T 7.8.) / :.' / O.u.] ` O.+.} ` T ` / ` / E T T T ^ ` =.p 3 i U / / P _ +.[ ( +.r.( T ' :./ _ 8.[ / O.#.O.O.8.r.8.O._ O.+.7.] [ d.8.+.r.O.O.+.} O.+.+.r.( ( +.O./ / ' T P [ 8.( ( +.#.N.r.[ ` [ [ ' ' ' [ } [ ' ] ' ] ] _ } O.#.N.N.8.' [ 7.) / ] :.` ] 8.[ / 8.r.+.r.Y.r.#.#.8.#.#.N.r.+.O.O.8.t.+.#.#.r.+.+.N.8.[ +.f.7.] ,.,.,.O.f.r.( 8.N.N._.7.] :.3.] ] ' ' ' :.' ' ] ' ` :.' [ } 8.r.8.' / 7.7./ / ' / T 7.[ P } [ } +.O.+.O._ [ +.+.O.[ O.O.O.[ _ _ O.O.} O.} _ O._ ~ O.5.P E ' / ` 7.8./ } +.#.8.O.] ] ,.[ ,.,.3.,.7.,.3.7.,.,.,._ O.f.t.N.'.O.[ z.7.' >.,.` [ d.7._ 8._._._.Y.N.N._._._._.Y._._.N.N.N._._.N.'._._.oX_.'.7.` 8.f.[ ' ,.] [ f.c.,.7.}.Q.d.7.7.7.7.7.7.7.7.7.7.9.7.j.j.j.7.7.7.9.u._.].Y.[ O.u.[ ` ;.;.T [ 8.( / r.#.#.#.#.#.r.r.O.O.r.8.8.+.r.r.r.N.m.r.+.8.t.#.+.d.} _ r.} / / ' ` ( 8.8.( +.m.Y.d.} ] ] [ [ [ 3.3.[ 7.[ [ 7.3.[ ] ' ' ] 7.r.t.O.[ 7.[ ] ,.,.:.` 7.8.` 7.d.+.+.8.8.+.+.#.#.r.r.#.O.+.+.} O.+.#.#.r.#.+.#.r.[ [ u.5.' :.:.' O.d.7.[ r.t.8.7.] ,.:.' ] [ ] ' ' ` / ' ' ' ] ] [ O.O.O.8._ / O.} / / ' ' ` 7.7.` 9.|.N.N.Y.Y.r.t.N.Y._.t.r.r.r.t.N.r.8.t.] w e ;.x.x.' 7.%X7.] 7.,.,.c.XX3.} |.Y.z.7.7.7.9.9.7.7.3.3.7.7.3.7.7.7.7.7.[ O.Y.N._.8.} }.u.] ,.,.' [ Y.8.( O.#.#.+.#.#.#.#.#.#.#.+.#.#.#.#.#.O.+.8.",
"} O.O.O.+.+.O.+.O.+.O.7.7.8.8.3.~ 7.r.O.` ] ' ) +.d.] / 7.8.[ / E ' / E ` ` T E T / / ` ;.Y u q J / / _ +.} / +.r.[ / ' :.) O.Q.[ / O.O.O.+.+.8.r.8.7.+.+.7./ / u.Z.#.+.O.+.+.+.O.O.#.t._ ( O.8.] E E P ( 8.d.( ( r.r.O._ _ [ [ [ [ ] ' ] ,.[ [ ] ] ] ] ] ) [ O.t._.8.( O.u.,.` ] ] ` 7.8._ ` 8.m.N.Y.r.r.r.r.r.r.r.t.t.t.+.+.8.t.r.#.t.Y.+.+.r.f.[ +._.Y.5.,.,.[ 8._.p.( r._.t.7.,.,.,.[ [ ,.:.] ] ,.' ' ' ] :.:.,.,.] 7.8.u.] / 7.9.' / ` E ' 8._ / [ _ _ +.} [ _ } O.+.O.O.[ [ +.| _ [ _ O.O.O.+.+.[ O._ R O.7.` E E ` [ u.8.` O.8.O.[ ] [ [ [ [ 7.,.,.7.3.3.7.7.7.[ [ [ [ O.u._._.O.[ Q.c.] :.>.:.7.}.8._ d.'.N._.f.r.N._.N.Y._._._.t.t.N._._._.N._._._._._.OX8._ u._.7.] >.:.7.oXc.,.7.|.u.7.7.j.9.7.7.9.9.7.9.7.9.9.9.7.j.7.7.9.7.3.r._.Y.} O.Q.7./ ;.` ` 7.d.( / 8.#.#.#.r.t.r.N.#.#.N.r.} +.N.N.+.#.r.N.8.+.+.#.r.f.} _ Z.u.` ` ` ` _ r.r.( +.Y.8.[ ] ,.,.3.,.7.,.3.7.7.[ [ ,.,.] [ ,.,.` [ 8.v.7.[ 7.8.] ,.,.' [ d.r._ 8.d.8.r.+.8.8.r.+.+.#.N.+.O.+.+.} +.+.t.+.O.O.+.#.d.} [ f.9.] :.:.' 8.Q.O.[ Y.t.[ [ ,.,.] ] ] [ ' ' ' ] ` ` ] ' ] ,.[ ] [ O.Y.} ( 8.8.' / ' ` ' d.8.' u.}.r._._.Y.t.t.t.t.t.t.N.t.r.t.Y.t.t.r.' T 7.f.c.z.] 7.%Xz.5.,.,.9.XX|.O.O.#Xf.7.,.7.7.7.9.9.7.3.7.7.7.7.7.7.7.3.7.7.[ O._._.8.} |.Y.7.,.,.:.7.|.8.( O._.%.#.#.t.#.+.#.#.%.#.#.#.#.#.+.+.+.8.",
"{ +.O.O.O.O.8.+.O.O.O.+.O.O.8.3.T 7.+.8.' ` / O.8.u.] / 7.7._ ' / / / ^ ` T T T / ' ` ` E ` U b 2 a U ( O.[ P [ 8.O./ ` `  .8.f.' / +.#.O.+.+.+.8.8.8.O.O.8.[ ' 7.r.#.O.} O.+.+.} O.#.8._ / } 8.} E L T O.m.+.( _ 8.[ _ ` [ O.[ [ [ ' ] ] ' [ [ [ ' ` ' ` ] [ _ +.f.7.` } Q.8.` ` ` _ r.8.' ` 8.r.r.8.+.8.r.r.8.t.r.8.t.r.#.t.8.r.r.#.t.Y.+.O.+.f.[ | oX_.u.,.:.7._._.8.( t.t.+.[ 7.7.} ,.:.,.,.' [ ,.] ' ' ,.:.] ] ,.,.] } 8.] / 7.9.7.' U T 7.8.( P } O.( ( [ [ _ O.O.O.+.+._ _ O._ ( O.} _ } O.+.O._ O.' T [ 7.[ / U ` 7.d.O./ O.f.[ ` ] 7.[ [ [ ,.7.,.[ ,.7.7.7.7.} [ [ [ [ 7.r._. ._ f.XX7.] ;.9.}._.8.[ d._.N.r.r.N.N.Y._._._._._.t.#._._.N.N.N.%._._._._.OXu.] 8._.f.3.` ,.Y._.d.] 7.XXu.7.9.7.7.7.7.7.7.j.7.7.7.7.9.7.7.7.7.3.7.7.O.Y.Q.[ 7.Y.f.[ ` E [ Z.r._ ~ d.#.+.t.+.r.r.8.#.#.#.O.[ 8.8.+.N.#.+.8.#.O.O.#.+.Y.} ( r.m.7.` ~ ` +.r.8.( 8.d.[ ] ,.7.} 7.[ 3.[ 7.,.3.,.[ ] ] ' ] ,.,.] ] 7.t.7.' 8.}.O.] ] ' 9.Y.8.` z.r.+.8.r.r.8.+.#.r.#.#.O.+.O.} } 8.+.O.O.O.O.r.#.r.} [ d.c.,.;.' 7.f.Y.} [ Y.7.] 3.,.,.] [ [ ' ` [ [ ' ] ] ' ,.,.,.[ ] ` [ Y.} / 8.m.O.` ^ ' 7.Q.7.' 8._.#.N.t.r.N.t.r.r.t.t.8.r.N.r.8.N.'.7.P 7.f.O.f.c.] ,.%XXXz.:.,./.XXZ.3.} #Xd.3.7.3.7.7.7.7.7.,.7.7.7.7.9.7.7.3.7.7.3.[ 8._.8.} Q.|.f.[ :.:.t.Y.8.( +.%.#.N.N.+.#.#.#.r.#.+.o.+.#.#.O.+.#.+.",
"O.+.O.+.} } +.8.+.8.+.r.+.O.+.7.T O.#.r.} ` ` #.#.8.` / 7.7.` ' ` ' ' ' / E E / ' ' ' ` E T E E b 7 q U #.} P _ 8.8._ ` ' 8.Y.d.` ( +.+.O.+.#.t.8.8.+.+.+.8.8.7.O.8.#.O.[ +.7.O.O.+.+.r._ / } #.+.' T ] r.%.+.( _ 8._ ' [ [ [ O.,.] ' [ [ ] [ [ ,.' ' ' ' ] [ ] [ +.7._ 7.Y.Y.} / ] 8.r.7._ ) d.+.} O.7.8.8.r.r.r.r.r.#.#.#.r.r.r.#.r.N.r.+.+.+.f. .[ _.'._.7.O.f._.'.+._ Y.t.} 7.7.7.3.7.[ [ ] [ [ 7.} [ ] ] ,.3.,.[ ] ] [ 8.[ / 7.8.8.7./ [ 8.+.( P 7.+._ [ [ } O.7.O.7.O.O.[ O.O.[ _ O.[ O._ [ O._ [ +._ / [ +.+.[ / } t.N.+.( +.Y.O.' [ [ } 7.7.7.7.,.[ ,.7.7.7.7.7.7.,.5.5.[ +.v.O._ d.OXY.7.3.Y._._.8.[ 8.Y.t.t.r.Y.Y.t._._._.Y.Y.r.r.N._._.N.%.%._._._._.].u.) 8._._.r.] 7.'.'.f.] 7.XXu.7.j.7.7.7.7.,.7.7.7.7.7.7.7.7.7.7.7.7.3.[ [ f.}.[ 7._._.8.' / 8.N.#._ / 8.#.r.N.r.+.+.+.#.#.+.O.O.8.r.+.r.Y.r.t.+.O.O.+.+.Y.7._ r.N.Y.7.( } t.#.+.( r.f.[ ,.7.7.3.7.7.,.[ O.,.,.,.[ ] ] ] ,.] ,.[ [ +.t.7._ 8.'.r.] ' 7.f._.+.' d.r.#.r.r.r.#.8.r.r.+.+.O.+.O.7.[ } O.O.+.8.8.+.#.Y.O.[ f._.7.] ,.f._.f.[ [ f.7.[ 3.,.:.,.,.] ' ' ] ] ] ] [ [ ,.3.,.,.] ' [ d.O.( O.N.m.} / [ r.Y.7.' 8.t.#.N.t.t.t.N.t.r.r.8.+.#.r.#.N.Q.' K / 8.+.r.f.c.] 3.XXoXXX7.9.XX_.d.} 7.#Xf.7.7.7.,.7.7.3.3.7.3.7.9.7.7.3.7.7.7.7.7.} +._.8.} |.|._.7.[ 7._.N.8.( +.#.o.#.#.#.t.#.#.+.O.O.#.O.+.O.O.O.#.+.",
"O.O.O.+.} } O.#.#.+.8.+.O.O.O.7.P [ #.+.+.} } +.+.8./ / 8.7.` E ` ' ` :.` ` E ' ' / ` E T E T U T U 6 9 _ } Z ` O.8.7.O.O.8.r.7./ _ +.O.+.r.r.r.8.O.O.7.O.O.8.7.O.+.+.} [ _ [ O.8.O.+.r.( / } +.+.O.[ O.+.+.O./ _ r.} ' ,.] [ } [ [ ,.' [ [ [ ,.] ' ' ] ,.] ] ,._ 8.8.` 7.d.N.f._ } Y.+.} ] _ 8.+.O.O.8.8.O.8.m.r.#.r.#.r.#.8.t.r.+.#.r.+.#.r.+.r. .[ _._.]._.Y.oXN._.7.( _.Y.O.7.,.3.7.,.[ ] ] 7.[ } } ,.] [ ,.[ ] ' ' ] _ u.[ R 7.+.8.d.7.r.O.O.` ~ 7.+.+.O._ [ 7.O.O.8.O.[ _ O.7.( ( [ _ O.( ( ( O.[ } ( P } O.O.O.O.+.+.#.O.( O.f.O.[ ] [ [ 3.7.3.3.7.,.,.,.7.7.3.3.7.7.7.,.[  .v.O.) d._._.t.d.Y.N._.8.( 8.N.#.Y.Y.r.t.t.N._._.N.8.8.r.#.N._.N.%.N.t._._._.oX8.` +._.R.N.d.N._._.u.] 9.XXu.7.7.7.7.,.5.,.,.7.7.,.,.3.,.,.7.,.,.,.,.] [ f.f._ O._.%.N.7.O.N.#.r.( ~ 8.+.8.8.+.O.+.#.+.+.+.r.+.O.+.O.[ 8.t.r.+.8.O.O.r.r.7.( r.#.r.r.+.#.#.#.+.( r.|.7.,.7.3.[ 7.7.3.[ [ 7.} [ 7.[ ' ' ] ,.[ ] ) O.f.O.' 7.N.N.O.O.}.r.r.O./ 8.Y.+.+.8.r.#.r.+.+.+.r.+.O.8.7.[ [ O.r.8.r.8.+.#.f.} _ r._.r.+.8.t.t.d.[ [ d.8.,.:.,.] ,.,.] ] :.' ' [ [ ' [ ,.,.,.] [ ] ] r.O./ O.#.#.+.} 8.#.r.8.' u.t.#.#.N.N.8.r.t.t.8.+.+.+.O.r.d.U e / Y.+.O.r.r.z.:.3.oX_.|.Q.Q.|.N.Y.} 8.#Xu.7.7.7.5.,.3.7.3.7.7.7.7.7.3.3.7.7.7.,.,.3.O.}.u.[ Y._.R.Y.f.Y.N.N.7./ O.#.o.O.+.#.t.#.+.O.+.+.+.+.+.O.O.O.+.+.",
"O.+.O.+.O.O.O.+.#.+.} } } +.8.7.T [ +.#.#.8.+.#.O.r.` E 8.7.` ` E ` ' ] ] ' / ' ' ] ` T E ` T T T U I j g J z ` 7.+.+.r.+.8.+.7.' _ +.#.+.r.8.8.+.O.+.7.7.+.+.+.O.+.+.8.} [ [ O.+.+.r.r.' ~ } +.+.+.O.} O.+.O./ } m.O.] ] ] [ [ [ [ ] ] [ 3.[ [ ] [ [ [ } [ [ ,.[ g.f._ } N.#.t.8.8.8.O.} [ _ d.8.8.8.8.8.O.+.r.#.r.r.+.r.r.#.t.r.#.#.+.r.r.t.+.t.O.[ _.'._.OX_._._._.O.( Y.Y.8.7.5.5.,.,.,.,.,.7.7.7.[ [ [ ,.] ] ] ,.] ] O.c.7./ 7.8.+.r.r.8.} O.' / 7.+.+.7.O.O.O.+.+.7.7.7.` [ } ( [ O.O.O.[ _ _ +.O.[ / R } +.O.+.+.O.O.N.+.( +.t.O.] ] ,.[ ,.5.3.7.7.7.7.7.7.7.3.3.,.[ [ ,.[ O.}.7.) 8._._._.Y._.N._.+.( 7.N.t._._._.t.t.N.t.t.t.#.8.r.r.t.t._._.N.N._._._._.+.` 8.]._._._._._.].r.] 9.oXr.7.7.7.7.7.7.5.5.,.7.7.,.,.,.5.,.,.,.:.,.] [ Y._._ [ N.%.N.N.%.%.%.#.( / 8.+.O.O.O.O.+.#.+.#.+.r.+.+.O.O.O.O.O.#.r.+.+.r.+.Y.} ( r.#.+.N.#.#.+.t.+.( f.|.8.3.7.7.7.7.7.7.[ ,.,.3.[ 3.,.] ] ] ,.,.] ) O.f.7.` O._.#.r.8.f.#.t.O.` u.f.+.#.+.8.r.r.+.+.+.r.8.+.r.r.O.7.8.r.8.8.d.r.t.r.} [ d._._._.N.r.#.t.[ [ f.d.3.,.:.,.,.[ [ ] ] ] [ } [ ] ] [ ,.,.[ [ ] [ d.O./ +.r.#.#.#.r.#.N.7._ u._.t.r.t._.r.r.t.t.8.+.#.O.+.3.0 2 :.Q.O.8.8.#.t.c.,.7.oX_.R.OX|._.Y.}.} 8.#Xd.[ ,.7.7.5.7.3.7.7.7.7.7.3.7.5.7.7.7.7.3.[ +.|.d.[ d.N._.R._.N.N.#.8.( O.#.#.+.#.O.#.+.+.+.#.+.+.#.o.O.O.O.+.O.",
"O.+.O.O.+.r.+.O.+.O.[ O.} O.8.7.T [ O.#.+.#.+.+.O.d.' T 8.O.' ` T E ' ` ' E E ` ' ' / ` ` E E ` T I U / J 0 6 c ' 8.O.O.8.#.O.7.' ' +.+.} [ +.+.O.8.8.O.7.O.O.+.+.} +.+.+.+.} } +.r.r.8.' P _ +.O.+.} _ O.%.O./ } 8.O.' ' [ [ ' ,.,.] :.,.,.[ [ [ ' [ 3.} 7.,.[ O.r.f.[ [ t.+.+.r.8.+.O.8.' ` d.+.+.N.8.7.O.O.+.t.8.8.+.O.r.t.#.r.8.+.+.N.#.#.t.Y.O.[ oX_.R.'._._.#._.O.( r.8.+.,.,.5.,.,.,.,.,.[ ,.,.[ [ [ ,.[ [ ] ,.] ` 7.u.3./ 8.r.O.r.8.O.} 8.' P } +.O.+.+.+.} +.+.O.+.[ / ( [ _ ( _ +.+.( _ O.O.( ) / / [ O.O.+.O.+.+.r.+./ O.f.O.] :.,.[ [ [ 7.3.3.7.7.7.7.[ ,.[ ] ] ] ] [ 7.}.7.' 8.'.N._._.N.N._.O.( 7.Y.t.f._._.t.t.t.t.r.8.8.#.N.N.#.#.N._._.N.N.t._._.O.' 8.N.%._._._._.].f.' 7.|.8.,.,.7.7.7.,.,.5.[ 3.7.[ ] ,.,.,.,.,.:.:.] [ _.f.) _ r.t.#.N.#.#.%.#.( / 8.+.O.} O.+.O.+.#.+.+.#.8.O.O.r.8.O.O.+.O.#.8.+.r.8._ ' r.r.#.t.#.#.#.t.8._ d.}.7.,.3.9.7.j.3.,.[ 7.,.,.[ [ ,.] ' ,.] ] ] ] O.8.7./ } N.#.#.#.#.#.t.O.` 8.8.+.+.+.8.O.+.O.+.O.+.8.+.r.8.+.r.8.+.8.8.r.f.r.8._ [ d.N.N._.N.#.#._.[ ,.c.8.3.7.,.:.] [ ' ,.,.] [ [ [ ] ] [ [ ,.[ ] ] } m.O./ O.r.#.#.#.+.+.r.} ` 7.f.#.@.#.8.t.t.#.+.+.r.} ( ` n 8 ` |.+.O.8.r.8.r.z.:.3.|.N.N._.|._._.XX3.7.#X8.[ ,.3.7.7.7.7.9.7.7.7.7.3.7.,.,.,.7.7.,.,.+.|.8._ 8.N.'.N._._.N.#.8./ 8.#.+.r.r.O.[ O.r.+.#.+.o.+.+.+.+.} O.O.",
"+.+.O.O.+.#.+.#.+.O.+.8.O.O.O.7.~ [ +.#.+.+.+.#.#.Y.] / z.7.' ' E ` ` ' ' / T ` ;.' ' ] ' :.` T U T U P 7.E 6 1 y T O.8.O.O.+.8.' ( O.O._ [ O.+.8.r.8.8.+.+.O.+.+.7.O.} O.O.O.+.+.+.#.N.' ~ } +.+.} } } +.%.+.( } N.O.' ' [ [ :.,.,.,.,.:.:.[ 3.,.' :.[ O.7.,.,.O.Y.f.[ O.f.#.+.f.r.+.+.d._ ` 7.+.#.t.t.r.O.O.8.t.t.r.O.O.r.t.t.t.r.+.r.t.t.t.N._.O. .oX_._._.N._.N.f.O._ u.+.O.7.7.7.,.7.,.7.[ ,.] ] [ 7.[ [ [ O.O.[ ] _ O.8._ / 8.r.#.8.8.O.O.+._ T [ +.+.#.#.+.+.8.+.8.r.O.( ) [ | ( [ _ _ ( O.8.} / _ ` ` O.+.+.+.+.t.m.Y.8./ | f.O.] ,.,.[ [ ,.7.7.7.3.,.,.] ] ] ] _ ] ] [ ,.7.oX7._ d.oX_._._._.N._.7.( 8._.N._._.N._.Y.r.t.t.r.r.t.N.N.N.%.#.t._._.R.N.#.N.O._ 8.N.N.N._._._.'.f.] 7.|.9.[ ,.5.7.7.7.7.3.,.5.,.] ,.7.,.,.,.,.,.:.] [ _.Y.) [ t.#.#.r.r.#.#.#._ / 8.#.+.+.r.t.O.+.+.#.+.8.#.+.O.8.r.8.O.O.+.f.#.r.r.8._ [ f.#.r.#.t.N.t.N.8.[ f.}.7.,.,.7.7.7.7.3.,.7.,.,.,.[ ] ] ] [ [ ,.] [ +.f.8.) 7.t.#.#.#.#.+.t.7.` 9.8.+.8.+.O._ [ } 8.+.8.7.r.8.7.8.r.8.8.+.8.+.8.8.8.} } f._.#.#.r.#.&._.} O.Q.8.[ 3.,.] ,.,.] [ [ 3.[ [ [ [ [ [ [ ,.,.[ ] } Y.8._ 7.t.#.#.#.r.+.r.} ` 7.+.+.#.O.+.t.t.r.r.#.+.~ Z / [ 8.Q.+.+.r.8.+.8.f.d.,.3.|.N._._.R._.OXXX7.+.OXd.[ ,.,.7.7.9.9.7.7.7.7.7.7.7.7.7.5.7.,.7.[ +.'.8._ d.Y._.Y._.N.%._.u.` u.r.+.#.r.8.O.+.r.#.+.+.#.O.O.#.#.} O.O.",
"#.+.} O.+.O.+.#.+.r.O.O.8.+.O.8.^ ] r.+.#.+.O.+.#.d.' ` z.+.` ' ` E ` ' ' ' ` E ` ' ' ' :.` T T P T U R O.7.G n y 0 J ,.O.O.O.8.' / } +.O.8.O.7.r.8.8.r.8.+.+.O.O.+.O._ ( } _ } O.+.%.+.` P } r.O.} } O.X.+.+./ { N.} ' ' ' :.,.:.:.,.:.` T ' ,.:.,.] ] ,.[ ,.] [ v.f._ 7.8.8.8.r.r.+.+.8._ / 7.+.+.8.N.t.r.t.8.r.t.8.O.+.r.8.f.r.+.r.r.r.t._.t.r.O. .oX_.N.N.r.N.Y.f.O./ f.8.7.9.7.9.7.7.7.,.7.7.[ ] ,.} [ } [ [ } [ _ _ [ 8.' / 8.+.#.+.O.#.} +._ T ` O.#.+.+.8.+.+.O.O.+.O._  ._ [ ( ( ( _ _ } +.} ( } ( / O.#.O.+.+.#.N.Y.7.R [ r.} ] :.[ [ } 7.,.7.[ ,.,.] ,.] ' ' [ [ [ [ _ 8.oX7._ f._._._.Y.N.N._.+.( 8.N.N.N.t.N._.N.N.N.N.Y.Y.N.N.t.N.N.N.N.N.m.Y.N.#.N.7.` 8._.N.N._.N._.OXc.' 7.}.9.,.,.,.,.,.7.,.,.3.,.,.] ,.,.,.,.] ,.,.' ] [ N.f.( O.Y.#.t.r.#.#.+.t.' / u.+.+.N.+.N.#.O.O.#.#.#.+.+.[ } 8.O.} #.+.r.r.+.O.8.] [ t.t.+.N.#.r.N.N.8._ d.Y. .,.,.,.5.7.[ 7.3.,.7.,.[ ,.[ [ ] ] } 3.[ ] 7.d.7.[ 8.t.#.#.+.#.O.8.7./ 8.8.O.+.8.} _ [ O.8.8.} } 8.+.8.8.8.8.r.8.7.8.+.O.7.3.[ f._.#.#.#.#._._.[ [ Y.8.[ 3.,.,.,.] ] ] ,.,.[ [ _ [ [ [ [ ,.,.[ ] } Q.7._ 8.r.#.#.+.+.#.Y.} ` 7.+.t.t.+.+.+.8.r.r.} ~ ~ _ r._.#.+.r.m.r.8.7.8.f.d.,.3.}._.Y.R.Y.Y.OX^.} +.OXf.[ 3.[ 3.3.7.7.7.7.[ 7.7.7.7.7.7.7.[ [ ,.[ +._.r._ f._.N._._.r.#._.8.` 7.8.+.#.r.r.f.8.+.+.o.+.+...+.#.O.{ O.{ ",
"r.+.O.O.O.+.+.8.#.r.+.+.+.+.8.8./ [ 8.+.+.+.O.+.+.f.' / u.7._ ' ` ` ` ' ] ] ` ` ` ] :.;.E E E / E T P / [ _ K ` ' I y U } +.O.7.] ( O.8.8.r.7.8.+.r.r.r.8.+.O.8.8.r.+.O.} [ { _ / / ( / P K ~ ~ D / O.+.+.%.+.( } r.} _ ] ] ,.,.,.:.:.` T T :.,.[ ,.,.] ' [ ,.]  .f.c._ 7.r.8.8.8.8.t.t.8.` / 7.8.+.#.#.#.N.N.N.t.r.r.8.#.f.f.+.+.#.N.r.r.t.v.t.8.O. .}.Y.r.N.N._.N.Y.O.` f.d.7.7.7.9.9.7.7.7.7.9.,.,.[ 7.7.} [ [ } ,.] _ [ 8._ ' r.#.#.O.O.8.} O._ ~ / O.+.+.+.r.#.+._ _ _ _ _ } _ _ ( _ } #.O.+.O.} } O.( ( O.+.+.+.+.r.r.r.O./ O.r.O.[ ] ,.,.} 3.7.,.,.,.,.,.,.:.] ] ] [ 7.,.[ 7.|.O._ Y.oX_.N.Y._._._.8._ 8._.t.t.N._._._._._.N.t.N.N.N.N.Y.N.N.t.#.+.8.+.#.Y.+._ 8.N.N.N.N.N._.oXc.] 7.|.8.7.7.5.7.,.3.7.7.3.7.,.,.,.,.,.,.,.] ] ] ' [ _.f.) O.Y.r.#.r.r.#.#.t._ ` 8.+.#.#.r.N.N.+.+.+.+.#.+.+.} O.[ } O.#.8.r.8.O.O.8.[ [ t.N.r.r.r.t.t.N.u._ 7.f.7.:.,.,.[ 7.7.7.7.7.7.7.} [ [ ,.] [ [ [ [ [ O.f.7._ t._.#.#.#.#.O.t.[ / 7.8.+.+.8.O.[ 7.8.u.O.[ 3.u.8.r.8.8.r.r.8.8.8.8.+.7.3.} 8.t.#.#.#.#._._.[  .f.+.} 3.,.,.,.:.] [ ,.[ [ [ [ ,.[ 3.3.[ [ ] ] O.Y.7._ d.Y.#.#.+.+.t.Y.3.` O.r.r.Y.t.#.+.#.N.+.( ~ +.#.+.#.+.8.+.+.8.u.u.8.f.c.,.3.|._.Y.Y.Y._.|.c.[ +.#Xf.3.3.3.,.[ 7.3.7.3.7.7.7.7.7.7.7.5.,.[ ,.3.8.|.d._ f._.N._.N.r.t.Y.u./ [ 8.#.r.r.#.N.#.r.O.#.+.O.+.#.+._ } O.{ ",
"O.O.O.O.} +.+.[ } 8.8.8.O.+.8.8./ ] O.+.O.+.O.#.O.7./ T 9.8.[ ' / ' ` ] ] :.:.' ' ' ' ` E E / ` E U P R _ } K K [ O.J G ] } O.7./ / O.+.+.+.+.r.r.8.t.r.O.O.8.O.8.7.+.#.} ( 7.:.e 2 0 P J k g 0 & 0 z U ` ` P Z ' 7./ U I n b M U ;.` ^ ^ ' 3.3.3.] ` / ` ` ] ] _ 8.c.( O.r.O.#.8.+.t.r.O.T ` 7.+.r.r.+.#.+.r.N.r.+.t.r.t.r.8.O.+.8.t.#.t.t.r.r.f.[ [ u.f.Y.r.t._.Y.r.O._ z.u.7.,.7.7.7.7.7.9.7.7.7.} } O.7.} _ } [ ] ] ' } d.} ( r.N.+.+.O.+.+.[ ` T _ +.} #.+.+.+.+.O.+.} O.( _ O.} { +.+.O.+.+.[ } O.O.( ` O.} +.+.O.r.8.[ O.` O.f.O.[ ] ,.7.[ 3.7.,.[ ] ,.,.:.:.' ` ) [ [ 5.[ O._.O._ 8._.N.N.N._._.r.O._ r._.t._._._._._._.r.+.t.Y.#.t.Y.Y.r.#.t.t.r.8.[ +.Y.O._ 8.#.r.N.t._.'._.8.] 7.|.p.7.7.7.7.7.7.3.7.7.7.,.7.,.,.,.,.] ] ] ' ` [ _.f._ [ r.#.#.r.+.r.+.O./ / r.#.+.#.#.r.r._.#.#.+.#.O.8.+.+.O.O.} O.t.8.O.+.O.u.[ [ 8.+.r.r.8.N.8.8.7.` 7.c.7.,.,.,.,.7.3.7.7.7.7.9.3.3.] ] ] [ ] [ ] [ [ 7.O.` 7.t.#.#.#.+.+.8.' T 7.+.+.O.O.O.O.8.8.O._ } 8.8.+.8.8.r.r.8.r.t.8.f.r.+.[ 3.O.t.#.#.#.N.t.8.[ } d.@.[ [ ,.[ ] [ ,.[ [ 3.[ [ 3.[ ,.7.,.[ ] [ ] O.Y.O._ 7.Y.N.#.+.#.r.d.[ / 7.r.+.r.r.+.O.+.r.O._ [ } #.8.r.r.8.O.O.+.u.f.r.f.c.,.3.Y.N._.Y.f._.f.7.[ 7.OXd.7.,.7.3.3.7.3.7.3.7.7.7.7.9.7.7.3.3.,.,.[ 7.|.u._ u.N._.r.t.#._.8.] / 7.r.t.+.r.#.r.t.#.O.O.O.O.O.+.{ } { { } ",
"O.+.O.O.+.+.O.[ _ O.+.8.8.8.8.8./ ] O.O.+.8.+.+.[ [ / T 9.8.[ ] ' ' ] ] ] ] :.;.:.:.` E E ` ` ` / E P R [ | P P ( [ [ / ` [ O.,.T / O.#.O.O.+.r.r.r.t.r.+.O.O.O.O.O.+.+.O.[ ] J 9 j ' 8.[ P / ` T I y 6 # @ 1 2 z P r 9 6 + o o 2 j J U T T ` ` / P ~ ' [ ' ] ` [ f.u./ [ 8.O.7.t.#.f.+.[ / ` 7.8.r.t.r.r.+.+.+.#.r.r.r.t.r.8.8.r.r.r.N._.t.#.r.f. .[ 7.8.d.Y.Y._.f.8.O.] c.d.7.7.5.,.7.7.7.7.7.7.7.3.} 7.} O.} } _ [ ] _ O.d.O._ +.O.+.t.O.#.O._ ' / 7.+.O.#.#.#.+.+.+.#.#.#._ [ _ O.+.#.+.+.O.O.} O.O.8.` ' _ [ O.8.8.8. ._ 7.) O._.8.[ [ ,.,.7.7.7.,.,.[ ,.,.:.' ` ' [ ] ] [ ] [ Y.O._ 7.9.8._._._.8.+.O.} d._._._._._._._.f.#.+.8.r.t.t.r.r.r.r.r.N._.f.O.O.8.7.] 7.#.#.t._._._.8.7.[ 7.oXf.7.7.7.3.7.7.7.7.7.7.7.7.7.7.,.,.[ [ ] ] ] O.N.f._ O.8.O.#.r.#.r.+._ T ` f.r.r.t.+.r.r.N.t.Y.#.#.+.r.r.r.8.8.O.+.r.r.r.r.+.u.[ [ O.O.8.f.r.f.7.7.7.` 9.}.7.7.,.,.7.7.,.7.7.7.7.7.,.[ ] ] ] ] ] ,.] ] [ 7.[ ] 7.+.O.#.8.#.#.9.` ^ 7.7.O.O.O.O.+.+.O.O.O.8.r.r.+.+.r.t.8.8.8.f.r.t.f.8._ 7.O.#.t.t.#.t.@.O.,.} f.8.[ [ [ ] ] ,.[ ] ,.,.[ 3.3.} 7.,.[ [ [ [ ] O.}.7.` O.r.N.r.r.N.8.O.[ ' O.r.#.r.8.+.+.8.+.8.7.` ( t.t.f.f.t.+.+.8.f.c.f.Y.c.,.7.f.+.Y.Y.Y._.7.7.7.+.OXd.O.3.3.7.7.7.7.7.7.7.7.9.7.7.7.7.7.7.7.3.[ +.}.u.[ u.7.r.N.Y.#.t.O.] ] 7.t.#.#.r.r.r.t.+.O.O.+.#.O.} } +.} { } ",
"O.+.O.+.+.O.} +.+.+.} 7.8.O.7.7.T ,.[ ( O.+.+._ / 7.' P 8.7._ ,.] ' ] ] ] ] ' ' :.' T ` ` ` T T / ^ U / _ [ P / / P ` _ _ O.` L J / } O.O.O.+.+.r.N.+.+.+.O._ [ [  .` T / P P _ +.m.N.+.( K / 7.7.8.7.Y 8 2 9 j I T Z k k n z k 0 8 0 j n k e 9 0 v U / T I J J R c.z./ ' } [ [ 8.f.9.) ] ' / 7.r.+.8.t.r.8.+.+.r.#.+.8.#.#.r.r.N.+.#.r.r.#.#.r.8.[ ] j.[ 7.}.Q.u.[ u.7.' c.8.7.7.,.7.3.7.7.7.7.7.3.,.[ O.} [ [ ] [ [ ' _ O.8.[ ` } _ ) +.r.#.( ` [ ` O.+.O.O.8.+.+.#.+.O.+.O.} ( _ O.O.O.+.+.} O.O.} O.8.` / [ ) ( 7.8.7./ } 8./ O.Y.8.[ ,.,.[ 3.7.,.,.,.,.:.] ] ` ] :.] ] [ ] ` [ Q.O.] 9. .[ d._.Q.[ 7.u._ 8.}._._._.Y.Y.Y.t.r.r.8.r.8.r.t.8.t._.r.t._.d.O.[ 8.O._ 7.#.} #._._.O.} f.[ 7.XXr.7.3.3.7.3.7.7.7.7.7.7.7.7.7.5.,.5.5.,.,.] } _.f._ } 8.( } N.#.8.' } ' ` 8.r.t.#.+.#.r.r.t.Y.r.+.#.t.+.+.t.8.+.+.+.f.r.+.N.z.[ _ 8.[ _ Q.f.8.[ 7.u.[ 7.|.7.,.7.7.[ ,.7.7.,.7.7.3.,.] ] ] ] ,.] ] ] ' [ u.[ ` 7.[ ( 7.t.8.8._ ] ' 7.+.O.#.O.O.+.+.} +.8.t.+.#.#.+.r.r.8.#.+.8.t.#.r.d._ 7.7.[ +._.t.+.( 7.3.[ f.#.[ [ [ [ [ ,.[ [ [ [ 3.[ ,.3.[ [ ] [ [ ] ] O.Q.7.' 7.O.O.r.r.r.O._ } ' } d.r.r.8.+.+.8.+.Y./ z 7.t.8.r.r.f.f.8.d.f.d.f._.c.,.7.c._ O.Y.Y.7.] 9.[ O.OX8.} ,.3.7.7.7.7.9.7.7.7.7.7.7.7.7.7.7.7.7.} 7.}.u.] z.7.O.f._.N.+.( 9.] } m.+.r.t.r.r.+.+.O.#.+.+.O.O.O.+.} } O.",
"+.+.+.+.O.} } 8.8.8.+.7.O.O.8.7.R 7.7.( _ 8.7.( _ z.] ~ u.8.[ [ ,.,.] ,.] :.' ' ] ] / ` ' ' E T T / T / [ } T ( [ P J ) 8.] G n J ' [ } O.+.+.O.r.t.#.8.} O.[ ) J J J K / O.+.m.#.+.O.+.) J / 7._ _ } [ ] ] :.~ ' 7._ / T P / / ~ U J j x / J 0 0 v k d 0 0 0 0 j J ` T [ O.( _ 7.O.` ) 7.[ ` u.r.#.#.#.r.t.r.r.r.r.r.+.#.r.t.r.t.r.t.#.+.+.#.N.f.[ [ u.,.] z.u.[ _ Q.7.' z.d.7.7.3.7.3.7.7.9.7.7.} 7.[ [ [ } ] ] [ [ ] _ O.r.[ ( 7.[ ( O.7.+.( _ O./ O.t.O.O.O.+.+.+.+.+.O.O.O.O.O.+.{ O.O.O.+.#.O.O.O.8.` ` 7.O./ [ 9.[ _ u.u./ O.Y.O.] ,.7.[ 7.3.7.3.,.[ 7.,.] ] [ ,.[ [ ] ] ] 3.}.O._ z.u.] 7.oX8.} oXf._ 8._._._.}.Y.f.f.f.Y.t.f.f.8.t.t.t.Y.Y.N._.Y.t.+.+.t.7._ 7.8.[ O._.t._ 7.}.[ 7.OXf.7.7.7.7.7.7.7.7.3.3.8.8.7.7.5.,.,.,.,.,.[ O.t.f._ } d._ ` d.t.[ _ f.[ ( r.t.#.8.#.+.#.N.N.t.#.+.r.N.r.r.#.r.r.8.8.f.t.t.t.c.[ ] z.9.[ u.f.7.[ u.c.[ d.#X7.,.,.7.7.7.7.7.7.[ 7.8.7.,.] ,.:.,.[ [ ] _ } f.7.' 7.[ / [ t.8.[ ` 7.[ 7.8.@.#.+.8.#.#.+.8.8.#.r.r.+.+.8.r.r.r.8.8.#.r.t.d.[ 7.c.[ _ 8.8._ [ c.7.[ f.8.[ [ [ 3.3.3.[ [ [ [ } 3.] [ [ [ ,.,.[ ,.] O.|.7.[ c.8.O.+.8.8._ O.8.' } r.r.8.r.#.#.#.N.u.k z Q.t.g.f.d.d.r.r.t.f.d.f.Y.u.] 7.}.O._ u.f.[ [ x.[ O.OXr.3.,.7.7.7.7.7.h.7.7.u.7.3.7.7.9.9.7.7.7.7.7.}.u.[ c.u.7.7.}.u.O.7.c._ } r.t.#.t.#.#.#.#.#.#.+.#.O.+.O.+.+.+.8.",
"O._ } +.} +.O.+.O.8.r.8.O.8.O.7.T [ c.+.( [ ` ( 7.7.` / 8.7.[ ] ,.,.] ,.:.' ` _ +.O.` T ' ' E / T T T / } O.T T [ [ z L 5.E z T T ~ _ O.O.} O.+.} O.+.] N n n k k J ' +.+.#.#.+.+.+.8.+.` R ] } 7.3./ ( 8.8.[ P ( 8._ T T T T P P ~ P J / #.+./ J I J x N N n n k d 0 9 T 7.[ [ [ / ` ] u._ / 7.8.r.#.+.r.8.r.r.#.#.r.#.t.+.t.#.#.t.#.+.#.+.t.r.r.[ _ c.c.7.,.] [ i.d.7.` z.d.7.[ 3.,.7.7.,.7.3.[ 8.Y.+._ ] [ ] [ ' [ ] ' O.f._ ( 9.8.7._ / [ [ _ 3.~ +.+.+.} O.#.O.+.+.+...O.} #.+.O.O.[ _ +.O.+.O.} O.8./ / [ u.[ ] ] O.7.8.7.R } Y.O.[ ] ,.5.,.,.7.,.] O._.8.] ] ,.] [ [ ] :.] 5.Q.7.` u.}.[ ,.j.9.d.oX8.[ 8.Y.t._.}.f.r.f.d.t.t.f.r.t.r.8.Y.N.t.Y.Y.N.8.8.t.t.7._ +.Y.+._ 7.+.O.Y.d.] 7.XXu.3.,.3.3.3.3.,.3.,.7._.Y.7.,.,.5.,.,.,.,.[ O.t.f._ [ Q.8._ 3.7.( r.Y.( / r.#.+.r.+.+.r.m.N.r.+.r.8.r.N.r.+.f.8.8.t.N.r._.r.u.] _ u.}.u.,.,.[ 7.f.u.] u.XX7.] ,.7.7.7.,.7.,.[ 8.Y.9.] ] ,.[ [ ,.[ ' ] } d.7.( O.7._ ( O. .( 8.8.' O.r.+.+.r.+.+.r.+.O.+.r.+.+.+.O.+.r.8.t.r.8.8.+.r.u._ [ f.r.( [ [ ( #.f.[ [ f.8.[ [ [ 3.3.7.3.[ [ } r.8._ ' ] ,.,.[ [ ,.] O.|.O._ d._.8._ [ } } Q.7./ O.r.#.r.+.r.#.+._.' 0 ` _.8.d.d.d.r.8.r.8.8.f.r.8.u.] [ c.u.O.[ 7._ u.z.' O.|.8.[ 3.3.3.3.7.7.3.7.Y.$XQ.7.7.j.j.7.9.7.7.7.7.XXz.[ u.}.f.] 7.[ @.d.9.` [ r.#.+.+.r.#.+.r.+.+.N.+.{ } +.+.O.r.8.",
"O./ ( +.+.+.O.8.8.8.8.8.8.8.8.7.~ [ 8.8.} ' / 8.8.7.' ` z.8._ ] ] :.,.:.] ' [ 8.#.#.[ ` / ' ' ` / E E ( O.O.R / _ O.` T ' _ [ ,.T T [ O.[ } [ O._ }  .n 2 9 0 g ] 8.+.+.+.O.+.+.8.8.+.+.] / [ 7.O./ ` d.8._ [ / ) 7.] T R / / / ~ U J P _ O.O.[ ~ K / P K J J J ~ ] I 2 2 n ;.[ } _ 7.7.7.] ` 7.8.8.r.t.N.r.8.+.r.r.+.#.N.N.t.t.t.t.t.#.#.N._.N.f.[ [ Y._.d.7.[ f.d.u.7.` z.d.} [ [ ,.7.7.7.3.[ 7.Y.R.r.7.[ [ [ 7.[ [ [ _ +.Y.[ _ 7.8.8.3.T 7.8.[ [ / O.+.+.O.O.#.+.+.O.O.O.O.O.#.+.+.O.O.} +.O.+.+.O.+.8.` ` [ +.8.3.[ }.r.8.7./ [ Y.7.[ [ 5.5.7.,.,.,.7.f.'._.7.] :.,.[ ,.,.,.:.7.}.7.] 9.}.u.7.7.}.|._.8.[ 8._._._._._.t.8.f.Y.t.t.Y.Y.f.t.Y._._._.t.t.f.r.t._.7._ 7.N.N.#.O.O.N._.8.,.7.XXu.[ ,.3.7.,.7.,.,.7.Y._._.d.,.,.7.,.5.,.,.[ O.N.f._ } Q._.+.] ` 7.t.8.` / 8.#.#.8.8.f.8.t.r.r.r._.+.t._.Y.t.Y.f.r.f.Y.Y.Y.t.f.[ [ p.Y.}.9.] c.u.u.u.[ 7.}. .] ,.7.7.7.7.,.[ 7.f.N.Y.7.] ,.[ ,.[ [ ] ] } f.O._ O.+.+.O.] [ O._.7.` O.t.+.+.+.#.N.8.O.+.+.#.+.#.#.+.+.8.r.t.r.N.r.r.t.f._  .t.r.+.O.( O._.8.[ [ _.8.[ [ } } O.7.,.] } m._.R.+._ ] ,.,.,.[ ,.] 7.|.8._ 8.Y.Y.7.[ 3.8.}.7.` 7.Y.r.r.#.r.#.%._.U n c.t.r.d.f.r.r.r.r.r.8.8.8.r.u.] ,.f.t.f.7.[ f.f.7.] O.|.8.[ ,.,.3.3.7.,.7.u.OX[.[.Q.j.7.j.j.j.7.7.7.u.#Xc.[ c.f._.7.3.7.oX8.,.` O.f.+.+.+.#.r.#.#.+.+.#.O.} O.+.#.#.r.8.",
"O.} } O.O.O.O.+.8.+.7.d.8.+.r.7.T } 7.} O.8.8.8._ 3.' ` u.7.] ' ' :.:.:.] O.8.r.+.O.+.} / / ` / E / P ( O.[ P T / [ _ ] ,.9.[ T v G [ } ( O.} ( / T k n ` d.+.O.8.+.O.O.+.#.+.+.8.8.O.O.[ T ] 8.O._ 7.Y. ./ [ ( ( O._ T P / T / T J T [ O.} O.+._ / / ~ T K J K / 7.' z j 8 2 G O.7.7.7.8.( T 9.8.+.8.r.d.r.+.+.r.r.} O.N.N.r.Y.N.N._.#.#.N.%._._._ [ f.8.r.Y.Z._.O.7.7./ 8.8.} [ [ 3.[ 7.3.[ O.Y.N.#.N.r.} [ ] [ 7.[ [ } +.Y.[ ` 7.O.O.8.O.d.8.[ 7.R } t.O.8.O.+.+.+...O.{ +.O.+.+.{ O.#.O.} O.+.} O.O.O./ ` 7.] } d.Y.c.O.7.u.` [ _.7.] ,.,.,.7.,.] 7.Y.Y.N._._.7.] ] ,.] ,.,.] 7.}.O.[ 7.7.8.f.}.XX8.8.t.[ 7._.t._.}.Y.f.8.f.f.t.f.r.f.t.r.r._._._.t.r._.t.r._.8._ 8.t.+.N.#.%.].8.7.7.7.|.8.[ ,.,.,.,.,.,.3.Y._.N._._.u.,.5.5.5.,.,.] O.Y.f.] [ 8.7.d.8.O.Y.+.7.( / 7.r.r.8.8.f.8.O.8.Y.r.f.r.r.8.Y.Y.t.Y.t.+.8.Y.r.r.Q.] ,.u.7.u.Q.f.}.7.7.u.] 7.Q.[ ,.,.,.7.7.,.[ 7._.r.m.N.Y.[ ] :.,.] ] ] ` } f.} ' O._ 8.f.O.u.d.7.[ ` +.8.+.+.O.#.t.[ _ +.+.+.#.N.r.r.8.+.r.r.8.t.t.#.#.8.' O.8.[ +.N.+.r.O.O.[ [ t.t.[ [ [ } O.3.[ } m.`.%.%.%.O.' ] ,.,.] ,.] } |.7.[ u.7.8.Y.f.d.7.8.7./ 7.Y.r.r.r.r.+._.f./ [ Y.r.8.t.r.r.r.8.8.8.8.8.8.t.u.] ,.u.O.r.d.f.}.O.7.[ [ |.8.,.,.,.,.,.,.,.j.XXOX_.].[.c.7.j.j.7.7.7.3.u.*Xc.[ c.7.8.r.|.Y.t.[ ,.` O.r.+.+.#.+.#.#.+.+.#.+.+.O.+.O.+.#.+.8.",
"+.r.O.} } 8.O.O.O.8.8.r.r.+.r.u./ 7.7.( _ d.8.[ / 3.:.' d.8.] :.] ] ' ] [ d.r.#.+.+.+.+.[ / P E E / E / [ O.T ` / '  .9.] E U Y v j / O._ ' P V J 0 8 ' N.#.#.O.O.O.+.+.+.+.+.8.8.8.+.+.5.` [ 7.O.f.}.O.R ( 7.( ( 7.] U U E / P P / } +.+.+.+.#.r.+._ ` / T U U ' O.] J ` U 9 l 7./ 0 a ` / } f.+.g.f.8.8.8.+.8.t.t.[ ( #.t.N.f._._._.N.N.#._.OX_.[ 7.f.} O._._.8.[ 7.9.` u.d.7.,.3.7.7.7.7.7.Y.Y.N.m.m.N.r.7.] [ ,.[ [ [ +._.[ _ 7.[ O.Y.t.u.[ [ 7./ +.#.#.8.O.+.+.O.O.O.} O.O.r.+._ O.r.#.+.O.} O.+.O.7.` ] 9.] ` f.c.,.' 7.u.` O.Q.7.] :.,.,.,.[ 7.Y._._._.N._.Y.7.] [ ,.,.,.] 7.oXO.,.9. .[ _.$Xc. .8.f.O.7._.f._.|.Q.d.t.f.r._._.8.r._.t.#.Y._.N.N.Y._.N._.|.8._ u.p._ +._._.r.[ 7.7.7.oXu.,.3.,.,.,.:.7.Q._._._._._._.u.,.,.5.5.5.[ O.Y.Y.[ 7.7.` 7.|.Y.O.[ 7.) / 8.8.#.r.f.Y.8.O.7.|.N.Y.r.+.+.r.t.|.f.8.+.7.8.d.f.c.,.7.c.O.7.}.}.7. .7.c.[ 8.XX7.,.,.5.,.7.[ u.Y.N.N.N.N.N.Y.O.' ] ] ] ] ] [ Y.} _ 7.( } d.8.8.,.[ :.` 8.8.+.+.+.8.O.( O.8.+.#.#.#.r.N.r.#.8.r.t.r.r.+.+.u._ 7.8._ _ t._.+.( 7.,.[ _.t.O.3.3.} 3.[ O.Y.R.%.%.%.%.m.O.' ' ,.,.,.] O.|.8.[ u.7.O.Y.XXd.[ 3.3.' 9.|.t.m.r.#.N.c.' / 8.r.r.t.8.8.t.r.8.8.t.r.8.r.t.d.] 7.u._ O.Y.f.O._ 7.[ } OXu.,.,.,.,.,.,.j.XXOX].'.].[.#Xc.7.7.j.h.7.7.u.*Xc.[ c.7.O.8.OX8.O.[ 7.) O.r.N.#.N.#.#.+.#.+.t.+.r.+.#.+.#.+.#.8.",
"+.8.} ( [ +.O.O.O.8.8.8.8.8.r.7./ 7.7./ ` 3.3.` ` 7.:./ d.8.' :.:.' ' [ r.r.r.r.#.+.O.O.8.3.T T E T T / [ O./ E ` U ] :.U I T >.T I T T J k 0 Z E g N O.O.{ +.+.O.+.+.+.+.O.} 8.8.+.#.8.[ ` [ ] ' 7.7.[ / _ } / / O._ P I U T P / O.+.O.+.#.#.+.r.r.O._ ` / P U ' +.[ J / ` U ^ :.T w 1 w N 9.Q.t.8.8.8.+.O.#.#.#.N.O._ #._._.t._._.Y._.N.#.t._.t._ 7.u.] ] 8.8.[ ] 9.7.' u.f.} ,.,.3.7.,.7.}.Y.N.N.N.#.#.t.r.} ] ] [ [ [ 8.Y.[ _ u._ _ r.8.[ / [ [ R 7.+.r.+.O.{ O.#.O.+.} [ O.#.+.O.} O.+.#.O.+.+.[ O.7.` ] 9._ ` 7.7.] ' 7.8.` O.Y.7.] ] ,.,.] O._._.N._._.N.N._._.7.] :.,.,.] 7.|.O.[ u. ._ 7.c.7.] 8.f.} 8.Y.f.|.|.f.d.f.t.r._._.8.t.Y.f.t.#.r.Y._.Y.Y.f._._.8.[ u.u._ [ t._.O.[ 9.,.3.oXu.,.,.,.,.] 3.Y._.Y._._._._._.oXu.,.5.5.,.,.O.Y.Q.[ 3.7.` ] d.7.` ] 7.` / 8.+.r.t.t.Y.+.+.f.t.r.8.r.r.8.f.8.t.Y.Y.d.f.8.8.f.d.,.7.c.[ ,.u.9.,.[ u.z.[ 8.Q.9.:.3.7.,.[ 8._.N.N.N.R.r.N.N.Y.[ ] ' ,.] ` [ Y.} _ 7.` / 7.7.,./ :.,.` O.t.+.+.+.8.( _ 8.+.O.O.r.#.#.r.r.+.+.r.t.t.8.8.r.8.` 7.9.[ ` 7.8.[ _ 7.[ [ Y.t.O.,.7.3.[ O.Y._.R.R.%.%.r.r.r.O.' ] ,.:.] O.|.8.[ u.7.[ 8.z.3.] 7.7.:.7.}.Y.r.r.r.}.-.0 ^ _.+.r.t.r.r.8.r.r.8.8.u.f.r.r.u.] ,.9.` ] 8.7.] _ 9._ } OX8.,.,.,.,.,.9.XX#X|.'._._.'.OX[.u.,.7.h.7.3.u.$Xf.[ c.7.7.,.9.7.[ O.9.` _ r.#.N.#.r.+.r.r.+.+.#.r.+.+.#.#.O.+.8.",
"+.r.O._ } 8.O.+.8.8.8.f.i.8.d.7./ 7.7.` ` :.] ] ] 7.,.` d.8.[ :.:.:.[ u.f.t.t.r.8.8.7.+.+.8.7.` T ' / ' O.} ' ' ' ` ` T U E ` :.T P / / Z J ~ ' ( / [ O.O.+.+.+.+.+.+.#.+.} } O.8.8.8.u.,.` ,.[ / ] ,.] _ _ O.` ( O._ / T T T ( O.+.+.#.8.+.8.f.Y.Y.f.O.` / T T _ 7.[ P ` ` T ` ` / ` =.H 9 k ] 7.O.O.O.+.+.r.+.#.N.r.t._.Y._._._._._._._.N.t.r.d.[ 9.z.,.,.,.,.,.,.9.9.] u.f.7.,.,.,.,.7.Y._.Y._.Y.f.r.t.t.N.8.O.[ [ [ [ +.Y.} _ u.[ ] 7.[ ) / [ [ R 8.r.+.+._ { +.+.+.#.O.O.+.#.#.#.O.+.O.+.+.r.r.8.O.+.] [ 8.[ ] ,.,.] ] 7.8._ +.Y.7.:.:.,.] } Y._._._.N.r.Y._.N._.Y.7.] ,.5.[ 8.XXO.[ u.7.[ 7.7.7.[ 9.t.O.8._.f.v.f.f.f.Y.N.Y._._.r.f.Y.Y.Y.t.t.r.Y.Q.}._._._.8.[ f.u.] ,.9.u.[ ,.9.,.7.oXu.,.,.,.:.,.f._._._._.Y._._._._.|.u.[ ,.,.,.O._.}.[ 7.u.' ;.:.] / ] 7._ ( 8.#.r.Y.r.r.r.t.N.N.#.t.+.t.t.Y.t.t.r.Y.}.|.f.f.t.Q.[ 9.c.7.,.7.,.,.,.7.u.[ 8.XX7.,.3.,.[ 7._.N.N._.N.r.d.Y.#.N.f.[ ' [ ,.] } _.O._ 9._ ` ,.,.] ' [ 7./ O.f.#.#.r.8.O.7.r.#.O.+.#.#.#.t.r.8.+.8.Y.Y.r.r.Y.d._ 7.9.] ] ,.,.[ [ 7.[ [ Y.f.} ,.3.3.O.d._._._.R.#.r.r.r.N.r.O.] ] ,.,.7.|.7._ 9.9.,.,.,.:.[ 9.8.] 7.}.Y.Y.Y.c.U 6 v 8.t.r.r.t.t.r.r.r.r.r.9.9.8.r.t.d.] ,.j.` ] 5.7.] ] 7.[ O.oX8.[ ,.,.,.7.XXoXoXOXoX8.N.OX'.[.OXu.7.7.h.7.8.#Xu.O.c.9.5.,.7.,.[ 7.9.] O.r.8.O.8.8.r.t.N.r.r.r.r.8.f.8.+.O.+.8.",
"8.+.+.8.8.O.O.8.8.8.8.d.d.+.8.7./ 3.7./ ' ;.` :.] 3.,.` d.8.] :.;.[ d.Y.r.t.r.O.] ,.u.+.O.+.r.O./ T T ' +.O.^ ] ' P T E U ` ` ` I P O.+.} O.[ A Z ( } { O.#.O.O.+.O.O.+.O.O.[ _ 7.7.7.7.' ` ,.` ` :.` ' ' ` [ ` ( } _ / E U / O.+.} +.r.+._ [ u.f.d.Y.r.[ ^ T T ` 7.[ T ] ' T ` ` T T ' >.J l ` P ~ 8.+.+.+.#.#.#.r.t._._.N._._._.Y._._._._.N.+.8.,.7.z.,.>.,.:.,.:.7.j.:.8.z.} ,.,.] ] d.Y.N.Y._.7.3.7.N.r.r.t.8.[ _ ] _ O._.} _ u.[ _ _ ` _ ` ` _ P } +.+.#.} +.O.+.#.+.+.+.O.+.O.+.+.+.O.O.O.+.t.+.O.8._ [ 7.] ' :.;.] ' ,.9._ O.Y.O.' :.;.[ t.Y.N._._.+._ O._.N.N._.R.} ] ,.,.9.XX7.O.8.7.[ ,.,.,.[ 7.f.+.8._.t.8.8.f.Y.t._._.Y._.t.8.t.t.Y.|.Y.Y.Y.f.}._.f.|.8.[ d.u.] :.,.7.,.,.7.,.3.|.7.[ ,.:.[ Y._.Y.R._.f.7.7.Q._.Y._.|.8.[ ,.,.O.Y.oX[ 7.8.' ;.;.' ` ] 9.[ / +.8.+.+.8.t.m._.#.N.N.N.+.r.f.r._.f.t.Y.Y.Q.}.Y.8.Q.[ 7.c.7.,.,.:.,.] 7.u.[ 8.}.5.,.,.:.+.N.N.N.N.Y.+.] } f.m.#.N.r.[ ' ,.:._ Y.O._ 9.' ' ' ` ' ` ,.3.T [ 8.+.Y.u.7.O.+.+.#.#.#.+.t.t.r.r.f.O.+.f.Y.r.#.N.f._ 7.9.] ' ] ] ] [ 7.,.[ t.8.[ ,.,.[ 8._.R._._.r.[ O.d.N.r.r.t.7.) :.,.7.}.7._ 7.7.:.] :.:.] 9.u.] } Y.f.Q.z.:.e 9 ,.f.+.r.r.8.8.r.r.8.8.f.8.+.8.r.t.8.] ,.,.` ' :.:.] ] 7.} } _.7.] ,.,.7._.|.}.oXoXu.3.7._.OX_.OXOX8.,.3.7.8.#Xu.[ z.9.[ ,.,.:.5.3.9.] O.8.O.O.+.+.N.8.r.#.r.r.O.+.r.8.O.+.r.+.",
"+.8.+.r.+.8.+.+.+.r.d.d.8.+.8.7.' j.[ / ' ' ' ] ] 7.,._ c.8.` :.,.u.Y.N.r.f.7.` R ` 7.u.8.8.+.r. ./ T ` +.+./ ` / E T T E E / ;.J T O.O.O._ V d P [ ..O.O.+.+.+.+.O.O.+.+.+.} [ O.7.O.[ ` ' 7.,.` ' ` ' ` ] ,.` ( 7.] U I / } +.O.O.r.8.[ ` ] 7.f.Y.t.t.7.` T T _ 8.7.T [ ,.T ` ;.E ` ` :.' ` c.` J 7.Y.#.+.r.t.#.8.N.N._.Y._.Y.Y.R._.Y._._.Y.r.8.[ 7.9.,.,.,.:.,.,.7.j.] u.c.[ :.] ' 7.Y.N.N.Y.8.] ' ,.8.t.t.r.t.7.[ ' ] O._.O.[ d._ _ _ ` ] ` ` _ P ( O.+.#.+.#.+.#.+.+.O.O.+.+.O.+.+.O.O.+.} O.+.+.+.8.[ [ 8.[ ] :.] ] ] 5.7._ @.b.5.' ;.] 8._.N.Y._.8.] ' [ 8._._._._.Y. .] ,.u.XX7.7.z.7.[ ,.,.,.[ 7.f.O.8._.8.t.f.Y.Y._._._._.Y.Y._.f.t._._.|.OX_._._._._.oX8. .f.u.[ ,.5.,.,.,.9.,.5.XX9.' :.,.f._.R._._.Y.7.:.,.9.}._._._._.9.[ [ O._.XXO.8.z.] ;.:.;.' ] 9.[ / 8.8.O.+.8._.Y.N.N.N.N._.t.r.t.f.Y.f.t._.Y.f.f._.Y.c.[ 7.c.5.,.,.,.,.[ 7.u.[ 8.}.7.:.,.,.r._.N._.Y.O._ :.] 7.r.N.#.N.8.[ :.:.[ _.+._ 9.] ' ' ` ;.` ' 3./ [ f.8.+.[ ' } r.#.#.t.#.#.t.t.t.t.N.r.8.8._.Y.#.N.f.[ 9.7.] ] ] ] ] [ 9.[ [ Y.t.[ [ [ 7.Y._._._.t.7.] ] 7.f.t.t.t.t.O.' ] 7.oX7.] j.5.] :.:.:.] 7.z.[  .}.d.[ T ' ` / 7.8.#.r.r.8.+.8.r.r.r.r.t.8.8.r.t.u.] ,.,.' ] ] :.] ] 7.O.O.oX8._ ,.7.f.oX'.oXoXu.3.3.3.7._.].'.]._.7.,.,.8.#Xd.7.c.7.[ ] ,.:.[ 7.j.] 7.8.+.+.+.f.f.r.t.+.#.r.+.O.8.8.+.8.r.+.",
"+.8.+.+.8.8.O.+.8.r.d.d.7.8.8.} / 7.] ` ` ] ' / ] 7.,.` Q.7.` ] u.|.m.r.r.7.] ' ` / / 7.8.+.+.+.+.[ / R +.O./ ' / ` U U T Y E ;.G U } O.} Z 0 k ( +.} [ _ [ O.#.+.+.+.+.+.+.O.+.+.+.+.7.,./ 7.,.E ` ` E E ] [ ( _ 7._ U U [ O.} O.+.7.] ` :.,.] 7.f.r.+.8.[ ^ U ` 8.7.T ] ,.E ;.` E ` ' ,.' / }.9.l j :.r.#.+.+.t.r.t.8.N.N.Y.t.N.Y.N.N.R.Y.Y.Y.d.[ 7.9.,.,.5.:.:.:.h.j.[ u.u.[ ' ' 3.Y.r.%.N.7.,.:.:.;.,.r.t.#.r.8.O.' ] O._.O.[ 7.( _ ] ` ` ` ] / Z ` +.} +.8.O.#.r.O.O.} 8.O.O.+.O.O.+.O.O.O.O.} 8.O.8.[ _ 7.[ ' ,.:.' ] 7.7._ +.f.7.` ` 9.t.N.N._.d.:.' ,.:.] r._._.N._.Y.[ ' 8.#X7.7.z.7.] ,.,.:.] 7.u._ 7.Y.r.Y.Y.f.Y.Y.Y._.#.N.Y.Y._.Y.N.N._.|.|._._._._._.u.[ f.u.] ,.,.:.,.,.7.,. .|.7.` 3.Y.OX_._._.}.7.,.,.,.,.9._._._._._.7.[ O._.XX7.7.u.' :.>.;.' :.9._ / 8.+.+.O.+.Y.Y.t.r.N.r.Y.r.+.8.f.r.f.8.t.t._.d.Y.t.u.[ O.f.[ ,.7.,.:.] 7.9.[ 8.Q. .' ,.u.N.N.N._.8.' ' ,.:.] O.Y.#.r.N.8.] ] [ Y.7._ 9.` ` ] ` ` ` / ,.T ' u.8.[ ( 7.8.#.+.t.#.t.r.r.r.N.#.t.Y.+.+.t.Y.t.t.d._ 7.7.] ` ] ] ` [ 9.[ [ _.8._ ] O._._.N._.t.,.:.,.:.:.7.f.t.#.t.8.[ / ,.}.7.] j.[ ] :.;.;.] ,.z.[ [ XX7.z [ }./ _ 8.+.8.8.+.8.+.O.8.r.t.r.d.f.8.+.t.8.` [ 3.` ' :.;.' ' 7.O.O.|.+._ 7.f.oX_.'.oXc.,.3.7.7.,.7._._._.'._.7.] 8.#Xu.7.c.7.] :.,.:.] 7.9.) [ r.t.8.N.r.r.Y.8.+.r.+.#.O.+.O.8.O.+.8.",
"r.r.+.r.+.+.8.8.+.8.8.8.7.8.8.} / 7.,.' ' :.' ' ) 7.,.) }.8.[ 8.}.Y.N.Y.7.:.` ] ` ' ' ] +.N.+.#.8.+.] / [ O.R ] ' T T Y T T E ` J U O.O./ Z Z ` O.O.+.+.} [ +.r.r.N.#.#.#.+.8.r.r.8.+.f.7.' 7.] / ' ` / E ] 7._ _ 8.O.` [ +.O.O.+.7.] :.:.,.,.] [ 7.r.#.8.8.O.' _ d.9./ [ 5./ ;.;.;.` :.j.] _ Q.f.T 9 9 ` r.N.r.t.r.t.N.N.t.r.N._.Y.Y.Y.Y.t.N._.Y.O.7.z.5.,.5.,.,.,.7.j.,.u.u.] ] [ f.t.#.r.7.[ ,.:.,.:.,.O.8.r.r.8.8.O.[  .oX7.[ 7._ _ ] ' ` ` ] ` K [ +.O.O.+.8.+.+.O.O.+.+.+.#.O.+.+.+.O.O.O.+.+.#.#.8.[ [ 7.[ ] ,.:.] ] 7.8.[ +._.7.] 7.Y.%.%.N.u.,.:.:.,.,.] } f._._._._.d.[ 8.$X8.O.f.7.[ ,.,.:.] 7.7.` 7.}.Y.Y.Y.Y.Y.Y.Y.N.t.Y._._._._.Y._.Y.Y._._.|.oX_.'.u.[ u.9.] ,.,.:.:.,.7.[ 7.XX7.[ Q.oX_._._.Y.7.3.7.7.h.,.5.7._._._._._.8.+.'.$X7.7.u.[ :.,.:.:.,.8._ R 8.t.8.8.r.r.N.N.#.#.N._.8.O.+.f.t.Y.8.8.f.|.|.t.#.f.[ O.d.O.,.7.,.[ [ 7.9.[ 7.}.O.] 9.Y.N.N.N.8.,.:.:.,.:.,.] 7.t.t.N.Y.8.[ _ _.8.' 7.` ` :.' ' E ` :.U ] d.+.8.8.d.8.r.t.N.t._.Y.t.r.r.r.t.r.r.+.8.r.N._.f.] 7.7.] ] :.' ` [ 7.[ [ _.8.[ O.t._.N._.t.O.:.,.:.,.:.:.7.r.t.#.t.8._  .}.7.] 7.,.] :.:.;.] 7.z.] 3.XX_ / XX .x _ r.#.#.8.r.8.+.+.8.8.8.f.Y._.t.8.r.7.` ,.7.' ' ' ;.' ' 7.7.O.oX8.+.f._.'.'.oXz.7.h.h.h.9.7.7.7.Y._._.]._.7.8.$Xu.7.z.7.] :.,.:.] 7.9.) O._.t._._.Y.Y.r.8.+.r.#.#.O.+.O.#.+.+.8.",
"r.8.+.+.8.r.+.+.+.O.O.8.8.+.r.O./ 7.7./ ' ' ' ` ` 7.,.` c.+.+._.Y.Y.N.8.] ' ' ' ` ' ' ' [ 7.t.#.O.#.7._ ( [ T ` ` T T T T T T ` J P O.O./ [ } [ O.O.O.8.+.+.+.+.r.#.#.#.+.+.+.8.r.+.+.8.7.` ] ' E ;.E / E ` 7.` ( +.O.7.8.O.O.+.O.] :.:.' :.:.] ] ` 5.8.+.+.8.O.O.8.7./ [ 7./ ` :.;.` :.l.,._ Q.r.} T c 8 Z _.N.t.8.t.N.N.t.N.r.Y._._.r.t.r._.Y.}.7.O.}.7.,.,.,.5.,.7.j.[ u.u._ [ t.N.#.r.7.' ,.,.' :.,.:.] O.8.r.r.r.8.} +._.O._ O.) ' ' ] ] / ] _ ( u.+.} O.O.+.O.+.O.8.O.O.+.8.O.O.} } O.O.[ O.8.O.o.t._ ( 8.O.] :.,.] ] u.8._ +.f.7.9.t.N.#.N.8.:.;.:.:.:.,.,.] O.Y._.R._.oX^.Q.oX8.O.p.7.] ,.,.,.' 7.7.` 7.Q.Y.Y.Y.Y.f.t.f.t._.Y.Y._._._._.Y.Y.N.t._.oX|._.oX8._ 7.9.[ :.,.:.] 3.9.]  .}.8.d.oX_._._.Y.7.,.7.7.,.,.7.,.,.7.Y._._._.Y.#._.|. .O.u.[ :.,.,.;.[ d.( / r._.N._.r.8.t.t.#.r.r.Y.r.+.+.r.Y.r.t.r.9.r._.#.+.f.[ [ f.O.,.3.,.5.] 7.9._ 7.f.9.9.f.Y.r.N.8.,.:.:.;.:.:.,.] ] 7.N.#.t._.8.O.Y.7.( } ` ` ;.;.' T / ,./ [ 7.8.8.8.8.+.#.t.#.t.N.N.8.#.r.r.8.8.#.+.r.r.#._.f.' 7.7.] ] ] :.` _ 8.[ [ Y.#.O.t.N.N._.d.3.:.:.:.:.:.>.:.] 7.t.r.#.t.8.+.}.7._ 7.,.' :.:.' ' 7.u.` 7.z.T ] O.Z J } #.#.#.t.r.r.r.r.r.8.8.r.r.f.Y.r.r.8.` [ 7.' ;.;.;.' ' 7.} } _.#.t._._._.oXc.3.,.4.7.h.7.7.3.,.7.N._._.OXR.r._.8.O.u.5.] :.>.>.] 7.7.) 7.t.r._.f._.r.8.r.+.8.#.O.+.+.O.O.+.+.8.",
"+.+.+.8.8.r.r.r.8.O.O.8.r.8.r.7.` 7.8._ ` :.:.` [ 9.[ _ d.t.N._.R.Y.8.] ` :.' ` 7.7.` ] ] _ #.t.+.#.+.+.O.[ / ` ' T T T T Y ` :.I T O._ _ O...{ O.8.+.+.#.+.+.8.+.+.+.O.+.#.+.+.O.8.r.d.[ / [ [ E ` ` E / [ 7.` _ +.+.+.+.+.r.+.] ] ,./ } d.[ ' ;.` ` 5.8.+.+.+.+.8.7.( O.u.] ] ,.;.' 7.z.,.[ }.t.+.7.,.n 9 Z 8.'._._.#.#.%._.r._.Y.t.8.r.N._.Y.}.7.7.XX7.7.7.,.5.,.l.z.,.p.8.O.u.N.%.N.O.' :.:.' [ 9.3.:.:.] [ d.N.N.r.8.+.}.O.[ 8.[ ' ] ] ' / 7.[ _ 8.+.+.+.O.O.+.+.+.+.+.#.O.} } } _ O._ } } 7.8.#.#.t.} [ 8.8.[ ,.,.] 7.Q.u._ 7.t.#.t.N._.N.8.] ;.1.:.,.7.,.:.,.,.O.Y.|.|.|.XX|.XX7.O.c.7.,.,.:.:.] 9.7.' 9.}.Y._._._.Y.t.t.t._.|.Y.8._._._._.N.N.Y._.oXoX_.oX8.] 7.p.[ ,.,.:.[ 9.j.] } Q.t.Y._._.'.f.7.:.3.,.,.z.z.,.5.7.,.7._._._._._._._.[ +.c.7.,.,.,.] 7.Y._ ( _.r.Y.Y.r.r.8.r.r.N.r.Y.N.Y.8.Y.t.t.t.8.O.+.7.#.#.}.7.O.}.7.,.7.5.7.[ 9.u._ 8.d.d.Y.Y._.f.7.] :.:.] :.7.3.,.:.,.[ 8.N.t.N.Y.r.Y.O.( O.[ ` ;.;.;.` [ 9.] 7.8.+.O.+.d.r.8.#.t.t.r.+.#.#.t.8.8.8.#.+.f.t.#._.}._ 7.u.[ ] :.:.) | d. .| t.#.#._._._.t.3.:.,.:.] 7.7.' :.:.] 7.d.N.N.%.t.}.7.[ 9.3.] :.:.] ] 7.z.` ,.:.e U O.K P 8.#.#.r.r.f.t.8.r.r.r.r.r.r.r.r.r.N.8._ O.9.] ' :.:.] :.8.} } _.#._.oX_.|.u.7.5.7.3.7.Q.8.,.4.3.,.7.Y._.`._._._.9.O.f.9.[ :.>.:.,.u.9.] 8.t.t.f.f.8.r.r.r.+.r.+.O.+.8.O.+.O.f.+.",
"O.8.O.8.8.+.t.N.r.r.O.8.r.+.8.8./ 7.d.[ / :.' / O.u.[ ( u.N.#.Y.R.d.] ;.;.' ] 7.t.t.7.( ' ,._ 8.t.+.+.8.+.[ T ( [ / Y T U L ,.h.I U [ O._ _ O.O.O.O.#.+.O.+.+.+.+.O.O.8.+.+.+.+.+.+.+.8.] / 3.7.E E ` T / 7.7./ ( r.#.O.+.#.8._ ] ,./ } Y.t.7.' / ;.E E 7.8.8.+.#.+.7.( [ f.7.` >.;.] c.c.] ] }.r.+.+.+.O.U 0 k O.r._.N._.#.#.N.r.8.r.r.N.t.t._.}.7. .XX9.,.7.,.,.7.z.l.[ u.t.#.m.r.N.O.` ' :.` ' 8.N.8.:.:.>.] 7.d.Y.N.t.8.f.} _ c.5.` ] ' / _ 8.} / 8.+.+.+.O.} O.8.+.O.+.+.[ ( O.+.[ _ [ +.} O.+.#.O.r.} _ r.f.[ :.:.` 8.oX8.( O.t.#.t.N._.8.' ` :.>.;.7.|.d.,.:.,.] 7.Y.oX|.|.|.Q.7.} Q.u.] :.:.' _ p.7./ 9._.r._.|.Y.f.t.t.Y.Y.}.r.#._._._._._.t._._._.oX|.Y.7.] u.f.[ ] ,.' [ c.8.] [ Y._.Y._.'.Y.3.:.,.5.,.u.oX|.9.,.6.,.,.7._.'._._._.f.[ 7.}.9.:.,.:.] d.}._ / _.t.r.f.r.+.8.t.+.r.t.#.r.r.r.N.r.t.+.r.r.t.+.#.#.f.7.} Q.u.[ 7.j.,.[ u.u.) 7.}.t.f.N._.8.] ' ,.' ' 8._.f.3.] ,.] [ 8._.r.N.#.t.} / O. ./ ' ;.` ' u.7.` 8.8.O.+.8.8.r.#.+.+.t.#.+.t.8.8.8.#.O.8.r.8.d.t.N.f._ 7.Y.O.` :.' _ #.f.[ O.t.&.#.N._.N.7.:.:.:.:.7.v.t.[ ` :.:.` 7.Y.N.#.N._.O._ u.7.' ' :.' _ u.9./ ' I l 3.f.) / 7.@.#.t.8.8.+.8.r.r.t.r.8.8.r.8.t.t.u.] [ d.[ ` :.:.' 7.z.[ [ _._._.oXoXd.,.,.5.,.3.Q.OX_.7.,.4.3.[ 8._._._._._.7.[ f.u.] :.>.;.7.}.8.] 7.t.t.8.+.+.t.#.+.r.+.O.+.O.+.+.8.O.O.8.",
"+.8.+.r.+.#.#.N.N.Y.#.r.8.8.r.u.` 7.f.7.` ' ;.[ 8.f.[ ` d.N._._.8.] ;.:.' ' 9.N.#.#.N.O./ ] ] [ +.t.8.+.+.O.R _ 7.] T T Y T 7.j.U T O.O...+.| } +.8.+.+.+.+.#.8.+.+.+.+.8.+.8.8.8.8.+.+.[ ` 7.8.[ E E E [ t.7.( _ t.#.#.v.#.[ ] ,.] } N.#.+.r.7.` E ;.E ` 7.d.r.#.#.7.` O._.u.[ :.] 7.}.c.[ ] Y.t.#.#.O.#.O./ j 0 g Z P [ } t.%.#.+.#.t._.t.t.'.oX7.[ XXu.5.j.7.5.8.}.u.[ u._.%._.N.7.' ` ;.;.` 7.r.#.t.9.:.>.>.,.3.Q.|.Y.r.Y.O.[ }.z.` ;.' / [ f.O./ O.+.} O.} O.O.+.+.+.+.+.} 7.} +.O.O.[ O.O.#.#.#.+.t.O._ r._.8.[ ] 7._.[.8.' 8.v.#._._.8.] ' ;.:.;.7.Q._._.8.] ] ,.[ 7.}.XXXX}.}.7.7.}.c.[ :.:.' 7.}.9.` 9._.t._._.Y.t.t.Y.Y._._.f.t._.oX_._._._._._.|._.t.t.7.] d.}.7.] :.] 7.}.u.] 7.|._.].'.Y.7.,.,.,.,.8.|.N._._.9.,.h.3.,.7.|.]._._._.O.u.XX}.7.5.,.3.|.|._ ( t.N.N.t.#.#.r.t.#.r.#.#.+.+.#.t._.#.#.#.t.t.r.#.#.Y.7.O.'.}.7.5.5.7.7.}.f.( 8._.t._.Y.8.] :.:.:.] 8.N.N._.d.[ ,.,.[ [ 8._.t.#.t.O.( 8.7.) ` ;.` [ c.7./ 7.r.r.t.8.r.#.+.O.8.r.#.#.t.r.8.r.#.+.8.8.f.f.r.r.d._ +.}.u.] :.] } t._.[ O._._.$._.N.7.:.>.>.' 7.N.#.%.r.[ / :.:.' O.N._._.'.7.[ f.f.} ] ] ] [ z.8.( ] n j 7.#.( _ 8.#.#.t.t.+.+.8.r.f.r.r.8.8.r.d.t.t.u.] [ }.j.' :.>.] u.c.[ } oX_.'.oXu.7.,.5.,.7.Q.|._.'._.9.,.3.,.[ 7.|._._._.u.[ }.Q.7.' >.:.d._.d._ r.N.t.#.O.O.#.#.r.+.O.O.+.O.8.+.+.[ [ 7.",
"+.+.8.r.+.+.O.r.#.r.r.r.+.8.r.7./ 7.8.f.[ ` ` u.8.u.[ ` u.r.N.8.' :.' ' ] 8.f.t.#.#.#.8._ ` :.] ] 9.f.+.+.O.T ) 7.9.' U Y ] 7.,.I T } _ [ O.( / O.#.+.+.+.O.+.+.+.+.+.O.+.+.O.+.7.7.} O.[ T [ r.O./ T E O.r.O.` 7.N.#.N.t.[ _ 7.] _ r.N.#.+.+.r.7.` ` ` T ` 9.r.+.r.8.' O._.t.u.5.7.}.c.z.] _ Q.#.#.8.+.O.+.+.T k J k 0 0 e J / +.#.#.+.t.t._.Y._.O.[ XXc.7.7.3.7._.Q.c._ d.N.%._.u.:.` ;.` T 3.8.+.+.r.Y.7.;.>.,.] 7.z.Q.r.}.7.] Q.c. .` E ' 8.f.O./ } O.} } O.O.} } O.+.O.+.O._ _ } O.+.[ [ O.r.r.O.+.t.[ ` +.N.Y.9.[ Y._.'.8._ u.t.#._.8.' ` :.;.' ,.c.Y.t.Y._.7.] ,.[ _ 9.XX}.Y.}.7.[ c.|.7.:.' ,.f.Y.3.` 9._.N.Y.N.Y.N.t.Y.r._._.r._.|._._._._._.Y._.}.8.+.f.7._ 8.oXd.] ' [ Y.Y.z.] 7.XX_.'.|.7.,.3.,.,.9.|._.N.N._.Y.3.,.7.,.,.8.|._._.Y.7.9.XX|.c.,.:.z.|.Y._ ( r.t.t.#.+.r.+.r.r.+.r.N.#.#.O.+.t.+.+.#.+.8.r.O.#._.7._ Y._.f.7.] 7.|.}.u.( u.f.f.}.8.] ' ,.] ' 7.Y.m.N.N._.8.' [ 5.` [ 8.N.#.t.O./ 7.8.O.] E ' 7.t.,.P [ 8.8.8.d.t.+.O.O.+.+.t.+.8.t.r.7.8.+.O.8.f.d.+.#.d._ [ f._.[ ` ] t.t.Y.} O._._._._.O.[ :.:.;.,.d.%.#.#.N.8./ ` :.' ` 7._.R._.7.[ f._.r.[ / [ 8.}.O.~ [ n 0 ' } ( } O.8.t.r.t.r.8.+.8.N.r.r.r.8.8.d.r.Y.u.] [ Y.u.,.` ' 7.Y.u.[ } |._.OXf.,.,.5.,.,.z.OX_.R._.[.}.3.,.,.,.,.8._._.|.u.[ f.Q.d.' ` 7.|.d.u._ 8.f.+.+.+.#.#.O.+.#.#.O.+.+.O.8.+.O.O.O.",
"8.+.+.8.r.8.+.+.8.r.8.8.8.8.+.7./ 7.8.Y.d.[ } f.r.d.] ` 8.Y.7.] ' :.' ' 7._.t.r.t.N.#.#.8. .` ,.] ] 7.+.#.7./ ] 8.f.7./ / 7.7.[ I T O.O.( K K ' O.+.#.#.+.8.+.8.#.#.+.+.+.+.O.+.7.O.[ +.[ R [ 8.#._ P ) #.#.[ ( 7.Y.N.8.[ ] ,.[ _ 8._.#.#.r.#.+.r.7.` E ` E ] 7.f.t.8._ O._._.f.f.b._.f.c.] _ v.t.#.8.8.8.8.r.O. .f.oX+.` I j 0 J _ #.#.t.t.'.t._.O.,.%XXX7.7.7.d.#X_.b.[ r.'._.r.} ' ;.;.E ,.8.+.+.8.#.t.u.,.:.,.,.,.,.u.f.XX7.[ _._.8.' E 7.f.N.O./ 7.7.O.O.+.+.O.+.+.+.} [ +.[ [ } +.8.O.O.O.r.t.+.+.r.[ _ +.N.Y._.Y.N.%.].8.[ f.t._.d.[ ;.;.:.' ,.d.Y.N.Y.Y.N.Y.7.] ,.[ [ 9.}.Y._.7.[ f.[.f.7.[ f._.t.[ / 8.oXN.t.Y._._._.N.N._._.Y._._._._._._._._._.f.8.#._.9._ 8.'._.7.[ 8._._.d.[ 7.XX_.Q.9.,.7.,.,.z.|.Y._.Y.Y.t._.f.5.,.7.,.,.u._._.}.7.9.oX#XXXu.7.oX_.Y._ ( r.#.#.r.8.r.r.#.#.#.#.t.%.N.O.O.O.#.+.#.+.#.#.+.t.}.7._ Y._.|.f.7._.]._.8._ u.Y._.8.] ] :.] ] 7.N.#.%.N.N._.Y.7.] ,.[ ` [ r.#._.+.( +.t.8.7.] 7.g.t.[ T [ 8.+.+.+.O.+.+.} +.O.+.#.t.r.#.O.+.8.8.8.u.8.+.#.f.[ [ f._.d.7.8._.N.Y.O.O._._.t.7.[ ,.:.` ,.d.t.#.r.r.#.t.7.' ` :.' ] 8.|.OX8.[ f._.Q.7.[ 8._.OXO.( 3.G l ` ) ( } 8.8.t.t.t._.Y.t.t.t.N.t.t.r.8.8.8.t.f.[  ._._.8.[ O.Y._.u.] 3.oX'.Y.7.,.,.,.5.u.|._._._._.N.].}.7.] ,.,.[ 8._.oXd.[ f._.|.9.3.Q._.Y.8._ 8.r.#.#.r.+.#.+.+.#.#.+.+.O.8.+.r.+.r.+.",
"+.8.+.+.8.8.+.#.+.8.8.7.8.O.O.7.~ 7.r.r.Y.d.d.r.#.f._ ` d.f.] / ;.' ' 3.8.t.r.t.r.#.+.+.8.7.' ] ] / ` 7.8.7.` ` 7.8.7.[ } 7.+.] J T O.[ _ K P 7.+.+.+.+.+.8.r.8.+.+.+.+.O.O.O.} } +.[ [ ] T _ +.+.O._ O.+.O.` T [ r.t.[ ' ,.,.` } N.N.r.r.r.+.+.r.f.,.E ;.E T ] u.t.7._ [ Y.t.r._.f.f.f.9.` ] f.#.g.8.+.8.+.+.#.8.t.#.#._.#.#.O.J 0 / } O.7.8.f.Y.} :.%XOXQ.7.u.|._.oXz.` d._.N.7.' :.;.T ] u.+.+.+.8.+.+.r.8.:.:.,.,.:.,.8./.7._ d._.Y.7.} d.r.t.[ ~ 7.7.O.O.} O.+.8.+.O.O.+.8.O._ +.O.+.O.O.} +.+.+.O.8.] ` O._.r.Y.Y.r.%.].7._ 8._.v.5.' >.;.;.:.d.Y.t.r.Y.m.8.f.Q.3.] ,.` ] c.f.f.7.[ d._._.r.8.f.t.8.] ` u._._.r.t._._.Y.Y.N.N.N._.N._.'.N._._.Y.Y._.f.f._.}.7.) 8._._.Y.f.Y._._.d.] 7.#X_.7.:.,.,.>.9.}._.f.f.N.Y.t.t._.d.,.,.3.,.,.Y._.Y.7.7.oXoX|.XXY.Y.t.t.' ' r.+.+.8.r.t.+.r.#.t.#.#.#.N.t.O.} +.+.+.#.r.O.+.r.f.3._ f._.Y.|.Y._.N.r.7.( 8.f.f.,.' ,.] ' 3.Y.#.#.#.N.N.r.N.N.} ] [ ] /  .#.#.+./ O.#.#.g.7.u.+.8.] T :.[ +.+.O.8.+.O.} O.O.+.t.t.#.r.+.+.+.7.7.7.O.+.8.d._ [ 8.N.Y.t.f.r._.|.[ [ Y._.+.] :.:.;.:.8.N.#.r.#.r.+.+.r.7.^ ` :.' :.z.|.7.[ d.Y.Q.f.8.Y._._.+.( [ n j ` R R [ +.#.r.N.N.f._.f.t.r.f.t.r.f.8.O.O.+.u.[ [ _._.N.8.t._.N.d.] O.|._.7.:.,.:.:.7.|._.N.N._._.N.Y._.Y.[ ,.,.] ,.f.|.8.[ c.Y._.}.Y.Q.Y._.7.` 8.r.N.+.#.O.+.#.#.O.#.+.#.O.+.+.O.+.O.8.",
"r.r.8.r.8.8.r.r.+.8.8.8.O.O.O.8./ 7.r.r.r.Y.r.r.#.d.] ` d.8.` ;.` ' [ 8.8.r.r.t.8.+.#.#.#.8.7.] ' :.' 7.r.7.` _ O.+.#.8.8.+.O.[ J / } O.8.[ P ( O.#.+.8.8.+.+.O.O.+.+.O.+.+.7.O.O.7.O.7.5./ _ +.O.+.+.O.} [ ` R [ r.7.] :.,.:.,.d.N.r.N.N.r.r.r.r.r.u.,.E ` ` ` O.t.8._ [ v.t.t._.f.f.p.9.` [ f.#.r.r.8.t.#.8.#.#.t.r.o.#.O.O.#.7.n 8 n J 0 n ] }.7.[ #XOXOXi.Q.[._.OXu._ Y._.r.] ' :.` ] r.t.+.+.+.7.+.+.+.r.9.,.:.5.,.,.7.XX9.` u._.t.Y.r.f.+.t.} ' 7.O.+.+.O.+.O.+.+.+.+.r.#.8.O.+.#.8.+.O.} O.+.8.+.8.[ ] 7.f.f.Y.d.r.N.OX7._ 8.f.7.:.1.>.;.,.8.Y.t.N.Y.t.r.d.f.Y.d.,.' ] ` [ 8.}.9.[ f.oXt.t.t.t.8.8.[ ` z.}.#.#.t._._._._._.t._._._._._._.'._._._._._.Y._._.7.` 8._.N.N._.f._._.f.] 9.#Xu.:.,.,.,.9.}._._._._.N.t.f._.Y.Y.u.5.,.3.,.8._._.7.7.}._._.[._._.t.t._ [ d.+.O.+.Y.N.r.#.#.N.#.t.t.N.t.+.+.8.+.8.+.8.+.r.8.Q.] ] f._.r.Y.t.N.t.r.7.` d.Y.u.] :.,.] 7.d.m.#.#.%.%.N.N.N.N.t.7._ [ ` ) O.#.O./ +.#.o.t.8.8.+.u.] T ,.O.O.+.+.t.r.8.+.+.#.r.+.N._.Y.r.r.+.+.+.8.+.8.N.f._ [ 8.t.t.N.Y.r._._.[ [ Y.t.} ,.,.' :.8.r.r.#.r.#.#.8.r.N.d.,.' ;.;.:.j.XX7.[ f.|.Y._.Y.R.Y._.+.( 7.E J E R ) O.8.+.#.t.Y.Y.f.r.t.t.r.r.f.8.7.O.+.8.d.[  ._.$._._.N._.N.f.] 7.oX7.:.,.,.:.7.Q._._._._.N._.N._.N._.c.,.:.,.] 7.}.8.[ c.Y._.Y._.^.Y._.7.` 8.r.N.N._.r.#.#.#.#.r.#.t.8.O.O.O.+.8.+.",
"r.8.8.r.t.t.+.r.r.r.r.r.7.8.d.7./ ,.8.t.+.Y.r.+.#.8.' ` z.O./ ' ` ] 7.8.+.8.8.+.+.g.+.8.+.7.8.7.` ` :.[ 8.8./ _ [ +.O.+.8.+.[ [ U P O.+.N.} Z _ _ ( +.r.+.O.O.+.O.O.O.[ 7.8.O.8.7.[ [ 7.3.` _ O.O.O.O.} { O.[ / O.Y.7.:.>.:.,._.Y.r.r.r.m.r.#.r.r.+.8.u.:.E :.' [ t.8.( O.t.t.t.t.v.t.8.u./ ` f.t.#.r.#.#.#.#.#.#.O.+.t.#.O.+.O.O.[ U [ 7.I y 0 ] [ / |.$XN.Z.Y.[.[.[.O._ _.#.O._ ' ` ] r.#.+.#.+.O.} O.7.O.+.t.u.,.,.7.,.7./.7.' 7.u.r.t.8.8.8.+.' ' 7.+.} O.+.+.O.+.O.8.8.+.r.+.O.O.8.+.+.#.O.r.8.+.+.t._ _ 8.8.N.Y.8.r.t._.8.` 8.f.,.>.>.1.,.d.Y.t.r.r.r.8.8.d.d.d.f.u.' ' ' ` O.}.7.[ 8._.#.8.r.t.#.f.7./ 9._.#.#.t.N._._.N.N.N.N.N._.N.N._._._._._.N._._.#._.7.( 8._.#.r.Y.r.N._.u.' 7.XX7.>.2.:.7.c._.f.f._._.t.t.t._.t.N._.d.,.,.3.+._._.O.7.f._._.|.|.N.t.f.' ' Y.t.+.#.#.Y.#.#.#.t.N.#.#.N.+.+.+.8.+.t.O.+.+.r.r.d.] [ d.t.N.r.r.N.#._.7.' d.Q.7.,.>.:.7._.m.#.+.#.%.#.r.N.N.r.N.f._ ] ] ( _ #.} W O.#.o.#.8.8.O.7.] U 7.9.[ O.8.r.r.} +.N.#.+.#.t.r.r.t.r.+.+.O.O.t.r.r.Y._ [ O.N.t.r.Y.N.t.Y.[ [ d.8.[ ,.:.' 8._.t.#.r.+.+.+.#.r.r.N.f.3.;.:.,.7.Q.8.[ d._.R.Y.Y.Y.r.Y.} n J T P U P [ 7.8.8.r.8.t.f.8.8.r.#.#.8.#.#.8.d.Y.Y.u.] } _.#.#._._._._.d.] 7.|. .:.,.:.,.Q._.N._._.Y.N.N.N._.N.N._.f.,.,.:.[ Q.u._ u.Y._.Y.Y.Y._.r.9./ d.#.#.N.r.N.#.O.+.t.+.r.8.+.O.O.#.O.+.+.",
"r.t.+.r.t.r.r.r.r.r.r.r.8.d.Y.d./ 7.r.r.t.t.r.+.r.r.' ] z.7.E ^ ] 8.8.+.+.8.8.+.#.8.#.#.8.g.8.u.5.` ' ,.t.u.` ) [ +.+.+.7.+.+.7./ ( t.#.#.O.D ( ( R ) +.8.O.O.+.+.+.+.O.[ O.8.8.O.O.O.O.' P [ +.O.} [ [ } #.7._ 7.Y.7.,.:.7.Y._.Y.N.N.m.r.r.N.r.r.+.+.d.9.:.;.:.O.t.f._ 7._.t.v.t.f.v._.c.) _ _.t.t.t.8.#.+.t.t.8.O.+.+.+.+.8.O.O.} [ _ } 7.7.T Z k k [ $X_.OXY.'.N.8.' 7.$Xt._ } ] _ r.&.#.#.+.O.O.O.O.O.O.#.#.Y.z.3.:.,.9./.,./ ,.7.8.f.7.[ / L j n 5.7.+.#.+.7.+.+.+.8.8.8.8.O.+.8.8.8.8.r.r.Y.f.r.8._.[ [ 8.r.N.f.r.Y.N.'.d.[ f.b.,.>.,.>.u.Y.t.t.t.r.8.8.r.f.d.r.t.Y.7.] ' ` [ }.9.[ 7.+.+.t.t.t.t._.7.` 7.f.#.N.N.N.N._._.N.N._._._._._._._.oX_._.Y.Y.N.N.oX7.( 8.N.t.N.t.r.N.'.u.] 9.XX7.>.2.7.Q._._._._.f.t.t.Y.t.f.f._.N._.u.[ ] 8._._.7.8._._.'.|.}._._.Y._ ' _.N.N.r.+.t._._.#.N._.t.+.#.N.+.O.O.N.N.#.+.O.r.N.d.] [ Y.N.N.r.r.N.N._.8.[ d.Y.7.:.:.7.Y.N.#.%.#.+.#.N.r.Y.N.N.N.Y.8.[ ` _ O.#.O.( +.#.#.#.8.8.O.7.] E 7.+.O.+.O.+.} [ O.t.#.#.#.r.#.r.+.8.r.r.+.8.t.N.Y.Y._ [ 7.t.N.f.Y.r._._.[ O.Y.r.[ :.:.9.Y.t.t.t.r.+.+.#.+.r.N.N._.Q.7.:.,.9.|.u.[ d._._.r.r.N.N.}.T 1 9 / ( ) _ O.8.r.t.r.8.8.8.8.r.t.r.r.#.r.r.Y.Y._.Y.d.] O._.#.t.N.N._._.u.[ 7.}. .:.,.,.f._._._._._.Y.N.N.N._.N._._._.u.,.' O.}.f.[ f.Y._.Y._.Y.Y._.8.' r.r.#.#.+.#.+.O.+.#.#.+.O.#.#.+.#.+.8.8.",
"Y.r.8.+.8.r.r.8.8.r.+.8.r.8.t.d./ 7.r.8.t.r.+.#.#.8.` ` c.[ T :.7.8.+.O.+.+.O.8.+.7.#.t.8.8.O.+.7._ E [ f.8./ ] O.} +.8.+.O.+.7.T ` #.#.#.O.Z P _ [ _ [ [ O.+.O.+.+.7.O.` ) [ 7.7.} } 7./ T 7.O.} } _ O.+.O.} _ 7.d.7.] ] c.}.r.r.N.N.r.r.r.r.8.O.8.8.8.d.9.] ' 7.Y.8._ 8._.t.r.t.t.t._.f.] [ t.t.t.#.+.8.+.8.#.t.r.+.O.8.7.O.+.+.} O.} O.( [ 7.O.T J z _ r.r.} E k d 0 J ` T K / _ d.Y._.%.%.O.O.} O.} O.O.7.u._.}.z.,.[ d.#X7.` 9.u.[ [ [ ] T Y 9 < 9 U ] [ T Y U ,.8.8.+.8.+.8.8.t.+.8.8.8.f.d.f.Y.r.8._ _ 7.t.r.t.t.r.m._.8.[ u.c.5.;.>.z.Y.m.r.r.N.t.Y.Y.d.8.r.Y.r.#.N.O./ ' [ c.,.' 3.+.+.t.f.8.t.N.7.` 7.Y.t._.Y.t.N.N.N._._._._._._.N.'.'._._.N.Y._.t.N._.O.( 8.t.r._.#.#.t._.d.' 7.XX9.:.7.}.oX_.v.N.N.t.t.t.r.t.t.t.N.t.N._.8._ +._.Y.[ 8.|.N._._.Y.Y._.Y.' ' Y.N.N.t.r.t.#.Y.N.N.N.#.+.t.t.8.} +.t.t.#.O.+.#.#.d.] [ _.N.r.t.r.r.N.t.d._ 8.f.7.' ,.c.#.#.+.N.+.+.+.t.r.r.r.N.r.N.t.7.( ( O.+.O./ +.#.o.#.+.+.@.8.) / O.O.+.O.#.#.O.8.O.O.+.#.O.+.r.r.O.O.+.+.+.r.r.#.N.f.' 7.8.r.N.Y.t.8.N.Y.[ [ Q.f.[ ' 3._.N.#.#.t.#.+.+.+.8.r.r.t.t.N.f.7.' 7.|.8.[ d._.N.t.N.8.+.d.j @ U O.| O.+.8.#.#.t.t.#.#.8.r.r.t.t.r.#.r.Y._.Y.N._.d.] O._.%.N.N.t._._.d.[ 7.oXO.' ,.d._.N._._._.N.N.N._.N.t.N._.N.N._.7.' O.|.u.[ f.N.N._.R.Z.N._.8.' 8.N.#.+.N.#.t.+.O.+.r.+.r.O.8.+.O.8.+.8.",
"Y.r.O.+.+.r.r.r.7.O.O.8.f.r.t.d.( 7.t.#.t.#.+.t.#.d._ ] c.} _ u.d.8.8.8.+.+.8.r.+.8.7.8.+.7.+.@.8.7.' ] f.u./  .8.O.+.#.+.O.+.7./ ( #.#.#.O.Z P O.#.O.O.O.+.+.+.9.+.7.7.[ [ [ 7.f.O.+.8.) / 7.+.O.O.} +.+.+.7._ 7.Q.7.[ d._.t.r.r.#.N.N.N.8.8.8.7.r.r.8.Y.Y.9.] 7.|.d.[ 8._.t.t.v.t._._.u.[  .f.+.+.8.r.t.r.r.r._.'.f.+.r.r.8.8.8.O.O.7.O.O.+.} O._ ] ] ' P P Z K U ` I j 0 d 0 g z Z 0 z P } } { _ } _ ( U J U 7._.oXu.3.9.Q.,.` 9.7.' :.u.u.] ,.` c q 7 q M c p q n ' 8.8.t.8.t.8.8.t.t.#.8.f.t.f.f.t.u.) [ 7.8.d.Y.t.N.t._.7.] z.XX7.' 9.}.Y.N.r.Y.Y._._.|.Y.f.f.f.r.t.%.t.,./ O.f._ ' 8.f.8.t.v.f.t.f.9.[ 9.|.t.Y._._.t.t._.'._._._._._.'.'.'._.N.Y._._.N.N._.O.( 8.t.t.t.#.t.N.|.c.] 8.#X8.8.|.oX'._._.N.t.t._.t.8.#.t._.N.N.N._.Y.8.+._.Y.O.u.oX_._._._._._.f.' [ _.N.t.N.N.N.+.#.#._.Y.r.#.N._.8.#.N.N.r.+.8.r.t.+.f.[ [ }.Y.r.r.8.t.t._.8._ f.f.[ ] z.t.#.#.#.#.#.#.+.r.r.N.r.m.N.N.N.f.[ ) { #.O.( #.#.o.#.#.8.#.p. ._ 8.8.O.O.8.t.#.#.+.+.+.+.8.t.8.+.O.+.O.O.#.r.r.t.t.t._ 7.8.t.N.Y.t.N.N._.} [ Y.Y.O.O.d.N.#.t.#.r.#.#.+.r.r.#.t._.t.t._.f.7.9.XXd.[ f._.N.t.r.+.+.u.n e 5.g.+.t.g.t.t.t.N.f.r.g.t.Y.t.t.t.r.t.Y.Y._.Y.N.N.f.[ +.'._.N._.t._._.f.[ 7.oX+.[ d._._._._._._._._._._.N.N.N._.N.N._.Y.7.8.'.f.[ Y._.N._._.N.N.Y.8.' 8.r.#.#.N.#.t.r.8.+.8.r.N.8.r.+.+.r.r.r.",
"Y.r.+.#.8.+.8.8.O.O.8.Y.r.r.r.8.( 7.r.#.#.#.+.+.t.d.` ' u.+.O.8.r.8.r.8.O.O.8.8.8.8.O.O.+.#.+.O.+.7.7.O.d.8./ ] 8.r.+.+.O.8.9.] P ( #.X.#._ V / 7.O.+.8.8.O.+.O.+.O.} 7.u.7.O.7.7.7.+.8.,./ } r.O._ } O.+.8.[ ` 7.|.8.8._.t.8.r.#.+.r.Y.N.r.8.8.d.7.8.t.r.Y.c.7.8.}.d.[ 7.d.r.t.t.t._.9. .[ [ 8.O.O.8.Y.Y.r.t.r.Y._.8.O.+.d.8.7.7.O.O.+.O.+.+.7.7.' ` p.d.O.8.8.oXY.c.,.` } _.+.T e d 0 9 + 2 z ( D k k J n I c k ,.f.' I v J n I T E ,.c.}.p./ [ 7.` 1.T b ` 9.3.U n n E ` [ 9.f.Y.f.r.r.r.r.r.Y.8.8.t.d.` ]  .[ r.Y.r.Y.f.7.[ ` u.Q.7.7.f.Y.r.t.N.t.r.Y.}.Y.Y.Y.r.r.r.#.#.N.7.` [ f.` ` z.8.r.f.r._.v.9.7.[ 9._._._._._.t.#.t.N._._._._._.].'._.Y.Y._.Y.Y.N.#.t.O.( 8.8.#.r.#.r._._.d._ 9.oXN._.OX_._.'._.N.t.t._._.8.#._.t.t.N.N.r.N.N.m.N.Y.} 8.Y.t._.Y.Y.oXf.8.[ _ Y.%.N.N.t.Y.Y.8.+.Y.N.d.8.#.t.N.r.t.+.+.#.N.r.r.r.r.[ [ d.r.Z.r.8.N.r.r.7.( d.f.7.8.Y.#.+.%.%.%.+.t.+.+.r.N.+.r.r.r.r.d.d.} { 8.O.( O.#.#.#.+.t.#.+.} _ 8.r.+.+.O.8.#.O.O.r.+.O.+.8.+.O.O.8.+.+.+.+.r.#.#.8._ [ 8.N.m.t.r.N.N.d._ _ d.N.#.N.Y.N.#.#.#.#.r.+.O.+.8.#.t.t.r.r.r.Y.f.8.|.z.[ 8.R._.r.+.r.O.' U T O.r.t.t.t.t.t.N.t.f.f.Y.f.N.Y.N.t.Y.t.Y._.Y.Y.t.t.d.[ 7._.%._.t.N._.f.u.[ O.|.r.Y._.Y.N._.N.N.N.N._.N.N._.R.t.t.N.N.N.N.N.#.N.d._ d.d.R.Y.Y.Y._.O.7.' 7.r.t.#.#.#.#.+.r.+.O.8.r.t.r.r.+.+.r.r.",
"r.r.#.t.+.8.8.+.#.f.d.f.r.#.r.8.( 7.r.+.+.t.+.#.t.8.' ] u.8.+.8.+.r.N.r.+.+.O.+.+.+.O.+.8.r.+.+.+.#.8.8.8.u.' ] O.+.+.t.#.@.7.E J _ #.o.#.[ S ) 8.+.+.r.8.8.+.+.+.O.O.8.8.8.8.+.+.8.r.f.7.] 7.+.+.O.O.#.O.O.O._ 7.|.t.r.d.r.#.t.r.+.#.r.Y.m.r.r.r.t.t.Y.Y.t._.Y.f.}.c.[ 7.8.#.f._._.g.[  .7.O.r.+.+.8.r.Y._.Y.r.r.#.+.O.8.8.8.8.7.O.+.8.7.+.8.8.u._ _ +.O.7.8.r._.O._ [ / O._.O.P P O.#.8.' / _ t.O.T ' 8.8.u.:.E I U j c I >.T ' ` T 7.oXu.] ' 7.,.R j.u.O.O.7.8.7.7.,.] U J U 7.Q.}.7.[ } 8.r.f.r.r.8.8./ ] [ ) 7._.Y.Y.8.[ ,.) 7.Y.Y.Y.Y.N.r.t.r.m.t.Y.Y.Y.d.r.Z.t.t.r.#._.f.,.[ c._ ] 9.O.Y._.v._.g.O.7.O.u._.N.'._.N.t.r.r.N._._._._._.'.'._.Y._._.Y._._.#._.7.` 8.8.O.N.t.Y._.Y.u.[ u.OX_._._._._._._._.N.N._._.N.t._._._.t.N.t.t.Y.N._.v.} 8.8.#._._._.}.7.7.} [ Y.N._.N.t._._.Y.r.t.N.Y.8.t.Y.Y.8.8.+.r.t.N.N.t.t.d.] [ 8.+.r.N.t.N.8.O.+._ r.Y.N.Y.#.#.+.#.%.%.%.N.#.#.r.N.N.N.r.Y.r.Y._.r.+.8.O.( O.O.#.#.#.t.@.O.+.[ 7.t.t.+.+.8.r.#.+.t.+.O.} O.O.#.r.t.r.r.+.8.r.#.t.8._ [ +.#.N.Y.f.N.#.8.[ [ f.N.#.N.t.N.N.#.#.t.N.r.+.+.+.t.t.t.t.r.t.N.Y.r.oXu.] 7.d.Z.N.t.r.P s 0 J 8.t.t.t.t._._._._._.Y._.Y._.Y.N._.Y.Y._._._.r.#.Y.f.[ 7._.#._._._._.8.7.7.7._.N._._._._._._.t.N._._.N.t.N.N.N._._._.N.N.N.#._.r._ d.8.Y.Y._.t.#._ 7.] 8.N.N.t.t.#.%.#.N.r.#.+.t.r.+.+.#.r.N.r.",
"+.r.#.+.r.#.+.r.r.r.8.+.7.+.8.8./ O.d.[ [ r.#.r.[ } ' ] 8.r.+.8.O.+.t.r.+.+.O.8.O.8.+.r.8.+.+.#.+.8.8.+.t.9./ ] ` ` 7.u.8.O.R T U / O.#.O.P Z ` } +.+.7.8.8.+.+.O.+.7.7.O.8.+.O.8.7.8.f.[ ' 7.[ [ +.+.O.' [ O.` O.Y.r.d.8.8.#.8.Y.8.+.+.r.r.r.d.r.m.Y.r.r.r.f.Y.Y.}.c.[ 7.u.[ 7.Y.t.| _ u.[ [ f.7.+.8.#.Y.f.r.#.#.r.Y.+.+.+.8.+.O.O.8.8.8.8.8.r.u._ ( 7.7.[ t.[.8.[ O.u.) 7.t.r.O.8.t.O.+.+.#.+.#.8.+.8.t.+.r.d.u.^ U T :.[ 9.~ / 9./ / j.7.' ] 9.7./ 7.f.#.O.+.8.} O.+.r.8.7./ / ] ` I N P ` ` _ 7.8.d.d.T / 7./ ` d._.8.` ,.7./ 7.|.N.Y.r.r.r.8.+.+.t.r.r.r.r.f.r.r.r.r.t.8.8.7.O.z.] ' z.[ O._._.f.| 7.u.[ 8._.N.N.t.m.r.N.N.t.#._._.N._._.N._._.Y.N.Y.Y.t.N._.O.( 8.7.( 8._.r.O.+.d.] 8.#X_._._.Y._.N.t.N.N.N.N._._.#.N._.N.t.#.r.Y.r.N._.d.[ 7.8._ 7._._.7.[ z.} _ Y.N.t.N.t.t.t.Y.r.#.t.N.8.t.r.t.r.+.8.Y.r.r.t.N.r.8._ _ u.O.[ N.N.+.( +.7.( d.Y.r.t.+.+.#.N.#.#.&.#.#.+.+.r.N.N.t.Y.r.r.d.d.+.r.} ( O._ [ #.#.7./ O.O.( 7.8.+.8.7.O.O.+.8.O.8.O.[ O.+.r.r.+.t.r.+.r.+.+.r.8.` ,.O._ r.N.Y.7.( 7.[ [ r.N.#.#.#.#.#.#.#.#.N.r.O.+.#.#.r.#.#.t.r.r.r.t.|.7.` 9.7.' 8._.[ I I e n 8.t.t.t.t._._._._.N.t.Y._.Y.Y._.N.Y._._.Y.Y.r.t.Y.f.[ 7.f.[ r._.N.7.[ z.[ O._.N.N.Y.Y._.N.N.N.N.N.R.N.#.#.N.N._.N.N.N.N.#.#._.8._ Q.8.O.Y._.8._ [ 7.' O.Y.r.#.t.#.#.#.r.N.#.+.+.r.O.+.t.8.r.r.",
"#.r.#.r.+.+.+.r.8.+.+.O.O.8.r.d./ O.f.} ( 8.t.O.( 8.,.] 8.t.8.r.+.+.+.r.8.O.+.r.8.8.8.t.r.t.r.#.@.+.8.8.t.7.` 7.7._ (  .7.( _ 7./ ( +.+.P l Z ] [ O.8.+.7.8.8.+.+.8.8.8.8.7.O.8.f.8.8.g.[ ] 7.[ / O._.O./ 7.8.` 7.Q.7.8.r.r.r.8.Y.f.+.+.+.Y.f.r.r.#.8.r.r.Y.Y.f._.|.c._ 7.XX .[ f.7.[ 7.f._ [ Y.8.+.+.r.N.r.f.r.t.t.Y.t.t.r.t.8.8.7.+.r.Y.d.r.8.u.[ [ p.O.` 9.p.) O.c.7.[ g._.#.t.r.t.#.#.#.+.#.t.+.+.+.r.+.r.r.8.,.,.7.8.} 7./ _ }.7.' :.` 7.u.7.7.` u.f.r.@.+.t.+.+.O.O.#.N.r.u.7.} ,.,.,.3.' ` P P [ 9.U ` 9._ E [ 7.[ ` u.9.` u.oXt.f.r.r.r.8.+.8.r.t.t.r.r.Y.Y.r.8._.[ T 3.7.+.c.] ] c.7._ p._.O.[ v.f.[ 9.oXY.t.r.N.N._._.N.N._._._._._._._._.Y.N.N.N.t._._.O./ u.u.(  .oX@._ f.b.[ u.$X_._.'._.N.t.t.N._.N._._.t.#._.N.t.#.t.t._.t.t.'.8._ 8.Q.,.,.c.u.[ 7.|.O.[ _._.N.N.t.r.#.t.r.t.t._.r.#.N._.N.N.t.N.t.t.t.r.+.8.[ [ d.8.( 8.t.[ _ f.8.( d.t.#.Y.r.#.#.%.#.%.%.N.+.O.#.t.#.#.r.+.8.8.7.8.8.Y.} ( 7.} ) +.v.[ _ p.7.) +.t.#.8.8.8.} O.O.8.+.+.O.8.r.+.+.t.r.8.+.8.8.8.t.8._ 7.9._ O._.f._ _ Q.O._ t._.#.#.#.+.#.#.#.t.N.r.#.r.r.#.t.t.r.t.t.r.8.t.}.7.] c.9.^ ` :.N U 9.J J d.t.t._._._._.Y.t.t.N._._._._._.Y._._.oX_.f.f.Y._.Q.[ 7.}.[ [ Y.u.[ 7.b.[ 7.oXN._.Y.N.N.#.t.N._.N._.N.N.N._._.'._._.N.N.N.N._.8.[ XXf.[ 7.Q.7.[ d.8.' 7.Y.t.N._.t.t.r.r.t.N.8.8.8.+.+.t.r.r.t.",
"+.+.#.#.+.O.+.8.r.r.+.8.7.O.r.8./ } r.8.( [ [ _ O.}.[ ' d.#.#.r.+.8.8.8.+.r.8.8.r.8.+.+.t.N.r.#.+.#.8.+.8.7.` 7.Q.u.) ) ` _ 7.9.T ~ O.| P J I T [ O.} +.+.O.+.r.r.7.8.r.+.O.+.8.f.8.+.8.O.` 7.f._ ( ,._ } 7.3./ [ d.+.+.8.8.r.N.r.t.8.+.r.r.r.8.+.r.t.r.f.r.f._.f._.f.] 7.%Xl._ [ [ O.d.8.) _ r.+.8.r.8.t.Y.r.8.t.r.r.N.N.t.8.8.r.8.8.r.d.8.+.+.8._ [ 8.8._ / ] _ 8.8.,.) t.t.#.t.#.8.t.t.+.g.8.+.t.+.O.8.N.N.+.7.O.8.8.+.8.u.] ] 9.u.7.] ,.b.8.} 7.( d.N.+.g.O.+.r.8.} O.#.+.r.t.r.N.r.f.8.8.d.8.[ / Z I v U 7.7._ ] ) ] ,.9.9.` u.Y.Y.Y.r.8.+.r.+.O.8.r.+.%.N.r.r.r.N.7.U ^ 7.7.O.f.[ ' c.v.7.7. .O.t._.t.[ 7._.N.N.t.r.Y.N.N._._.N.N._._.N._._._._.N.r.Y._.t.f.[ / 7.Q.7.[ 7.O.8.}.9.[ u.#X_._._._._.N._.t.N._._._.r.#.N.N.#.#.Y.t.t.t.t.N.7._ 8.|.f.,.:.,.7.d.Y.7.[ Y.t.N._.t.N._._.Y._.N.t.r._._.t.N._.r.r.t.f.8.O.O.8.[ ( 8.Y.O._ _ O.r.+.8.( 8.r.#.r.r.#.+.#.%.#.%.#.+.#.8.r.#.r.+.r.+.8.+.8.8.f.} / 7.u.( O.O.( 8.8.7.` 7.f.#.O.r.f.7.7.O.+.O.7.O.r.#.r.#.#.#.8.O.O.8.+.r.8.` [ c.8._ 7.O.[ f.f.[ _ f.t.#.t.#.#.r.#.t.#.#.t.r.#.r.t.#.r.t.#.#.t.8.#.Q.3.' 9.z.7./ E ` I K I K O.t.t._._.t.f.N.Y.Y.N.Y._._._.Y.Y._._._.Y.f.f.f.|.c._ O.}.f.[ ,.,.7.Q.8.] 7.|.Y._.Y.Y.Y.Y._.N.Y._._.t.N.N.N._._._.N.#.t.N.t.Y.8._ }.|.7.] 7.} Y.8.7.' 7.r.t.t.f.t.#.#.N.r.r.r.r.O.8.8.+.N.r.r.",
"+.#.#.r.+.+.r.r.r.t.r.8.+.8.8.8./ [ 8.#.O._ _ f.r.8.[ ] d.r.#.8.r.t.+.8.8.r.+.8.8.+.+.t.#.#.#.+.+.t.8.+.t.u._  .8.d.7.) / 7.t.7.T ( O.+.O._ P / [ O.O.+.+.7.7.8.t.t.8.8.+.r.t.8.9.+.8.f.7.] 7.Y.Y.O.( } f.O.[ ' ] u.8.8.8.+.8.f.Y.r.r.r.Y.Y.r.+.#.Y._._._._._.f.f._.Y.[ O.}.b.7.] 7._.t.7.` _ Y.r.Y.Y.r.t.t.t.t.t.r.t.g.8.t.t.r.t.r.r.+.+.O.O.+.8.[ ] 8.t.+.[ ` u.8.7.7._ 8.#.#._.t.t.#.#.t.f.8.8.8.#.#.8.t.N.8.+.+.t.r.8.r.f.] :.9.8.f.8.c.}.7.} 7._ 8._.#.#.@.+.t.r.+.O.O.8.8.9.8.8.#.8.O.O.O.O.+.8.' T k J /  .7.7.] 3.} 8.3./ d.oXt.t.r.r.r.N.8._ O.#.#.#.o._.t.m.N.' ~ 7.7.7.8.f.[ ] c.v.8.9.7.f.'._.8.[ 8.|._._.Y.Y.Y.N.N._._._._._._._._._._.Y.N.r.r.r.t.r.O.` 7.f.N.7._ 7.|.f.9.,.u.#X_._._._._._._._._.t._._.r.t.N._._.N._.N.t.t.t.t.8.[ 8.Y.|.8.,.7.|.Y.c.7.} _.t._.'._._._._._.'._._.t._.N.t.N.t.t._.t.8.O.O.#.Y.} _ 8.#.m.O.} Y.#.O.8.` 7.N.#.t.N.#.#.%.%.%.%.%.%.N.r.r.N.N.r.r.8.8.8.r.+._.O.( O.t.+.O.[ 8._.r.3.` 8.Y.8.t.8.r.f.8.O.O.t.8.O.7.N.t.r.#.r.r.+.#.r.t.8.8.' [ 8.Y.8.} O.Y.r.7.[ [ r.N.#.r.r.N.N.t.#.#.N.t.#.t.%.N.N.t.t.#.#.r.8.8.Y.7.] 7.7.7.] 7.c.^ J :.` O.Y.t._._._._._._._._._.r.r.Y._._.Y.Y._.Y._.Y._._.f.[ O.Y._.}.7.7.oX_.7.[ 7.|.Y._.|._.Y._._.N._._.R.t.t.N._._.N.t.t.N._.t._._.8.[ c.}.Q.7.9.Q.OXd.7.:.7.Y.N.r.8.+.r.t.Y.N.Y.r.t.r.r.+.r.m.r.r.",
"O.+.O.O.+.+.+.r.r.8.8.8.+.+.+.8./ [ 7.O.7.8.8._.O.7.[ _ 8.r.+.r.r.r.r.r.#.+.+.r.+.O.+.#.#.#.O.#.r.#.8.r.t.9.` 7.7.O.8.8.7.7.O.` J _ O.+.O./ P ) _ [ +.O.+.8.7._ O.Y.8.O.8.r.t.8.+.8.r.r.7.,.9.O.r.Z.+.r.7._ 3.' ` u.8.r.r.+.7.8.r.N.N.t.N.Y.8.+.#.r._.|.R.Y.Y.Y._._.f.[ [ f.u.u.8.Q.f.O.7.` _ f.r.t.Y.N.r.8.t.r.8.r.t. .O.t.N.#.r.#.#.+.O.+.8.+.8.[ _ 7.O.8.| _ r.O.[ 7.) 7.t.#.t.t.+.@.#.t.t.t.r.+.r.8.+.8.r.#.r.8.r.r.N.8.u.] ] 9.` 7.|.d.9.] } 7.' 8.#.#.#.O.O.#.#.+.O.} 7._ / [ +.+.O.O.O.} O.O.O.+.7.^ ^ ' Z J ] 7.7.7.c.] T z.|.r.8.7.8.d.d./ K _ O.O.+.O.[ ' ` _ O.8.8.7.7.8.f._ ' 9.7.7.oX}.c.p.8.8._ 8.oXN.Y._._.N.N.Y.N.N._.Y.+.r._.N.N.N.r.r.r.8.8.8.r.O.` 7.7.O.d.8._.f.7.9.,.9.#X_._._._._._.N._.Y._._.g.#.#.t.8.t._.N.t.t.8.#.t.u.[ 7.u.8.Y.Q.d.d.9.z.} [ _.N._._._.N.t.N.N.N.N.N.+.8.N.t.+.r.t.t.#.#.O.t.N.Y.} [ u.O.+.N.N.Y._ } 8.( 7.Y.#.#.%.%.%.#.r.#.#.%.%.N.r.N.r.Y.r.+.+.f.r.8.+.Y.7.' 7.+.8.+.O.Y.8.[ 3.` 7.u.r.r.8.r.8.8.7.+.g.7.` ` 7.t.#.t.+.#.#.t.r.+.#.8.`  .O.8.r.8.r.N.+.7.O.( 8.N.#.r.r.#.t.N.#.t.N.N.#.#.N.#.t.t.#.#.r.+.#.#.Y.3.' 9.:.T ` } 7./ / 9.` _ Y.t.t._._.}.oXY.N._.Y.7.O.f._.Y.Y.Y.t.Y.}._.t._.f._ 7.f.8.Y._.|.}.7.7.[ O.|.t._._.Y._.Y._._._.N.Y.N.#.t._._.N.N._._.Y._.N._.8._ f.8.d.Q.XXQ.f.O.7.:.} Y.r.#.#.+.r.f.N.r.Y.Y.7.O.8.+.#.+.#.r.",
"+.O.( ` O.#.+.r.r.8.#.8.8.+.8.r.( } 8.[ _ N.Y.O.) 7.7._ d.r.#.Y.r.t.r.#.#.#.r.r.8.O.8.r.#.+.#.N.N._.t.t.t.7._ 5.7.[ [ c.}.7.` ) P _ +.O.( P R [ [ O.O.+.8.7.[ ' _ 7.r.#.O.O.+.#.8.t.t.t.7.,.9. ._ 8.t.8.[ _ 7.] ] d.d.8.Y.d.7.8.8.t.Y.N.N.t.8.#.#.t.Y.#.#.t._._._._.f._ [ u.[ [ Y.|. .( 7._ _ f.t.r.8.r.r.r.t.r.t.t.7._ [ 8._.#.N.#.#.#.#.8.#.#.8.[ [ [ ) O.#.8.7.[ [ 7.) 7.t.#.t.#.+.#._.t.v.t.t.t._.t.8.8.8.8.N.r.r.r.N.r.d.] ] 9.` ] }.Y.O._ O.7._ 8.#.#.#.#.+.+.r.O.#.8.,./ / [ 8.+.7.+.O.+.#.O.O.O.+./ / 7.U e n ` :.U Y n n J I Z K J / / J J ' O.( K U U n z ` O.#.#.t.f.8.8.f.[ ] 7.] [ }.oXp. .+.t.[ 8.oX_._._._._._.N.N._._.+.[ O.r._.N.t.r.r.N.Y.8.8._.7._ 7.O.) 7.oXQ.7.7.z.,.9.XX_._._.Y.Y._._.N.t._._.8.8._.t.#.t.t._._._.t.t.N.f.[ 7.8.[ 8.#Xf.} 3.d.7.[ _._.t.t.#.N._._.N.%._.t.} } 8.t.#.#.#.#.#.t.t._._.Y.[ } d.[ _ r.N.+._ } 8._ 7.Y.N.%.N._.N.#.O.+.o.%.N.m.N._.N.8.+.+.r.Y.r.Y.r.Y.7._ 7.[ [ t.Y.d.[ ' 7._ 7.d.r.8.r.d.r.8.#.g.u.[ ' ' [ 8.r.t.#.r.+.#.+.O.+.8._ O.7.O.O.N.Y.O.[ 7.7.[ 8.N.#.t.t.t.t.N.N.N.N.N.#.N.#.o.#.#.r.N.r.8.#.8.f.7.' ,.' K ` 9.T J [ 7.[ O.N.r.#.#.8.f.Y.Y._._.u.3.3.8._.Y._._.Y._.}._._._.f.[ 7.f. .O.|.|.7.[ 8.[ O._.N.Y._.Y._.Y._._.N.r._._.#.t._._._._._._._._.N.Y.8._ c.7.7.u.XX9.} [ 8.,.7.N.t.N.N.#.t.r.N.N._.7.' ' 7.r.#.r.r.r.",
"O./ / ' _ 7.#.+.+.#.+.+.r.r.r.r.( [ 8._ ` 7.8._ ` 7.[ ' u.r.r.t.t.+.+.r.t.N.+.t.#.} +.r.+.#.+.#.N._.t.#.r.7.) [ 7.] / ,.u._ / 7.P ~ O.| D R / ( O.O.} 8.7._ ' ] ' ] 8.r.O.O.+.t.f.8.t._.7.] 9.5./ [ 7.[ ' [ 7.' ] 8.8.f.r.r.d.r.r.8.8.N.N.r.r.+.r.N.t.#.#.N._.Y._._.r._ _ 7.( / O.8./ ' 7.' _ r.#.#.+.+.r.r.#.#._.8.[ [ [ [ 8._.#.#.#.+.t.#.+.#.r.` _ O.R ( 8.9.] / 5.,.` 8.+.t.g.@.g.8.N.8.8.g._.r.t._.t.#.r.8.8.r.N.r.r.r.d.] ' j.' ` ,.7._ ' 7.7.( +.#.o.#.O.#.+.+.+.N.O.] ,.7.3.7.f.t.+.8.+.+.+.O...+.( P [ ] T ^ ,.E 0 9 c y j z J ^ ' ' P z ' 8.+.} T K T ] 3.r.+.O.O.8.r.r.+.8._ ` ,./ T [ u.5.` 7.8._ +.}._._.Y._._.Y.r.N._.O._ [ [ O.t._.N.N.N.r.Y.Y.t.Y.7._ 7.7./ [ z.9.[ 7.z.,.9.XXY._.Y._._.Y._.Y.Y.f.g.8.r._._._.t.8._._.f._.t._.d.[ 7.8.' ] c.u.` 3.d.[ _ Y.N.N.#.#._._.N.%._.r.} ] ] [ 7._.N.#.N.#.t.N.r._._._ [ c._ ` 3.7._ ' O.8.' 8.Y.#.N.N.N.N.#.+.#.r.N.#.N.t.N.r.+.+.r.r.r.r.Y.N.Y.O._ u.[ ( O.d.7./ [ 7./ O.r.8.+.r.d.8.+.8.d.[ ' :.:.' 7.t.#.#.r.O.} O.#.r.8.( } 8._ _ 8.8.[ ( 7.7.[ 8.N.#.N.r.r.#.#.%._.#.#.#.%.#.#.+.#.#.r.r.#.8.+.f.7.^ ] ` J T E j I [ [ [ O.t.t.t.#.r.t.r.Y._.8.3.,.,.3.u._.Y.Y.|.Y.Y.|._._.f.[ 7.f._ [ u.d.[ [ u.[ O._.m.N.Y.Y.Y._._.m.r.r.Y.Y.t.t.t._._.N._._._.N.N.Y.8._ f.7.[ ,.u.7.[ } u.] } Y.N.r.t.r.r.8.t._.u.' ' ' ' O.r.r.#.#.",
"' / ' ] _ O.r.t.#.r.#.r.t.t.N.r._ O.8.[ ` [ ,.) ) 7.[ _ d.t.+.#.+.+.+.8.r.t.r.N.8.[ O.#.#.#.#.8.#.8.#.+.#.8.) ] 7.[ / ' ] ` ` j.T ( +.( / ) ) | O.O.8.7.[ ] ] [ [ ] [ d.t.8.8.t.v.8.r._.O.[ z.7.] ,.5.,.] ,.9.:.] u.d.d.Y.Y.f.Y.f.8.+.#.N.N.r.#.t.N.t.r.t._._.Y.N._.r._ _  .) ( [ [ ` ] 7.[ [ Y.#.+.+.+.#.#.t.N.f.7.[ [ O._ } t.N.%.%.#.#.#.#.#.8.( _ 7./ ` 7. .) ) 7.[ ` 8.t.o.#.#.t.#.#.#.t.g.t.f.f.r.r.r.t.#.8.r.N.r.#.t.f.[ ] u.[ ' :.' [ _ 7.O.( +._.#.v.t.#.#.N.N.O._ ,.[ ,.] ] O.8.t.t.#.#.#.O.X.#.( /  .] / :.,.E G T ;.T ,.z.u.d.f.d.} _ 8.f.r.t.+.} } 8.#.+.#.8.+.+.+.+.8.f._ _ [ / T ` ] ] ' 7.u.[ +.}._._._._._._._.Y.+.[ [ [ [ 7.7.f._._._.N.Y._._._.8.[ u.7.) ] 5.5.[ 7.z.,.9.XXf.t._.'._._._._._.f.t.t.f.t._._._.t._._.f.8.t._.f.[ 7.u.:.' ,.,.' 7.d.7.[ Z.N.N.N.N._.N._.&.#.} ] ] [ ] } 8._._.N.t.t.N.N._._.[ [ c.[ ' ] ] _ _ O.8._ 8._.N._._._.N.N.%._.N.%._.&.#._.#.#.r.N.r.N.r.t.r.Y.O.[ u.O.) [ 7.[ `  .7.` O.r.r.r.r.f.r.t.d.O.] :.,.,.:.,.7.N.t.+.O.O.8.t.#.8._ O.8.[ _ 7.O._ _ 7.7.[ r._.#.N.N.N.%.#.#.#.%.%.%.%._.%.#.%.N.#.#.t.#.+.d.7./ ] / T U y n / ) [ [ O._._.N.N.N.f._._.f.3.[ ,.3.,.7.f._._._._._.|.'._.f.O.7.u.] ] 7.7.[ ,.u.[ 7.R.r.t.N.Y._.Y._.N.r.N.Y.Y._.r.N.t._._._.Y._.Y._.|.8._ z.9.[ :.7.,.[ 7.8.[ O.Y.t.r.r.t.r.t.Y.f.] ' :.] ' ] 7.f.t.8.",
"/ ' ` ] [ [ O.f.m.#.+.r.r.#.N.r.( O.7.) / ] ' _ ` 7.[ _ 8.r.#.#.+.8.+.+.O.r.#.#.r.#.8.+.+.+.#.#.+.+.+.r.#.8.` _ 7.' / ' ` ` ] ,.I / +.O./ / [ O.} 8.8.} ` ] ,.] [ [ ] 7.f.t.8.8.d.f.r.f.O.[ 8.7.:.:.:.] ] ,.7.] ] 8.u.8.d.Q.f.8.r.r.8.+.r.t.#.#.#.#.t.Y._.t.f.Y.t.t.r.' [ [ ( ` ` _ ) ` 7.,.} Y.O.+.#.+.+.+.N.8.O.[ [ _ [ } _ [ t.%.#.#.#.+.#.#.+.( _ 7.) ` ) ` ` ` 5.[ / O.#.+.#.#.t.#.#.t.v.8.@.t.8.8.t.r.t.t.r.r.r.8.r.+.d.[ _ u.] ' :.` ] ' } 7.( O.#.#.#.#.#.#._.O._ [ 3.[ ] ,.] ` [ 7.8.+.#.#.O.X.+.( ( O.] ` / ' T U :.' ~ 7.Q.r.8.r.f.r.r.f.Y.r.t.t.t.+.+.r.8.#.r.r.+.+.8.r.d._ _ 3./ T ' / ' ' ,.u.[ O.Y.8.f._._.t._._.7.[ [ ] ) [ 7.[ O.f._.N._._.Y._.oX7._ u.9.) ] :.,.,.7.l.5.7.XXf.t.Y._._._._._._._._.t.t.t._.N._.Y.N.Y.t.8.8.t.d.[ 7.8.] :.:.' :.] 9.7._ Q.N.#._.N.N.%._.#.} ] ,.] [ [ [ _ 7.t.N.r.Y.r.r._.Y.[ [ z.[ ' ' ' ] ' [ 8._ 7.|._.N._._.#.%.%.#.N._.#.%.%.#.%.N.r.r.r.r.Y.r.#.Y.O._ 8.O.[ ] ] ] ' ] 9.( +.8.+.r.r.r.r.d.,.) ' :.:.:.,.] ] 8.r.t.#.N.t.+.#.8.( O.u.[ ] [ ] _ _ O.7.( #.N.%.N.N.N.N.%.#.%.%.%.#.%.%.%.%.%.%.%.#.+.+.+.8.,./ T T T j q I / T [ _ _ _.t.t.N.t.Y._.d.,.] ,.,.,.,.,.7.f.}.Y.Y._.Y.t.Y.f.[ 7.9.' ] ,.,.[ ,.j.[ O.R.#.r.Y.Y.Y.Y.N.N.Y.r.r.N._.Y.t.N._.Y._.Y.N.t._.|.8.[ u.7.] :.:.' ,.[ 9.[ } r.#.#.r.r.r.N.f.[ ' :.] ' :.] ' 7.d.8.",
"' ] ] ] [ ,.} +.8.m.#.t.r.r.N.r.( O.7.) ` ] ] ] ` 5. ._ u.r.#.N.r.N.r.+.+.#.#.r.#.N.#.#.+.#.#.#.+.8.r.r.r.8._ [ 7.] / ' ' ` ' ,.J P 8.O./ / [ O.#.r.7.[ [ [ ,.,.[ [ ,. .+.t.t.t.f.r.r.Y.O.[ z.j.,.,.;.] :.,.7.[ [ 8.8.f.d.8.7.7.8.Y.f.r.t.8.#.+.#.N.Y.N._.f.Y.t.#.N.r._ [ [ / ` _ _ _ _ 7.O.[ Y.+.#.#.+.#.#.+.} [ [ 3.[ [ O.[ _ O.#.&.%.%.+.+.#.8.( [ O.) ` ) ` ) ) [ [ / O.+.#.t.#.8.g.t.t.8.#.t.8.O.r._.r.t.N.N.r.r.r.N.#.d.[ [ 9.] ' :.' ] ` O.7.( O.#.#.+.+.t.Y.O.[ 3.} [ ,.,.,.,.,.] [ 8.r.#.O.O.O.#.( ( 7.[ / ' ` / / ] :./ 7.Y.t.f.d.r.N.Y.Y.Y._.N.t.r.t.t.r.r.t.Y.f.t.r.t.t.Y._ ] 7.' / ] ] ] ` [ u.[ +.f.8.Y._._._.v.7.O.7.,.] ] ,.7.7.} O.r._.N.N.N._.|.7.[ u.9.] ] ,.,.,.7.z.5.7.XXY._._.Y._.'.oXY._._._._._._._.t.N.N._._.t.r.t.t.f.[ 7.9.] :.,.:.] ' 9.7.] }.N.%._.N._.N.8.[ [ [ ,.,.,.3.3.[ [ O.N._._.t.t.N.Y.[ 3.c.,.] ] ' ] ' [ 8._ O._.N._.N.#.#.%.#.#.%.N.N.N.#._.N._.N.N.N.t.t.r.r._.7.[ u.O.[ ,.:.:.` [ 7._ 7.8.+.r.r.Y.8.} ] ,.] ] ,.,.,.,.] [ 8._.%.#.%.#.t.8.( O.8.} ] ,.] [ _ 7.O.( +.N.N._.N.N.N.N.N.N.R.%.#.%._.&.%.%.%.%.#.} [ 8.f.7./ T ` I w c U E / ,.[ [ _.t.r.t.Y._.d.7.,.,.,.,.,.7.3.,.7.u.}.Y.f.g.8.f.f.[ 7.9.] ] ,.,.,.,.j.] 7.Y.#.Y.Y.N.Y.N.t._._.Y.N.N._._.Y._._._._.N.Y.Y._.|.u.[ c.7.[ ,.:.:.,.,.u.[ 7.8.+.r.Y.r.f.f.[ ' :.:.:.] ,.] ] ] 7.z.",
"' _ ` ] ] ,.,.[ [ 8.r.r.r.r.m.O./ ]  .` / ] ] ` ` 7.[ ` u.8.+.r.t.#.t.t.#.+.#.t.#.#.r.r.#.+.+.#.r.t.r.+.t.d._ ` ,.] / ' ] / E :.J J [ ( P P ( #.8.7.[ [ 7.7.,.,.[ [ 3.,.[ 7.f.f.8.8.t._.7.] z.9.' :.;.;.;.,.7.' [ d.8.8.r.8.7.r.Y.f.Y.Y.r.O.+.8.t.N.t.t.Y.f.r.r.#.N.r._ } [ / ` _ ' ( ) 7._ ( #.#.+.+.%.#.O.[ } O.[ [ [ [ [ O.[ _ _ #.%.%.+.+.+.#._ ( 7.( ) ] ` ) ` [  ./ O.#.+.#.#.8.g.#.t.t.8.f.8.#.8.f.N.t.t.r.r.N.r.8.t.d.' ) 7.' ' :.' ` ` [ O./ O.#.+.#.#.r.O.[ [ 7.} ,.,.3.,.,.7.3.] 7.8.#.O.O.O.#.( ( 7.] E ` E ' ' ;.:./ 7.8.t.Y.r.Y.d.t.f.Y.Y.N.r.N.N.N.r.r.t.r.Y._.f.8.t._._ _ 7.] / ] [ :.` ] 7._ } d.8.8.d.}.}.7.[ 7.7.[ ' _ ,.7.7.3.[ O.u.|.r.8.r.8.O.[ u.9.) ] ,.:.,.7.z.[ 7.XXQ.|.Y.f._.|.}._.Y._.'._._._._.N.N.N._.N._.r.r._.p.] 3.7.' :.,.:.:.' 7.3.] Y.N.N.%.N._.8.[ [ 7.3.[ ,.7.3.3.7.,.[ 7.Y.Y.m.N.#.Y.[ ] z.] ' :.' ' ` O.7.( O.r.#.N.%.#.#.%.#.#.o.#.N.N.#.t.#.#.N.N.r.Y.r.Y.t.f.7.' u.O.] ,.] :./ [ O.( +.8.+.+.8.r.O.[ [ [ ] ' ,.,.] :.:.' 3.d.N.#.#.#.#.+.) O.8.[ ] ,.,.' _ 7. .( +.N.t.N._._.N.N.N.%.R._.#.#.R.%.%.%.#.+.O./ / 7.Y.8.^ R E e 0 Y T U ` ,.) [ N.#.#.r._.u.7.,.,.3.3.3.7.3.7.7.,.7.8.d.8.8.f.t.d.[ O.7.' :.,.:.,.:.7.[ O.R.r.r.Y.Y.N.t.Y.N.Y.Y._.Y._.Y._._.Y._.Y.r.Y._.Y.|.8.[ u.O.[ ] ,.] ] 7.8.] } r.t.d.r.Y.Y.[ ' :.,.:.:.:.] :.,.' :.7.",
"] ] ] ] [ 5.[ ,.[ O.8.r.r.t.N.O./ } 7.) ` :.] ] ` 9.,.] u.8.t.r.r.N.#.#.t.N.N._.#.#.t.r.8.+.+.8.#.N.t.t._.f.] _ 7.] / ' ] ` R ,.T T _ / T _ O.7.[ ] ] ,.7.7.7.} [ 7.,.7.7.O.7.c.Y.d.r.Y.7.] u.7.' >.:.;.' ,.7.] ,.d.8.d.Y.d.r.Y.Y.Y._._.t.+.8.Y.Y.N._._.f.r.r.r.t.t.8.( O.O.( ' ] ' ` [ 8.[ ( r.#.#._.N.#.O.O.O.O.O.} [ O.O.7.O.} [ [ #.N.%.#.+.#._ _ O.( _ [ ) ) ) O.O.) @.t.+.8.r.g.#.#.t._.#.f.r.r.r._._.N.8.+.r.Y.r.r.r.8.] ] 7.' :.:.;.' ` 7.O.( O.r.#._.t.O.[ 7.O.O.} 7.,.3.3.7.7.7.7.7.7.f.#.+.o.#.[ ( 7.] T ' ' ' ' ,.,.` 7.r.r.Y.Y.Y.Y.Y.f.Y.r.t.t.N.t.f.Y.Y.r.r.t.f.d.r.r.Y._ _ u.[ ' :.,.[ ] O.8.[ O.Y.r.r.c.c.7.[ ,.,.O.3.] _ ,.7.7.7.7.7.7.u.}.Y.r.8.O.[ c.9.] :.,.,.,.9.c.[ 7.XX_.|.|.Y._.r.8.t.|._.'._._._.N._.t.t._.Y._.f.t._.Q.[ } 7.' :.,.:.:.,.8.7.[ Y._.%._._.8.O.,.7.7.3.3.3.7.7.9.7.7.,.[ 7._._.N.t.Y.[ _ u.] :.:.:.] _ 7.8._ 7.N.N.N.N._.%.N.%.#.o.#.N.N.#.+.+.#.#.m.Y.N.Y.Y.N.Y.7._ 8.O.] ,.:.:.` O.7.( r.f.+.r.d.7.[ 7.,.] [ ,.,.[ ,.,.:.,.,.} 8._.#.o.#.+.( 7.u.[ ] ,.,._ _ 8.+._ r._.%.N.N.N.N._.N.%._.N.#.%._.%.%.%.+.O.[ ' / [ Q.z.' E G e J / E T ` 7._ _ N.t.N.Y.8.} ,.7.7.3.7.7.7.,.7.7.7.7.7.7.u.f.Y._.r.[ 7.7.] :.,.,.[ [ 9.[ 8.|.N.N._._.Y._._.R._._._.Y._._._._._._.N.t.Y._._.oX8.[ f.7.,.,.7.:.,.7.8.[ 7.Y._.N._.f.} ] ,.,.,.,.,.:.:.:.,.,.] :.",
"] ,.] _ [ [ [ 7.3.[ } d.Y.r.N.7./ O.7.` ` ' ,.] ' 9.[ ] u.f.+.r.r.#.r.N.N.N.N.t.#.#.#.#.+.+.+.O.+.r.Y.N.r.7.` _ 7.' ` ` :./ / ,.E / 7._ / 7.7.] ` ] ] ' 3.7.7.7. .} [ 7.7.7.[ 7.c.d.8.Y.7.] 8.7.' :.>.;.` ,.7.` [ 8.8.f.d.f.Y.r.f._._.Y.Y.Y.Y.f.Y.Y._._.f.r.r.r.#.N.O./ O.O.( ` _ ` / 7.d._ ( r.#.N._.O.[ [ } [ [ O.7.[ [ O.O.7.7.[ _ [ r.R.#.#.#._ ( O.) ` ] ) ` ) 7.} / 9.8.#.t.#.8.+.t.8.8.8.8.O.8._.Y.Y.Y.r.r.+.8.r.r.O.7.' ' 7.] ` :.:.` ' 9.8.( O.r.t.Y.O.} 3.7.O.7.3.,.,.,.7.7.3.7.7.7.[ 7._.t.+.#._ ( 9.] T ;.;.' ' j.7.` 7.f.r.r.Y.Y.Y._.f.8.8.#.r.Y.f.Y.f.f.8.+.+.8.r.r.+.Y._ _ f.7.' ' ,.] _ f.d.( +.Y.+.Y.}.7.[ 7.7.[ [ 7.[ [ 7.3.3.7.7.7.O.7.8.Q.Y.Y.7._ f.u.] :.,.,.[ z.c.[ 7.XX_.Y.|._.f.r.8.8._._._._.t._._._._.t.t.t.Y._.N.N.c.] [ 7.] ;.1.:.` 3.z.7._ _.N.R._.r.O.,.7.7.3.3.7.7.7.7.7.7.7.3.[ [ d.|.m.#.Y.} _ 8.[ ' :.:.' ' 8.r.( 7._.N.N.N._.N.#.N.N.#.o.N.#.#.N.r.#.#.#.r.Y.Y.f.f._.7.` 7.7.] :.,.' ' 7.7.( 8.r.Y._.7.] ] [ [ ,.[ ,.,.[ ] :.,.,.,.[ [ 8.r.#.#.8._ O.r.O.] ,.3._ } f.O.[ r.N.N.N.t.N.N.N.N.#.%.N.%.#.%.%.#.+.} [ [ 7.[ [ 8.9.:.G 0 J :.E / T ( 7._ _ Y._._.8.O.7.7.7.7.,.,.5.,.7.7.7.9.7.7.7.u.XX_._.f._ O.u.,.' ,.,.] 7.z.[ 8.|.r.Y.t.N.Y._.OX|.Y.Y.Y._._._._._.Y.N._.N.Y.f._.|.7.[ c.7.[ ,.,.,.] 9.8.] O._.N._.Y.[ ] ,.,.:.,.,.] ' :.:.:.,.] :.",
"[ ,.] [ [ 3.3.7.3.7.O.7.d.Y.Y.8.( +.8.[ ` ] :.] } u.[ ] u.t.t.Y.r.t.t.N.r.r.r.#.#.#.#.r.#.r.#.+.r.f.r.r.+.O.` [ 7.[ ` ' ;.E ] j.T ~ f.+.O.7.[ ] ' ] ] ] ,.3.7.7.O.7.7.7.7.7.7. .7.d.t._.7.[ u.9.] :.,.' ] 7.7.` 3.d.8.f.d.f._.t.Y.Y.Y._._.Y.Y.N.Y.Y._._.Y._.t.r.t.#.+./ O.8.( _ _ ` ) 7.c.[ _ Y._.r.O.[ [ [ [ [ O.[ 7.} O.7.7.[ O.[ [ [ O.r._.%.r._ _ 9.[ ) [ ) ) [ p.O.( 7.g.t.8.8.+.8.t.8.t.t.8.[ +._._.Y._._.N.+.r.r.t.+.8.,.] 8.7.` :.' ' 3.d.r.( +._.f.O.O.7.7.7.7.7.7.3.3.7.7.9.7.7.7.7.7.7.u.8.+.t.[ [ u.7.` ;.:.' ] z.9.` 7.f.t.Y.t.Y.Y.f.t.8.+.t.r.f.Y._.Y.r.+.+.8.f.d.r.N.|.[ [ _.u.] ] ,.[ O.XXf._ +.|._.}.z.7.7.7.7.7.7.7.7.7.7.3.7.7.7.7.7.7.7.7.Y.|.u.[ f.f.[ ] ,.5.5.XXc.[ 9.$X_._._.Y.Y._._._._._._._._._._._._.N.#.8.Y._.N._.c._ 7.c.7.' 1.:.' u.Q.O._ Y._.R.Y.7.7.7.7.7.7.7.7.7.7.7.7.7.9.7.7.7.7.d.Y.r.Y.7._ c.9.' :.] ' [ r.r._ 8.oXN._._.N.N.N.%._.#.#.#.#.#._.N.N.#.t.r.f.f.}.Y.Y.7.` 8.u.[ ] ,.] [ c.8.) +._.r.7.] ] ] [ ] ,.,.[ [ 7.:.:.;.' ] ,.] [ 7.t._.t.[ O.f.O.[ ,.,.[ +.|.O.O._._.#.t.N._.Y.N.N.t.%.N.N.#.#.%.#.[ [ [ } 7.7.O.+.8.' 9 v :.] ] / T [ 8._ } oXt.7.[ 7.7.7.7.7.3.,.,.,.7.7.7.7.7.9.7.9.XX|.'.}.[ 7.}.7.] ,.,.] z.b.[ 8.|.N.N.t.N._.Y.|.Y.t.t._._._._._._._.N._.Y._.t._.|.7.O.}.u.[ ,.,.:.5.z.z.] 7._.|.d.,.[ 5.,.7.,.7.7.] ' ,.,.,.,.:.] ",
"[ ] ] ] ] ] ,.[ [ 5.3.7.} O.Y.8.( O.r.7./ ] :.` 8.d.[ ' u.8.r.m.r.N.t.#.+.#.#.t.+.+.r.t.r.+.+.r.r.8.+.O.#.7.` _ 8.7./ ` ` E 7.9.U / u.+.7.,.' ] ] ] ] ] ] 7.3.} 7.} } 3.[ 7.7.,.[ 7.d.Y.7.` 8.c.,.' :.' [ d.7.` 3.d.7.8.r.r.d.Y.t.Y.|.Y.Y.f.r.N.Y.Y.N.Y.Y.t.Y.r.#.r.O./ } d.[ ` ) / [ d.u.] ' Y.t.O._ [ [ ] [ [ [ [ [ [ 7.7.[ ] ] ] [ [ [ O.r.m.r.[ ' u.O.` ] ] ` 7.f.O./ O.#.+.+.O.9.+.g.8.g.@.8.O.8.r.N.N._.N.Y.N.N.r.+.+.8.,.` 8.d.] ' ` ' u.d.8.( 7.d.+.[ 3.7.7.O.7.7.7.7.[ 7.7.7.7.7.3.7.7.3.[ O.+.f.O._ 8.p.' ` :.` 7.Q.7./ 8.d.r.Y.r.8.r.f.r.f.f.8.d.Y.Y.Y.t.N.r.r.Y.Y.r.t.N.|.7.[ _.|.7.] ] ] 8.|.d._ O.oX}.7.,.7.7.7.7.7.7.7.7.7.7.7.7.7.7.3.7.7.,.[ 8.}.u.[ 8.|.7.' ,.,.u.XXc.] 7.#X_._._._._.N._._.N._._.t.N._._._._.r.8.8.f.Y.N._.d._ 7.|.8.' ;.;.,.Z.Q.7._ |.R.r.7.7.9.7.3.3.7.7.7.3.7.7.7.7.7.7.7.7.7.} 8.r.Y.7._ Q.c._ ] ] ` +.N.+.( 8.N._.N.N._.#.N.N.#.#.#.#.o.N.r.N.r.r.Y.r.f.f.Y.d.8.9.` 7.d.7.] :.] 7.f.7.( O.8.O.] ' [ ] ` ] [ ] ,.[ ,.,.' ` ' ' ' ] ] _ +._.t.[ +.Y.+._ 3.[ } N.R.} } N.t.#.#.N.N.N.Y.N.N.%.t.r.#.r.+.[ ' / [ } } 8.O.} 8.U 1 v 7.` ` ` / O.8.( } |.O.] 7.7.5.7.7.7.,.,.,.7.7.7.7.7.7.7.7.7.u._.'.}.} +.|.u.] :.,.7.c.c.] 8.|.r.Y.Y.r.t.Y.Y.Y.r.r.Y.Y._.Y.Y.Y.Y._.Y._.Y.Y._.|.7.} }.Y.7.] ,.' 8.Q.8.] 8.Q.u.,.] ,.,.,.:.,.,.,.] :.,.:.,.:.] :.",
"` [ [ ] ] [ [ ,.,.7.,.,.] [ r.d.( O.r.d.[ ' ' O.t.Y.[ ] u.t.r.r.r.Y.r.+.+.N.N._.#.+.O.+.O.#.r.r.8.+.+.#.r.8.` [ 8.8._ E E ) 8.7.P / c.8.[ [ ] ] ,.[ ,.] ,.7.7.7.[ [ 7.7.,.7.7.7.[ 7.8._.u.] 8.oX7.[ ] [ 8._.8.] 7.8.O.u.f.Y.f.r.Y.|._.Y.Y.t.r.r.t._._.N._.Y._.f.#.t.7./ O._.+.` ` ) +.f.8.[ _ _.8.[ [ [ [ [ O.[ ] ] [ [ 7.7.] ] ] ] [ [ ,.[ O.+.t.} _ f.8.[ ) ` _ t._.O.( +.#.O.+.O.+.+.8.f.r.+.r.Y.t.#.t.N._.t.N.N._.r.+.O.f.O.` 7.Y.7.' ` 7.f.f.7._ 8.d.O.7.7.7.7.7.7.9.7.7.7.7.9.9.7.7.7.9.7.7.7.[ +.}.7.[ t.}.7.' ' ] u.|.9.` 8.Y.t.r.8.+.8.Y._._.Y.f.f.Y.f.t.Y.Y.Y.Y.t.t._.Y.N.oX7.O._.[.r.[ ] [ _.oX7.) 7._.7.,.,.5.7.7.7.7.7.7.7.9.9.7.7.7.3.7.7.7.7.5.7.}.u._ 8.oXf.[ :.7.}.$Xc.[ 7.oX_._._.N._._._._._._._._._.N._._._.t.r.Y.Y.t._._.f.[ 7.|._.7.` ' u._.Y.7.[ |.Y.7.7.7.7.7.7.7.7.7.7.7.O.7.7.7.7.7.9.7.7.,.7.8.|.O._ Y._.8.) / _ #.].#.( 8.t._._._._._._.N.#.#.N.#.N.#.t.r.N.t.r.Y._.f.d.+.8.8.] 8._.g.[ ` ] f.f.7./ O.f.7.] ] ] ] ] ] ] ] 3.3.,.,.' ' :.' ,.,.[ _ O.N.Y.[ O.Y.t.[ [ [ +._._.} O.N.#.#.t.r.N.N._.N.N.N.t.#.N.r.O.' ' [ } O.7.7.O.+.8.Y : w ,.] ` [ O.8.8.( O.Y.[ ,.7.7.7.7.7.7.,.,.7.7.7.7.7.7.5.7.j.7.9.f.|.|.O.+.'._.7.] ,.f.}.z.] 8._.t._._.f.t.N.Y.Y.Y.Y._.t._._._.f._._.Y._.Y.Y.|.|.7.} |.oXu.] :.3.Y._.u.] u.}.+.[ ,.,.,.,.,.] ,.,.,.,.,.,.,.:.:.:.",
"` [ [ ] ' [ [ ,.[ [ ,.,.,._ 8.d.( } 8.r.8.[ [ f.#.f.[ ] 8.r.8.r.r.r.8.#.r.N.#.t.t.O._ [ } +.+.+.+.8.r.+.r.7./ _ +.t.7.` ` 7.8.O.P T c.8._ ] ] ] ] [ ] ,.,.3.7.7.[ [ [ ,.7.5.7.7.7.[ 7.f.8.[ 7.Y.Y.u.[ 7.N.r.8.] 3.8.+.|.Q.d.d.Y.Y.Y.Y._.f.#.#.t.Y.t.t.t.r.Y.t.t.r.8.7./ } _.r.O.[ O.r.+.u._ ( Y.8.[ [ ] [ [ [ [ [ ] [ ] O.3.] ] ,.] ] ' ,.,.[ } d.} ` r.r.+._ ` 8.N.#.O./ 7.#.+.8.+.O.O.8.t.8.O.+.Y.t.r.t.#.t.N.N.t.t.#.#.+.8.7.` 7.r.t.7.[ f.r.8.7./ u.u.[ 7.7.7.O.7.7.7.7.7.7.7.9.7.5.7.7.7.7.7.,.[ 8._.8.[ t._.f.[ _ u._.}.9./ 7.d.d.r.8.d.Y.f.Y.t.Y._.f.d.r.t.r.Y.Y.Y.t.t.t.Y.N.|.7.[ _.'._.d.7.f._.N.7./ O.Y.7.:.5.5.,.7.7.7.7.7.7.7.7.7.7.7.7.3.7.7.7.7.7.}.u._ 7.}.|.u.3.d.oX|.Q.] ,.c._.N.Y.N.N._.N.N._.N._._._._._.N.N.N._.Y.f.Y.N.N.d.[ 7._._.f.[ 7._.N.Y.} _ |.Y.7.,.7.7.,.7.7.7.9.7.7.7.7.7.7.7.7.9.7.7.3.[ 8.Y.7._ t.N._.+._ r._.&.#.( O._.#.N.N.N._._.#.#.N.#.#.#.N.N.r.t.t.t.Y.Y.f.r.+.8.8.` 8.t.t.9.} 8.8.8.7./ 7.Y.} [ ] ] ] [ ' ] ] ] 3.[ ] ,.,.:.:.,.[ ,.[ [ #.Y.[ [ t._.+.} 7._.%._.} } r.N.r.r.t.N._.N.r.t.t.N.r.r.+.[ ' ' } } [ } } 7.} _ U 2 ; M ,.O.7.7.d.7.( O.Q.,.,.5.7.7.7.7.,.3.7.7.7.7.7.7.7.7.7.7.9.7.7.}.|.} +._.N.Y.8.8._.t.u.` 7.|.t.f.Y.Y.Y.t.Y.r.Y.Y.Y.Y._.Y.Y.Y.Y.Y.Y.f.Y.Y._.|.7.[ Y._.}.7.,.d._.Y.u.' 8.Y.7.,.7.,.,.,.,.:.:.:.7.,.,.,.,.] :.:.",
"] ,.[ [ ] ] ,.3.[ [ ,.7.,.[ r.f.( O.+.t.N.r.r.N.#.Y.[ [ u.8.8.Y.r.r.#.r.r.r.N.N.#.8.8.f.8.8.+.8.+.8.+.#.r.7.` ) #.t.r.+.O.r.#.O.P / c.+.) [ [ [ ] ] ] 7.7.3.7.7. .3.,.7.7.7.7.7.7.[ 7.}.3./ 7.N.N.f.8.8.r._.d.` [ u.f.oX_.f.Y.Y.Y.Y.Y.Y.N.+.#.t._.t.t.r.r.r.Y.N.#.r.u.( } _.N._.N.r.t.#.8._ _ _.t.O.] ] [ [ _ [ [ [ ,.[ } 7.,.5.7.,.[ [ ,.,.[  .f.} ( 8.#.#.+.+.N.%.N.O./ +.8.#.t.#.+.O.8.t.8.+.t.t._.t.r.t.t.t._.t.r.r.t.#.Y.9._ +.#.t.t.r.t.#.t.+./ d.c.+.7.7.O.O.7.O.O.O.7.7.9.7.7.7.7.7.7.,.7.7.7.8.oX8.[ t.'._.d.8._._.oX7./ 7.d.r.t.r._.Y._._.f.Y.Y._.f.r.t.Y.Y.Y.t.f.f.t._._.|.O.[ _._._.oX_._._._.+./ O.Y.7.,.7.7.7.7.7.7.7.7.7.7.7.7.3.7.7.7.7.7.7.7.7.|.d._ 7._._._.Q.}.oXoXQ.,.7.c.t.N.t._.N.N._.N.N.N.'.Y.8.t._.N._._._._.f._.Y.N.}.[ 7._._._.Y.Y._.Y.Y.} [ |.|.7.3.7.5.7.7.7.7.7.7.O.7.7.9.7.7.7.7.7.9.7.5.8.Y.O._ t._.N.N.#.&.&.&.+.( 7._.N.N.N._.t.#.#.t.N.N.#.t.N.N.t.t.t._.t.Y.Y.t.8.r.u.` 8.N.#._.t.t.#.8.O./ 7.}.7.,.] ] ] ] ] [ ] ] [ [ [ ,.,.,.,.,.[ [ 3.[ +.'.O.[ t._.N.N.N._.%._.O.O.t.N.N.N.N.t.#.#.#.N.N.N.r.#.O.[ [ [ } O.O.O.7.O.[ _ T w = a j.8.8.8.f.8.( 7.|.O.3.,.,.7.7.,.,.,.7.7.7.7.7.7.3.7.7.7.9.9.7.}.oXO.+.'._._.|.Y.t.t.u.` 7.|.N.Y.Y.Y.t.Y._.Y.Y.Y.Y._._.d.r.Y.Y.t._.Y.|._._.oX7.[ f.Y._.Y.8.Y._.Y.u._ 8._.8.3.7.5.7.,.,.,.,.,.7.,.,.,.[ ,.,.:.",
"] ] [ [ ] [ [ [ ,.3.,.,.,.[ #.Y.( O.+.t.#.N.r.r.#.Y.[ ] u.8.8.Z.r.+.+.#.#.+.#.t.+.#.t.#.r.#.+.8.8.O.8.r.f.O.R ) +.#.+.#.#.+.+.O.U T 8.O.) ] ] [ ] [ [ [ 7.7.} 7.7.} 7.7.7.7.7.7.,.,.7.d.[ T O.N.#.r.r.8.#._.7./ ] c.Y.f.}.Y.r.Y.Y.Y.Y.N.r.+.r.r.Y._.r.r.r.8.8.r.r.r.8.' } _.%.N._.t.+.#.8._ _ Y.f.O.' [ _ _ [ ] [ [ [ 7.O.[ 7.7.7.7.7.[ ,.,.7.O.8.} / +.#.+.#.#.#.#.t._ ( O.+.#.+.8.#.O.O.t.t.#.t.r.+.#.t.#.#.t.t.#.N.r.#.t.Y.8._ +.#.#._.N.#.+.#.O./ z.d.+.7.7.O.O.O.O.O.O.7.7.7.9.9.[ 7.7.7.,.5.7.7.8._.+.[ t.'._._._._.N.oX7./ 7.u.+.8.Y.t.N._.t.t.r.f._.t.+.8.Y.r.t.Y.r.t.f.f.Y._. .[ f.'._._.'._.N.N.O.` 7.d.7.,.,.7.7.7.7.7.7.7.7.7.9.7.,.5.7.7.,.,.,.3.8.Y.d._ 7._._._.|._._.oXQ.[ 9.}.8.N.N.r.N.N.N.r.r.#.N._.+.#._._._.f._._._.Y.r.f.u.[ O._._._.'.Y.Y.N.Y.[ [ XX|.7.,.,.7.7.3.7.7.[ 5.7.7.7.7.7.7.7.7.7.j.7.,.7.}.} _ t._.#.%.%.%.%._.O.( u.t.t.t.N.N.#.#.#._.#.N.%.N.r.t.N.t.t.t.N.N.r.Y.r.8.u.' +._.o.N.N.t.+.8.O./ 7.Y.O.' ,.] ' ' ] ] [ _ _ [ [ ' ] ,.[ [ [ [ ,.[ +._.[ _ #._.%._.N.%.%._.[ _ N.#.N.N.r.#.+.+.N.t.m.#.#.+.[ ` [ O._ } O.O.[ O.O.T e q 1 v p.+.8.r.r.8.( 8.|.3.,.,.,.,.,.,.,.,.7.7.7.7.5.3.7.7.7.7.7.7.7.}.|.} O.'._._._._.#.t.u./ 7.Q.f._.Y.Y.Y.Y.f.Y.N.r.Y.t.N.N.N.r.Y.f.r.}.Q.|._.|.7.[ 8.r._.Y.Y.Y.N._.8.' r.Y.O.,.,.7.,.,.7.,.7.,.,.7.,.,.5.,.,.,.",
"] [ [ [ [ [ [ ,.,.3.[ ,.[ } r._.( } 8.N.r.N.t.r.N.Y.[ ] u.r.+.8.+.+.+.r.+.#.+.#.#.r.+.8.8.#.8.+.+.8.d.d.8.[ ` ) +.#.O.+.#.#.#.[ P R 8.O._ ] ] 5.[ [ [ 3.7.[ } 7.7.7.7.3.7.7.7.3.,.3.7.f.[ / 7.t.r.r.r.r.t._.7./ 5.}.f.Y.Y.t.Y._._.Y.Y.Y.r.r.r.N._.Y.N.N.N.r.8.8.r.r.8._ O._.%.%._.#.#.t.8.[ _ Y._.O.] ] _ [ [ [ [ ,.7.[ [ [ 7.7.7.7.7.7.3.,.7.O.8.[ ` 8.#.+.#.#.+.+.#.} ( 7.#.#.#.#.r.+.9.O.8.+.t.r.+.t.N.#.#.#.r.t.N.r.#.t._.7.[ t.#.o._.N.#.O.#.7./ z.r.O.O.7.7.O.O.7.7.7.9.9.7.9.7.7.7.7.9.7.9.7.7.t._.+.[ f.oX_._._._._._.7.` 7.d.+.8.r._.Y.r.8.t.t.Y._.d.O.8.Y.N.#.N.Y._.Y.f.t.Y.7. .f.'._._._._._._.7._ 7.f.7.,.7.,.7.7.7.5.7.9.7.9.9.7.7.5.7.7.7.5.,.,.8.|.8._ 7._._._.|._._.oX}.7.9.}.8.N.R.N._.N.r.t.t.#._._.Y.t.N._._.N._.Y._.t.8.8.7.] O._._._.'._._._.Y.} } #X|.u.7.7.7.7.7.7.7.7.7.7.7.7.7.7.7.7.7.7.7.9.7.8.Q.} [ f.N.%.%.%.%.%._.+._ f.t._._.Y.#.#.N._.%.#.t.N._.t.f.f.t.8.f.t.Y.r.Y.r.r.u.` 8.v.#.t.t.#.#.8.7./ 8.}.O.] ] [ ] ] [ [ ] [ ' [ [ ] ] [ [ [ [ } ,.[ +._._ [ t._.%.%._.N.%._.} [ r.t.#.#.N.m.#.N.N.N.#.N.#.+.[ ` ] } } O.} O.O._ T v 2 1 y / g.8.8.r.f.d._ 8.oXO.,.3.,.,.,.,.,.3.7.7.7.5.7.7.7.5.7.7.7.5.7.|.OXO.O.OX_._._.Y.N.N.f.` 7.Y.t.f.f.Q.}.f.8.+.r._._.N._._.Y.d.f.r.f.Y.Q.|._.|.7.[ 8.r._.Y._.Y.N.N.8._ d.Y.+.[ ,.,.5.,.,.7.7.3.7.7.7.,.7.7.7.,.",
"] [ [ [ [ ] ,.,.] ] ] [ ] [ r.Y.( O.r.#.N.m.+.t.r.r.] [ u.+.+.+.+.8.+.+.#.+.+.#.#.8.8.+.O.7.+.8.7.8.8.7.[ [ / ` +.+.O.#.#.#.+.O.T P 8.+.` ] ] ] ,.,.[ ,.,.7.7.3.3.7.7.7.[ [ 3.7.7.[ 7.|.7.' 8.r.#.t.r.r.t.f.7.` 3.f.f._.f.r.t.Y.Y._._._.t.+.r.Y.N.t.N.#.r.Y.8.8.+.r.8._ O.N.#.N.#.#.#.#.f._ ( Y.8._ ` ] ] ] [ } [ [ [ [ ] [ 5.} 7.[ 5.,.,.] [ O.r._ _ r.+.#.+.O.#.O.8._ / 8.#.O.#.+.+.+.+.O.O.#.Y.+.+.r.r.#.#.O.#.t.r.r.N.r.f.O._ f.#.#.#.#.#.o.t.7.T u.8.[ 7.} 7.7.O.O.7.7.7.9.8.7.7.7.7.7.9.9.9.7.O.g.'.+.[ f._._._.Y._.Y.|.7.` 7.f.8.O.8.Y.N.f.r.Y.Y.r.Y.f.O.8.r.r.r.r.Y.Y.Y.t.t.}.7.,._._._._.R._.N.N.8.' 8.Y.O.,.7.7.7.7.7.7.7.7.7.7.7.9.7.7.7.7.7.3.,.[ 7.|.8._ 7._.N._.Y._._._.Q.[ 7.}.t.#._._.N.N.#.t._.#.#.N._.t.t.N._._.Y.t.f.t.t.8.7.' 7._.N.'._.N.N.N.}.3.[ @X|.7.3.7.,.7.,.,.O.,.7.7.7.7.7.7.7.7.7.7.9.5.[ 8.c.[ ] f.N.%.#.#.%.%.N.O.( d._._._.t.#.r.t.t.N.%.N.t.t.N.f.8.8.+.8.8.r.Y.r.f.Y.7./ 8.#.#.#.+.r.+.8.7.P 7.Y.[ ` ' ' [ ,.[ [ ' ' [ ] ] ] ] ] _ [ [ [ ,.[ O.t.( [ t.#.N._.N.N.%.N.[ _ +.#.#.m.r.m.N.r.r.N.r.r.+.O.[ / ` [ O.} _ [ [ / z J v q J [ +.r.8.+.f.u._ 8.|.O.,.3.,.,.3.,.7.,.,.7.7.7.7.7.7.7.,.5.5.,.9.|.|.O.O.oX_._._.r.r._.f.` 7.|.8.d.f.d.Y.Y.r.+.r.Y.Y._.N.m.Y.Y.f.r.r.Y.Y.d.|.}.O._ f.8.N.R._.N.N.r.8._ r._.O.] ] ] ,.,.,.,.,.7.7.7.7.,.,.7.3.,.",
"[ [ [ [ ,.,.] ] ` ` ] [ ] [ #.Y.( 7.Y.#.N.r.r.Y.t.u.] [ 8.+.r.8.8.r.+.r.8.+.+.#.r.r.8.O.O.+.8.8.+.7.7.O.} 3.' ] O.O.#.t.r.+.+.9._ / f.8.] ] ] ] ] ,.5.7.,.7.7.7.7.7.7.[ [ ,.7.7.7.O.7.|.9.] 8.t.r.N.r.t.t.t.8.7.9.f.t.Y.f.Y.Y.f.Y.Y.Y.r.r.+.r._._.Y.N.r.r.r.r.r.#.8.8._ 7._.#.#.#.t.t.N.Y.[ [ _.8._ ` ,.] ] ] [ [ ] [ [ [ [ 7. .7.5.,.[ ] ] [ O.f._ _ Y.#.#.#.#.t.#.t.[ ( O.+.#.#.+.+.t.r.O.O.t._.t.8.#.N.N.t.+.r.8.Y.N._.#.f.O.[ _.&.$._.#.#.#._.7./ 9.8.O.7.7.7.[ [ } 7.7.9.9.9.9.9.7.9.7.7.7.,.5. .t.#X7.[ f._._._._._._.oXu._ 7._.r.+.8._._._.Y._._.t._.f.r.Y.r.t.t.r.8.8.8.Y.Y.|.7.7.}._.N._.N._.N._.u._ 8.Y.7.,.7.9.j.7.7.9.7.7.7.7.7.7.7.7.7.7.7.7.,.,.7.}.8._ 7._.N._.Y._._.}.c.[ 7._.t.N._.N.N.N.N.N._.#.#.N._.#.t._._.t.N.t.f._._.N.d.[ 7._._.'._.t._._.|.3.[ OX|.7.,.,.,.[ [ ,.7.7.7.7.7.7.7.7.7.7.j.7.7.,.[ u.Q.[ ] f.N.%.%.#.N.#._.+._ d._.r.r.#.t.#.t.#.N.N._.N._._.t.8.8.r.f.8.f.f.Y.t.f.7.` 8._.#.#.#.#.+.f.7.R O.Y.[ ` ' [ ` [ [ _ ` ,.] [ [ ] ] _ ] [ [ ,.3.[ O.t.( } _.t.N._.N._._.t.[ _ 8.#.r.N.N.t.N.r.t.r.r.+.[ O.O.( ' O.O.O.O._ ' ` ` 7.Y y / +.+.t.8.8.f.u._ 8.oXO.,.,.3.7.7.,.3.7.7.7.7.7.7.7.7.7.7.,.5.5.7.|.XXO.O.oX_._._.t.t._.f.` 7.}.t.Y.Y.Y.Y.Y.Y.Y.Y.N.N.N._.N._._.}.d.8.r.Y.Y._.}.7.[ c.r.N._.Y.m._.Y.d._ 8._.O.] ] ,.,.,.7.,.5.7.7.7.,.5.7.5.7.7.",
",.[ ,.,.,.] ' ` ` ' ' ' :._ +.Y.( [ d.r.+.r.r.t.f.7.] ' 8.r.+.8.+.+.r.r.+.+.+.+.#.t.+.+.O.O.8.+.8.8.7.8.8.[ / ` O.#.+.#.#.#.+.7.` ` t.#._ :.] ' ' [ ,.,.,.,.3.7.7.7.[ [ ,.3.7.3.7.7.8.}.7.' 8.Y.r.r.f.r.t.v.8.[ 7.f.f.8.r.Y.Y.r.r.r.r.r.r.N.Y.Y._._.N.r.r.r.r.8.8.8.7.' } _.#.#.r.+.t.N.u.[ ( Y.8._ ] ' :.] ` ] [ [ ] [ ,.,.[ 7.,.,.[ _ ] [ _ O.f.{ _ d.#.+.#.#.+.N.r._ / } +.+.r.r.r.#.+.+.r.t.r.t.r.+.t.t.f.8.8.8.r.Y.r.t.8.[ _ r._.#.#.#._.t.r.7.T 9.f.O. .7.7.[ [ ,.7.7.7.9.9.9.9.7.7.7.,.,.7.,.7._.|.7.[ f.|._._._._._.}.u.) 7.f.Y.t.t.t.f._._.f.Y._.Y.Y.f.f.Y.r.r.f.8.8.8.r._.}.7.[ c.oXt.t.Y.Y.N.f.7._ +.}.7.,.3.7.7.9.7.7.9.7.7.7.7.7.7.7.7.7.,.,.,.,.+._.8.` 7.Y.f.f.d.Y._.f.9.) 7.}.t.N.N.N.#.m._.N.N.t._.N.t.t.Y.Y.t.N.t.f._.f.N._.d.[ } _._._.Y.r.N._.Q.[ _ |.R.O.] ,.[ [ ,.[ [ 7.3.7.7.7.7.7.7.7.7.,.,.] [ 8.c.[ ] u.N.#.r.#.#.%.N.O.` 7.#.r.#.#.t.#.+.#.#.r.N.N._.r.8.8.Q.f.t.r.8.r.f.8.f.7./ 7.N.#.#.+.+.8.8.} P O.f._ ' ' ` ' ` ` ' ' ' ] ] [ ] _ [ [ [ [ 3.3._ O.f.[ [ t._.#.N.N.N._.8._ ] 8.t.r.r.t.#.+.r.#.#.t._ P ` _ ` ` _ O.O._ [ _ / [ ^ 0 l ` O.8.8.8.8.d.7.( 7.|.O.,.,.,.,.7.3.3.3.7.3.7.3.7.9.7.7.7.5.7.,.7.|.XX} } |._.N._.t.r.f.8.( 7.Q.t.Y.Y.Y.N.r.Y.r.r.N.N.r.t.N.Y.|.Y.r.8.8.Q.Y.f.}.7._ z.Y.Y.Z.Y.r._.Y.8.' 8.Y.O.] ,.] ,.,.,.,.5.,.7.7.7.,.,.7.7.7.",
"3.3.,.7.] ] ' ' ' ] ' ' ] _ +.Y.( } +.+.m.N.r.N.Y.} ] _ u.r.8.r.r.+.+.+.8.r.+.#.+.#.8.8.8.+.+.+.8.8.8.8.r.O.` ' 7.r.+.#.#.#.#.[ T _ _.8._ [ [ ] ] ,.,.,.,.7.3.7.,.,.[ [ ,.7.7.3.7.7.8.}.7._ 8._.t.f.f.t.t.f.7.) 7.Y.t.8.r._.Y.Y.Y.t.t.N._._._.Y._.Y.N._.N.t.N.r.#.f.9.' [ 8.r.N.r.#.N.t.7._ _ Y.d.3.,.:.[ [ ] ] ,.,.[ [ 7.[ 7.,.7.7.[ [ ,.,.[ +.Y.O._ r.#.#.#.#.N.N.8._ ( O.#.+.8.#.+.+.+.#.N.#.t.r.r.8.8.8.+.8.8.8.r.8.#.r.r.[ [ 8._._.N.#._.N.+.7./ u.f.O.7.7.7.7.7.7.8.7.9.7.9.9.9.7.7.7.7.7.9.j.7.Y.oX7.[ g._.Y._._.|.}.8.7.] 7.v.f._.t.f.f._._._._._._.|.Y.f.r.8.t.f.Y._.Y.f._.}.7.,.u.Y.N._._.N._.8.O.[ 8.|.u.,.3.7.7.9.7.7.j.9.7.j.7.7.7.7.7.7.,.7.7.,.7._.u.' 7.8.t.Y.f._._.u.[ ) 7.oXN.N.N.N.N.N._._._.N._._.f.t._.Y.t.r.Y._._.Y.N._.f.} 7._._._._.t._._.d.[ [ |._.7.,.3.7.7.3.[ 7.7.7.7.9.7.7.7.7.7. .7.,.,.7.7.c.[ ] 7.t.#.#.#.N.N.r.O._ 7.#.t.r.t.t.#.#.+.#.#.t.N.N.r.r.f._.N.Y.t.r.8.8.t.}.9.' } #.#.#.+.#.t.7.] T 7.Y.O.] ] ' ` ' ' ] ] _ [ [ [ [ ] ,.[ [ } 3.3.[ O._.O.[ t.N.#._.N.N.t.O.[ [ 8.N.N.t.t.#.O.+.r.N.N.[ P P / ` ) _ } O.[ } _ / ] n 9 L [ O.t.r.8.8.u.} / 8.OXO.,.7.7.5.,.7.7.3.3.7.7.7.7.7.9.7.7.7.7.,.7.|.XX7.} f._._._.t._.8._ ] 8.}.t.d.r.r.r.Y.Y.r.r.N.Y.t.Y.N._.f.f.8.r.f.Q.Y._.}.7._ u.f._.r._.Y.N.f.8.[ 8.N.O.[ ,.,.7.,.5.7.7.,.7.7.7.,.,.7.7.7.",
"[ ,.,.,.:.' ' ] ' ' ' ' ' _ 8.f./ _ 7.( r.Y.r.Y.O.} [ ' 8.d.r.r.8.+.+.r.+.8.+.+.+.+.+.8.8.8.+.+.8.8.t.8.8.7.` ` _ O.#.#.+.#.O.` J / f.+._ ] ] [ ,.:.,.,.[ ,.,.[ ,.,.[ 3.,.,.7.7.7.} 8.}.7._ 7.d.t.r.8.f.f.O._ ` [ f.r.r.r.r.f.Y.Y.Y._.|._.t._.Y.N.N.Y.Y.Y.r.r.r.r.f.u./ ' 8.O.r.N.t.8._ 7.[ _ d.u.[ :.,.] ] ,.] [ ,.3.[ [ ,.3.,.7.,.,.[ ] ] [ +.d.7.} 7.} +.#.r.Y.} _ } / } +.+.O.+.#.O.r.+.#.#.N.+.8.8.+.+.8.+.t.+.+.+.t.+.8.:.] 7.+.#.N.t.t.+.O.8./ 8.f.O.7.7.7.7.9.8.7.7.9.7.7.9.9.7.j.7.7.9.7.9.7.f.oXO.[ 7.O.u._._.}.[ 7.7.` 7.}.f.f.f._._._.Y._.Y.f.f.Q.f.r.8.f.r.r.f.Y.Y.Y.r.}.7.] 7.O.8._.Y.Y.7.7.3._ 8.Y.7.,.,.7.7.7.7.7.7.7.7.7.7.7.7.7.,.,.7.,.3.7.7._.u.` 3.7.O.f._.f.7.O.7.` O.oXN._.#.#._.N.N._._.N.N._.r.8._._.t.r.N._.Y._._.N.f.[ 7.f.+.Y._.N.}.7.7.} _ Q._.7.,.,.,.7.} 7.3.,.7.7.7.,.,.7.[ [ 7.3.7.,.[ 8.c.[ ] 7.O.+.#.#.t. ._ } / 8.f.+.t.#.r.t.t.r.t.r.#.r.t.8.f.r.r.N.N.8.t.8.f.r.f.9./ 7.| O.8.+.#.7.` ] R O.Y.} ' :.,.] ] ' ' ' ] [ ,.] [ ,.[ [ 3.} [ [ [ +._.} O.8.#.t.N.#._.O.O.} ' +.t.t.t.+.#.#.O.+.+.r.8.` U T ` ` / ` _ } ( / ' J 6 e I ` O.+.8.8.7.7.[ ~ 8.#X7.,.7.7.,.3.,.3.3.7.3.3.7.7.7.7.7.7.7.7.3.7.}.|.3.,.7.r._._.Y.u.[ ,.] 7.}.8.8.8.r.Y.t.N.m.r.r.t.N.r.r.t.t.Y.d.Y.Y.Y.Y._.|.O.` z.7.d.Y.Y.f.f.} 7.' 8.Y.O.[ ,.,.,.7.7.,.7.7.7.3.7.,.3.3.9.7.",
",.,.] ] ' ] ] :.] :.' :.' _ 8.f.R [ 8.[ O.Y.Y.9._ 8.7._ u.f.r.r.8.+.+.r.r.r.r.r.+.+.+.8.8.+.8.8.8.r.r.8.8.7.' ` / [ +.8.+.[ _ ] T ` f.+._ ] [ 3.[ 3.,.,.,.[ ] [ ,.,.3.7.7.7.7.7.7.[ 7.}.u.[ 7.8.r.t.r.Y.9._ [ [  .f.r.t.t.r._.Y.t.t._._.Y.Y.t.t.N._._.Y._.N.r.t.N.Y.c.] } }.[ [ oXt.[ ) 9.[ _ d.d.[ ] ,.[ [ ,.,.,.5.5.[ 5.5.7.7.5.,.,.,.[ ] [ 8.Q.O.} 7.[ } Y.r. .( O.7./ } r.O.O.r.t.#.t.#.#.#.#.t.8.O.7.8.f.N.N.t.t.8.t.r.u.:.] 7.[ [ 8.r.O._ 8.d.` 8.f.+.7.7.9.9.9.9.9.7.9.7.9.7.9.9.9.9.j.9.9.j.7.f.oXO.[ u.O.[ _.$X7.[ }.d.) 9._._._.Y.}._._._.Y.Y._.}.u.8.f.f.Y.Y.t.Y.f._.Y._.}.5.:.u.7. .f.oXu.[ 7.9.] 8.Y.7.:.,.7.5.5.7.7.7.7.7.7.7.7.j.7.5.7.7.7.7.7.u.oX8.( 7.9._ 7.}.9.[ 9.c.) O.oX_.N.t.N._._.N._.N.N._._.+.7.|._.t.t.t.t._._._._.u.[ 7.u.[ 7.OX_.7.) 9.7._ Q._.7.:.,.[ O.7.} 7.5.5.[ [ [ 7.7.,.7.7.7.9.7.[ 7.c.[ [ 8.) _ N.N.O./ } 7./ 7.8.t.N.r.t.t.#.N._.r.t.r.t.t.Y.t.t.r.t.N.t.t._.t.Q.7.' 8.7.( 7.#.9.` ] 3.R O.Y.7.' ] ] ] ,.] ] ] :.] ] ] ,.[ ,.[ 3.3.[ [ [ #._.O.O.8.O.#._._.g._ O.O._ #.N.t.#.+.t.r.#.+.O.+.8.[ ` ` ) ` / / _ [ ' ( ] b q j j / 7.+.8.7.[ } 7.` 8.$X7.5.7.,.7.7.,.7.7.7.,.,.3.7.7.7.j.7.7.7.7.7.|.}.O.7.u.O.r.|.Y.O.[ z.] 7.}.r.8.r.Y.Y.N.Y.N.N.N.Y.Y.t.r.t._._.Y.Y.Y._._._.}.O._ c.7.7.Y._.8.[ O.u._ 8._.+.[ ,.,.,.7.7.7.7.7.7.7.7.7.7.7.9.7.",
":.' [ ,.' ' ' ' ] :.] ] ' _ 8.u.P ' z.9.` 8.9.[ } c.[ _ u.r.8.r.+.8.#.8.r.t.+.8.u.[ } 8.+.8.8.r.8.8.8.8.r.7./ ' ,.[ _ 5._ ( O.u./ ~ d.O.( ] ] ,.,.7.,.,.[ ] 7.7.[ ,.7.3.7.9.9.7.7.7.8.}.8.} u.7.O.f._.u.[ O.d._ _ f.t.8.r.f.Y.f.8.r.f.t.t.8.8.8.r.Y.Y._.Y.r.r.t.t._.z.] [ XX9.) 7.7.[ 7.z.] ( d.8.] ' ] ,.[ ] ,.5.,.[ 7.7.,.,.,.,.] ,.[ [ ] _ 8.f._ [ z.7.( 8.7.( O.Y.[ / O.+.+.#.+.#.N.+.r.+.+.t.r.8.} 7.f.r.#.r.t.t.r.#.t.8.:.` 7.9.( [ [ | O.8.8.` 8.Y.O.7.7.7.9.7.7.7.7.7.8.u.7.7.j.7.9.9.9.j.7.7.f.oXO._ u.}.[ 7.u.[ d.}.8.) 7.Y.Y.}._.f.Y._.Y._._._.f.8.7.d.r.r.f._.r.f.f.d.Y.Q.,.:.c.c.[ 7.8.O.O.z.8.' 7.}.7.,.,.,.7.7.,.5.7.,.7.f.9.3.7.7.7.7.7.7.7.3.8.oX7./ 7.c.O.[ 7.[ O.Q.f.(  ._.N.N.N.t.N._._.t.N.t._.Y.+.f._.N._.t.N.r.N._.t._.7._ } z.d._ f.f._ [ c.[ ( Y.f.} ] [ ,.[ [ [ 5.] _ O.8.[ [ ,.7.,.3.7.,.5.[ +.Q._ _ f.7.) O.O.( O.f.} / 7.8.#.r.t.#.#.N.#.t.N.t.8.8.f.t.N.N.r.r.t.t.f.r.f.f.7./ 7.c.O.[ 7. .[ u.,.P O.Y.[ ` ' ] ] ] ] :.] ` _ [ ] ' ] [ [ [ [ } ,._ #._._ [ Q.g._ 8.f.O.O.f.[ ( 8.t.#.#.#.+.r.t.#.+.O.[ ) ` _ ` ` ] / T ` } 7.I 6 c n U ` ` O.,.` _ u.7.` 7.#X7.,.7.7.5.7.,.7.,.,.7.7.7.5.7.7.7.7.7.7.,.7.XXXX[ 7.XX7.[ u.7.} u.u.` 7.Y.r.r.Y.r.N.Y.Y.Y.N.Y.Y.r.r.t.Y.Y.Y._.N.r.Y._.t.f.7.` c.z.[ 7.c.[ _ f.z.( +.Y.O.[ ,.,.7.,.7.7.7.,.9.u.7.3.7.7.7.j.",
":.] 8.f.[ / ` :.] ] :.' ' ] 8.8.P ] d.d.O.7.[ u.d.d.} [ d.8.+.r.r.r.#.r.r.r.r.d.7.' [ 7.8.r.8.r.r.r.f.+.r.7.E [ u.8._ ` ` O.8.7.R ( 8.| ) [ [ ,.,.5.5.,.] O.Y.f.O.[ 3.7.7.7.7.7.7.7.8.}.8.[ Q.Q. .7.p.7.[ u.f._ _ f.f.t.t.Y._.r.r.t.t.r.f.8.8.8.8.r.t.t.8.t._.t._._.d.] [ }.f.7.[ 7.f.r.u.] ( d.d.' ' ] ] [ ,.,.,.,.} d.}.7.] ] ,.,.,.[ ,.] [ +.r._ [ f.Y.7.[ _ u.8.+.[ ` +.r.N.N.+.t.#.r.r.+.8.t.r.7.O.8.8.8.+.8.#.t.t.t.#.f.:.` 7.oX+.] ] p.8.#.8.` u.}.+.7.7.7.7.7.7.9.7.8._.|.8.7.7.9.9.9.9.7.7.7.f.oX7.[ 8._.d.7._ d.Y.r.8.] 7._._._.f.r.f.|._.|._._.f.8.u.f.f.8.t.r.Y._.Y.f._.}.,.:.z.}.7.[ ` 9.}.d.8.[ 8.|.9.7.7.7.7.7.,.5.,.5.f.].t.7.,.7.j.7.7.9.7.7.8._.7.` 7.f.r.7.[ 7.}.f.u._  ._.#._._.t.N.N._._._.Y._.t.Y._._.N._._._.N.N.t._._.7.[ 7._.OX8.O.O.8.Y.Q.[ ( Y.N.O.] [ 7.[ O.[ [ _ } N._.+.[ ,.7.3.7.7.5.5.[ 8.}.} _ t._.+.[ / 7.+.t.O.P 8.r.+.8.#.+.#.N.N._.N._.r.t.r.t.Y.Y.t.Y.t.Y.f.t.t.Y.7.' 7.f.f.O.` 7.8.8.3.T O.Y.[ ` ' :.] :.' ] ` _ 8.t.O.] ' ] [ ] ] ,.,.[ #._._ [ _.OX8.O.O.t._.r.[ _ +.t.#.#.#.#.#.r.t.t.+.[ / T ` / ` [ ' / / / T 8 w I P 7.[ T T T ' 7.f.7.` u.$X7.,.7.7.5.5.5.5.,.7.Q./.7.7.7.h.7.j.7.7.7.7.XX}.7.7.c.}.8.,.3.f.f.7.' 7.|.r._.Y.t.Y._.Y._._.N.Y.r.r.Y.Y.t._._.Y.r.f.r.Y.Y.7.] f.Q.u.[ 3.} _.Y.7._ 8._.+.[ 5.7.7.,.7.7.,.7.Q.|.z.7.7.7.7.7.",
"[ 8.t.t.+.[ ` ' ' ' ' :.:.` 8.u.P [ 8.8.8.O.8.}.O.7.[ _ 8.8.+.+.r.r.r.r.8.+.8.f.} ' 8.8.+.8.r.8.8.f.r.r.r.3.T [ 7.8.O.5.[ u.O.' T / 7.O._ ] ,.,.] ,.,.] } f.t.r.8.} ] ,.7.,.,.7.7.7.8.oX8._ 8.}.8.O.[  .8.8.8.` ` d.r.r.t.r.r.Y.Y.r.r.Y.8.+.8.f.f.r.r.#.f.f.Y._._.r.7.` [ d.7.u.u.8.v.O.7.[ ( d.8.] ' :.' ] ,.,.,.[ d.Y._.Y.7.' [ [ [ ] ,.] _ +.f._ [ 8.f.Y.O.7.Y.[ [ O./ 8.N.+.t.r.+.#.t.+.t.+.+.t.} } 8.7.+.+.+.8.f.r.t.r.d.,.` 3.8.r.[ O.f.+.O.8.` 8.}.7.7.7.7.3.7.7.3.7._._._._.u.3.7.9.7.7.9.7.7.f.oX7.[ 9.8.f.Y.r.}.O.O.8._ 7._._.f.r.f.r.f.}._.}._.f.Y.f.d.r.r.8.f._.Y.Y.f.t.f.,.:.u.u.7.9.7.z.8.7.8.[ 8.}.9.,.5.h.7.5.6.,.,.f._.%._.r.,.,.7.7.7.7.7.,.+.}.8.' 7.u.O.7.u.f.8.+.7.) _ Y.t.t.N.N.t.t.Y._._.N.8.r._.N.N._.N._.Y._.N.N.N.t.8.] 7.f.Y.Q.8.8.}.r.d.} ( Y.N.} ] [ [ [ O.[ _ [ N.%.%.N.8.[ ,.7.7.,.7.,. .8.}.O.[ u.+.8.+.O.#.O.+.O.D 7.8.r.r.+.#.#.#.#.N._.t.#.t.r._.t.Y.N.r.Y.f.r._.8.f.7.` 7.+.7.u.[ 9.7._ ,.P [ d.[ ' ' ' ' :.' ` _ 8.#.#.#.7.' ` ' [ ] ] ,.[ 8._._ [ 8.'._.+.r.].#.O.[ ( O.t.#.#.#.#.#.#.r.r.8.O.( / / / / ` ` U Z / J 9 T ` J ' 9.7.T / 9.8.O.[ ] 8.#X7.,.h.7.7.5.,.,.7.S._._.c.7.,.7.7.7.7.7.,.7.|.}.7.j.u.8.Q.z.8.c.7.7.` 7.|.Y.Y.Y.Y.N.Y._._.Y.Y.+.+.r.8.t.Y.Y.Y.f.t.8.7.8.f.7.] u.7.Q.8.8.d.Y.O.8.' r._.O.[ 7.,.7.7.7.,.7.}._.Y.|.u.} ,.7.7.",
"8.Y.r.#.#.8.[ ' ' :.:.:.:._ t.f.' 7.7.+.O.d.oX8.( 7.[ [ u.d.+.#.r.r.t.t.+.r.r.t.8.8.8.#.8.d.r.8.8.+.7.8.u.,.` 5.O._ +.f.u.+.) ` ` ( 8.8._ [ ,.,.[ ,.] ,.d.N.r.r.N.8.3.[ 5.7.7.7.j.7.7.oXu._ 7.t.Y.Y.7.u.f.+.7.) ) 8.r.f.f.+.#._.Y.f.Y.t.r.r.f._._.N.N._._.Y.|._.Y.8.7.] 7.u.[ 7.XXY.7.[ O.[ ) d.z.,.' :.] ] ,.:.,.u.}.Y.N._.Y.7.[ [ ,.,.,.[ [ 8.Y.O.[ 9.O.7.d._.7.[ } O.( 8.N.#.N.t.#.+.t.t.N.#.#.8.[ +.t.+.+.O.8.t.f.Y.#.t.f.,.' 9._ [ N._.#.[ O.r._ 9.}.9.7.7.7.7.7.7.7._._._._.'.|.8.7.7.9.j.j.j.7.v.XX7.[ u.7.+._.'.r.[ [ u. .7._.Y.t.f.f.t.f._.}._._.Y.}.}.Y.f.f.r._.Y.oXoX|.g.u.5.,.z.7.[ c.|.d.[ 7.u.[ 8.|.7.7.5.h.7.5.,.7.c._._.N.N.N.u.7.5.7.7.7.7.5.7.oXf.[ 7.u.[ O.}.f. .O.9._ [ _._.N.N.N.N.N.N.t.t.r.t.Y.N._._._._.t.Y.Y._.N._.N.u.[ u.Q.7.+.|.oXt.+.d.O.( Y.Y.7.[ ,.5.[ [ [ | r._.N.%.%.N.7.[ ,.7.7.7.,. .8.|.7.[ u.( O.%.%.#.( O.+.P 7.r.t.t.#.#.t.N.t._.N.t.8.r.f.N.N._.t.t.r.f.f.f.t.f.7.) 7.[ ( 8.d.8._ ) O.R  .f.7.' ' ;.' ] ' ] +.#.#.+.#.#.7.] ] [ ,.,.[ [ #._.} O.8.#.#.r._.t.O.O.O._ +.t.#.t.r.#.#.r.#.#.#.+._ ` ` ` ' ] ] / / d.;.k [ [ J E _ 7.7.7.8.O.[ 7.[ 8.#X7.7.7.7.7.7.,.7.Q.|._._._.f.7.3.7.7.7.7.7.7.|.}.O.9.p.[ 8.#Xc.7.O.7.[ 7.oXY._.}.Y.t.t.|._._.r.8.f.t.8.t.N.Y.f.Y.f.8.O.+.Q.7.[ u. .7._.XXd.} O.z._ r._.+.[ 7.5.7.7.5.7.Q._._.Y.Y.Y.8.[ 7.j.",
"Z.r.#.#.+.r.8.[ ' ] :.:.] [ f.t._ O.O.[ ( 8.Y.[ ( 7.] _ d.8.8.+.+.N.r.r.r.r.8.8.8.8.+.8.r.8.8.r.8.+.O.O.7.] E 5. .(  .d.d.[ R [ ` ~ u.8.[ ,.] ] ,.] [ u.d.r.r.N.r.r.d.7.] ,.7.,.7.7.+.}.7.] u.7.+.Y._.f.O.[ O.( ` 8.t.d.f.8.8.8.f.Y.r.#.r.Y.Y.t.Y.Y.N.t.Y.|.Y.t.8.8.9.]  .z.) ) d.c.[ _ 7.[ ( d.d.[ ' :.:.] ] ,.u.}.Y.N.N.%.Y.Y.7.[ ,.,.,.] } 8.d.O.} u.[ _ 8.f.[ _ 8.} / O.#.N.N.r.#.+.#.t.r.t.t.+.+.+.+.+.O.O.O.f.r.r._.r.f.,.` 8.' / r._.O.' +.8.` u.}.8.7.,.7.7.3.7._._._._._._._.|.7.,.7.h.7.j.7.f.XX7.[ z.7.] 8._.7._ 7.d.[ 7.f.t.f.f.d.f.f.Y.Y.r.f._.f.Q.|.f.Y.f.d.}.|.oX}.8.f.,.,.z.7.` 7.Q.8.) 7.u._ 8.|.7.7.3.7.h.,.7.Q.|.N.N.&.%.N.Q.u.,.5.7.7.,.5.8.|.f.[ 7.7.) [ f.9.) [ 7.` [ _.N._.N.N._._.N.t.t.r.Y.N.t.t._.Y.t.r.#.Y._.Y.N._.7.] 8.Q.O.) Q.$XO.[ f.O.( Y.Y.7.] ,.,.[ ] [ r.N.N.%._.%._._.7.] 7.7.7.5.[ 8.|.O.[ c.) ` 8.N.+.( } 7.P 7.t.#.r.#.+.#._._.N.r.r.8.t.8.t.N.t.f.r.#.8.f.f.r.Y.7.` 7.[ / [ 8.O./ [ 7.P } f.7.` ` ;.' ` _ 7.#.+.+.+.+.+.#.7._ ] [ ,.[ [ r.Y.[ O.8.O.[ +._.+.( #.+.( +.t.#.r.r.+.+.+.+.+.O.O.[ / ` [ ] ' ' _ 8.3.v z } / U :./ / 7.7.} ` _ 7.[ 7.oX7.,.7.7.,.,.9.XX|._._._.Y.|.Q.7.,.7.3.7.,.7.|.Q.[ 7.c._ [ Q.u.] [ d.[ 7.#XY.Y.Y.Y.Y.r.r.|._.Z.d.d.Y.8.8.t.t.Y.Y.8.8.+.r.Y.7.[ u.[ [ u.}.7._ 7.u._ +._.O. .5.5.7.,.7.}.}.Y.N.N.N.Y.Z.O.[ 7.",
"r.r.#.m.#.r.t.8.[ ] ] ] ] [ Y.8._ 7.7.[ ` [ 7._ _ 9.[ [ d.r.8.8.8.N.r.r.r.N.#.r.8.r.r.r.r.t.t.f.f.f.8.7.u.5.` 9.7.] ` 7.7.` ` 7.) ( f.f.[ ,.,.] ] ] 7.f.r.t.m.N.N.t._.Z.7.[ 7.7.7.7.8.}.7.[ c.7.[ d.oX8.[ _ O.[ ` d.N.Y.|._.r.d.Y.t.8.r.Y._._.Y._._.r.+.d.Y.Y.Y.8.f.z.] O.p.[ ] 7.9.[ [ 8.O.( r.Y.3.' :.:.] [ 9.Q.Y.Y.N.N.N.Y._.f.7.[ ,.,.[ O.N._.O.O.f. ._ 7.7.] _ 7.O.( O.#.#.N.#.#.#.t.#.#.+.+.8.+.+.8.+.+.O.+.+.t.r.N.t.f. .) z.] / ,.7.[ ] 7.u.) u.oX8.9.7.7.7.7.Y._._._._._._._.oX}.7.7.7.j.j.7.}.#X7.,.z.9.[ 5.7.3.] 7.z. .7.f.f._._._.Y.Y.Y.f.t.Y._._.Y.}._._.Y.f.}.oXQ.f.f.}.5.5.c.j.] ,.7.O._ 7.u._ 8.oX8.7.3.3.,.7.Q.|._._._._.R.Y._.}.u.7.7.7.7.5.g.oX8.[ 9.7._ ] 7.7._ O.9.] _ t._.N._._.N._._._.N._._._.Y.t.N.Y._.r.+.Y._.Y.N._.8.] u.c.7.] 9.Q.[ O.Y.+.[ }._.7.[ ,.[ ] [ 8.N.N._._._.N._._._.O.[ ,.7.7.[ f.oXO.} c.[ ] ,.7._ `  .7./ 9.t.t.t.#.+.#.t.t.t.t.r.r.t.r.N.N.Y._.Y.t.t.f._.f._.7.` 7. .) _ [ [ `  .7.R O.Y.7.' ` ;.` ] 7.#.#.#.+.#.+.+.#.r.+.[ [ 3.[ [ t._.[ O.8.O._ O.r.O.[ 8.+._ 8._.t.r.#.O.O.O.+.#.+.+. ._ _ ' ( [ [ ' ` n 0 R 8.` P ] ] ` ) [ ,.` [ 9.[ 7.oX7.,.,.,.,.7.@XOXOX|._.`._._.OXQ.7.,.7.7.,.7.|.Q.} 9.c.,.,.9.7.] 7.c.3.9.#XY.Y.Y.|.|.r.r.f.|.R.}.f.r.8.8.f.Y.N.Y.r.8.t._.Y.7.[ c.7.5.,.7.[ } 7.u._ #._.O.7.5.,.5. .c._._._.N.N.Y.r.Y.Y.O.3.",
"r.N.8.O.8.N.8.8.7.[ ' :.' [ Y.8.( O.[ ] ` ' ] ] ' 7.:.] u.8.+.r.8.r.t.Y.r.r.#.r.+.8.r.r.8.r.r.r.f.f.8.8.7.,.] 7.9.] ` ] ' ] ` ,.' ` d.9._ [ [ ] _ 7.d.r.r.Y.r.8.d.Y.m.Y.d.O.[ ,.7.,.7.}.9._ z.9.) 7.p. .( _ 7.) ` 8.r.Y.Y.Y.}.f.r.8.t._.Y.t.Y._.Y.Y.Y.r.8.d.f.r.f.d.9.] O.u.] ] ,.,.[ ] 7.7.( t.d.[ ' :.' ] 8.Y.Y.r.Y.N.N.N.Y.Z.Y.d.} ] ,.:.[ Y._.O.O.u.7.] ,.' ' ] 3.7.( } #.+.+.+.r.+.+.t.#.O.8.O.} +.+.O.8.O.O.O.8.t.+.t.8.[ ) 9.] ` ;.' [ ' } u.) 8.}.7.7.7.,.7.Y._._._.'.Y.+.f.oX_.|._.7.,.7.h.7.f.#X7.,.z.j.,.,.,.,.:.7.d.[ O.d.Y.t.Y._.Y.f.r.Y.Y.d.f.}.Y.f.f.Y.Y.Y.Y.}.r.f.Y.Q.7.7.c.7.] ,.] ,.[ 7.9._ 8.|.7.7.7.,.3.c.|.Y._._.Y.8.8.|.Y.Y._.7.3.7.7.,.8.oX8.[ 7.7._ ' ] [ ] [ 7.] ( +.t.N.N.N._.N.N._._.N.N.t.N.t.t.N._.r.r.r.Y._.N.Y.7.] d.d.3.,.3.7.[ } d.7.[ |.Y.O.] [ _ _ 8.N.N.%._.t.+.Y.].R._._.7.[ 7.7.[ r.oX7.[ z.,.:.:.] ' ` [ 7./ u.r.t.N.r.r.#.#.r.N.#.f.r.r.N.t.Y._.N.Y.f.t.8.f.f.f.O.) 7.[ _ ] ) ] ` ] 7.R } r.} ' ` ` ] 7.8.+.#.#.#.+.#.#.+.r.r.O.] [ ,._ t._._ O.7. ._ ] [ [ _ 7.7.( +.t.t.r.+.+.O.8.8.+.+.8.[ ( / ` ` ` R R P v c / 7.` P :.:.` E ' ' ' ,.7.] 8.|.7.,.>.:.7.XX#X@XOXOX|.Y.Y.|._.oXY.7.,.7.3.7.|.Q.[ 8.z.:.:.5.,.[ [ z.7.7.XXr.N.Y.Y._.}.8.O.r.}._.8.O.7.f.8.t.Y.r.r.Y.f.N._.7.[ z.7.,.:.,.:.[ 7.u._ +._.O.,.5.[  .f.|.Y.Y.Y.8.+.Z.Y.r.m.d.7.",
"r.r.[ ' [ d.r.r.g.7.] :.] [ _.8.( +.[ _ ) ] ] ] ' 9.[ ] u.8.#.N.r.f.N.N.r.+.r.t.#.8.r.r.r.r.r.t.8.8.8.t.d.7.[ u.9.] ` ] ' ] ' ,.' ` f.7._ ] ] ] 7.d.Y.Y.Y.f.O.[ 8.Y.Y.N.Y.u.,.,.,.,.7.}.8.] z.9.] ,.7.[ ) [ 7._ _ 8.r.Y.Y._._.Y.t.f._._.N.Y._._._.Y._.Y.f.f.Y.Y.Y.d.9.[ 7.u.] ] ,.,.[ [ 9.7.[ _.d.[ ' :.] 7.Y.N.N.Y.Y.8.O.r._.Y._._.u.,.,.,.[ N._.O.7.u.7.,.,.] ] ] [ 7.( O.#.O.+.+.#.+.#.r.r.r.t.+.O.r.#.#.t.r.8.+.t.8.#.#.8.} ] u.:.' :.:.,.' [ u.) u.}.7.3.,.7.d._._._.'._.7.[ O.}.|._._.}.9.7.7.9.f.#X7.7.z.9.:.,.,.,.]  .c.[ O.f.t._.Y.f.t.f.f._.Y.f.Y.}._.}.f.f.f._.}.Y.f.Y._.}.7.j.b.j.] ,.:.[ ] 7.9._ 8.|.+.3.,.,.z.|._.|.|.Y.7.] [ d.|._._.Y.9.7.7.5.8.oX8.[ 7.7.] ] ] [ [ ] j.] ` 8.t._._.N._._._._._.N._.N._.N.N._._._.N.r.f.N.N.Y.7.] d.z.,.,.,.,.[ O.f.8.O.|.Y.7.] ] [ 7._._._._._.O.[ 8.'._._.]._.7.5.,.7.d.XX7.3.c.,.] :.;.' ' ,.7.( 8._.t.Y.Y._.8.8.r.t.N.N.t.t.Y.Y.r.r.r.Y.Y.f.r.8.#.f.7.[ 8.[ ] [ ) ] ` ) 7./ O.f.[ / ` ' 7.r.#.#.#.#._ ( O.N.#.#.N.r.O.[ ,.[ t.N._ +.8.[ ] ] ] [ _ 7.7._ +.t.#.#.#.8.8.r.8.#.8.8.} _ / / T I I ] ,.I G ] 8._ E :.:.' ` ` :.] [ 5.] 8.XX7.:.:.3.}.OX|.XXOXoXu.3.8.|._._.'.f.7.,.3.7.|.Q.[ u.c.,.,.5.5.[ ,.9.5. .}.r.N._.Y.|._.f.7.7.Q.}.8.7.u.f.8.8.r.r.t._.N.N.|.7.[ c.5.] :.,.] [ 3.u._ +._.O.[ 5.[ u._._._._.8._ ` 7.d.Y.r.Y.8.",
"8.] ` ` ' ,.d.r.r.8.3.] ] [ f.8.( O.O.) ` ] ' ] ] 9.] ] 8.r.8.r.N.t.r.r.+.r.8.r.r.+.8.r.r.r.8.r.8.r.8.8.t.7.] 7.7.' ` ] ] ` ` ,.R / u.7._ ` ` 7.f.Y.Z.Y.c.7.] ,.[ 7.Y.N.r.d.7.[ ] ,.7.Q.8.[ 9.7.] :.] ] ] _ 7.[ ' r.r.r.Y.Y.r.r.t._.Y.t.N.Y.Y.f.Y.N.N.Y.}.f.f.d.r.f.8.`  .9.] ] ,.] ] [ 7.7.[ Y.8.[ ' ] 8.Y.r.r.Y.r.7.] ' 3.u._.N.N._.8.,.:.} r._.} 7.u.[ ,.,.:.:.` [ ,.R O.r.+.+.O.+.#.r.+.r.r.+.+.#.#.#.#.+.#.r.r.r.+.#.+.f.O.` u.:.` :.:.;.' [ 7.` 8.c.O.,.,.u._._._.'._.7.3.7.,.9.|._._._.}.8.7.7.f.XX9.7.c.7.] ,.,.,.] 7.8.) O.f.r.f.f.f.r.f.Y.d.Y.|.}.f.f._.}.d.8.Y.Q.}._.d._.oX7.7.c.7.] ,.,.] ] ,.7._ 7._.O.[ ,.z.|.Y._.|.Q.3.] ,.,.3.Q.|.Y._.}.9.,.,.8.oX+.[ 7.7.` ] [ ] [ ,.7._ [ _.N.N._._.N.N._.N.N.N._.N.r.r._.N.N.N.Y.N.t.r.N.#.9.' u.z.] ,.3.,.[ [ 8.7.[ Q.f.O.` ] 7._.N.N._.N.7.] ,.[ 8.'._._._._.7.[ O.d.|.7.[ z.] :.:.' :.' :.9.( +.t._.N.t.N.Y.t.#.r.N.r.t._.r.r.#.8.r.t.t.f.8.+.+.t.7._ 7._ ` ] ] ` / ) [ / O.8._ / ` 7.r.#.+.t.+.` T ` ` O.t.%.#.N.8.[ [ [ #.t._ O.7.[ ' :.] ] ) 7.5.) +.#.+.#.#.#.r.+.#.#.+.O.[ / P I n P ] 8.] k U 7.7.] E :.] ' ` / :.] ] 7.] 7.}.,.' ,.c.|.|.OXOX|.z.,.3.7.u.'._._._.u.,.,.7.oX}.[ u.u.] ,.5.,.,.,.9._  .|.t.r.f.Y.Y.Y.Q.c.d.f.d.8.d.8.7.7.8.8.t.N.N.N.N.f.7.] u.[ ] :.,.] ] 3.9._ +._.O.[ [ d.|.Y.Y.Y.d.[ ' ' ' } f.N.8.Z.",
"] T E :.` :.7.f.r._.u.,.] [ Y.8.( 7.O.) ` ] ] ] ) 9.[ _ u.t.r.r.8.+.+.8.r.t.r.r.f.#.8.Y.Y.r.f.r.f._.f.u.f.8._ 5.7.] ' :.] ` ` ] R / u.O.` _ [ r.Y.Y.|.Q.7.,.,.3.[ [ u.Y.r.r.Y.7.,.[ 7.Q.8.,.8.7.] ] [ ,.] _ 7.[ } Y.N.r.Y.Y.t.r.Y._.N.N.N.N._.Y.Y.t.t.Y._.Y.Y.d.r.Y.u.) [ j.] ] [ [ ] ] 7.7.[ _.u.( ] 7.Y.N.N.Y.Y.7.' ,.7.:.3.d.Y.N._.Y.9.[ _ r._.O.7.u.,.:.,.,.,.' [ [ / O.#.N.r.+.+.#.#.#.r.+.8.#.r.r.N.#.r.+.8.8.+.8.8.8.f.7._ u.] ' :.:.:.' ,.9.) u.c.[ O.8._._._._.Y.7.3.3.j.7.3.d.|._._._.}.u.7.f.#X9.7.c.7.:.,.,.,.] 7.u.) 7._.f._.}._._.}._.|.Y._.f.d.8.}.oXf.8.8.Y.|.Y.f._.oX7.7.c.7.[ ,.,.[ ] 7.7._ 8._.O.[ 8.|._._.|.}.7.,.3.,.,.,.9.Q.|._.oXc.9.7.8._.+.[ 8.7.' ] ] ,.[  .7._ O.OXN.N._._._._._.N._._.N.r.+.r._.N._.N.t.r.N.t.#.N.8.] u.u.] ,.7.,.[ [ u.7.[ |.Y.[ [ 7.Y.N._._.Y.7.[ ,.7.,.,.r._._._._._.7.O.8.oX7.[ z.:.;.:.:.:.' ,.9.` 7.t.r.Y.Y.N.t.Y.t.t.8.N.t._.8.8.#.Y.r.Y.Y._.t.8.+.f.7._ 7._ ' ] ] ` / ) 7./ +.t.( ( 7.#.#.#.r.#._ / ` ] ' ' O.t.#.%._.7.[ [ #.N._ O.8.[ ] :.,.,.] 7.[ ( +.#.+.8.8.+.+.+.+.8.+.O.] T J J T 9.r.} P I ,.8.8.3.` ,.[ ] ' ` :.] ] 7.] 9.Q.[ [ d.|.|.|.|.XXu.,.6.j.3.7._._._.'.}.8.[ +.oX}.} u.u.[ ,.5.5.,.5.9.[ O.XX_.Y._._._.Y.|.|.|.Y.r.d._.d.d.t.Y.r.N.N.N.N.N.Y.O.[ 9.[ ] ,.,.,.] 3.9.[ 8._.O.O.8._._._._.f.} ' ' ' ' / O.d.m.r.",
"T ` ` ` ' ,.:.u.f.r.Y.u.[ [ f.8.( O.O.) ' ' :.] ` 9.[ _ 8.r.r.r.r.r.r.8.r.r.r.Y.r.#.r.d.Y.r.8.Y.Y.Y.}._.d.7.) 7.7.' ] ' :.] / ] / / 8.O./ _ 8.t.r.Y.}.8.[ 7.7.] [ [ ] 7.f.r.r.f.9.} O.|.8.] 9.7.` ] [ ] ] ] 3.' O.Q.r.Y.d.r.r.t.N.r.Y.N.r.t._.Y.r.t.N.r.Y._.Y.N.N.f.9.` [ 7.] ] ] ] ] ] 9.O.[ }.8._ } f.m.#._.Y.7.] ,.,.3.,.,.,.u.t.t.N._.7._ #._.} O.8.] ,.,.:.,.:.] [ / O.Y.+.r.r.#.O.+.#.#.+.+.O.+.t.r.r.+.+.#.+.8.O.+.r.u.7.` 7.' ` :.;.:.` ,.9.( u.d.O.+._._._.]._.7.,.7.3.7.7.9.} f.|._._._.|.u.f.#X9.7.c.7.,.,.,.3.] 7.8._ 8.Y._.|.Y.}.oX|.Y.Y.Y.f.8.Y.f.8.f._.r.d.d.f.Q.f._.|.7.7.c.7.,.,.,.,.) 7.9._ 8.Y.} 8.|._.Y._.}.7.,.7.3.[ ,.3.3.9.}.}._.}.c.7.+._.+.[ 7.7.' ;.] ,.]  .9._ } }.N._.t.t._._.N.N.N._.#.r.r.+.r.N.N.#.r.r.t.r.#.N.d.] 7.u.] ,.,.7.[ [ d.O.[ _.t.} O.Y.t.%.'._.7.[ 7.7.,.,.,.[ r._._.N._.Y.+.r.OXO.[ z.] ;.>.:.:.' ,.9./ 7.r.8.t.r.t.Y.Y.t.t.8.r.t.r.r.N.Y.t.t.t._.Y.r.t.r.r.7._ 7._ ` ] ` ] R ] 7./ +.r.} [ 8.#.+.#.8._ / ] ' ` ] [ ` O.r.#.%.N.O._ #.N._ O.8._ ' :.:.,.] 7.[ ( O.8.+.+.+.+.O.+.O.O.O.O./ J J ] 8.8.7.` T ,.8.O.r.7./ ,.,.' ` ' ;.' ,.7.] 9.z.[ i._.R._._.|.8.,.,.h.7.7.5.7.}._._._.}.8.+.oXf.[ 7.u.,.,.5.5.,.5.9.[ 7.XXf.}.Y.f.Y.Y.Y.Y._.Y.Y.r.f.Y.Y.t.N._.N.r.t.r.t.Y.[ [ u.] ,.:.:.,.] ,.9._ +._.O.+._._._._.Y.} ] ] ] ' ' ' / [ d.d.",
"` ` / ,.` :.,.[ 7.f.r.f.8.O.t.8.( O.7._ ' :.:.] _ u.[ _ 8.#.r.N.Y.Y.r.r.r.r.r.Y.Y.r.8.r.8.+.+.r.Y.f.f.r.r.8.[ O.7.] ] ' ] ] ` ,.` _ 8.[ ' 7.8.N.N.Y.7.,.,.7.7.,.] [ ] [ 7.d.r.f.Y.8.#.|.u.] 7.7.) [ [ [ ) [ 7._ O.Y.t.Y.Y.r.t.N.N.N.N.N.N.N._.Y.t.r.N.N._.f.Y.Y.Y.f.9.` [ 9.] ] ,.,.] 5.z. .| _.f.+.8.N.N.%.N.8.] ,.7.} ,.,.3.:.,.u.Y.t._.Y.+.t.'.O.7.u.] ,.,.:.,.] ,.7./ O.#.#.N.8.#.+.+.+.r.8.+.[ O.#.+.+.+.#.r.8.t.+.#.#.r.[ _ 7.] ' >.:.:.:.7.7.) u.Y.#.N._._._._.7.,.,.7.7.9.7.7.7.7.f.oX|.oX|.Q.f.#X9.O.Q.u.,.,.3.7.[ u.u.] d._._._.}.|.}.Y.f.r.}.Y.r.|.Y.8.r.Y.f._.f.f.}.Y.|.XX7.7.}.9.,.,.,.,.[ 9.9._ 8._.+.Y._._._.Y.7.,.7.,.3.9.3.3.h.7.7.Q.|._.oXd.8.'.8.[ 8.7.] ] ] ,.[ 7.f.[ O.f.t._._._._._.N._.N.#.N.t.N.r.t.t.t.t.t.t.t.r.N.N.c.[ 9.d.[ ,.3.7.,.7.Q.+.[ _.N.+.r.N.%._._.8.,.7.7.7.7.3.3.,.[ 8._._._._.N.N.[.+.} c.,.:.>.:.:.' 7.8.' 7.8.t.t.t.f.t._.t.r.t.N.r.r.t._.t.t.N._.Y.t.t._.t._.O.[ 7. .` ] ] ] ` 5.7./ +.#.+.+.+.#.+.+._ ' ] _ [ [ _ :.] ] O.r.N.'._.#.N._._ O.u.[ :.>.>.,.[ 9.5.` +.r.+.+.+.O.O.O.O.O.O._ / [ 7.[ / ^ T / [ 7.8.+.Y.7.` 5.7.] ' :.:.] 7.7.[ 8.c.7.Q._.R.}.}.9.>.2.7.5.h.7.7.,.9.c.}._.|._._.'.f.[ 8.f.5.,.5.,.5.7.z.[ 9.XXY.Y.t.r.r.Y.Y._._.Y.Y.t.Y.Y.r.#.r.Y._.N.Y.r.N.Y.O.[ d.O.[ ,.:.,.] 7.9.[ r._.#.N._._._._.O.] ] ] [ :.' ' / / ,.9.",
"^ ~ } O.[ ^ >.:.' 8.d.Y.r.+.N.8.( O.8.[ / ;.:.` } d._ ' 8.r.8.r.r.r.r.r.#.+.r.r.r.+.r.f.8.8.8.8.r.t.8.#.r.u.[ [ 7.[ ` ' ' / _ 7.' ' 7.O.O.7.+.t.d.7.:.,.,.,.u.u._ ` :._ ) 7.d.r.Y.N.N.Y.7.' 7.9._ ' ,.[ ` [ 8.' _ Y.r.r.d.Y.f.r.Y.Y.r.#.N.N.Y.Y.t.r.N.r.Y.Y.Y.Y.t.Y.9.` [ u.[ ' ,.[ ) j.z.[ _ _.t.#.r.m.N.t.O.] ,.,.[ O.u.3.:.,.:.[ d.Y.m._.N.N.R.} } 8.[ :.,.:.] ] 7.7./ O.+.+.8.8.+.O.+.O.8.O.O.} +.+.8.+.+.+.+.r.8.r.+.O.r.[ ` 7.,.` ;.>.;.] 9.7.` u._.N.N.N._.f.7.,.3.3.,.u.Q.8.,.7.3.[ c.oX_.|.|.Y.XX9.O.Q.c.[ ,.7.,.7.Q.u._ d._.f.}.}.Y.d.8.r._.f.d.r.f.}.8.+.d.t.f.Y.Y.f.Y.|.oX7.7.}.u.[ ,.,.] [ u.7._ 8._.N.Y.Y.|.Y.7.,.7.7.[ 8._.8.3.3.7.,.7.}.oX_._._._.8.[ 7.u.] ' :.:.] 8.u._ [ t.#.r._.t.t._._.t.#.+.#.t.r.t.N.#.#.r.N.t.r.#.%._.d.[ 7.f.7.:.7.3.[ 8.}.O._ _._.#.r.N._._.7.:.7.,.3.c.d.3.,.3.' _ f._._._.]._.'.7.} Q.7.' ;.:.' ' 8.8.( 7.f.8.r.f._.8.#.t.Y.r.Y.r.t.#.N._.t.#.Y.N.N.t.t.Y.f.O._ 7.7.` ` [ ` ` 9.7./ O.N.+.+.+.#.O.` ' ] ) ' +.f.} / :.] ' 9.r.t._._._._.[ O.d.7.' :.,.' [ z.[ _ 8.+.+.O.[ O.} [ [ [ ' _ +.m._ N N T / ] ` / O.+.r.O.` 7.9.] ` :.:.] 7.9.] 9.Q.d.Q.Y.R.z.7.:.,.,.,.c.c.7.,.7.,.7.}.}._._._.Y.f.[ 8.c.7.:.5.,.[ 9.c.[ 7.oXY.Y.f.Y._.f.f.Y.Y.}.Y.8.8.f.r.+.8.+.r._.r.Y.r.Y.O._ f.7.] :.,.:.] 7.8._ d.Y.N.R.Y._._.O.] ,.] _ u.8.,.` ' ` ^ ,.",
"~ _ O.+.O.] ` :.' ] 7.Y.d.8._.8.( O.d.O.` ' :.` 8.}.[ _ 8.r.r.r.r.+.r.r.r.r.+.r.r.r.r.f.f.Y.r.r.t.t.8.8.r.d.[ O.u.[ ` ' ' `  .u._ _ 8.8.8.t.f.8.O.] :.,.,.7.Y._.8.] ' ] ` ] 8.Y.Y.N.N._.7._ u.d.[ ) 5.[ ) 7.f._ _ Y.r.r.Y._.Y.r.r.r.#.#.#.N._.N.t.N.N.r.Y._.Y.t.t.Y.9.` [ f.7.] ,.[ [ f.b.[ O._.#.N._.N.r.O.] :.,.[ [ d._.u.,.:.,.] 7.f.Y.Y._._._.} O.c.7.] ,.:.] ,.d.7./ +.8.O.O.O.+.+.+.O.+.O.O.+.r.+.r.r.#.+.+.+.r.8.+.#.r.} ` 8.9.' ;.:.] ,.u.7._ f.'.N._._.Y.O.,.,.3.,.7.}._._.9.,.,.,.7.c.oX|.oX_.oX8.7.Q.XX7.,.7.,.9.XXu._ f.}._.}.f.f.r.t.f.f.Y.d.r.Y.}.8.+.d.t.8.f.Y.Y._._.oX7.7.XXb.5.,.,.[ 7.}.9._ r.'._._.|.Y.7.,.,.,.,.8.|.'._.8.3.3.7.,.9.}.XX'.[.[.8._ 8.f.[ ' ,.] [ Q.u.) O._.#.r.N.t.t.N.t.#.8.#.8.r._.t.t.t.r.t.N.N.N.r.#.#.f.[ 7.|.7.[ 7.3.O.Y.'.O.[ _._.%._._._.O.] ,.7.,.8.|._.u.,.:.:.' ,.Y.'._.'.].OX8.O.|.u.] :.:.' 7.}.f._ 7.f.t._._.r.+.#.t._.r.Y.N.t.#.N._.r.r.r.N._.r.t.t.t.O._ #.f.[ ` ] ` ] c.7./ +.t.#.N.r.O.) ` ' ] _ } t.].r.[ ' ] ] ,.8.f._._.]._.[ +.Y.9.] :.,.] 7.}.7.} 8.8.O.O.} } } _ ' [ / 8.t./ z J ^ [ _ P K ' O.+.r.7.` 7._.} ` :.:.,.u.u.[ u.XX_.|._.f.7.' :.,.,.8.oX|.d.7.7.7.5.7.|.oX_.'._.Y.} u.}.9.[ 5.5.[ }.XX[ u.|.Y._._.Y.|._._._.Y._._.8.8.f.r.Y.r.+.t.t.8.+.#._.7.[ }.u.[ :.,.] [ f.u._ d.oX_._.'.Y.7.] ,.[ [ 8.N.N.u.[ ' ] ` ' ",
"' O.O.{ +.O.^ ' :.' ] 8.Y.8.N.7./ O.8.u._ ` ' O.f.c.[ ' 8.r.r.+.8.r.+.8.8.+.8.#.+.r.r.8.t.r.Z.Y.r.8.r.8.+.8.[ [ 8.9.` ` ` [ 9.7.` ` 8.8.+.f.f.[ ' ] :.' 7.Y.N.r.r.8.' / ] / ] d.R.r.N.|.7.] 8.Q.O._ ] ] O.f.d.' _ d.#.t.Y.r.t.#.+.r.r.+.+.#.%.t.t.r.t.Y.Y.r.f.N.N.r.9.` [ f.7.[ ] ] O.c.c.[ [ Y.t.N._.Y.7.` :.:.] [ d.N.N.Y.u.:.,.,.] 7.Q.R.#._._.[ [ c.8.[ :.' [ 8.d.3.P 7.+.O.[ _ +.+.O.+.O.O.8.8.O.r.8.+.+.O.O.O.O.O.+.+.8.[ ` 9.z.,.' :.,.9.u.7.` f._.N.'.Y.O.,.7.,.,.3.Y._.N._._.3.:.,.,.,.Q.OX_._.OX8.3.Q.XXu.,.:.j.}.oXu.] u.}.}.f.u.8.r.f.8.d.f.8.8.f.Y.Y.8.7.8.8.8.u.Q.f.Y.}.7.7.XXXXj.[ [ 7.Y.}.9._ r._.N.|.Q.3.:.,.,.,.7._._.N._.|.7.,.7.7.,.9.XXoX_.OX+.( 8.Y.7.) ] [ 7.}.u./ [ f.#.N.r.8.t.+.+.#.r.8.+.+.t._.t.r.t.r.r.t.Y.r.#.#.r.[ +.Q.c.7.:.:.7.|._.O._ _.#.%.'.N.O.' ,.:.:.9.|.N.r.Y.8.' :.:.' 3.|.]._.].OX8.} |.Q.7.:.;.:.f.Q.d.` 7.8.f._.Y.#.+.t.r.t.t.r.r.r.r.N.r.t.#.r.r.r.f.r.#.8.O._ 8.t.7.) / ` 7.c.7./ 7.t.#._.8.] ` ] ] ' 7.f.N.#.N.f.' ' ,.` [ u.d.#.'._.} O.f.c.7.:.:.,.d.}.[ ' u.8.} O.} [ _ _ ' I K ' ( Z I ' / / / J P O.} } r.7.` 7.Y.7.' ` :.5.d.8.[ u.oXY.|.Q.3.' :.:.:.7.}.Y.Y.|.d.7.7.5.[ 9.XX|.N._.Q.[ 8.|.f.5.,.,.7.oXQ.[ 8.|.r.f._.Y.Y._._.Y._.Y.d.8.8.8.d.r.Y.#.+.r.#.+.8.f.7._ f.Q.7.] ,.] 7.d.8.' 8._.N._._.7.] [ [ _ +.N.t.#.N.8.] ` :.` ",
"} +.O.O.O.+.} ` ' :.' 3.8.r.Y.7.( 7.8.Y.O.` ] f.N.f.] _ u.8.8.8.8.r.r.f.r.8.+.#.8.t.r.r.r.r.r.r.r.r.r.r.t.f.[ [ 8.f.[ / ] u.8.7.( _ 8.#.t.8. .] ' ] ] ,.d.Y.r.#.#.8.7.` ` ' ` 7.Y.N._.oX8.[ 8.|.d.[ _ O.f._.8.` [ r.r.Y.N.#.%.#.#.r.t.#.+.+.#.#.N.r.t.t.r.8.r.t.t.t.9.) [ Y.t.+.] ] d.}.c.[ O._._.N.Y.7.' ' :.] [ d._.N.N._._.9.:.,.,.] 8.Y.m._._.[ 5.c._.8.[ ] u.N.f.[ P [ 7.+.O.O.+.O.8.O.O.O.t.+.O.+.+.#.#.O.O.O.} } +.+.8.[ ` 8.Y.8.] ] 7.Y.f.7.] u.'._._.7.,.,.3.,.,.d.N.N._._._.c.,.:.,.,.7.Q.'._.[.9.3.c.oX}.7.5.Q.oXoXu.] u._.f.f.f.8.t.Y.f.d.8.r.f.Y.Y.}.f.8.8.8.8.u.r.t.Y.}.7.7.XX$Xc.[ [ }.'.}.7.[ r.'._.|.7.:.,.,.:.9.}._._._._._.Q.9.5.h.7.7.u.|.'.'.+.[ 8._.f._ )  .f._.7./ [ f.8.N.t.8.t.t.#.#._.r.7.8.t.t._.t.t.t.N.t.8.+.+.t.t. .+._.oXf.,.[ Q.|.Y. ._ N.%._.Y.7.' :.,.,.7.Y.R.m.N.#.Y.7.:.;.:.:.9.'.'.'.[.8.O.|.oXf.7.] 9.oX_.u.` 7.t.8.N.r.r.r._.t.t.t.r.r.Y.r._.N.t.r.t.8.8.8.+.+.u.O.) +.t.t.O.` [ f.Q.7./ 7._.f.7.] ' ' ] ] 7.8.N.N.N.N.N.u.] ,.,.] 5.u._._.oXO.7.f.|.u.,.:.u.|.}.] ` 7.O.O.7.} } _ ] ` n K ' ~ ^ ~ ( _ ` v J [ 7.O.O.r.O.` O._.f.,.E ,.z.}.u.[ u.#XoXQ.7.' :.:.:.,.c._.N.R._._.d.7.7.7.5.u.|.oXoX}.} 8.oX_.u.7.[ f.OXc.] 9._.t.Y.Y.Y.Y.Y.Y.Y.Y.f.f.8.8.8._.Y.t.#.+.r.r.8.t.Y.7.) f._.f.] ] 7._.N.8.' 8.Y._.N.O.] ,.[ [ O.t.#.%.N.%.t.+.] :.1.",
"O.} } O.} O.+.[ ^ ` ;.' 3.8.r.7./ 7.8.r.r.} 7.t.t.u./ ' u.8.8.r.8.8.r.d.d.+.O.8.8.8.r.t.8.8.8.r.r.r.+.+.r.d._ ` 7.8.7.,.7.8.8.O.T ` O.+.@.[ ' ] ] ' ] 8.Y.r.8.r.+.+.8.3./ ` ] ' 7.Y.R.|.9.[ d.Y.Y.8.O.r.N.N.8./ ] f.t.r.N.#.+.#.%.+.+.#.#.#.#.#.t.#.#.+.+.8.r.8.t.f.7./ [ t.#.t.7.7.Y.Y.c.] [ _.Y.Y.7.] :.:.:.[ f._.N.N.N.N.Y.}.9.' ,.:.,.7.Y.N.d.[ [ r.N.t.O.7.N.#.8.R P 3.+.O.8.+.O.O.7.[ [ 8.+.r.[ O.#.+.O.O.+.O.O.O.O.O.8.[ ` 7.r.f.7.7.Q.r.f.7.] 9.}.|.u.,.7.3.,.:.8.Y.t.t.N.N.N._.c.,.,.7.,.7.}._.|.7.7.Q.|.|.c.f.|._.oX7.` u.f.u.Y.d.f.d.d.f.r.8.f.Y.Y.Y.Y.Y.Y.8.8.8.8.d.t.Y.}.5.5.}.#X}.8.u.|._.}.7.] 8._._.9.:.>.,.:.7.Q._._._._._.Y._.}.7.,.j.7.7.c._._.7.) 8._._.8.[ 8._._.7.R [ 8.8.8.t.Y.Y.r.8.8.+.r.f.8.r.Y.t.t.t.t.N.#.8.+.t.r.8. .O._._.oXu.u._.Y.f.[ _ r.t._.7.' ,.,.:.,.Y.N.r.r.r.+.r.Q.7.' ,.>.:.f.]._.oX8.O.}._._.f.8._._._.7.` u.t.8.r.r.Y.N.N._._.t.t.r.r.t.t.t.N.r.r.r.#.7.8.8.u.7.( 8.#.t.8.7.d.8.f.7.R 7.f.7.[ ` ' ' ] ,.f.r.8.r.N.r.#.f.u.' :.,.' 9.f._.}.[ 7.f._.Y.8.8._.N.f.] / ] O. .7.7.[ _ ' J z [ 7.~ ~ ' ] L w a ] O.} 7.O.+.O./ [ t.N.7.3.z.f.Y.u.] 9.XX}.9.:.;.:.:.,.z.Y.N.Y.R.Y._.oXd.,.7.,.[ u.|.}.c.[ 8.|._.|.f.8._._.d.` 7.f.t.t.r.Y.f.8.#.r.r.N.Y.r.8.r.Y.Y.+.+.r.8.r.t.#._.7.( 8.Y.Q.7.} d.N.r.8./ 7.Z.t.7.] [ [ ] } r.%.#.#.N.#.#.N.O.` >.",
"O.} } } O.O.+.O.] ` ;.;.' 7.8.7./ 7.8.#.#.r.r.t.#.8./ [ d.#.8.d.r.r.r.8.+.O.+.r.r.r.r.8.+.8.r.r.8.+.O.+.8.u.) ` 7.8.8.7.7.8.O.[ / ` 7.7. .] ' ,.] ] 7.r.r.r.+.#.+.8.f.u.[ ] :.:.,.u.|.XX9.3.d.Y.f.Y.r.N.N.N.+./ 3._.t.r.N.%.#.%.N.#.#.o.#.N.N.N._.N.#.+.8.r.r.8.t.t.7.` [ t.#.N.f.f.Y.Y.}.] [ f.r.8.] ;.;.] ,.c._.N.Y.N.N.N._._.}.9.] ,.,.] 7.N.f._ } f.#.+.O.r._.+.7.T T 7.+.+.8.+.+.O.O.[ O.8.r.r.} O.r.+.+.O.+.+.8.+.O.+.8.[ ` 7.#.r.d.r._.r.f.7.] u.}.f.7.,.7.,.,.9.Y.t.N.N.N.N._._.|.z.,.,.7.,.u._.|.7.3.c.|._.|.|._.N.oX7.) u._.f.d.f._.Y.t.Y.t.r.Y.f.Y.Y.Y.Y.Y.f.r.r.f.f._.t.}.7.5.}.oX_.}.}.}.Y.}.9.[ f._.u.,.>.,.,.j.Q._._._._._._._._.|.Q.7.7.h.,.9.Y.'.9._ 8._._.N.r._._._.7.` O.f.t.8.r.t.f.O.O.8.N.r.t.t.t.r.t.t._.t.g.8.r.f._.N.u.[ 7._.Y.Y.Y.t.Y.r.v.[ _ t.t.+.] ;.,.:.7.d._.t.t.#.#.#.t.Y.Y.3.:.2.,.5._.'.oX8.O.|._._._.N._.N._.7.` c.Y.r.Y.t.N.N._.Y.Y.Y._.N.t.t.r._._.t.t.8.r.8._.r.f.7.` 8.t.r.f.r.Y.8.f.7./ 7.u.[ :.' :.' 7.d.t.r.t.r.t.#.r.t._.7.] ,.:.,.u.oX|.[ 7.}._.N._.Y._.t.f.[ ` [ +.O.7.u.O.[ ] n z [ _ / _ ' n q w T O.O.7.8.+.+.O./ O.r.#.r.Y.|.t._.u.] 9.|.u.,.:.,.;.,.f._.Y.Y.N.R.R._._.|.8.5.7.5.5.v.|.c.[ 8._._._.|._._._.r.( 7.f.r.t.Y.t.r.+.+.r.Y.N.N.f.f.8.r.+.8.f._.#.t.t.t._.7.( 7.f._.Y.r.d.r.t.8./ 8.Y.8.[ ] [ [ [ r.N.%.#.N.t.N.%.N._.7.] ",
"} } } O.O.O.O.O.O.[ / ' ' [ 8.} / 3.+.r.+.r.r.t.+.d.` ] d.8.8.r.r.+.8.r.8.r.r.+.+.r.#.r.8.8.8.8.O.O.7.8.+.7.) ] 7.7.+.7.O.7.[ [ / / 7.7.` ] ] ' _ O.r.+.+.8.+.+.+.r.r.d.u.5.' :.,.,.u.XX9.[ d._.r.r.N.r.#.N.O.` 7.f.t._.N.#.+.#.N.N.+.#.#.#.N.N.N.N.r.#.r.r.r.t.t.8.7./ _ t.t.8.Y.t.t.Y.d._ _ d.8.[ :.;.;.] f.}.Y.t.Y.N.t.Y._.f._.}.7.' ,.] ) d.f._ [ 8.#.O.#.+.#.#.7.T T 7.+.+.+.+.+.+.8.+.+.O.#.#.[ O.+.+.#.O.O.+.+.O.+.O.7.[ / 7.#.+.t.r.t.N.r.O.` u.}.7.7.3.,.[ 8.Y.N.r.t.N.t.N.Y.Y.Y.}.u.,.5.,.,.f.oX7.[ c.}.Y._._._.t._.7.` u.}.f.f.t.Y.|._.r.f.f.r.Y.Y.f.Y.f.f.d.8.#.Y.Y.Y.Y.Y.5.[ f.oXv._.|.}.f.}.9.[ Y._.7.,.2.>.7.Y._._.Y.N.N.N.N._._.Y._.c.7.,.7.5.f.oX7._ #._.%.%.N.t.&._.8.` O._.r.r.8.+.r.+.O.8.t.r.t.t.t.r.8.t.t.#.t.t._.Y.r._.8._ O.f.8.8.u.8.r.t.g.` ( r.8.] :.:.:.] 8.Y.#.+.r.+.+.#.N.r.Y.f.7.:.,.,.7._.oX7.O.|._.N._._.N.N._.7.' d.d._.Y.r.8.r.N.N.N.N.N.Y.t.r.N.t.N.t.r.+.8.d.r.r.Y.} ( 8.t.#.r.r.r.r.f.} / 7.7.] :.;.' ,.f.r.r.8.r.t.#.+.r.#.r.f.O.' ,.' 7.|.Q._ 7.Y.Y.t.Y._.f.t.f.[ / 7.8.7.7.7.O.7.' j J [ _ _ / j 9 e U } { O.8.O.+.r.} / O.#.O.#.N.Y.t.8.7.] 8.}.7.,.>.:.,.d.|.Y.Y.Y.N.Y._._.Y._.}.7.,.j.,.7.oXc.[ 8.|._.Y.oX_.Y._.8.` 9.f.8.r.N.N.Y.8.+.r.Y.r.r.r.r.r.r.r.Y.f.f.#.+.t.t.d.O.` u.+.Y.m.Y.r.+.N.7./ 8.Q.} ] [ _ [ r.N.#.#.%.t.#.N.#.#._.N.8.",
"O.O.+.+.O.+.O.+.+.8.] ' ' ] u.7./ 7.7.#.+.#.r.t.#.f.] [ f.f.r.r.r.8.r.Y.r.Y.r.r.r.t.r.t.r.8.8.+.O.8.8.#.+.7.) ] 8.8.O.8.7.O.} O.` ` 8.O.` ] ] _ O.8.+.+.+.r.+.+.r.r.r.N.Y.c.7.,.,.,.9.XX9.[ u.Y.r.r.r.r.%.N.8._ 7.Y.N.N.#.#.#.#.#.t.#.#.%.#.N.N.N.N.N.N.N.t.Y.Y.t.d.7./ [ _.t.t.f.f.t._.f.[ [ f.9.:.;.;.:.z._.N.N._.N.t.t._._.Y._.'.Q.,.:.,.] 8.}.[ 7.8.#.+.r.+.#.#.8.] ` [ 8.+.+.O.O.+.r.+.#.#.#.+.O.O.r.+.+.O.O.#.#.+.+.O.7.] ` 7.8.+.t.t._.N.t.7.[ u.}.7.7.3.,.u._.N.Y.r.N.t.t.t._.Y._._.oX9.7.,.5.t.oX7.} f.}._._.Y._.N.|.8.] p.oX_._.r.r._._.Y.Y.Y.t.Y.Y.f._.Y.f.8.#.r.Y._._._.}. . .c.oX_._.}.}._.|.9.O.Y._.O.,.,.3.Q._._._._.t.r.N._._._.Y._.oXf.5.,.7.u.oX8._ g.].%.t._.&.&._.p._ 7._.N._.t.#.N.t.r.8.t.r._.N.Y.t.t.r.r.N._.t._._._.N.7.) 5.f.8.8.f.7.8.N.8._ ' 8.+.] :.:.] 7.N.#.#.r.r.#.+.r.Y.Z.N._.Q.7.5.,.5.Y.oX7.+.|._._._._._.N._.u._ c.f.N.N.r.r.+.r.N._.N.N.t.t.t._.N.t.#.r.8.t.8.8.f.f.O.( 8.N.r.r.8.8.r.Y.7.( 9.u.[ :.` [ d._.r.t.t.r.8.#.8.t.r.t._.}. .:.:. .Y.}.[ 9.f._.t.f.Y._.t.f.5._ 7.f.8.8.7.+.8.' G ' 7.} T d c T / [ O.O.+.8.8.8.t.7._ O.#.#.+.+.t.#.t.8.[ u.}.7.:.;.,.d._._._._._.N.Y._._.Y._.'.f.7.5.5.7.XX/._ 8.|._._.|._._.oXd._ 8.Y.t.f.r.Y._.N.r.r.N.N.Y.r.Y.Y.f.Y._.N.t.#.8.8.r.Y.O.) u.8.f.r.r.N.r.t.7.' d.f.7.[ [ [ #._._.%.N.N.N.N.N.N.N.t.N.Z.",
"} +.O.O.O.O.O.+.+.8.7.' / ] 8.7./ 7.8.+.+.r.8.8.t.f.' [ c.r.r.#.+.r.#.8.r.r.r.r.#.8.f.t.r.8.O.O.8.r.+.+.8.7.` ) u.+.O.8.O.+.O.[ R ` 7.[ _ ` ' +.+.+.O.O.+.+.+.+.+.+.r.f.d.f.c.j.:.:.u.XX9.,.u.f.r.r.r.r.#.N.8.` } t.#.r.#.N.N.#.+.+.r.#.#.%.N.%.N.N.N.N.Y.Y.Y.Y.f.8.7.) O.Y.#.t.r.r.Y.N.d.] [ c.9.] ;.:.z._.t.t.Y.N.Y.t.t.t.N.N.Y.t.Y.f.,.' [ u.c.[ } Y.r.+.+.+.r.O.8.[ T _ O.O.O.} O.O.+.+.r.+.+.O.O.O.+.+.O.O.#.O.+.+.O.O.O.` ' 7.+.8.#.r.N.#.Y.8.' 8.f.8.[ } 8._._.r.N.t.#.m.Y.r.d.Y._.Y._.}.9.,.,.r.oXO.} f._.Y._.Y.f.N.}.9.) u._._._.Y.t.8.t._.Y.Y.Y.r.f.Y.f.Y.r.+.8.f.f.Y.}._.}.[ ,.}.}._.}.|.Q.}.|.9.[ Y._.O.' ,.Q._.N.Y.Y.Y.N.r.t._.N.Y._._._.|.z.,.,.u.XXu._ t._.%.#.#._._._.u._ O._.N.N.N.t.#.#.r.O.8.N.N.t.8.r.t.+.O.+.t._.t.t._.O.] ] ,.8.f.8.8.+.8.7.7.` / 7.+.` ' ] 8.t.#.#.t.N.r.+.+.r.r.Z.Y.r._.}.j.:.,.f.oXO.O.|._._._.N._.Y.Y.8.' d.t.#.+.r.t.+.+.t._.N.t.r.t.t.t.N.r.+.f.d.r.8.8.#.8.} ' 8.r.t.r.+.r.+.d.7./ 7.u.[ / ] f.t.#.r.t.r.O.8.t.8.8.r.t.r._.8.[ ' [ f.}.[ 7.f.t.t._.f.f.v.u.[ ] 8.8.8.f.8.8.7.U n ' 8.T y I :.O.[ _ O.#.+.+.r.+.#.O.' 8.r.O.O.+.+.+.r.+.] 9.}. ./ :.8.Y.N.Y._._.N.Y._.Y.Y._.Y.N._.c.7.:.7.}.c.[ 8.|._.|.|.Y._.|.d._ 8.|.t.r.N.r.N.N.#.+.r.Y.Y.t.f.t.Y.r.r.N.t.+.+.8.r.Y.O.` u.r.r.r.Y.8.N.r.7.' d.d.3.] [ +._.#.%.%.#.#.N.N.t.N.N.t.N.Y.",
"} +.O.+.O.O.O.+.O.O.8.3./ ] c.9.` 7.d.r.r.r.8.t.#.f.] [ f.r.r.#.r.N.r.8.r.#.r.N.r.r.r.f.Y.r.+.+.r.r.8.#.+.7.) ] 8.+.O.+.O.t.O.} / ` 7.| / ` O.#.+.O.O.O.+.+.+.+.O.8.r.f.f.Y.}.c.,.:.c.XX9.,.f._.r.r.r.r.#.N.8.' [ #.8.N.r.N.N.N.t.+.O.+.N.N.t.N.N.N.N.Y.Y.|.|._.t.8.7._ 7._.r.r.t.f.Y.Y.}.[  .}.u.] ,.c.}.N._.N._.N.N.N.N.t.N.Y.Y.t._._.u.' _ f.}.O.O.f.r.+.8.8.r.+.8.[ /  .+.[ O.} +.} +.8.+.O.O.O.+.O.O.O.+.+.#.+.+.+.O.O.7._ ` 8.+.g.+.8.t.r._.8._ 8._.+.[ 8._._.N.Y.N.#.8.r.Y.r.f._._.Y._.'.XXj.[ f.OX7.} Q._.Y._.Y.Y.f.}.7._ p._.Y.Y._._.t.f.r.f.Y.f.f.Y.f.f.f.r.8.r.Y.Y.Y._._.}.[ ,.}.|._.}.}.}._.XX9.[ f.oXO.3.c.|._._._._._.Y.N._._._._._._.Y.oXoX9.,.9.XXu.[ f.'.N.N.N.t._._.u.[ O._.N.t.t.r.t.N.N.O.O.7.t.#.r.t.r.O.O.O.Y._._.t.9.[ ' ] 5.8.8.8.O.7.8.O.u._ ` 8.8.( _ 8._.#.#.#.t.r.t.8.#.r.r.N.Y.t.N._.c.7.[ f.oX7.+.oX_.N._.Y.Y.N._.u.] d.8.+.r.t.N.r.8.r._.N.N.N._.r.N.t.t.r.Y.Y._.r.8.#.f.7._ 8.r.t.8.8.r.+.Y.8.` 7.t.O._ 8._.#.#.#.8.8.+.+.t.8.8.r.t.t.N._.u.` [ }.oX[ u.}.8.t._.Y.t.t.f.[ [ 8.8.8.f.p.u.5.V z 7.u.Z n j.O._ [ O.+.#.8.8.8.@.8.O.` 8.m.O.O.+.O.+.t.O._ u._.[ ' u._.t.N._.Y.Y.r.t.R.Y._.Y.Y.Y._.|.c.,.7.oX}.[ 8.oX_._.}._.|.|.u._ 7.}.t.N.Y.r.t.N.N.r.t.#.N.8.r.Y.t.r.f.Y.N.8.8.t.t.f.7._ u.r.8.t.t.r.N.Y.7.' d.r.[ O.8.%.&.%.N.%.#.#.N.%.%.#.#._._.N.",
"O.O.+.O.O.O.O.O.O.O.O.7.7.8.z.7./ 7.u.r.r.r.+.N.r.8.] _ r.#.+.r.#.r.r.+.+.r.r.r.8.8.8.8.r.8.+.+.+.8.8.+.O.7.) ` 7.8.} O.O.8.7.[ R / O.[ / _ +.+.O.+.+.+.O.+.+.+.+.+.+.r.t.r.f.Q.z.9.d.XX9.[ d._.m.r.+.r.r.r.O.` [ d.t.r.N.r.r.N.N.#.O.#.t.r.N.N.Y.t.t.Y.Y.Y.}.t.+.9.7._ 7.Y.#.r.f.f.t._.}.[ [ Q.u.O.9.}.f.r.N.N.t.Y._.N.N.N.t.r.N.t.t._.Y.7.[ f.Y.[ [ 8.8.r.8.O.8.O.[ ' / ] O.O.+.} } O.O.O.O.} +.O.O.O.O.} #.#.+.#.+.O.O.O.7.' / 7.8.O.+.O.r.#.f.8.( 8.f.8.8.Y._.t.N.N.t.8.8.r.t.N.Y.Y.Y.Y.Y._.|.XX9.f.OX7.[ f._.Y.Y.d.Y.d.d.7.) u.|.f.Y.f.f._.}.f.r.8.r.d.d.Y.Y.r.r.8.d.d.Y.Y.f.t._.[ [ Q.Y._._.f.|.}.}.7.[ d.}.f.Y._._.Y._._.N.N.Y._.N.N.Y.Y.N.Y.Y._.|.c.7.9.XXu.[ f._.N.N.N.t._.N.9._ [ t.t.8.+.r.t.r.t.+._ } 8.t.r.O.7.8.u.7.8.t.t.g.[ ' :.E [ 8.O.} 7.} +.+.7.` ` f.O.( +._.#.+.r.#.+.8.r.8.8.+.N.r.t.t.t.r._.f.8._.oX7.O._.Y.Y.Y.N._.N._.u.` d.d.r.t.r.t.N.r.#.r.Y.N.r.N.N.t.#.N.t.r.d.Y.f.8.8.f.7.' 8.#.+.r.8.8.+.d.7./ O.r.+.+.+.+.+.+.O.+.7.8.+.8.r.8.+.r.#.8._.Y.O.O._.|.[ 7.f.d.Y.Y.Y._.r.u.[ _ 8._.t.u.8.d.5.k z 7.8./ ` O.O.O.O.O.[ O.8.8.+.+.8.} / [ +.+.O.} O.+.r.O.` 7.f.8.d.r.t.r.N.Y.f.d.d.r.d.Y.Y.Y.Y.Y.Y.Y.}.u.7.}.Q.[ 8.|.f.Y.Y.Q.|.c.9._ 7.d.8.r.r.r.#.r.N.N.t.t.#.+.r.r.r.N.Y.r.#.8.f.r.r.Y.7._ 8.8.r.r.r.m.Y.r.7.( 8.r.#.#._.%.#.%.N.#.#.#.#.#.#.#.N.t.N._.",
"O.+.+.+.O.O.O.O.+.8.O.8.8.d.d.7.` 8.8.8.r.Y.r.t.9.7.] [ r.#.+.t.r.#.r.#.8.Y.f.t.r.+.+.r.+.8.8.O.O.8.8.#.+.7._ ) O.8.O.7.r.r.7.] R ( +.O.[ +.+.+.O.+.+.+.+.+.8.r.+.+.r.r.t.r.f.}.Q.c.f.}.9.[ u.Y.N.N.r.r.N.8.} _ O.Y.t.t.N.t.N.N.N.N.8.r.m.m.N.N.N.r.t.Y._.Y.f.8.+.8.u.] 7.Y.+.r.Y.f._.d.9.[ O.}.t.t.Y.t.t.t.t.#._.Y._.N.t.N.N._._.N._.t._.N.8.N.Y.[ ,.7.+.r.r.8.8. ./ ` ` [ +.#.r.} } O.O.O.7.O.+.O.} #.#.O.#.o.#.+.+.O.+.O.9.] ` 3.} +.8.O.r.t.O.7.' u.t.t._.N._._._.t.Y.N.t.8.N.N.t.N._._.Y.Y.'.OX|._.OX7.[ d.Y.Y.Y.Y.Q.8.7.7._ u.|._._.Y.Y._._._.f.r.Y.Y.Y.Y._.Y.d.r.Y.f.Y.Y.Y.N.}.[ 3.c.f.Y.|.}.|.}.f.7.[ d.|._._._._._._._.Y._._.Y.N._.Y.t.#.t._._._.|.c.f.XXz.,.f._.N._.N._._.8.} [  .t.t.t.8.r.t.r.N.r.} 7.f.N.t.8.t.8.' / 7.v.t.7.7.] [ E ] [ _ O.8.} +.+.[ T T 7.O.O.+.#.#.#.#.+.8.+.8.+.r.#._.N.N.t.t.t._._._._.oX7.O.Y.t.N.Y.Y._._.r.7.) d.Y.Y._.N.N.N.N.#.t.N._.t.t.t.r.r.N.r.Y.Y.Y.t.t.r.}.7._ d.O.+.Y.8.8.f.7._ / 7.r.+.+.+.O.O.+.7.t.8.+.+.r.r.8.8.#.8.f.t._.N.r.Y.|. .7.8.f.Y.Y.Y._.8.7.[ [ g._.t.f.8.f.7.K T 9.8.O.O.O.O.8.7.O.[ O.7.7.7.8.r.7.` ( [ O.O.O.+.+.O._ _ 8.d.f.Y.r.8.r.Y.Y.Y.Y.Y.f.f.Y._.Y.Y._.Y.Y.Y.|.Y.|.c.[ 8.Y.r.|.Q.Q.}.u.3.] 7.Q.r.8.8.r.r.r.t.t._.Y.#.r.Y.r.Y.Y.Y.+.+.8.f.8.r.f.7._ 7.+.t.r.t.N.Y.+.7._ 8.N._.%.&.%._.%._._.t.#._.N.#.%._.t.N._.",
"O.O.+.8.O.O.} +.+.+.O.8.8.O.u.[ / 7.u.[ 7.Y.N.r.( O.7.[ r.t.#.#.8.r.+.8.r.r.Y.t.+.8.8.+.8.+.O.O.+.O.O.+.8.+.` ) [ } 7.O.8.8._ ] ^ / +.O.+.#.O.+.O.O.O.+.+.+.+.+.r.r.r.r.r.r.r.d.Q.Y.d.}.7.] u.8.O.r.N.r.O.[ 7.' [ r.r.N.t._.N.t.#.#.N.#.#.m.N.Y.r.r.N.t.N.Y.f.u.r._.u.) 7.8.[ d.Y.f.f.,.,.,.[ _._.t.t.t.t.t.t.r.t.f.N._.r.t._.Y._._.N.N._.N.#.t.f.] ] 9.[ 7.N.8.O./ _ ] R [ r.+.+.O.} } 7.O.O.7.O.O.O.t.#.O.O.+.#.} } O.O.+.8.' / ,.( [ 8.+.8.O.[ } ( 8.t.#.N.t.#._.N.r.Y.N.t.r.r.N.N.N.Y._._._._.oX_.N.OX7.[ d.8.r._.R.u._ 8.8.) 9.}.|._.f.Y.f.Y.Y.Y.Y.f.Y.|.Q.Y.f.f.r.r.Y._.Y.t.Y.}.[ [ c.7.7.}.}.Q.7.u.u.[ f.|.t._.Y._._.N.N.Y._.Y.N.N.N.N.t.#.t.Y.N.Y.|.oX}.}.9.] f.f.+._._._.t.O.7.3.[ Y.N.r.t.#.r.N.N.N.f.8.r.Y.r.r.v.7.` ,.8.r.8.[ ,.:.` T ] ] T 7.7.} u.] T T P [ +.{ O.+.#.+.O.+.8.O.O.O.8.t.r.N.t.#.t.t.t._._.N.oX7.[ }.+.+.N.N.f.O.7.7.( 8.d._.Y._._.r.t.r.t.r.t.r.r.+.t.#.r.r.Y.Y.r.r.Y.r.f.7.( f.O.O.r.r.d.} [ [ / +.r.+.+.+.#.+.#.8.8.8.8.+.+.r.t.+.+.t.N.N._.Y.r.Y._._ 7.9.O.d.|._.8.| u.[ ( 8.t.8.f.p.u.,.I ` g.+.O.O.O.O.+.8.8.7.} } 8.r.+.8.O./ [ _ ( [ } O.[ ( ' ' 7.Y.u.d.r.8.8.r.f.Y.d.f.}.Q.d.t.Y.Y.Y.Y.Y._.Y._.|.z.' 9.f.O.}.|.Y.9.[ 7.' 3.Q.8.8.8.8.r.r.8.r.Y.Y.r.+.d.Y.Y.f.g.+.O.8.8.r.8.f.7._ 9.[ 7.N._.t.O.O.8.( r.N.%.#.#.#.#._.N.N._.#.N.N.N.N.N._.N.N.",
"O.8.+.8.O.O.O.r.8.+.+.7.+.7.u.} / 7.d.} ) u.Y.+._ Q.7.O.Y.N.#.r.#.t.r.Y.t.f.t.r.r.t.r.8.8.#.+.8.+.+.8.#.+.7.) ) [ _ [ O.u.O.( 7.) ( O.+.+.#.+.+.O.} O.+.+.r.+.8.r.N.N.#.8.t.r.d.Y.f.Y.}.j.) u.d._ O.|.O./ O.d._ O.t.t.N.N.N.N.#.#.t.t.#.#.N.t.r.t.N.N.t.Y._._.d.Y.|.u.) O.u._ 7.|._.u.[ 9.[  ._.N.t.t.Y._.N._.t.v.t._.t.#.t._.N.Y._._.Y.t.t.N.N.f.] :.z.,.[ d.8.' ~ 7.[ R O.t.O.[ [ O.O.8.O.+.7.7.[ r.r.O.O.+.+.+.O.} O.} +.7.' / 7.] R 7.8.8.` } 8.( 8.N.N.#.t.#.#.m.N.N.N.Y.t.#.N._.N.N._.oX_.|._.oX_.oX3.] Q.7. .Y.|.[ [ }.u._ u.}._.Y.Y._.Y.Y.Y._.Y.Y._._.}.f.f.Y.r.f.Y._.Y.f._.}.[ [ }.7._ f.XX7.} |.f.[ Q._.N._._.Y.t.t.t._._._.N.#.N._.N.N._.Y._._.|.oX|.|.9.] c.Y.[ 9.oX_.@.| }.7.[ _._.N.Y.r.r.Y._.N._.N.t.r.Y.r.8.8.d.Y.t.r.f.O.[ / E E 7.3./ ] 8.#.7.` / ] R } #.O.8.+.+.O.#.+.8.+.+.O.8.t.t.r.+.#._.N._._._._.oXO.[ |.8.( t.N. .( u.7.` u.f.Y.|.Y._.Y.t.Y.N.t._.t.t.r.t.r.r.Y.}.Y.t.r.f.t.Y.7.( f.O.( 8.N.d.( 7.7.( O.r.o.+.+.#.#.t.r.8.N.t.#.#.t.N.r.8.N._.t.r.r.N._.}._ 7.c.[ 7.}.}.} O.oX7.) @.t.r.f.r.d.[ L :.f.+.O.7.+.+.8.8.f.8.O.+.8.r.+.r.7.` 7.7.( ) O.} / _ 7.] 7.}.8.d.8.r.8.8.r.Y.Y.Y.Y.d.8.8.Y.Y.f.Y._.Y.Y._.|.d.' 9.Q.[ u.XXu.[ 7.z.' 7.}.r.r.r.r.Y.r.8.r.r.Y.N.r.Y._._.r.8.8.8.8.8.t.f.c.7._ u.[ O.8.Y.+._ 8.u.( r._.%.N.#.o.#.#._._.N.N.#._._.%._._._.N.",
"O.+.+.O.O.O.r.r.+.+.+.O.7.8.u.7./ 7.d.d.) [ 7.| O.Q.[ _ r.t.t.r.#.+.r.r.r.t.+.8.r.8.r.r.+.+.8.+.8.f.8.O.O.O.` ` 7.O./ ` [ _ _ 8._ / O.O.O.8.#.O._ } O.+.O.+.+.#.r.r.+.+.8.f.r.r.d.d.Y.Q.7.` 7.Q.O.[ u.[ _ d.8.( O.Y.r.r.N.#.#.#.#.#.r.#.#.#.t.r.t.r.N._.Y.Y.Y.d.t.Y.f.) [ d. ._ }.}.O.7.c.[ O._.r.t.Y.t.t.t.Y.Y.t.t.Y.N.t.r.N._._.N._.t.r.8.t.#.f.' ] 8.7.] ,.` [ } 7._ T [ +.O.[ O.8.O.} O.+.O.[ [ +.O.O.O.+.} O.[ _ [ O.[ O.` T 7.9./ ` ] [ _ d.8./ 8.r.#.t.r.#.+.#.N.r.r.N.r.t.r.N.N.N.N._.Y.Y.Y._.N.|.7.] c.}. .7.7.[ 8.Y.8._ 7.}.f._.Y.f.Y._.Y.f.Y.Y.N._.f.Y.f.r.t.t.r.g.Y.N.N.}.[ [ c.f.[ 7.9.O.d.|.u.[ d.oX_.Y._._.N.N._.N._._.N.%.N.N.N.N.N._._._._.f._.}.9.] u.|.7.[ XXt.O.8.}.[ [ t.N.N.N.N.t.t.N.Y.t.r.#.r.8.8.8.+.d.8.r.+.t.f.7.] ,./ [ d.[ P 7.7.` / 7.' P O.+.O.8.O.[ O.8.O.+.8.+.O.8.r.+.#.r.#.#.t.t.t._.N._.} _ Y.Y.O.O.7.) [ c.7.` u.r.r.f.Y.r.r.Y.r.Y.t.t.t.N.r.r.+.r._.Y.8.t.r.8.r.Y.7.( 7.f._ [ d. ._ d.} / O.+.+.#.+.+.+.#.8.N.r.r.#.#.r.r.t.N.Y.t.8.+.d.t.t.Q.] O.}.u.[ 9.7.7.f.Q.,.` +.t.t.8.8.d.,.n ` 8.O.7.O.8.+.+.8.8.7.+.O.+.r.8.+.} / [ 8.O.( ' _ / 8.d.` } Y.8.8.r.8.u.d.8.r.d.r.r.+.+.r.t.t.Y.Y.Y.Q.|.Y.Y.u.' 7.XX7.[ z.,.] z.8.' 7.Q.r.t.Y.r.r.Y.t.t.Y.m.t.r.Y.Y.t.r.Y.r.f.8.r.r.8.d.[ ` 8.7.O._ 7.( +.Y.7.' r.N.%.%.N.#.#.#.#._.N.%.N.t.N._.N._._.N.",
"+.8.+.+.O.+.8.r.8.+.O.8.8.8.d.7./ O.+.t.O.] ` 7.t.u.] _ t.t.t.t.#.8.8.8.t.r.8.8.8.t.8.8.8.8.+.r.8.8.O._ O.7.) ( u.Y.[ ~ ` 7.8.8.` ( +.O.+.8.+.O._ O.+.+.O.+.+.#.r.+.O.+.m.N.t.r.r.f.t._.7.) 7._.Y.8.O.O.r.N.8._ O.Y.t.N.N.#.#.#.#.r.r.#.#.r.r.N.Y.Y.N._.Y.8.8.r.N._.f.) [ _.f.[ 5.7.8.Y.Y.} O._.t.N.f.r.t.t.t._.N.t._._.t.t._.N._.t.#.+.r.t.N.#.Y._ [ 8.r.O.` ` t.+.+.[ / O.8.O.O.+.8.+.7.O.7.O. .+.+.O.+.O.+.O.O.[ [ [ O.} 7._ R [ r.+.] / [ 8.r.7.` u.t.t._.t.t.#.#.#.N.r.Y.r.t.r._.N.N.#.t.t.Y._.f.N.oX7.] f.OXr.O.} f.Y.r.8.] u._.Y._._.f._._._._.Y.Y.N._.Y.t.t.t.r.t.#.+.t.N.N._.[ [ f._.r.O.[ f.'._.u.[ f.OXY._._._._._._.N._._.t.%.N._.N.N.t.Y._.Y.Y._._._.7.] 8._.N.} 5.7.t.Y.8.[  ._.N.N._._.Y.t.t.t._.r.t.r.r.t.8.O.[ O.8.r.t.8.t.t.u._ O.Y.8.( ` ` _ O.8.( P +.+.O.+.[ [ [ 8.O.+.#.7.O.r.+.O.r._.#.r.t.N.t.Y.t._.} [ f._.Y.7._ O.f.Y.7.] d.f.8.r.r.r.r.N.r.t.r.t.t.t.r.r.r.r.r.r.#.r.f.t.#.f.O.( O._.r.O.,._ 8.r.} ( O.+.+.#.#.r.+.[ +.t.r.r.#.t.8.r.t._.t.8.+.8.Y.r.Y.|.[ } }.}.7.7.,.}._.c.7._ #.t.r.8.8.f.7.J Y 7.8.r.8.8.+.r.8.8.7.+.+.8.r.#.#.7./ [ +.8._ T _ 8.8.O.` O.Y.+.8.r.f.f.f.r.8.r.N.t.r.r.t.r.t.N.Y.Y._.Y.N.N.d._ 7.}.Y.8.,.[ u.Y.7.] 7.Y.r.Y._.Y.Y.Y._._._.Y.Y.t._.Y.Y.Y._.t.r.t.f.7.+.u.O.' 8.r.t.[ _ O._.r.7._ #.N.%.#._.N.N.#._.#._.N.%.#._._._.N._._.",
"r.+.O.+.O.O.8.8.+.O.O.8.8.+.r.7./ 7.O._ O.O.[ r.7.7.] _ 8.#.#.r.r.r.8.8.r.8.8.8.7.O.8.8.8.8.7.8.7.O._ O.O.7.` ) } 8.8.[ 3.8.O.O.' / O.+.+.+.O.O.O.O.O.O.+.+.+.+.#.+.+.O.r.t.r.N.f.r.8.Y.7.` 9.8.8.Y.8.N.N.O.7.} +.Y.N.N.t.N.#.+.t.r.#.N.t.+.O.t.r.r.N.r.8.+.8.d.t.Y.u.) [ f.Y.Y.7.7.|.N.8.O.[ Y.t.t.d.t.8.8.t.t.t.N.Y._.Y.N.N._.N.t.r.8.Y.Y.#._.r.' [ u.O.O.8.r.8._ O.[ P O.+.O.#.+.+.+.8.O.O.[ 7.7.` _ 7.O.} O.O.[ [ O.O.O.7.] T [ } 8.r.O.d.O._ 7./ 7.N.r.t.Y.t.r.#.#.t.r.r.#.8.r.t.N.#.#.Y.t.f.f.Y.t._.7.] u.f.Y.Y.Y.Y.+.8.7._ u.|.Y._._._.t._._.Y.Y.Y.N.r.f.Y.t.N.r.r.8.r.Y.r.N._.[ [ f.8.d.d.f.|.t.f.u.[ d.|.Y._.Y.Y._.N.Y._.N.N.N.#.t._.N.t.t.r.t.t.Y.Y.N.Y.7.] 9.r.N.d.} t._.8.7.[ [ _.N.t._._.Y.t.Y.t.r.Y.f.+.7._.t.8.7.} +.8.8.8.#.#.8.[ ( +.+.8.[ _ t.O.} ' P } O.O.} } O.[ O.+.+.O.+.O.8.+.O.7.N._.r.r.N.Y.r.t.Y.} [ f.#.N.Y.8.}.r.+.8._ d.d.r.r.8.t.r.r.t.r.#.N.r.O.8.t.+.r.+.+.+.t.r.r.#.t.O.) +.+.}.Y.[ 7.t.O.} / } +.+.+.#.r.8.+.O.+.t.r.+.#.r.t.r.t.8.8.8.8.d.r.r.}._ O.f.8.7.Q.XXf.O.d.,._ 8.t.#.8.8.8.9.I n ,.r.8.7.[ [ +.8.+.O.+.8.8.8.+.#.} / [ [ O.+.' 7.+._ [ ` [ N.+.r.8.r.Z.d.r.+.+.r.r.#.r.#.N.r.#.r.f.t.d.N.N.8._ 7.Y.r.Y.d.i.|.7.3.[ } Y.r.t.Y.R.Y.N._.Y.Y._.Q.7.d.|.N.r.Y.Y.Y.8.8.7.+.u.7.` 7.O.t.+.O.r.N.O.7._ +.N.&.#.t.#.N.#.#.N.N.N.#.%._._._.t.N.N.",
"+.+.+.+.O.+.+.+.+.+.7.8.8.8.f.7./ 7. ./ _ r.r.7._ 7.[ [ #.#.#.#.t.t.8.8.8.8.8.u. .] 7.t.8.8.8.8.+.O.O.+.+.7.[ [ [ [ [ 7.8.[ / 7.[ ( +.t.+.+.+.+.O.+.O.+.#.#.+.+.#.t.#.+.#.r.r.t.f.Y.r._.7._ 9.7.[ f._.Y.+.} 7.O.+._.t.t.t.t.r.t.N.N.N.N.+.[ [ r.N.r.t.#.O.8.f.r.r.Y.u._ 5.f.#.f.Y.Y.|.8.O.O.[ Y.N.r.f.Y.r.t.N.r.N.Y._.N.Y.N.N._.Y.N._.Y._.N.N.N.r.) [ u.[ [ '.Y.} ( O.[ / 7.#.O.#.r.r.t.8.O.O.O.9.] ` / O.+.+.} O.[ O.+.O.O.8._ / [ _ _ r.Z.8._ ' 7.) O.Y.#.8.t.r.t.N.r.r.8.+.+.r.r.N.N.#.t._.N.Y.f._.t.Y.7.[ z.7.O._.].r.[ 8.8.[ u.oX_.Y._._._._._._._.oXf.[ 7.Y._._._.t.t._._.r.N._. . .b.+.+._.OXY.O.8.r.} d.oX_._._._.Y._.Y.N._._._.#.t.N._.Y.t.r.8._.|._._._.7.] u.+.O.t._.].t.+.u.[ O.|._.N._._._._.N.t.t.f.u.[ [ 8._.N.Y.r.t.8.t.t.#.#.t.[ | +.( O.t.8.t._ _ [ / O.+.O.O.O.8.O.O.+.O.+.9.O.8.+.+.O.r.t.N.t.t.t.t.t._.} } f.[ O.Y._._.+.[ 8.O.r.t.N.r.r.Y.r.t.r.r.t.t.O.[ +._.t.t.r.+.r.t.r.r.t.N.O._ 8.[ O.t.r.r.t.} O.( O.+.+.#.#.8.t.t.#.8.r.#.#.#.7.8.r.r.r.N.r.8.r.r.t.f.] 7.u.O.[ XX$XO._ u.7._ 8.t.8.8.#.+.d./ J 7.f.7.] ` `  .8.8.+.8.8.r.r.#.#.[ ` 7.[ ( +.8.7.( ( O._ [ d.r.t.8.r.8.+.r.r.8.+.+.#.#.N.N.N.#.r.r.r.f.N._.8._ 7.f.[ 8.^.Y.8.] 7.} O._.t.Y.Y.Y._._._.Y.Y.oXd.[ 9.}.Y.Z._.N.t.8.8.r.t.d.7._ 9. .O.#._.m.O.( 8.[ +._.&.#.#.#._.N.#.#._.N.#.%._.N.N.N.t.Y.",
"O.8.+.+.O.+.O.O.O.8.8.8.8.r.r.8./ O.O./ R 7.9._ / 3.] _ 8.#.#.#.#.8.8.8.+.8.7.,.] ] ,.u.r.r.8.8.O.+.+.O.+.8._ [ [ ` R ] 7./ P 5._ / O.+.+.r.+.+.O.O.O.r.#.+.+.+.#.#.#.+.+.#.r.r.f.d.Y.|.7._ 8.7.) 7.Y.7._ [ 8.| +._.t.r.#.r.N.N.r.N._.+.[ ] [ O.r.Y.r.r.d.r.t.r.8.t.8.) ,.f.[ [ d.Y.7._ 7.[ _ d.r.t.f.r.r.8.r.N.N.t.N.#.t.#.r.r.Y.N.Y.Y.Y.N.N.#.r.` ,.9._ ' 8.7.( ] O.[ / O.+.#.r.#.t.t.8.} 8.7.] E ` P R O.O.[ } } +.O.+.O.O.' / 7.] T [ 7.] / [ 7./ 7.8.#.+.+.r.#.r.r.#.+.+.r.r.+.N.#.N.r.N.N.Y.f.f.r.f.7.] z.7.] 8.Y. .[ 8.9.) 9._._.N.t.Y.N._.N._.'.f.[ ] ] 7._._.N._.N.N._.N.N.Y.[  .b.7._ 8.OX7._ 8.8._ 8.|.Y._._._._.Y.Y.N.N.N.N.N.#.r._._.N.t._.Y._._.Y.|.7.` 9.O.( O.'._.O.O.u.[ [ _._._.Y.t._._.N.t._.7.,.,.:.] f._.N.Y.Y.r.r.r.r.t.8.[ | 8./ ( r.#.) / O.( P 8.O.O.8.O.O.+.+.O.+.O.+.O.+.+.8.7.7.#.t.r.r.t.Y.t.Y.} } d.] ] 7.f.7._ O.8.[ r.t.8.N.t.r.t.r.+.t.Y.+._ [ [ 8._.N.r.d.8.r.t.N.r.r.O.) u.| /  .8.8.[ [ O./ O.+.+.+.#.r.+.t.r.8.+.8.+.+.O.O.8.r.8.r.r.+.+.r.#.f.] 5.9. .] 9.c.[ _ 9.,.( 7.t.8.+.+.+.7.` / 9.7.] / / ` ` 7.f.8.+.8.Y.Y.+.#.[ / 5.[ / [ 8._ R _ 7.` } Y.8.r.r.+.+.+.8.8.+.+.O.+.r.#.r.N.N.r.r.Y.Y.t.Y.8._ 7.u.( _ d.8.` ' 8.[ } Y.r.Y.Y.d.Y._.Y.t.}.z.5.,.5.7._.Y.r.Z.8.+.d.r.r.Y.7.` 9. ._ O._.8.( _ u._ O.N.#.#.N.#.N.N.#.#.N.#.#.#.N._._.t.N.t.",
"7.8.+.+.O.+.O.O.O.r.8.r.d.r.Y.r./ O.O.( / ] [ ` ' ,.] ` 8.t.#.t.#.8.8.8.8.7.,.:.,.:.] 7.d.f.8.r.8.8.8.O.#.8.)  .7.] R ` ,./ R 5._ / O.+.+.8.+.O.O.+.+.+.O...O.#.%.#.#.#.#.r.r.N.Y.f.Y.|.7.[ u.9.] 5.9. ._ 7.8.| +.N.t.t.#.t.N.N.N.Y.u.[ [ ,.,.] 7.Y.N.N.Y.f.d.d.t.8.7.] ,.c.] ` 7.9.) ) 7. ._ r.r.N.N.Y.N.r.t.N.t.r.r.t.N.r.#.#.N.r.N.N._.r.#.N.d._ 7.9.[ ] 5.[ _ _ O.[ ( +.#.#.t.r.N.r.r.#.8.' ' ` ` T P ) O.} O.O.+.+.#.+.O._ ` 7.O.` ] ] ` ` 7.7.` O.8.#.#.+.t.#.r.r.#.+.N.N.t.#.t.t.N.t.t.Y._.Y.f.8.Y.7.[ z.7.[ 7.7.[ [ u.u.] 7.f._.N.f._.Y._.N._.f.[ ] ,.] ] 8._._._._.t.N._.#.t.[  .b.9.] 7.f.[ ) u.8._ 8._.Y._.Y._._.Y.Y._.N.t.N.t.t.N.N._._._._.Y._._._._.O.] u.7._ [ 9.7._ 7.u.[  ._._.Y.f._._.Y._._.f.7.,.,.,.:.7._._.N._._.N.t.N.#.r.[ O.8.( ( 7.O./ ) #.( / 8.+.8.8.+.+.+.+.+.g.+.7.O.+.+.t.8.8.8.8.8.t.r.Y.t.f.O.} u.[ ] ,.7. ._ 7.d.[ r.N.r.Y.r.r.r.r.r.Y.8.[ ,.,.[  .8.Y.N.m.r.f.t.Y.r.r.O.( p.O.` ] 5.5.) [ 7.) O.r.#.+.#.#.#.r.8.+.+.+.+.8.+.8.+.r.r.8.r.+.8.r.r.Y.[ 5.9. .[ 5.7.[ [ 9.,.) +.8.+.+.+.+.O._ [ 7.[ ' ` ] ' ` 7.r.8.r.r.d.d.O.+.} ` 5.[ / _ [ ` / _ 7._ 7.}.8.r.+.+.r.r.8.8.+.+.8.r.#.N.t.N.N.R._._.Y._.Y.8._ O.8._ ` 7.7.` ] 8.[ O._.t.r.f.Y.f.d.f.v.b.7.,.5.5.5.p.Y.Y.r.r.r.Y.d.t._.7.) 9. .[ [ u.[ ) [ 9.' O.N.#.&.N._._.#._.N._.t.#._._._._._._.Y.",
"8.8.+.O.+.O.O.+.8.+.r.Y.Z.r.N.8./ O.} / / ` ` ' ' :.:./ O.+.#.+.8.8.O.7.7.:.' :.] :.;.] 7.f.u.r.r.+.+.+.+.+.) [ O.) E / ] ` R [ ` / } O.O.O.O.+.+.O.O.O.O.O.#.#.#.#.#.#.#.r.r.Z.Y.r.r.Y.7.[ u.j.[ ,.,.[ [  .8.O.O.N.r.#.t.r.r.N._.u.3.,. .[ ,.,.[ O.d.Y.r.8.d.8.8.8.7.` ,.j.) ` ' ] ` ] 7.[ _ r.t.8.Y.Y.Y.t.r.#.r.r.t.N.Y.Y.Y.r.r.r.m.N.t.r.t.r.r._ } 7.[ ] ] ` ] ' [ 7.( +.t.#.t.N.Y.r.t.f.,.` ] / E T / / } O.O.} +.#.+.+.8._ ` 9.[ / ] / ] ' [ 8.` [ 8.O.#.#.#.r.#.+.+.N.N.N.r.#.+.N.N.r.N.Y.Y.f.r.8.Q.7.] z.7.[ ,.,.,.,.9.z.] 7.f.t.N._.Y.N.N._.f.[ :.:.:.,.[ [ t._._.N.N.#.#.#.N.[ O.p.7.[ [ 5.,.] 7.7.( +.Y.t.Y.|._._.oX_.N.t.t.t.t._.N.t.t._._.N.|.|.Y.r.d.} _ 8.7.] :.:.:.[ 7.8.,.[ f.t.r._.Y.f.f._._.7.,.,.,.,.,.] 7._._.N.N._.t.#.%.t.[ O.8.( ) _ _ / _ +._ / +.+.+.#.8.+.} O.8.7.7. .[ 7.8.+.8.t.+.+.#.t.8.r.t.f.} } u.[ :.:.:.] [ u.8.O.r.r.N.r.r.#.+.t.f.8.[ ,.] ,.,.,.[ 7.Y.Y.r.Y.f.r.#.r.O.( u.O.` ] ] ' ` [ 7./ O.8.+.#.+.#.#.#.O.+.+.O.+.r.8.8.r.r.r.r.+.r.r.+.t.Y.]  .7.[ [ ,.,.,.] 7.,.` [ O.O.+.O.O.} ` ' ] ' ] ' ` ' ' ` 7.d.r.8.8.7.O.+.[ / [ [ ` ` ` ` R _ 7./ [ Y.r.+.+.r.8.r.r.+.+.+.r.t.r.t.N.m.r.R._.N.N.N._.8._ O.7.] ' ,.] ' ,.7.[ } Y.8.r.f.f.f.u.f.p.9.5.7.,.7.7.7.u.}.r.r.r.r.Y.N.Y.7._ 7. .[ ] [ ] ] [ 7.` } #.#.#._.N.#.%._._._.#.v._.N.N._._._._.",
"r.8.} } +.+.8.8.8.r.r.8.r.t.Y.7.R 7. ./ / ` ` ] ' ,.,.` _ [ O.9.9.@.+.7.[ ' ;.,.] ,.:.:.] 7.f.t.#.#.#.O.+.8._ [  .) ` E ] ) / [ ( / } O.{ O.O.#.+.+.+.+.+.#.#.#.#.#.%.#.N.Y.r.8.+.r.r.Y.7.[ d.7.] ,.,.[ [ O.d.O.+._.r.r.N.r.N.N.8.O.3.7.[ [ ,.7.,.[ } 8.Y.r.8.8.8.r.9.] [ 5.] ] ] ' ' ] 9.[ [ Y.N.t.Y.Y.r.#.r.r.r.r.N.r._._.Y.r.r.N.N.r.r.Y.N.r.Y._ O.u.[ ] ] ) _ ` } 7.( 8.N.#.N.N.N.N.Y.7.' ' _ ` T / ] ` _ O.#.O.O.O.+.#.r.[ ] 9.] ` ] ' ) ` [ u.' O.t.#.#.r.r.r.#.+.#.N.#.N.N.+.#.r.t.r._.r.f.8.8.r.Q.7.[ z.7.[ 5.5.5.5.9.z.] 7._.Y._._._.N._.f.,.:.,.,.:.,.,.,.7.t._._.N.#.#.#._.O. .p.7.[ :.,.,.] 7.7._ 8.Y.r.Y.|.oX|.|._.r.8.N.Y.N._.Y._.Y._._._.Y.Y.t.N.Y.[ ] c.7.] :.:.:.,.7.z.7.,.Y.N.f._._._._._.9.5.5.5.:.,.,.:.,.9.Y._.N._.N.#.&.N.[ O.r.( ) _ ) ( ) O.} ( 8.#.+.#.t.8.O.O.[ O.O.[  .f.r.+.+.8.+.t.8.f.r.8.N.f.} O.c.[ ] :.:.:.,.u.d.O.r.Y.t.r.r.#.#.Y.8.[ :.,.,.,.7.7.,.5.7.z.Y.f.t.8.8.t.O.( g.O.` ] [ ] ` ,.7.) O.8.#.#.+.r.r.#.#.#.+.r.8.+.} } +.r.r.r.+.r.r.#.Y.}.[ O.7.[ [ ,.] [ ] 9.7.) } O.O.+.O.O.7.U I ' ' [ ] ' ' ' ` [ 8.r.#.+.O.+.#.} / [ [ / / / / R [ 7./ _ Y.r.r.r.r.8.r.Y.+.O.8.N.t.r.r.r.m.N.N.Y._.Y.N.N.8._ O.7.] ] ,.] ' :.8.3.} f.8.}.}.z.f._.}.9.7.9.j.7.7.7.7.9.Q.Y.Y.r.Y.Y.N.Y.8._ u.O.[ ] ] ] [ [ 7.) O._.&.#._._._.t._.N.N.t._._._.N.N.Y._.|.",
"+.7.[ _ 7.8.+.8.8.r.+.r.8.r.r.7.P O.O./ E ' ` ' ` 3.,.` [ O.[ +.+.9.7.] ` :.:.] ' ] :.:.' ] 9.f.#.#.+.O.+.+._  .[ ` E E ] ` `  ./ P O.+.} O.+.O.+.#.O.+.#.#.#.%.#.#.#.#.r.t.8.+.8.8.r.r.O._ u.7.` ,.,.] ] 7.u.[ O.Y.N.N.r.N.Y.8.} 7.7.[ [ ,.,.,.7.3.[ [ d.d.8.8.8.8.7.] ] ,.` ` :.` ` ' 7.O.[ Y.N.N.r.#.#.r.N.r.r.r.N.N.N.N.N.r.N.r.N.r.r.Y.t.N.d._ } 9._ ] [ ` ` _ O.[ ( 8.r.t.r.r.Y.Y.7.] ,.] ` ` ` ` ] _ ` _ +.+.O.} +.+.8.[ _ [ ` ` ] ' ` / [ 7.` 7.d.O.O.8.r.#.8.+.r.+.N.#.t.#.8.+.8.t.r.8.8.7.8.d.c.7.] 9.7.] 5.,.,.,.z.z.) 7.Y._._.N._._.t.[ ,.,.,.] ,.,.,.7.3.O.f._._.#.t.N.t. . .u.5.] ,.,.,.] 7.7.( 8.}.r.8.f._._.Y.t.r.t.t.t.N.N.N._._.Y.Y.R.N.r.r.Y.f.[ _ c.7.` :.,.] :.5.z.,.,.XX_.N.f._.oX}.9.7.7.,.,.,.,.] ,.,.,.7.Y._.N.N._.%.t.[ O.r.( _ ) ` ) / [ _ / r.+.r.r.8.8.8.O.[ O.[ O.7.8.f.+.O.+.+.+.8.t.r.r.r.Y.O.} Q.[ [ ,.] :.] 9.d.[ 8.Y.N.N.r.N.Y.8.[ 3.,.[ :.3.7.7.7.7.5.9.f.Y.8.r.8.r.7.( g. .` [ ] ] E ] 7.` O.8.+.r.t.#.t.#.+.#.+.r.+.O.O.8.7.+.8.r.#.+.r.N.Y.f._ O.7.[ ] ,.:.] ] 9.,.( } 8.O.} [ 7.] n G ] ` ` [ ] ` ' ' ` _ 8.8.+.8.O.#.O./ [ _ T E ` E P ] 3.~ _ f.+.r.r.r.r.r.r.8.O.8.Z.r.t.r.r.Y.r.r.f.Y.Y.t.N.8.( O.8.] ] [ ] ] ] 9.3.[ |.f.f.Q.}.}.f.9.j.9.7.j.7.7.3.9.7.9.Q._.Y.Y.m.Y._.7._ u. .] ] [ ] [ [ 7.( +.N.#._.N._.%.#.N.#.#.N._._._.N.#.t._._.",
"+.8.O.O.+.8.r.r.+.r.r.N.+.+.r.7.T 7.O./ / ' / ' ` 7.,.' 7.8.O.O.+.7.[ ` ` :.] ' ' :.:.:.' ] :.9.t.#.+.O.#.+.(  .O.` E ` ` ` ` [ / / O.+.+.#.O.+.#.#.+.+.+.#.#.t.r.#.+.r.r.8.+.8.d.r.r.f.O._ 8.7.] ,.,.:.] 5.d.O.O.Y._.N.Y.Q.8.O.[ 7.7.7.7.,.7.5.7.7.7.3.7.d.c.d.d.8.7.` ,.5.] ;.:.;.` ] 7.[ [ _.N.r.r.m.Y.m.N.r.t.r.t.N.N.N.N.t.N.r.t.t.r.8.t.N.Y.[ 7.7.[ [ [ ] ) _ 7.O.) +.r.#.t.r.f.7.[ [ [ [ ] ' ) ' ] _ _ ` } +.+.} O.O.8.[ _ [ ` ] ] ' ] `  .,./ ` [ [ +.r.r.+.r.r.#.r.t.t.r.t.t.8.8.+.r.8.7.7.d.r.Q.,.] z.5.,.5.,.,.,.c.c.] 7._._._._._.f.O.,.7.,.,.,.,.3.7.7.7. .+.t._.N._._._.O.7.9.5.[ ,.,.,.] 7.7._ 8.oXt.r.r.t._.t.t._._.t.Y._.N._._._.Y._.Y.N.t.N.Y.f.[ ) u.O.] :.,.:.,.7.c.5.5.}._.N._._.c.9.,.5.5.,.,.,.,.,.,.,.,.,.8.Y._.N.&._.t.| +.d._ ) ] ) ) ` [ ( ( r.+.8.t.8.8.8.8.7.7.O.9.+.r.f.#.+.f.+.+.+.r._.Y.t._.O.} c.[ ,.,.:.:.,.9.8.[ 8.Y.N.N.Y.|.8.O.,.7.7.5.,.5.7.7.7.9.7.7.9.Q.Y.Y.8.d.7._ g.O.` [ ] ] ] ] j.` O.r.#.#.t.#.#.r.#.#.r.r.+.+.r.Y.8.+.+.r.#.r.r.r.Y.f.[ 7.7.[ ] ,.,.' ] u.7.` 7.8.O.O.O.[ L v U ,.] ' ] ] ] [ ] ' ` [ 8.d.r.O.#.O.` [ ) T E E E E [ 9.` [ Y.8.8.8.d.f.r.r.8.+.+.d.Y.r.r.r.t.Y._.t._.Y.N._.u.) 7.8.] ' :.:.] :.7.[ O.oXY.Q.}.}.c.7.7.j.9.9.7.9.9.j.j.j.j.9.Q.|.Y.Y._._.7._ u. .[ :.,.,.]  .7._ r._.#._._.%.#.&.N.#.N.#._._._._.%._._._.",
"+.8.8.+.O.8.+.r.r.r.r.r.r.+.8.7.T } O./ / / ' / ` 7.,./ u.#.} #.O.] T ` ` ' ` ] ' ' ` ' ' ] ' [ 7.r.+.+.#.8.) [ 7.` E E ` E / ,./ / [ +.+.+.+.#.+.O.+.+.+.+.#.#.#.#.#.+.+.O.O.u.f.r.8.f.7.` 7.7.] :.,.:.' 5.d.[ [ t.r.N.|.u.3.3.7.7.7.7.7.7.,.7.7.3.7.7.,.7.c.Q.Y.Y.9.` ,.9.] ` :.:.` ' 7._ [ Y.r.r.N.r.N.N.r.r.#.r.N.N.N.r.N.r.t.m.N.#.r.t.r.t.t._ } 7.[ ] ] ' ` ' 7.O.( +.#.+.r.r.7.[ 3.} [ [ [ ] / ' _ ` _ _ _ _ 8.r.+.+.8.' ) } _ ` ] ] ` / } 7.( [ 8.r.t.r.#.#.r.+.r.t.r.r.t.8.r.f.8.8.8.8.u.d.8.r.Q.,._ 8.7.] ,.5.,.,.c.d.` 7.Y.N._._.f.,.,.7.3.,.,.,.:.,.5.,.7.7.[ O.t.'._._._.O. .p.5.,.:.,.,.) 7.u._ 8.|.t.t.8.t.N.N.Y.Y.N.N.t.N.Y.N.N.Y.Y.N.Y.Y.Y.r.N._.[ ` 7.[ ] :.:.,.] 7.z.,.[ Q.t.N.}.c.7.,.5.,.:.,.,.,.,.:.,.,.,.] [ 7.Y._.%._.Y.[ O.f.[ ` ] ] ` ' [ ( ( 8.8.8.+.+.8.8.r.8.7.7.O.7.f.r.8.7.8.r.+.O.8.f.Y.r.Y.} [ d.[ :.,.,.:.] u.7._ r.t.t._.}.8.7.3.7.7.3.7.,.,.7.9.7.j.9.7.7.8.Q._.N.Y.7.( 8.+.) ] ,.] E ,.7.` O.+.#.+.#.#.+.#.#.#.t.r.O.+.t.r.r.r.+.+.r.#.8.+.r.d.) O.9.] ] :.,.` _ d.[ _ 7.O.O.8.[ ` I b Y ` ] ` ` [ [ [ ] ` ` _ [ 7.d.+.#.} / [ ` T E E ` T [ 8.] 3.d.8.8.8.8.r.8.r.d.+.+.8.d.d.r.r.f.Y.Y.t.t.Y.Y.Y.u._ O.u.] ' :.:.] ] 7._ [ |.f.}.XXz.j.j.j.7.j.7.9.7.9.l.j.j.j.7.9.d.|._._._.7._ 8.7.] ] :.] _ 7.u._ 8.%.#.%.N.#.N.#.#.t.t.#.#._._.N._.Y._._.",
"8.8.8.8.+.r.8.r.r.r.+.+.r.r.r.7.T O.8.( / ` ` ` _ 7.,.` 7.#.O.+._ E T ` / ` ` ] ' ] ' / ] :.:.:.] 7.t.#.#.r._ O.9._ E E ` E ` 7.` / +.@.O.#.8.#.+.O.O.#.+.+.#.#.#.N.r.r.@.O.7.d.r.r.r._.7.` 7.7.] ,.,.] ] 7.f.O.O.f.t.Y.d.7.7.7.7.7.7.7.7.7.7.7.7.7.7.5.3.5.9.c.|.|.8._ 7.z.[ ' :.,.] ] 9.} O.N.t.N.N.r.Y.N.r.#.#.N.N.r.N.Y.Y.r.r.N.N.r.Y._.N.#.Y.[ O.t.O._ ] ' ` [ 8.O.( +.t.r.t.7.O.3.7.[ 7.[ 7.] ` ` ] _ [ _ [ _ } 8.N.N.f._ ) 8.O.` ] ] ) _ 8.8._ 7.N.#.t.#.#.#.#.r.t.N.t.r.t.8.8.f.O.7.8.8.f.f.f.t.}.7._ c.u.[ ,.5.,.5.XXc.] j.}.N._.f.O.,.7.7.7.,.7.,.,.] :.,.7.7.3.[ 7._._._._.O.O.f.7.[ :.,.,.[ u.u.[ d._.t.f.t.t.Y._._.t.N.N.t.N._.N.N._._.Y.Y._.|.Y.Y.Q.3._ u.7.] ,.,.5.,.9.z.,.[ }._._.}.7.,.7.7.,.:.:.,.7.7.:.:.:.:.,.:.[ 7.N._._._.O.O.f. .] ,.] ) [ 7.( ( r.r.O.O.+.r.8.r.8.8.7.+.+.d.r.t.8.d.r.+.8.f.r._.N._.O.} Q.7.] ,.,.,.5.f.r.[ d.Y.N.f.7.7.7.7. .7.7.7.,.,.5.7.7.9.7.9.7.7.8.}.oXoX8.[ 8.8.] [ ,.,.] 7.9.` O.8.#.#.t.r.#.#.#.#.t.#.+.+.8.r.r.r.+.r.8.+.O.+.Y.d._ 7.p.[ ] ,.,.` 7.Q.[ _ 8.r.+.O.( ` -.I Y ` ` / ] 7.7.[ ` ` ] [ _ [ 7.+.#.O./ [ [ / E E E / O.8.[ 7.f.8.u.7.+.8.r.r.t.8.+.r.r.8.f.N.Y.Y.Y.t.r.Y._._.c._ +.f.[ ] ,.>.] ,.l.] } |.}.f.u.7.j.9.9.7.7.9.9.9.9.j.7.7.7.9.9.7.}.OX]._.9._ t.8.[ [ ,.] [ d.d._ r.%.&.#.#.#._.#.N.N.%.t.%._._._._._._._.",
"8.r.+.8.8.8.r.N.r.#.+.r.8.+.r.8.T } 8.[ / ` / / O.8.[ / } 7.O.` T ` ` / E ` ` ` ` ' / ` ` ' ' ] ' _ O.+.t.8.( [ 8.7.E E E E [ 8./ / 7.+.O.#.+.+.O.} O.+.+.o.+.#.#.r.N.t.+.O.8.r.8.r.r.f.8.[ 7.d.[ ] ,.] [ d.d.[ +._.Y.d.7.7.9.7.7.7.7.7. .7.7.7.7.7.7.,.7.7.,.7.f.Q.8.' 7.Q.7.] :.:.] 7.u.[ } R.N.t.Y.N.#.N.N.+.r.r.m.N.Y.Y.N.r.N.r.t.N._.Y.N.m.Y.[ O._.8._ ] ` ( O.f.O.( #.Y.Y.8.[ O.7.7.[ } 5.[ [ ] ` [ [ [ [ } [ [ _ 8.Y.d._ ( r.8._ ] ] ` O.d.O./ O.#.#.+.8.#.+.+.r.N.r.r.t.#.#.r.+.8.O.8.r.8.d._.Y.Q.[ [ Q.Q.5.,.5.:.z.%Xz.' 9.}._.f.7.,.7.7.,.,.7.5.,.,.] :.,.,.,.7.7.[ 7._.'._.O.O.}.p.[ ] ,.] O.Y.8._ d._.#.t.Y.r.t._.Y._.t.r.r.t.t.Y._.Y._.N.r.r.Y._._.f.[ ' f._.[ ] ,.] 7.Q.c.] [ }.oXQ.7.,.3.7.7.7.5.:.,.7.,.,.:.:.,.:.:.] [ O._.].t.| O._.9.[ ] ] ` 7.8.( / r.+.+.+.+.8.r.8.r.t.8.7.O.8.d.8.+.8.8.t.r.d.Y.Y.Y.Y.7._ Q.z.] ,.,.] u.Q.8.} Y.Y.Y.7.7.7.7.7.7.7.9.7.[ [ ,.7.7.9.7.7.7.7.7.u.Y.|.8._ 8.f. .] 5.] [ u.7.( 7.f.+.#.8.t.#.+.#.N.#.r.#.+.+.8.+.+.+.r.r.#.+.8.N.u._ 7.d.7.] ,.,.' 8.Q._ _ 8.t.O./ ~ ] :.I I ] / E ] ,.[ ` / ` ] [ ] _ _ O.N.7./ O.O./ E ` T ` 7.7.' 7.Y.r.8.8.8.7.8.8.r.r.8.8.8.8.r.r.N._.N.r.r.r.t.|.Q.[ O.Q.7.] :.:.] 9.c.] [ |.f.u.7.9.9.7.9.9.9.7.9.9.9.7.j.9.j.u.9.9.u.|._.|.8._ Y.Y.O.] ,.] O._.d._ 8._.#.#.&.#.#.#.#.#.N.#.%.t.N._.N._._._.",
"r.8.8.8.8.r.r.r.#.+.+.t.8.+.t.8./ O.r.7.( / / ' 8.d.[ ` O.7.) E T ;./ ` ' ` / ` ` ` E ` ` ;.' ] ] ] ` _ #.8.` [ 8.u.] E E ` 9.c.R ` 8.#.+.+.+.+.+.O.O.O.+.#.#.#.#.r.N.N.8.+.r.Y.r.r.f.Y.u.O.8.|.7.[ :.] O.oXf.} u.OXd.7.7.7.8.7.9.7.7.7.O.7.7.7.7.7.7.7.7.7.5.,.O.f.z._ O.oXf.[ ] ] [ Y.Q.[ O._.t.r.t.r.N.N.N.t.r.8.f.N._.Y.Y.N.t.r.N._._.t.N.N.Y.[ O._.N.O.) / ( 8.Y.O.( r.f.8.O.7.7.7.7.O.7.[ 7.7.,.[ } [ [ [ } } [ _ } +.f.[ _ r._.O.' ] ` 8._.} / O.+.#.8.+.+.+.+.r.N.r.t.r.8.8.t.8.8.8.8.8.f.d.Y.f.Q.,.[ Q.#Xu.,.>.3.XX*Xz._ u.}.t.7.,.7.7.7.7.7.3.7.7.,.,.7.3.,.7.7.7.7. .9._.oXO.O._.oX7.] ,.[ 8.oX8._ d.|.t.Y.Y.t.t.t.Y._.N.N.r.#.t.Y.Y._._.r.+.r.f.t.Y.Y.[ _ f.OX9.] ,.[ 8.#Xc.[ 7.XXf.7.,.,.7.7.9.7.7.,.7.7.7.,.,.,.,.,.,.,.,.[ +._._.O.+._._. .] ,.[ d.f.( ( r.#.#.r.8.r.r.r.#.t.d.u.7.f.u.} O.d.r.t.t.r.f.d.Y.Y.7.[ Y.|.7.] ] [ Y.oX8.O._.|.u.7.7.9.7.7.7.7.7.5.[ ,.7.7.7.7.7.9.7.9.7.O.8.oXr.[ r.oX7.] 5.,.[ }.8.( u._.t.t.r.N.t.#.+.#.#.r.#.#.+.+.+.t.r.r.r.8.8.t.N.d._ 7.Y.f.[ ] ] 7._.Y._ [ r.+.( P ` ] ' Y T ] R ` [ [ ,.` ` ] [ ] [ [ _ O.N.8.` +.r.' E E / ] d.7./ 3.f.r.d.Y.d.8.8.8.8.t.f.8.8.8.r.r.N.Y.Y.Y._.d.Y.oX}.[ 7.XXc.:.>.>.,.}.oX] } |.u.7.9.9.9.9.9.9.8.7.9.9.9.z.j.z.z.8.z.u.9.8.Y.OXd._ _._.r._ ] [ t.'.8.( 8._.#.%._.#.#.o.#.#.N.%.N.#._._._._._._.",
"8.8.8.8.O.+.r.+.+.r.8.r.r.+.#.7./ } r.r.} / ` 8.#.8.[ / O.7./ E ` ` / ' ` ' ' E ' ' T T ' ' ` ' ] ' / ( O.7.` _ 8.8.5.E E 5.u.7.R R O.+.+.O.O.+.8.O.O.+.+.+.#.#.#.t.t.t.+.r.f.r.f.r.8.f.9.] +.Y.d.7.` ,.Y.|.r.[ u.|.7.7.7.7.7.7.7.7.[ 7.7.7.7.7.9.9.7.7.7.5.5.,.[ f.z._ O.|.Y.7.] ,.d.Y.d._ [ Y.r.r.8.8.N.N.m.r.f.r.r.t.t.N.Y.r.t.r.Y._.N.#.t.N.f._ [ _.N.t.[ / O.t.t.} ( 8.8.O.} 7.9.O.7.O.O.O.7.7.5.[ [ } O.[ } [ [ [ _ +.Y.[ ) r.N.r.] E 7.r.r.[ / O.#.+.+.8.r.+.+.8.r.r.t.8.8.+.+.Y.r.8.t.8.f.u.8.7.d.[ [ Y.oX}.9.,.c.oX#Xu._ d.|.7.} 7.7.,.7.7.5.,.7.,.7.7.,.3.7.7.7.7.7.[  .t.oX7.O._.oXf. .) 7._._.8._ 8._.f.t.t._.t.#.t.Y.Y.N.r.t.N.Y.Y._.Y.r.N._.Y.t.N.f.,.] u.oXY.[ ) 7.|.|.c.] 7.XX9.,.,.,.,.,.7.7.,.,.7.7.7.,.3.,.,.,.,.,.,.[ _ _._. .9._._.p.[ ] u.Y.r.( / 8.#.+.8.r.8.r.t.8.r.m.8.d.f.O.[ d.f.8.r.r.f.8.r.r.f.7.] d.Y.Q. ._ d._.Y.8.[ _.Y.7.7.9.7.7.7.7.7.7.O. .7.7.7.7.9.7.7.7.7.7. .7.|.u.[ t.|.f. .] [ u._.8./ 9.Y._.t.r.t.r.8.+.+.#.r.8.8.+.8.+.8.8.+.+.r.f.#.N.d.) O.Y._.7.' [ r._.r._ [ +.O./ T ] ` E Y T ` ` ` ]  .[ ] ] ] [ [ ] :.] [ 8.7.( O.t.O.R T ] 7.8.[ ~ 3.u.8.d.d.c.f.8.8.r.r.f.+.+.r.r.r.N.N.Y.N.Y.}.|.|.c.,.7.|.Q.j.:.>.u._.f._ O.|.7.7.7.9.9.9.9.9.9.8.8.9.z.8.z.l.u.z.z.u.9.7.d.#Xu.[ Y.]._.O._ 8._.N.8./ 8.#.#.#.t.t.#.O.#.t.#.#.t.N._.N.%.#._._.",
"8.r.+.8.+.+.+.+.+.m.+.8.r.#.r.7./ +.#.#.#.O.O.r.#.8.[ ( 7.7.` ` ` ` ' / ` :.` ` :.` T E :.' ` ' ' ] ' ` O.8.) _ +.#.9.,.,.u.8.O.R R O.+.O.O.O.@.#.#.#.#.#.#.#.t.t.N.N.r.#.N.Y.d.f.+.+.f.7.) +.t.Y.d.7.u.Y._.d.[ 9.Y.+.7.7.7.7.7.7.7.O.7.7.7.7.7.7.7.7.9.7.7.j.,.O.}.c._ O._._.f.7.u._.N.u.` _ d.t.t.r.r.r.r.N.Y.Y.m.r.r.+.N.Y.r.t.t._.Y.t.r.t.t.f._ [ _.&._.r.O.r.t.r.[ ( 8.7.O.7.7.7.7.7.7.7.O.7.7.7.[ ,.7.7.3.[ [ } [ [ +._.O.( r.#.t.8.O.r.#.+._ / O.8.+.#.8.8.r.r.+.8.r.t.8.O.O.8.r.8.r.f.d.u.7.7.O.f.7.[ f._.oXXXQ.#XoXOX8.] c.XX8.7.7.7.7.,.,.,.,.7.7.7.7.7.7.7.7.5.7.j.7. .g.XX9.O._.'.'.p.O._.'._.8._ u._.t.Y.t.t.t.N.r.t._.t.8.8.Y._.Y._.t.8._.|._._._.f.7._ 8.'.'.r.O.f.OX|.Q.[ 7.XXu.,.7.7.7.5.,.,.,.5.7.7.5.,.,.7.5.,.,.,.5.[ O._._.O.@._._.oXu.9.}.Y.8.( ( 8.#.#.r.r.r.r.r.r.r.r.t.8.8.+.r.f.t.r.r.d.r.r.Y.8.f.3._ d.Y.R.d.8._._._.O.[ _.Y.7.7.7.7.7.7.7.7.3.7.7.7.7.7.7.7.7.9.7.7.7.O.8.oXd._ t.'.oXp. .7._.'.7.` 7.t.#.8.f.r.t.t.+.+.8.Y.r.#.+.r.+.8.+.+.+.N.Y.#.N.f.) O.N.N.N.+.r.N.N.f.[ ( O.+.` ` ` ] E G E ) ] ] [ 7.7.7.,.,.,.[ ] [ [ _ 8.7.R [ t.+.[ [ +.+.8.[ / 7.u.8.f.d.u.8.8.d.r.8.8.+.+.r.Y.r.N.t.N.Y.r.r.N.Y.c.7.7.|._.Y.7.9.}._.f._ 7.|.7.3.7.7.j.9.9.9.8.8.8.z.z.z.z.z.z.z.z.z.9.7.f.OXf.[ _._._.N.r._.].%.8.( #.#.&.#.N.N.%.o.#.#.t.#.t.t.N.N.#.N._.N.",
"8.8.r.r.O.O.O.r.r.+.8.r.+.+.+.7./ O.#.#.#.#.8.+.#.r.' ` 7.7.] / ` ] ` ' ' ' ' :.' E T ` ` ` ` ' ' ' ` ' O.8.` ) O.#.@.7.7.9.O.O.P R O.O.O.+.+.+.#.r.t.t.t.#.#.#.t.N.t.r.8.t.Y.f.8.8.r.d.7.` O.Y.r.Z.Y.t.m.N.8.( +._.+.O.7.8.7.+.7.7.7.7.7.7.7.7.7.7.7.7.7.5.5.,.7.Q.c._ } _.N.f.Y.N.N.N.8./ _ f.8.r.Y.r.r.#.t._.t.+.r.r.+.r.Y.t.8.f._.r.r.r._.r.d._ [ t.&.%.N.%.#.#.r._ ( d.8.O.O.7.7.7.7.7.7.7.7.7.[ [ ,.3.,.[ [ [ [ [ [ +.Y.7.( 8.#.#.m.r.#.+.8.( / 7.+.#.#.+.#.r.+.#.r.r.#.+.7.O.O.8.f.r.f.f.8.+.8.8.d.,._ d.'._.OX#X|._.OX7.] }.oXd.7.7.7.7.7.,.,.7.7.7.7.7.7.3.3.3.7.7.7.7.7.8.XX7.O._.'._._._._._._.O.' 8.Y.8.t.t.t.t.t.t.r.t.Y.8.[ 7._._.Y.8.f._._._.Y._.Y.3._ 8._.`._.Y._.].OXc.] 7.XX8.,.3.7.7.,.,.,.5.,.7.7.,.,.,.7.7.,.7.,.,.[ +._._.O.+._._._.}.Y._.N.r.( / 8.#.#.t.#.+.8.r.r.r.8.t.+.O.8.Y.+.r.r.r.8.8.r.r.8.u.[ _ d.Y.Y.Y.N.N.N.Y.O.[ Y.f.O.3.7.7.7.7.7.7.7.7.7.7.7.7.7.7.7.7.7.7.7.7.u.}.8.( r._._._.g.f._._.7./ 8.t.+.8.r.r.t.N.r.8.t.N.N.r.+.+.8.+.O.+.r.r.r.r.Y.u.( } #.N.N.N.N.N.N.r.[ ( O.O.] ` / ] T G E [ _ ] ,.[ ,.3.3.5.,.[ [ ] _ [ 8.O.R [ #.+.O.+.+.O.+.} ^ 3.d.8.d.d.+.O.7.8.8.r.8.O.8.r.r.r.#.N.N.r.8.+.+.r.d.,.7.|._.Y.f.f.Y._.d.` 7.|.7.7.7.7.9.9.9.9.9.9.u.z.z.z.u.j.z.j.z.z.l.9.d.#Xf.[ N._.[._.`._.%._.8./ 8.N.#.N.#.#.N.#.#.#.t.#.#.#.#.#.N.r.N.N.",
"O.8.O.O.} O.+.r.8.r.8.r.8.O.+.7.( +.#.#.+.#.r.#.#.r.] ' 7.d.] ' ' ' ' [ ' :.' ] ' E ` ' ` ` ' ' ' / ` _ O.u.) ) O.8.@.+.8.+.+.O.R ( O.O.O.O.O.#.t.t.+.O.+.+.#.t.#.t.t.t.#.r.Y.t.8.f.N.f.9._ 7.Y.r.r.N.t.r._.8.[ 8.oX8.O.7.7.7.8.7.7.7.7.7.7.7.7.7.7.9.9.9.7.7.,.7.|.Q.( } _._.t.N.r.t.N.7.` [ f.t.r.Y.Y.t.r.N.N.#.+.t.Y.8.8.Y.t.r.t.t.8.t.f._.t.f._ [ t._.%.%.%.#.#.t.[ ) f.t.O.O.7.7.7.7.7.7.7.7.3.] [ 7.[ 5.} } } [ [ O.+.Y.7._ r.t.+.#.#.+.+.8._ / 7.+.#.#.#.r.r.r.t.t.+.+.+.t.8.O.t.N.r.t.t.r.8.f.t.c.7.[ t.'._.|.oXoX'.oX9. .}.OXr.7.7.7.7.7.7.7.7.7.7.7.7.7.7.,.3.7.7.7.j.7.f.$X9.O._.'._.'.'._._._.O._ 8._.t.t.t._._.r.8.r.t.Y.Y.r.f.}._.t.t._._._._.Y._.}.7._ 8.'._._.OXoX'.OX}.[ 8.#Xu.,.7.7.7.7.5.7.7.3.j.7.,.3.,.,.5.7.7.,.,.O.+._._.| +._._.N._.N._.%.t.( / +.N.#.r.#.+.+.r.r.t.r.N.8.+.r.N.r.Y.r.t.r.Y.8.r.f.8.] _ d.Y.d.Y.N.N.N.N.O.[ Y.Y.7.7.7.7.7.8.7.7.7.7.7.7.7.7.7.9.7.9.7.7.7.7.8.|.8.( 8.oXN._.t._.N._.+.) u.Y.t.t.r._.r.t.r.N.N.t.N.t.+.+.8.#.O.r.N.#.t.t.N.8.) O.r.t.N.t.Y.N.N.f.] _ O.O./ / ] ] Y I ' 5.[ ,.,.) ` ] 7.7.3.,.[ ] _ O.r.O.( O.+.+.+.O.+.O.+.7.` 7.d.+.r.8.+.8.8.O.8.t.+.8.+.#.N.+.+.N.N.r.8.r.r.r.c.O.7.|.N.Y._.Y._._.d._ 8.|.7.3.7.9.9.9.u.8.9.9.z.z.z.z.j.z.z.u.z.j.z.9.8.OXf.[ _._.[.R._._.N.].r.( r.N.t.#.+.#._.t.t.#.#.#.+.#.t.#.N.N.%._.",
"O.O.} _ } 8.+.+.+.8.r.8.+.O.7.O./ 8.#.#.+.#.+.+.#.8.] ` u.8.` ' ' ] ' ] :.' ` ' ` ;.;.` ' :.;.` E ` ` ( O.8.` _ 7.+.#.+.O.O.+.+./ / O.O.O.O.O.#.t._._ ( +.t.#.#.#.#.t.r.8.t.t.f.f.r.t.}.7.` 7.d.r.Z.r.r.#.t.r.} r._.8.O.O.7.7.7.7.7.7.7.7.7.7.7.9.7.7.9.9.9.5.,.O.}.c.' [ _.N.N.r.r.r.r.8./ ] Y.#.#.r.Y._.r.#.r.r.8.r.t.+.8.8.#.r.r.r.8._.r.t.N.f._ [ v.#.%.#.#.N.#.8.[ ` d.#.+.O.7.7.7.7.7.7.7.7.3.[ ,.,.3.3.[ O.} [ _ [ +.f.} _ d.+.#.+.O.+.O.8.] / [ +.+.8.#.#.r.Y.8.8.O.O.+.r.r.r.+.r.r.t.r.r.r.8.r.Y.[ _ d._._.|.|.OX_.oX9.[ |.OX+.O.7.7.7.7.7.7.7.7.7.7.7.7.7.,.,.5.7.j.5.5.p.$X7.O._._._._._._.N.N.O.' 8.Y.N.N.t.t.N.t.+.r.t.r.N._.Y.N.t.8.f._.Y.Y._._.Y.f.[ ] d._._._._._.'.[.Q.[ 8.*X7.,.7.,.,.,.7.7.7.7.7.7.7.,.3.,.3.7.5.,.7.[ O.]._.[ 7._._._.N.r.%.N.r.( / O.#.+.o.r.r.+.+.t.r.#.r.8.O.O.8.t.r.8.8.f.Y.Y.f.8.8.` [ d.r.N.m.m.m.#.Y.7._ Q.f.7.7.7.7.7.9.7.7.7.7.7.7.7.7.7.7.7.7.7.7.,.[ 8.|.7.( 8._.Y.N.r.N.m._.O.( 8._.v.t.t.t.t._.#.#.#.N.t.r.+.8.7.+.8.r.r.N.N.r.t.8.` O.r.t.N.Y.Y.N._.u.] ` O.O.K L ] ' J Y :.] [ 5.,.) ` :.5.3.3.7.] ] ] [ #.8.` O.r.+.+.O.O.O.+.3.' O.r.+.+.+.8.+.+.O.7.8.8.+.+.+.#.+.+.#.r.N.t.r.f.f.u.3.3.Q.Y.Y.Y.Y.N.N.d.] 7.OX8.3.7.7.9.9.9.9.9.8.z.z.z.l.l.l.z.z.z.j.j.9.8.oXu.[ _._._._.R._._._.r.( #._.N.o.O.#.t.t.#.#.#.+.#.#.#.#.#.#.%.N.",
"+.O.+.O.+.r.+.+.+.+.+.O.O.+.8.O.( 8.#.+.#.#.+.#.#.8.] ' d.7./ ' ] ,.' :.] ' / ] ] :.;.;.;.;.;.T T ` ` ` O.8.` ] u.+.#.#.O.+.#.8./ R O.O.O.#.#.#.t.t.O.+.t._.#.r.t.t.r.8.#.#.t.f._.t.t.}.j.` 8.Z.r.m.r.r.r.t.f.} 8._.8.O.O.7.7.7.9.7.7.7.7.7.7.7.7.7.9.7.7.7.7.3.+.}.Q.' [ Y.N.N.r.r.r.r.d.` ] d.r.t.r.Y.Y.r.t.r._.t.t.#.+.+.+.#.t.t.Y.f._.f.8._.c._  ._.%.%.#.#.N.#.t.O.( r.8.O.[ 7.7.7.7.7.7.7.7.7.7.[ 7.7.7.[ [ _ [ _ [ +.f.O._ d.+.#.+.O.+.O.8._ / O.+.+.O.+.+.O.+.O.O.#.+.O.+.t.r.r.r.r.N.#.8.t.r.8.f.O._ f.Y._.|.|.OX_.oXu.[ }.OX8.O.7.9.7.7.7.7.7.7.7.7.7.7.7.3.,.,.7.7.7.7.t.$X7.O._._._._.N._.N._.+._ 8._.t.t.#.N._.#.#.t.Y.N.N.t.N._.t.r.Y._._.Y._.t.t.f.[ ] f.'._._._.'.[.$XXX,.u.*X8.,.h.7.7.7.7.7.7.7.7.7.7.3.3.7.,.,.5.7.7. .o.].t.[ 7.'.&.].N.#.N.N.t.( / O.O.O.#.t._.+.+.r.t.r.t.r.O.O.8.r.d.+.+.+.r.Y.N.8.8.' [ Y.r.N.m.r.m.#._.7._ Y.Y.7.3.7.7.,.7.7.7.7.7.7.7.7.7.7.9.7.7.} 7.3.[ 8.oX7.' +.|.Y.t.r.N.N._.8._ u.f.t._.Y.f.t.r.#.#.#.N.r.r.#.8.} [ +.N.r.t.r.#.t.d._ O.Y.r.N.N.N.N._.f.] / O.+.P J ] ] L ` ,.[ [ ,.,.,.,.7.,.3.3.7.[ ] [ O.#.8._ 8.r.O.+.O.O.O.#.} ] O.8.#.+.r.#.8.8.+._ [ 8.#.+.+.+.#.#.+.#.r._.8.8.8.8.} 7.Q.Y.f.f.Y.N.Y.c.' 8.OX8.7.7.7.9.9.7.j.9.u.u.z.z.z.z.j.l.l.z.z.j.9.p.oXu.[ |._.R._.R.N._._.d.' 8.N.#.#.#.#._.#.#.+.#.#.#.#.#.#.#.t.N.N.",
"O.+.+.r.+.+.#.r.+.+.O.8.O.O.8.O.( +.#.#.+.+.+.+.#.8.] ' 7.+./ ;.' :.:.,.' ` ' :.] ;.` ;.` ` ` ` ` ` ` ` O.8./ ` 8.#.O.+.O.+.#.O.P D _ O...O.O.#.+.#.#.#.r.#.t.N.r.r.t.t.8.+.r.Y.f.f.f.Y.7.` 7.Y.r.r.r.r.r.Y.d.[ +._.8.O.7.7.7.7.7.7.7.7.7.7.7.7.7.7.7.7.7.7.7.3.O.}.Q.' [ r.Y.#.r.8.r.N.8.' ] d.r.r.t.r.8.#.#.t.N.Y.Y.#.8.8.f.r.t.r.Y.Y.f.Y.N.N.f.` } N.%.#.#.#.#.#.t.[ / 8.#.O.3.} 7.[ 7.7.7.7.7.7.[ 3.7.3.[ ] _ [ ] ] [ O.f.} / 8.+.O.+.O.O.} O._ T O.+.O.O.O.+.O.O.O.r.+.#.O.O.r.r.+.r.r.+.+.+.8.t.+.8.[ _ d._.Y.|.|.|._.|.9._ f.OX#. .7.7.7.7.3.7.7.7.7.7.7.7.,.,.,.,.,.,.7.7.8.$X7.} _.'.N._.t.N._._.O.( 8.N.#.N.N.t.t.N.N.t.N.N.N.N.N.t.N.N.Y.f.Y.Y.f.t.f.d.,.' d._._._._._.OX$XQ.[ u.*Xu.,.h.7.7.7.,.,.5.3.7.7.3.7.7.3.7.,.7.3.7.O.O._.t.[ 7._._.%.#.#.N.r.+.( / O.O.O.t.#.N.r.O.+.r.t.r.+.7.O.O.8.d.r.t.+.+.+.r.+.8.' _ Y.N.m.r.r.r.N.N.+.( f.f.7.3.7.7.3.,.[ 7.7.7.7.7.7.7.3.7.3.[ [ ,.3.[ 8.|.7.` O.}.Y.r.8.Y.N.Y.7._ 8.f.t.t.r.f.8.[ +.t.r.r.8.#.r.+.[ [ 8.#.+.+.8.r.r.8._ [ f.N.r.t.N.N.N.u.' / O.8.P J / T U ` ] [ } [ 3.7.7.7.3.7.,.] ] ,.[ O.r.O.( O.8.+.O.O.+.O.+.O./ } 7.O.8.+.#.#.#.+.} O.8.r.#.+.#.#.#.#.#.+.+.r.+.8.u.[ 3.Q.Y.r.f.r.r.Y.z.' 7.|.8.3.7.7.7.7.j.j.9.u.z.z.z.z.l.j.l.9.9.j.j.9.8.oXu._ }.`.R.N.R.N._._.u.( +.#.#.o.t.t.t.#.8.+.t.#.#.#.t.#.#.#.N.N.",
"O.+.+.+.+.+.#.#.+.+.+.r.O.O.8.O.( O.#.N.+.#.+.#.N.7.' _ 7.7._ :.' ] ,.,.:.' :.,.' :.;.;.` ` ` :.' ` ` ( O.8./ ` 7.r.O.#.#.+.+._ D P _ O..._ | O.+.#.#.#.#.#.t.N.t.t.f.Y.t.8.t._.Y.f.N.f.7.) 7.Y.r.r.r.r.r.Y.8._ 9._.8.7.7.7.7. . .7.9.7.7.7.7.7.7.7.7.9.7.7.7.3.O.|.c.' _ 8.Y.r.r.8.r.f.O./ [ Y.r.r.t.#.+.+.r._.Y.N.N.N.N.f.Y.N.t.r.N.t.Y.Y.t.N.f._ [ t.%.#.%.#.#.#.f._ / r.+.O.7.,.7.O.} 7.9.7.7.[ 7.7.7.7.[ [ 7.} [ [ [ +.Y.[ / O.O.O.+.+.O.O._ / T O.O.+.t.+.#.+.+.+.#.+.+.+.O.+.r.#.r.+.O.O.t.r.#.+.f.[ _ d.|.Y.|._._._.|.9.) f.[.8. .,.,.5.7.7.7.7.7.7.7.7.7.7.,.,.7.3.7.7.7.f.$X7.[ Y.].N.N.N.N._.Y.} ' r.N.#._._._._._._._._.N.N._._.t._._._.Y.Y.N.t.v._.d.,.' u._._._._._.OX$Xc.,.u.*Xf.,.h.h.j.7.7.5.7.7.7.7.7.7.7.7.7.7.7.,.5. .O._._.[ +._.&.%.N.#.N.r.} _ / O.O.#.%.#.N._.#.+.t.r.r.+.8.O.O.+.d.r._.r.t.8.8.r.d.] [ r.N.r.m.+.#.N.N.O.' f.c.7.9.7.9.7.,.,.7.7.8.9.7.O.7.7.7.7.3.[ 3.3.[ d.#X8._ O.Y.Y.t.r.Y.Y.7.O._ u._.t.r.t._.d.[ +._.#.r.8.#.r.8.+.f.8.+.#.+.8.t.t.u._ [ 8.Y.r.N.N.N.#.7./ ( +.d.T L T I Y ;.,.5.} 3.7.7.7.7.7.,.] ) ) ,.} O.r.O._ O.+.+.O.+.+.O.+.[ / O.8.O.#.+.+.#.#.r.+.#.#.#.t.%.#.+.+.#.#.O.O.+.8.8.8.[ 3.d.r.m.r.8.Y.Y.7./ O.|.8.,.7.7.7.9.j.9.9.9.z.z.z.l.l.l.9.9.9.9.l.9.8.oXu.[ Y.'._.N._.N.N._.7.` +.N.#.#.#.#.r.#.#.f.t.#.r.#.#.#.N.#.N.t.",
"O.O.+.+.+.#.+.+.+.+.O.+.+.O.+.O.( +.+.+.#.#.+.t.#.7.,.' O.8.] ;.;.:.:.:.,.:.' :.:.;.;.;.` ;.' ' ' ;.T / O.9.E ` [ +.#.+.#.+.( / D D _ O.{ ......#.#.#.#.#.+.#.r.t.r.r.t.r.r.Y.f.Y.f.r.f.7.` 7.8.8.d.8.r.r.8.7._ +._.8.O.7.7.[ [  .7.7.7.7.7.7.7.7.7.7.7.9.7.7.,.7.Q.z.' [ +.8.Y.r.r.f.} _ ' ] d.#.r.8.r.r.r.t.t.N.Y.N.t.Y.Y.N.t.t.t.t.r.Y.f.r.N.f.] [ O.#.%.#.o.#.#.+.` P 8.#.} 7.7.7.[ 7.3.7.7.7.,.3.3.3.,.,.[ [ } ,._ O.+.f.[ T [ _ +.+.O.8._ / R U [ O.+.8.r.#.+.+.+.+.#.+.O.+.r.+.+.r.+.O.+.t.r.r.8.r.] ) u.t.|._._.OXf.f.9.) f.oXr. .,.5.,.7.7.7.3.5.5.7.7.7.,.3.7.7.7.7.7.7.u.$X7._ Y._.N.N.#._.Y.O.[ _ +.N.N._._._.&.t._.'._.N.N.N.N._._._._._.t.r.Y.Y.Y.f.[ ' u.t.N._.Y.oX[.|.c.,.u.*Xz.7.j.7.7.7.7.h.5.,.7.,.7.3.,.7.7.7.7.7.} [ O._.f._ 7.f.#.N.%.N.r.} O.( / +.#.#.#.#.N.N.N.r.t.+.+.#.t.8.+.+.8.r.r.Y.N.r.r.r.f.' _ r.+.m.r.+.N.8.8.7.( d.c.7.3.9.7.7.7.3.,.7.9.7.7.} 7.7.3.3.7.[ [ [ [ u.XX7.' 7.+.r.Y.r.f.O.O.} ' u.Y.t.t.r.t._.t.8.r.t.#.+.#.O.+.r.r.#.#.+.#.r.+.r.d._ [ O.O.r.N.N.#.O.O./ / +.8.J G T T G T :.[ [ ,.7.7.3.3.3.[ ] [ [ ] [ O.8.O.( [ } O.O.O.8.O.[ _ / [ 8.+.O.+.+.#.#.+.r.#.+.#.#.#.#.+.#.o.#.+.O.O.8.d.7.] 3.8.+.r.d.8.d.7.] / 7.|.7.[ 3.7.7.7.j.9.9.j.z.z.z.j.l.j.l.j.j.9.j.9.8.oXf._ u.t._.N.N._._.O.[ / O.t.#.#.8.+.r.#.N.t.r.t.N.#.+.+.t.t.r.r.",
"+.+.+.+.+.#.+.#.+.+.O.8.+.8.8.O./ 8.O._ r.r.+.+.O.} 7.] 7.f.[ ;.:.] :.,.,.:.;.:.' ;.;.;.;.:.' ' ' ;./ ` 7.8.` ] [ [ O.#.+.[ / [ / D } O.O.+.O.O.#.#.#.t.r.+.+.r.t.t.r.8.r.Y.Y.f.f.t.r.f.7.] 9.7.O.d.r.8.O.O.7._ +.|.8.7.7.7.7.7.7.5.7.7.7.7.7.9.7.7.9.7.9.7.,.,.7.}.c.' } 7.O.r.Y.r.O._ 7.] ] u.8.8.8._._.N.N.r.t.N._.t.t.Y.Y.f._.Y.Y.r.r.Y.t.N.f._ 5.[ _ _.#.#.#...+.) / r.#.O.7.7.7.[ 7.7.7.7.7.,.,.3.3.[ 3.] [ [ [ [ O.+.f.] T } ( O.r.+.8.' ' ' U [ O._ O.+.O.+.#.O.#.#.#.O.r.r.O.O.r.+.+.r.r.r.Y.r.8._ _ 8.O.f.oXOX}.| f.u.) f.$Xt. .7.7.7.7.7.7.5.5.7.7.3.7.5.7.7.7.7.7.7.7.f.#X7.[ 8.r.N.R.N._.+.} 7._ 8.'._._._._._._._._.'._._.N._._.N.Y._._.t.t.Y._._.}.,.` d.7.O._._.|.N.Y.XX7.u.=Xc.7.j.7.7.h.h.h.h.h.7.,.3.3.7.5.7.7.7.7.3.[ O._._._ 8.d.[ +.N.t.+._ d.( / +.N.#.#.r.N.N._.r.+.+.#.N.N.t.N.#.r.r.r.r.r.r.Y.r.Y.[ [ Y._ 8.N.#.r._ 7.8.) d.Q.j.3.7.5.7.9.7.7.7.9.7.7.} 7.} 3.7.7.3.[ [ } r.OX7.( 8.O.O.Y.t.8._ +.r.( 8.Y.N.N.r.Y.Y._.r.r.#.+.+.#.+.#.#.r.N.m.+.r.r.+.d.f._ [ 7.[ O.N.N.} { 7.` / r.} l n :. .I T :.[ [ ,.,.5.7.3.,.,.,.7.[ ] [ O.8.O.( [ ( _ +.+.+._ ( [ / _ r.+.+.t.r.#.#.r.#.+.+.+.t.+.+.#.o.+.#.#.O.} +.+.7.' 3.d.[ } d.r.7.[ 7.:.3.Q.7.[ ,.7.7.7.j.j.j.9.z.z.l.l.l.j.z.l.z.j.j.7.8.oXf.[ u.O.r.N.N.t.8.O.7.' O.#.%.N.t.t.t.#._.N.N.N.N.#.+.O.#.t.#.t.",
"+.#.O.+.+.#.#.+.O.+.+.O.7.O.8.} / O.8._ _ Y.8.( +.7.3./ 8.f.] :.' :.:.:.:.:.;.' ' ' ;.;.;.' ' ' ` ` E / 7.9.E :.8.[ ( O.[ / _ 7.P D _ O...O.+.+.#.#.#.#.#.r.8.#.8.r.#.+.r.Y.Y.Y.u.8.t.f.7.) 9.u.` 7.}.7.( 7.u.' O.|.8.O.7.7.7.7.7.7.7.7.5. .3.7.7.7.7.7.7.7.7.,.O.}.u.( } u.[ [ f.7._ +.d.( ] d.8.8.t.t.t.N.N.m.N.t.t.t.t.r.N.Y._._.Y.8.r._.t.Y.f.` ,.9.) +.'.t._ .._.[ / r.#.O.[ [ [ 3.,.,.7.3.,.] ] [ 3.[ [ [ [ ] [ [ [ +.f.` P 7.` ( 7.8.[ ~ 7.' J 3.+.[ O.[ +.O.+.+.8.+.O.+.+.N.O.O.r.8.#.+.8.+.#.+.8._ ` d.+.[ _.$X7.[ }.8.( 8.oX8.[ ,.7.7.7.,.,.7.,.,.,.7.5.5.5.7.7.7.7.7.7.f.#XO._ Q.+.O.N._.8._ 8.7.( r._._._.t.t._._.N._._._.N.N.t.N._.N._.N.t.N.Y.v._.}.O.` c.9.( f.[.7.O.oXXX,.9.*Xc.,.h.h.h.5.7.h.h.,.,.3.,.3.3.7.5.7.7.,.3.,.O._.Q.) 7.~.[ [ f.7.[ 8.d.( / #.#.#.N.r.#.t.N.#.+.#.Y.r.r.N.N.N.N.r.t.r.d.r.t.N.Y._ _ Y.7.( |.t._ [ c.7.` d.c.7.3.,.7.7.7.7.7.7.7.[ } } } } 7.[ ,.[ [ [ [ r.oXO.( 8.u._ +.u.O.} Y.8.( 8.Y.t.t.N.t.r.N.N.#.O.+.+.O.+.+.#.f.8.+.+.8.r.t.Y.8.` ,.c.u._ 7.O.O.+.u./ ~ #._ k T ] ' E T ' ,.[ ] ] [ ,.3.,.,.3.3.7.} [ [ 8.} ( O.} / _ 7.[ / } [ P _ 8.+.#.#.r.r.r.r.+.+.O.O.+.+.#.+.o.o.#.+.O.O.O.} [ / [ d.O._ 7.7.[ [ z.' [ ^.7.] ,.,.7.7.5.j.7.j.9.9.9.j.j.j.j.l.z.j.7.3.8.oXu._ c.7.O.7.oXp.[ f.7.( O.%._.N.N.#.r.t.N.t.N.N.r.#.#.O.O.+.r.8.",
"O.+.+.#.+.#.#.+.+.+.+.+.+.O.8.O./ O.t.+.( 7.O.( Z.8.3./ 8.r.] :.;.:.:.:.:.:.` ] 7.3.` ` ;.;.:.:.` E E ' 7.9./ [ S.8.` ' ` O.8.7.P D { O...O.+.+.#.#.#.#.#.N.t.#.r.r.+.#.t.N.Y.t.r.d.r.f.7.) 7.Q.3.] j._ [ Q.8.' O.}.9. .3.7.7.7.7.7.7.,.5.7.7.[ ,.7.7.7.7.,.,.,.O.}.u./ O.Y.8._ [ [ 8._.t._ [ r.r.t.N.t.t.t.t.N.N.t._.r.t.r.t.N.Y.Y.r.#.f.d.t._.f.)  .v.O.+.+._ O.#._.} / t.#.[ ` ] ] ,.,.,.7.,.[ 8.u.[ [ [ [ [ ,.[ [ [ [ +.d._ P 7.[ [ _ ` _ [ 7._ P O.8.+.[ } +.O.O.+.8.+.O.O.r.m.+.+.t.+.#.+.+.8.+.O.8.] _ f._.[ 7.g.} d.oX8.( 9.}.+.[ ,.5.7.5.,.,.5.,.7.c.9.,.5.7.7.7.7.7.7.7.f.$X7._ |.Y._ 8.d.} +._.O._ r.]._._._._._._._._._.N.t.#.t.t._._._.N.t._._.N._._.7.) c.oXO.7.f.[ 8.$X}.,.9.*Xu.5.h.7.h.5.5.,.6.,.7.Q.u.,.3.7.3.,.7.,.5.,.O._.Y._ 8.#Xf.[ 5.[ 8.Y.f._ ( 8.#.#.t.#._.r.t.#.#.t._.t.N.t.Y.N.N.t.t.r.Y.d.r.N.Y.] _ r.|.} 7.[ [ r._.7._ f.c.7.7.7.7.7.7.7.7.7.[ 7.f.8.[ [ 3.3.7.[ 7.,.[ r.oX+._ +._.O.O.] O.r._.O.( u.Y.#.t.N.Y.t.N.r.#.#.8.+.+.+.+.8.8.+.O.+.8.t.t.r.+.` 7.f.}.7.` ` r.N.8.' / +.} I ` ' ` ' ` ] ,.] [ 7.7.,.3.7.3.3.,.3.3.] [ 8.} ( 8.8._ ( ) _ _ 8.[ P } r.+.r.+.r.t.#.#.r.+.O.O.+.#.#.+.#.#.+.O.O.+.+.O.[ ` [ 8.r.O.] ' 7.8.u.] [ |.7.[ ,.,.5.5.5.5.7.O.p.XXc.7.j.j.9.9.j.7.7.7.8.oXf.( f.f.7.[ j.[ r._.+.( O._.%._._.N.t.N.N.t.t.#.#.#.t.+.+.+.8.8.",
"{ O.+.#.+.#.+.+.+.O.8.8.+.+.8.O./ O.+.r.} [ ( O.Y.} 7./ 8.8._ :.:.:.:.:.:.` [ 8.8.8.] ` E ;.;.' ` ` ` ` 7.z./ ] 7.8.O./ ' u.O.} ~ D { ..{ O.O.+.#.#.#.#.#.#.#.N.r.+.+.#.t.N.#.r.N.t.r.r.7.` 7.d.d.7.] 3.r.r.7.` } }.7.[ 7.7.7.7.7.5.,.} 8.|.Y.7.[ ,.7.,.5.5.,.[ O.f.7./ } r.r.r.7.7.Y.%.8._ [ d.r.t.N.N.r.#.r.r.r.N.Y.r.+.r.t.r.t.r.r.8.8.f.8.N.f.)  .t.#.#._ ( %.#.+.O.( #.#.) / ' ] ' :.,.:.] 7.Z.Y.8._ ' ,.[ [ [ [ _ [ O.d._ / O._ 7.[ T [ } [ _ P O.+.O.O.[ O.O.+.+.+.O.[ O.8.r.+.+.8.+.O.O.8.+.+.O.8._ _ 8.Y.r.7.7.Y.Y.f.7.` 7.}.7.[ ,.,.,.,.,.,.:.7.Q.#XQ.7.[ 7.7.7.7.7.7.7.f.*X7._ Y.`.+.O.[ r.R.m.O.{ r._._._._._._.N._._._.t.#.t.N.#.t._.N.N._.Y._._._._.7._ f.'._.u. .#.OXoXc.,.7.$X8.,.h.5.6.7.5.,.,.7.Q.OX^.8.,.,.3.,.,.,.,.[ O._.Q._ 8.|.Y.d.3.7.|.r.u.[ ( 8.#.#.#.#.t.#.r.#.t.r.r.t._.r.t.r.t.N.r.r.Y.Y.Y.r.f._ ] 7.r.|.} } _.N.t.8._ f.Q.7.7.9.7.7.7.7.7.,.7.f._.Y.7.' [ ,.[ [ ,.,.[ +.`.O._ 8.+.Z.d._ d.r.r.O./ 8.Y.r.r.Y.Y.Y.r.+.r.+.8.8.O.O.8.+.8.7.8.8.+.r.8.O.O._ 7.7.d.u.7.7.r.+.} ` / O.3.I J L ] ` T ] ' ] 8.Y.d.7.[ ,.3.3.3.[ ] ] [ r.} ( O.8.+.( / 7.O.} } ~ _ r.+.8.#.+.+.#.#.+.+.+.} O.#.+.+.#.+.O...+.+.+.+.O.` } 8.O.u.} [ d.8.7._ [ Q.7.,.,.[ ,.,.5.,. .8.oX[.oXu.7.5.j.7.7.5.7.7.+.oXf.( 8.8.Y.O.] O.OXO.7._ +._.&.N._.N.N.r.t.N.r.r.N.r.r.r.+.+.+.8.",
"O.+.+.#.r.#.+.+.+.+.8.8.8.r.r.O./ O.+.O.O.7.} r.7.[ 7./ 8.8._ :.:.:.:.:.' ' 7.r.+.8.8.' E ` ;.' ' :.` ' 7.z.` ] ] O.+.} 7.[ / [ / D { ....O.O.+.#.#.#.+.#.t.r.r.#.O.+.t.r.#.#.r.Y.N.r.f.7.] 7.7.8.Q.u.d.r.O.9._ } |.u.[ 7.7.5.7.7.,.} d._._._._.7.[ ,.3.7.3.,.] [ }.u.( O.r.+.r._.r.O.+.#.[ [ f.t.r.t.r.+.r.t.+.t.N.r.+.#.t.Y.r.t.Y.Y.r.t.f.r.Y.f.]  .8...#.#.#.#...O.+.( #.#.[ ` ' ] ` ] ] ' ] d.m.m.Y.8._ [ [ [ [ [ _ [ O.f.[ ( 7.Q O.8.} 7.O._ [ R O.+.+.8.O.O.+.#.+.+.O.+.O.8.#.r.+.8.+.+.+.r.+.r.+.8._ [ 7.#.r.Y._.'.8.7.9._ 8.|.7.[ ,.,.,.,.7.[ [ c.oX_.|.Y.O.7.7.7.7.7.7.7.f.*X7.[ d.m.N.r.8.oXN.8.8.} r.oX_._.oXoX_._._._.N.N.t._.N.#.#._._._._.f._._._._.7.[ f.t.Y.}.u._.#Xf.c.,.7.*Xu.5.j.7.,.5.5.,.7.}.OXR.|.^.7.[ ,.3.3.,.,.[ O.|.Q._ u.Y.+.c.Q.Q.Q.O.8.O.( 8.#.#._.#.#.#.#.t._.t.t.8.t.t.t.N.Y.r.t.r.f.Y.N.#.Y.] [ 7.O.|.Y.t._.8.r.d.[ |.XX9.9.9.9.7.7.7.7.7._._.N.N.r.O.[ _ ,.3.[ ,.[ 8.OX+.} d.O.+._.Y.f.O.8.O.( u._.N.t.8.8.8.#.8.t.#.8.f.P ` 8.r.8.8.N.8.7.8.+.O.7.[ 7.7.7.8.XX|.8.[ [ ' / 8._ G n I ] ` E ` ` } d.r.N.Z.7.] ,.3.[ [ [ ] O.Y.O._ O.O.+.O.O.8.O._ } ( } r.r.r.#.+.+.r.#.+.+.#.O.[ O.#.#.#.O...+.#.+.+.#.+.] 7.8._ 7.f.8.7.[ 7._ [ |.8.} 7.,.,.[ 5.[ 7.|.OX|.oXoXu.7.5.7.7.7.j.7.#.OXf.( 9.+.t.8.u.Q.8.} 8.[ +._._.%._.N.%.t.t.N.t.t.N.t.t.t.r.8.+.8.",
"+.+.+.r.r.+.+.#.+.+.+.8.8.+.r.O./ O.+.( _ r.r.+._ 7.3.` f.9.] :.' :.;.' ' 7.8.7.7.O.7.7.` E ^ ;.;.;.;.] 9.j.E ' ] ) _ 7.7./ D [ ( D { O.{ ..+.+.+.#.+.+.+.r.r.+.O.O.#.t.r.#.r.r.Y.r.r.Y.7.) 7.9.[ d.OXr.[ O.8._ O.|.u.7.,.7.7.,.[ 7.d._._._._.R.Y.7.] ,.,.,.,.,. .}.d.( O.r._ +._.O.) [ 7._ [ f.8.#.#.+.8.8.8.+.+.r.r.+.r.Y.t.t.f.r.Y.t.f.r.N.Y.t.) O.8.( O._.%.O.( } +.) +.#._ ] ' ' ' ` / ] 7.8.8.r.r.8.+._ ' [ ] [ ] [ +.d.[ ( 7./ / 7.r.O.( [ [ R +.+.+.#.+.+.+.+.+.8.+.r.+.#.+.8.+.O.O.+.8.8.8.8.#.8._ _ 7.O.O._.'.8.[ 7.u.[ r.Q.7.[ [ ,.,.,.] [ d.Q.Y._._.|.Q.7.} 7.7.7.,.5.f.$X7.3.z.O.O.Y.|.d.[ 7.8.} d.oXY._.}.|.|._.Y.N.t.t.N.t.N.N.#.t._._._._._.N._.'.8.[ }.8.O._.oX_.8.7.c.,.9.*X9.5.5.5.5.,.,.7.}.|._.^.R.R.Q.7.] ,.3.,.,.,.O.|.Q.[ u.f.( 7.XXQ.7.[ 8.} ( r.#.t.Y.N.+.#.t.t.N.N.t.#.#.r.Y.t.Y.t.#.r.Y.Y.t.N.Y.] [ d.[ 7.|.t.+.[ 8.d.[ oXXXu.9.7.9.7.7.7.9.Y.R.N.N.m.N.r.7._ [ [ [ [ [ r.OX8.[ f.+.( t._.O.[ 8.+.( u.Y.r.r.+.8.+.+.8.+.r.8.8.( ` 8.r.r.r.r.r.r.+.+.d.8.[ 9.j.[ [ c.c.O.) ,.` T 7./ z I U T ` T U ] 8.8.8.r.Z.8.[ [ ,.[ [ ,.,.} t.O._ 7._ [ O.8.O.( _ O.( } t.+.+.8.#.#.#.+.#.+.+.+.( [ #.#.+...O.#.#.#.+.+.O.' } 7.` [ r.8.] ) 7._ [ XX7.3.,.3.,.[ [ 7.}.|.|._._.|.|.u.,.,.7.7.,.7.8.XX8.( 9.O.} +.}.f.[ [ u.[ +._.%._.N.t.t.t.N.#.N.N.N.t.N.t.t.r.r.r.",
"+.+.8.r.r.+.#.r.+.8.+.r.8.+.t.+./ O.+.( ` 7.7.[ ` 7.7.` f.8.[ ,.] ;.;.` 3.d.8.7.+.7.7.u.7.' ` ;.;.;.;.:.u.j.T ] ,.` / 7.} P T [ / D O.+.{ O.O.#.+.+.+.#.#.+.#.O.O.#.N.#.r.r.r.N.N.r.N.}.7.) 9.u._ 7.Q.7.) 7.u._ +.|.d.7.,.7.7.[ } d.oX_._._._.Y._.f.} [ ,.,.,.,.7.}.f._ O.f.[  .9.[ E [ 7.) [ 8.+.#.#.r.t.r.r.+.+.f.m.r.r.Y.f.f.Y.f.f.Y.Y.f.Y.Y.g.) O.8.) [ 8.O._ ( | O.( #.8.[ [ ' ` ' / / 7.8.8.8.m.8.r.N.8._ _ ] [ _ [ +.f.[ ( 8.( R [ O.[ /  .O./ O.8.#.+.#.8.+.#.#.r.+.#.r.#.+.8.8.O.O.8.r.8.8.O.8.8.) [ 9.[ _ f.f. .[ 9.u.| r.Y.7.[ :.,.[ [ ] u.|._.Y._._.|.oXQ.7.[ 7.7.3.5.f.XXO. .c.7.[ f.c.5.) 7.u.[ d.OX_.t.t.|.|._._.N.N.N.N.N._.N.t._._._._._._.Y._.oX8.O.}.9.[ u.oXd.,.7./.7.u.*X7.,.5.,.5.,.7.Q.OX|.|._.|.R.|.Y.7.] ,.,.,.[ 7.|.b.[ u.u.[ ,.c.u.[ [ 8.O.( r.N.N.t.r.r.t.N.t.N._._.t.r.t._.t.N.t.r.r.Y.Y.N.N.Y._ [ f.O.7.c.8.[ [ u.8.} |.XXc.9.7.9.7.7.7.|._._.N._.N.t.r.r.7.[ ] 7.[ 7.Y.OX8.} f.8._ 7.9.)  .8.O.( 8._.r.8.#.+.8.f.8.8.8.+.8.8.O.O.+.t.r.r.r.8.+.r._.d.[ 9.j.5.,.7.7.] _ 7.' P O.~ J E U U E U T 7.d.8.8.r.r.Z.u.[ ] ,.,.,.5.O.f.+.[ 7._ ` O.O._ / _ O.( } r.} } +.r.r.#.+.+.+.+.+.} O.r.#.o.+.#.#.#.#.#.+.O._ [ 7.` ) 7.7.` ] 9.] } XX7.,.,.3.,.[ 7._.OX|.|._.|.}.oX|.9.,.5.,.,.7.u.oX9.) u.O.[ [ 9.7.[ O.u.[ +.'.&._.N.#._.N._.N.N.N.N.N.N.t.t.t.N.r.",
"+.8.8.t.r.8.+.+.r.r.+.8.r.r.r.O.( O.O.` / ] :.[ _ 7.,./ c.8._ ,.:.` ` ,.u.8.8.7.O.7.8.8.8.9.] ` ` >.;.] u.7.T ] 7./ T ' ` / / [ / D { O..._ _ +.+.+.+.+.+.#.+.+.+.r.#.m.r.r.r.r.m.N.Y.f.7._ 7.8.] ] 5.,.] 7.9._ O.OXu.,.7.7.,.} d.|._._._._._._.Y.Q.u.[ ] ,.,.,.7.|.d.[ 7.8.[ [ 5.] ] [ 5._ _ #.#.+.r.r.r._.r.+.8.8.Y.Y.r.r._.Y.Y.f.f._.}.}.Y.r.8.) O.8.[ ) ] _ [ ( _ +.( O.#.[ ' ' ' E / 7.8.7.8.8.8.8.r.r.N.8.[ _ [ ] _ O.d.( ( 7.( ` ` ` / ` [  ./ O.#.+.#.#.#.r.#.+.#.#.r.#.r.#.+.8.O.} 8.r.8.O.+.O.7.) _ 7.[ ] 7.7.[ [ 7.7.| r._.O.] :.] :.] 9.|.R._._._.|.|.|.XXQ.7.[ 7.7.5.f.#XO.,.c.7.] 7.7.] ] 7.8.[ d.|.Y._.f.f._.oX_.N.t.Y.t.N.N.N.N.t._._._._.|.|._._.8.O.f.9.[ 7.z.7.] 7.z.,.u.$XO.,.5.,.,.,.c.oX|.|.}.Y.Q.|._._.Y.7.] ,.,.,.O.oXb.[ u.u.[ [ 7.7._ 5.7. .) r.Y.r.t.+.+.Y.t.N._.N._.t.t.t.t.Y.Y.t.t.r.r._._.t.f._ } u.O.7.7.,.[ [ 7.u.O._.oXu.7.9.7.7.7.|._._._._.r.f.r.8.r.r.+._ [ 7.O._.oX+.O.d.8.[ 5.[ ] [ 7.7.) 7.Y.r.+.+.8.r.8.8.+.O.O.O.8.O.O.O.7.8.8.8.8.r.+.Y.d.[ 7.j.5.,.,.:.] [ ,.' / [ T J T T T Y I ] u.8.r.8.8.r.t.Y.8.,.[ ,.,.[ O.Y.O.[ 7.[ / ` _ / ( _ [ ( [ +.O.O.O.+.r.+.#.#.#.#.+.#.#.#.#.#.#.#.+.#.#.#.#.+._ [ 5.` ` [ ,.' ] 7.] } |.O.[ 3.[ [ 7.Q.|.'.oX|.f.Q.|.|.|.Q.9.,.,.7.3.8.|.7.` 9.O.) ' ] [ O.O.u.[ +._.&.N.N.N.N._._.N._.t.N.N.t.#.t.f.Y.f.",
"8.r.r.8.8.r.O.O.+.r.r.r.8.r.r.O.( +.O.) ` ' ' [ ] 7.3.` Q.r.[ :.:.` ] 8.r.#.8.7.] ] 7.8.O.r.8.] ` ;.1.:.8.9.T ,.7./ ^ / / ( / ] ( D { +...} O.O.O.+.+.+.#.#.#.r.r.#.#.m.m.N.m.r.t.R.N.7.,.] 8.9.] ] :.[ [ 7.8.[ +.#Xu.,.7.7.[ 8.|._._._.t.O.8.Y.Y.Y.Q.8.] ,.,.,.7.}.d.[ 7.u.[ ] ] ] ] ] ,._ _ t.r.r.r.r.r.r.r.8.8.r.Y.Y.f.f.f.f.f.Y.Y.f.f.f.d.Y.t.[ +.g.[ ) ] ) [ ) ( +.( O.t.[ / ' ` E ,.u.8.8.8._ ` 3.Z.r.N.N.8._ ] ] _ O.8.( [ 7._ ` ] ` / ( [ O./ O.O.+.t.+.+.+.8.#.#.#.#.8.r.#.8.+.7.} +.8.+.O.+.O.8._ ] 9.[ ] ] ,.[ [ 9.8.O.t._.O.] ,.] ] 7.}._._._.f.8._.oX|.|.OXf.[ ,.7.7.f.#XO.O.c.7.] ,.,.,.] 9.u.} d.oX_.|._.f.v._.Y.t._._.N.N._._._.N._._._.|.|._._.oX9.O.}.u.,.,.5.,.[ 7.z.,.u.$XO.,.,.:.,.f.OX|.|.oX}.7.7.Q.|.Y._.Y.7.[ ,.,.7.oX}. .u.u.5.] ,.[ [ [ 7.[ ( t.N._._.+.#.r._.N._.N.N.N._.N.N.N.t.N.Y.t.f.Y.Y.t.f.[ O.u.O.3.,.[ O.[ 7.u.[ _.XX9.7.u.7.7.}._._._._.+.] 7.Y.r.m.r.r.O.[ ,.7._._.+.O.r.7.[ 5.[ [ [ O.7.) 7.8.+.O.7.Y.r.r.8.O.O.7.O.+.8.8.+.7.O.O.O.u.r.8.}.r.[ 7.j.5.,.:.] ] [ 3.' / [ / I T T U I U 7.f.+.r.+.[ 8.d.r.Y.8.[ [ ,.[ +.|.O._ 7.[ / ` ` ` ( _ [ ( } r.r.8.O.+.+.8.t.t.#.#.#.N.#.#.t.#.#.#.t.t.#.#.#.+._ [ [ ` ) ] ] ] ] 7.] O.|.O.] 3.] O._._._.oX|.8.3.8.|.|.^.oXQ.j.,.,.,.7.oXu._ u. .` ] ] [ 5.O.u.[ O.t.&.#.t.N.N.N._._.N.N.t.r.#.r.Y.f.f.Q.",
"8.r.+.+.+.r.8.+.O.8.r.r.8.8.Z.O.( O.O.` / ] ' ] ] 7.3./ Q.t.[ :.' [ r.#.+.t.7.[ E E ] 7.+.O.+.+.] E ` :.7.9./ ] 3./ T / / / / [ / Z _ O.O.+.r.#.+.+.#.+.+.#.#.#.r.r.#.r.r.r.r.Z.Y.f.+.O.,.] 9.9.' :.:.' ,.7.u.[ +.#Xu.,.,.3.8._._._.OXY.O.] [ 8.}.Y.Y.Y.7.] :.,.7.Y.f.[ O.9.) ] ,.] ` ] 5.` _ f.t.N.r.+.#.8.r.r.8.r.t.Y.}.Y.f.r.f.f.f.f.f.f.f.f.f.[ O.t._ ) ) ` _ ( ( O.( O.8.( ' ` T [ 8.7.8.8.[ / ^ ' 7.Y.N.m.t.+._ ) [ O.7.( [ 7.( ` ] ` ) / [ 7./ O.+.O.8.8.+.[ O.+.8.+.#.#.#.+.8.O.O.O.+.O.+.O.O.8.8._ [ 7.] ) ,.] [ [ 7.u.| t._.[ ] :.' O.Y.Y._.OXY.7.] 7.Q.|.OXOXOXd.} ,.7.f.XXO.[ c.7.] ,.:.:.] 7.u.} d.oX_.}.}.Y.t.t.t._._._._.N._._._._.Y._.|._.f.8.Y._.7. .}.u.[ ,.,.,.5.7.u.[ 7.$XO.:.:.[ d._._._.OXQ.7.,.,.7.}._._._.Y.7.[ ,.7.|.}. .u.u.[ [ ,.[ [ [ 7. .) r.#.N.N.N.t.#._.N.N._._.Y.Y.t.N.t.t.t.N.r.r.r.r.N.d.[ O.f.[ [ ,.[ [ [ 7.8.[ _.|.7.7.j.7.Y.|.R.]._.7.] ] [ 8.N.m.#.N.r.7.] O.t._.+.O.f.7.] 5.[ ] ] O.7.` 7.7.O.O.+.8.r.r.8.8.8.O.8.8.8.8.8.8.7.O.O.O.8.d.Q.7.[ 9.j.,.:.:.] ` ] 7./ P O.T I T I T ` ^ [ 8.8.} ) ` } 8.r.r.N.7._ ] 3.+.Y.O._ O.[ ( / ` ` R _ O.( } r.+.r.+.+.#.r.8.8.#.#.+.#.#.#.+.#.#.#.r.t.Y.N.r.7._ _ [ ` ` ] ' ] ] 7.,.O.|.} _ [ } d._.R._.Y.7.,.,.,.8.|.|._.|.c.5.:.] 8.|.u._ u.[ ` ' [ ] [ 7.u.[ } t.#.#.v.t.t.N._.N.N.N.r.#.#.r.r.t.Y.d.",
"8.+.+.+.8.8.r.r.8.r.8.r.r.r.d.7.) O.O.` / ] ' ] [ 9.7.` Q.f.[ ,.3.r.t.#.#.8.[ ` ` ` T [ #.+.O.#.O.` / ] 9.9./ [ 3./ T ` / R / [ / Z _ +.+.N.r.t.#.#.#.#.+.r.#.#.r.r.r.#.r.m.Z.Y.Y.8.[ 7.5.) 7.j.] :.:.:.[ 7.u.[ 7.#Xu.,.,.7._._._._._.7.,.7.,.[ u.|.Y.N.Y.3.:.:.7._.f.[ O.7.] ] ,.` ] ] 5.` _ Y.r.#.+.+.7.8.t.r.t.t.Y.f._.Y.Y.Y.Y.d.Y.Y.Y.f.}.Y._.O.+.g.) ) ) _ ) ( ( +.( O.8./ ` E ] u.+.+.8.3./ / ] ` ] 8.Y.r.t.r.O.` ) +.8.( [ O.( ` ] ` ) / [ 7.R O.#.O.r.N.r.} [ O.8.+.#.r.8.8.7.O.O.8.+.[ 7.8.7.+.8._ [ 7.) ] ,.:.] [ 7.8.[ t._.[ ,.' [ f._.N._._.7.[ ,.[ 7.|.oX_.'.oX8.} 3.f.XXO.O.c.7.] ,.,.:.] 7.8.} d.OX_.f.f.t.#.t._.'._._._._._._._._.Y.Y.t.r.t.f.Y.|.8.O.}.9.[ 5.,.5.7.7.z.,.9.$XO.] 3.8._._._._.Q.7.>.7.7.,.u.|._._._.f.} [ 7.oX}. .u.u.[ ,.5.[ [ [ 7.[ ) t._.t.N.N.N.t._.N.N._._.r.#.#.t.t.N.r.t.Y.t.8.r.r.Q.[ O.d.[ [ [ 5.[ [ 7.u.[ _.|.7.7.3.d.oX'._._.8.,.,.5.[ ,.8.N.m.N.N.r.} [ r.oX8.} f.7.[ ,.[ ] ) 5.[ ` 7.8.+.8.8.r.t.#.r.N.r.u.8.8.8.8.t.Y.d.u.+.O.+.8.f.8.[ 9.9.:.:.:.] ` _ 7./ / 8.` I L I [ 7./ ` 7.+.' / ] _ O.f.r.m.Y.O._ O.+._.O._ O._ ( / ) ) R )  .( O.N.+.r.+.O.#.r.+.8.r.#.+.+.#.#.+.r.#.+.+.#.t.t.t.8._ ] ,.] ` ] :.] [ 7.,.7.OX7._ [ r._.R._.Y.7.] ,.7.,.,.c._.Y.R.|.d.[ _ 9.XX8.[ u.[ ` ] ,.] [ 7.u.[ O.t.#.N._.t.#.#.%.%.N.N.#.#.N.r.r.t.Y.d.",
"+.8.+.+.8.8.8.r.r.r.8.r.8.r.r.O.( +.O.` ` ] ] ] ] 9.7.` c.u._ 7.r.t.#.#.8.[ ` ;.` ` ` / [ 8.+.O.+.O.` / 7.9.R [ [ / T / / / / ] T Z _ #.+.+.#.#.r.#.+.+.+.+.+.r.#.r.#.r.r.r.r.d.f.8.O.7.,.] 7.7.] :.:.] ] 7.u.[ 7.#X8.[ 9._._.N._.Y.7.,.7.,.,.,.O.8.}.Y.N.Z.3.` O._.f.[ [ 7.] ] [ ] ` ] ,.` _ d.#.+.+.8.8.8.8.r.t._.Y.f.f.Y.}.|.|.Y.N.d.Y.}.f._.}.O.O.9.) ) _ ` _ ( _ 7.( O.8./ T ] u.8.+.r.7.` ` ` ' ' ] _ 8.m.#.+.r.} ( +.8.( [ } ( / ' ) ` / [ [ R  .+.#.#.t.r.8.+.O.O.+.+.+.8.#.O.O.O.8.+.O.O.8.O.O.8._ [ O.) ] ,.,.] ) 7.8.[ t._.O.] ,.f.Q._.'._.7.,.,.,.,.[ 7.|.oX_._.|.8.} f.oX7.[ u.5.' ,.,.:.] 7.8.[ r.|._.N.t.t.N._._._._._._._.N._._.f._.t.t.Y.|.|.Y.|.8.O.Q.9.[ 5.5.,.,.7.z.:.7.XX} [ r._._._._.f.3.,.7.,.7.,.,.u.oX_._.N.8._ O.oX}. .u.u.[ :.,.,.] _ 7._ ( t._.t.N.#.N.N.r.N._._.r.#.#.#.t.r.r.t.N.N.N.r.t.r.d.[ } u.[ [ ,.[ [ ] 7.d.[ Y.XX,.7.z.|.R._._.8.[ ,.,.,.,.,.[ 8.N.R.m.Y.d.7.f._.8.[ 8.7.] ,.[ ] ] [ [ ( 7.f.N.N.r.N.t.N.r.r.8.8.8.+.+.t.r.d.f.r.8.8.O.} 8.8._ 7.7.] ' :.;.` ) 7.^ D 8.' J T ` O.O.' ` ] ( / ' ' ` _ O.r.#.r.N.} _ +._.O.( O._ ( ` ` ` / ( [ ( O.r.#.+.O.+.+.+.r.+.+.+.+.r.8.#.+.#.r.r.+.O.O.+.r.7.' [ 7.' ' ,.[ ] [ j.] O.oX+.} 8.Y.R._.Y.7.] ,.,.,.,.:.,.f.R.Y.R.|.d.[ +.OX8._ 8._ ' ' :.:.] 7.u._ O.N.&.%.N.N.#.#.%.%.%.#.N.r.r.r.t.8.r.r.",
"+.r.+.8.+.+.+.8.r.d.d.8.7.+.r.O.( +.7._ ] ] ,.] [ u.7.` c.+.O.f.Y.N.N.r. .' ' ] ' ` ' / / 7.8.O.O.+.} ( O.7.R _ [ / / ` ` ` ` :.U P 7.8.+.+.+.+.+.#.+.#.+.+.+.r.r.#.r.N.r.r.t.r.r.t.8.7.,._ 7.5.] ,.,.:.,.7.f.[ 7.OX8.7._._._._.Y.O.] ,.7.,.,.5.,.[ 7.Y.N.N.Y.} O._.f.[ O.7._ ] ,.] ` ] 5.] _ r.#.#.t.t.N.r.r.r._.Y.Y.t.t.f.|.|.}.Y.t.r.Y.Y.Y._.}.[ [ 8.) ) [ _ _ ( [ 7.( O.r.( [ d.r.+.r.7.' ` :.' ' ] [ ' [ 8.t.+.#.+.O.+.8.( [ } ( ` ' ` ` / [ [ P O.8.+.#.#.r.r.r.+.8.O.O.O.8.8.+.} 7.+.8.+.O.8.O.+.r.[ ( O._ ] :.,.,.[ 9.8.[ t._.+.O.d._._._._.7.' ,.,.] 3.} ] u.|._.R.OXR.+.t.oX7. .c.7.] ,.,.,.[ 7.7.[ 8._._._._._.'.'._._._._._.t.t._.N._._._._.Y.|._._.OX8. .v.9.[ 5.7.,.,.9.z.:.7.oXO.#._._._._.f.5.>.3.7.7.3.7.,.5.u.Y._._._.+.+.oX}. .8.u.[ ,.,.,.[ [ 9.[ ( f._.N.N.t.N.t.#.t._._.#.#.t.N.N.#.r.r.N.r.t.N.N.#.r._ } u.[ [ 5.[ [ [ 8.d.[ _.}.7.u.|._._.'.8.[ ,.7.[ :.,.7.[ } 8.Y.N._._._._.}.8.O.8.7.] ,.] ] ` [ 7._ 8.d.r.N.t.r.t.N.r.t.8.+.O.O.8.Y.d.r.r.r.8.7.7.+.8.7.[ 7.7.] ' ,.;.` ( 9./ P } ( P ] 7.} } [ ] ` T ` ] ` ` ` ( +.t.+.N.r.O.#._.O.( O._ ( _ ` ` ( ( O.( O.t.+.+.+.+.r.#.#.#.+.+.#.m.r.+.+.#.N.Y.N.#.+.+.#.8.[ O.7.] ] ,.,.[  .9.[ O.Y.+.+.Y.m.R.N.O.] :.[ [ ,.] ,.] [ Y.Y.R._._.r.r.|.8.[ 8.O._ :.:.,.] O.8._ 8._.&.%._._.%.%._.%.%.N.N.#.#.r.t.#.r.+.",
"+.+.+.8.+.+.+.8.8.r.d.r.+.8.r.O.( +.8.[ ` :.,._ O.z.7._ f.+.r.Y.Y._.Y.O.] ] ;.' ] ' / / ` ` [ 9.+.+.+.} O.O.R ) O.` T ` ` / ` ,.P ~ u.+.O.#.O.+.+.+.+.+.+.+.+.+.+.r.r.r.r.N.r.r.r.r.r.d.[ ( 7.5.] :.,.] ] u.c.[ +.|.Y._._.N._.N.} ' :.' [ u.7.[ ,.5.] 7.R.Y.Y.Y.8.Y.f.[ [ 7.] ' :.] ` [ 7.` _ f.#.#.N.Y.r.8.#.#.t.t.t.r.f.f._.|.Y.r.t.r.f.f.Y._.Y.[ _ 8.[ ` _ _ ` ( O.7.( +.8.} 8.r.r.r.7.' ` ' ' [ 7.[ ' ] ' _ 8.#.+.+.+.O.+./ ( [ ) / ` ` E / [ [ P O.7.O.+.+.t.#.8.#.8.} [ O.+.+.+.O.+.+.+.+.+.O.O.O.r._ ( O._ ` ,.,.] [ z.8.[ r._.#.8._._.'._.O.] ] ,.] ,.,.[ [ [ 8.|._._._._._.}.7.3.z.j.[ ,.5.[ [ u.7._ 8.Y.N._._._._._._._._._._.N.t.Y._._._._._.t.f.f._._.7. .c.9.[ ,.5.,.[ 8.z.] 7._.#.N._._._.d.,.>.,.>.3.c.z.,.,.7.,.7._._._._.N._.}.[ 8.u.,.:.,.] ] 7.u.] [ Y.N.N.N.N.N.#.#.#._._.#.#.N.t.N.t.r.+.+.+.r.r._.#.f._ [ 8.[ [ ,.[ ] [ d.d.( f.Y.f._._._.'.8.[ ,.,.[ [ 9.3.,.3.,.[ 8._._._.OX|.}.8.| 8.9.[ [ [ ] ` 7.7.) 8.r.8.#.#.r.r.r.t.t.#.+.[ [ 8.f.r.r.8.+.+.8.8.8.8.8.' 7.9.` ' :.;./ _ z.~ P / P / 3._ [ } O.` P P / } 7.' ~ / ( } t.r.r.+.+.m.} ( O.[ ( ` ] ` / [ O.( } #.+.+.+.+.+.#.+.+.+.+.r.N.+.O.+.r.#.r.N.N.r.+.+.u.[ } g.5.] [ ,.] 7.u.[ } r.#.r.N.N.Y.O.] ] :.' [ 8.} ' :.] } Y.R.Y.R.Y.m._.7._ d.7._ :.:.] _ 8.9.( u._.#.N._.#.%.%.%.%._.N.#.+.+.8.8.r.+.7.",
"O.8.8.+.O.O.8.r.8.8.d.d.r.r.Y.8.( 8.r.O.` ,.:._ 8.XX7.[ Q._.N._.Y._.7.] ] ,.' ' 7.7.' / ] ' / O.+.8.+.O.+.O.P [ 7.` T ` ' R [ z.` ` O.+.+.+.+.r.+.+.+.+.+.+.O.O.+.r.r.r.r.r.r.N.Y.r.t._.} ` 7.7.] :.,.] [ c.Q.[ O.|.}.'._._._.O.' :.:.' 8._.Y.7.,.7.,.,.8.Q._._.Y.Y.d.[ O.u.[ ` ,.] ` 7.z.` [ Y.#.t.t.8.8.+.+.8.t.r.t.f.Y.t.Y._.N.r.Y.r.Y.d.Y.Y.f.[ _ _.O./ ) ] ` _ 8.7.( 8.r.#.N.r.d.7.' ` :.] ' 8.Y.7.' ] ] ' [ 8.r.+.+.+.+./ ) } [ R / ` P / 7.[ P [ 8.+.+.#.t.+.#.t.#.[ [ 8.8.O.8.+.+.+.+.+.8.O.+.O.f.} _ O.[ ` :.:.] 7.}.u.[ t._.t._._.'._.O._ ] [ ' } Z.7.[ [ ,.] u.|._.'.]._.}.7.7.c.p.[ ] ,.[ O.v.7.] u.Y.t._._.Y.Y.Y._.N.N._._._.Y.Y._._._._._.N.t.Y._._.9. .}.c.[ ,.5.,.[ Q.c.[ 7.oX_._._._.d.,.;.,.,.,.z.oX|.7.[ 7.3.[ 8._._.].[._.f.[ u.Q.7.] ,.[ [ Q.Q.] [ _.#._._.N._.#.#.#.N.N.#.#.N.r.t.N.t.+.+.#.t.r.#._.Y.[ O.r.O._ [ ,.] O.Y.f.( f.|._._._.'.t.O.[ 5.[ [ 8.Y.8.[ ,.3.,. .8.|.|.|._.}.u.O.8.f.[ ] [ ] ) u.7.` 7.t.#.+.+.r.r.t.r.r.r.8.O.O.O.8.N.r.+.+.8.f.r.+.N.r._ 7.u.[ / :.' / [ c./ P ` P _ 7.[ O.7.' L L T _ 8.t.} ~ / / ( +.t.N.r.+.r.O._ 7.+.( ` [ ) / O.7.( _ +.+.r.#.8.+.#.+.+.+.#.#.r.+.} O.r.#.m.#.t.r.#.#.u.[ O._.9.] ,.,.[ 8.c.[ O.Y.N.t.N.Y.7.] ] ] ] ] 8._.r.[ ;.,.` O.R.R.Y.Y.R._.7._ Y.u.[ ] ,.] [ f.u.) u._._.N.N.#.%.%.&.%.N.#.+.+.r.+.r.r.+.7.",
"+.8.+.O.O.8.8.8.8.r.8.r.d.8.Y.d.( +.Y.u.] ] ] 7.f.Q.7.[ oX_.N.'._.7.] :.:.] ] 7.f.f.} ` ' ] ` ` O.7.+.+.#.O.T _ 7.O./ / ` ` 7.z.` / } O.O.+.+.8.#.+.O.O.+.+.O.O.+.8.8.r.8.8.8.r.r.N.#.f.7.( 8.Q. .] :.] 7.}.Q.[ 7.oX_._.OX_.7.] ,.' ] 7._.N.Y.f.[ ,.7.,.,.9.|._.r.Y.d.[ O.d.7.) ` ` [ d.8.` ] f.#.r.8.+.+.+.8.8.t.8.Y.t.t.Y._.f.t.t.r.Y.Y.Y.t.t.v.[ _ }.u.) E ` _ O.u.[ ( r.N.%.R.N.8.' ] ] ] ] 8.Z.m.Z.7./ :.:.' _ 8.#.+.+.+./ ( 7.7./ E E R ] 7.[ P [ 7.@.8.8.8.r.r.#.r.+.+.8.+.+.+.+.8.O.O.O.+.8.+.O.d.} ( 7.7.` :.:.[ u.}.u._ f._.v._.oXoX7.] ] ] ' } m._.B.O._ 3.,.[ 8.|.OXR._.|.3.,.b.XX5.] >.5.8._.7.' u._.t.t.Y._.Y._.t.t._._._._._.Y.Y._._._._._._.f.N._.7.[ }.XX7.[ 5.,.8.|.c.[ 8.$X%._.'.d.] ;.>.;.:.u.|.|.|.|.7.] 7.[  .u.oX'._.'.f.[ u.Q.u.[ :.] 7.|.Q.[ [ Y.#.t._.t.N.t.t.#.#.#.%.#.t.N.N.#.r.#.8.8.t.r.#.#.f.[ } Y.u._ ] ] [ 8.Y.f.( v.}.Y.'.'.f.[ 5.,.[ [ 8.Y.N.Y.8.[ ,.,.,.[ u.|.|.Y.}.u.} u.}.7.] ] ] 7.c.7./ 7.r.+.+.+.+.8.r.r.#.+.8.+.[ O.r.t.t.#.8.8.8.r.r.r.u._ } d.u.` ' / _ +.u./ T / / ] ,.} 7.] I I L ` +.+.+.8._ P T / ` 7.Y.t.r.r.} ( 8.8.[ ( ' ) ( +.O.( [ +.O.#.t.r.+.O.+.+.+.+.#.+.O.O.+.+.+.N.#.8.#.#.r.8.} O._.u. .] ] O.f.p.[ 7.oXt.N._.7.] ] :.' ] 8.N.%.%.r.:.' ,._ O.Y.R.N.N._.8._ Y.Y.7.] ,.] u.Y.8.` d.Y.N.N.N.#.N.%.%.%.%.#.N.r.#.+.8.r.O.O.",
"+.+.+.O.+.r.8.8.8.8.+.8.8.8.Y.u.( 7.Y._.O.` [ Y.Y.Q.3.[ oX_._._.9.[ :.,.:.:.u.Y.r.r.r.O./ ] ] / / [ 8.+.+.7./ _ 8.r.[ E T 7.t.7.T T O.O.O.8.+.8.r.+...O.+.+.} } +.8.+.8.8.8.8.+.8.r.+.r.7.( r.OXr.,.` ] f.oXd.[ 7.|._.'.|.8.] :.,.] 7._._.N.N._.8.,.7.5.5.,.z.Q.N.Y.f.[ O.Y.f. .' ] u.Y.7.` _ _.r.#.8.#.r.r.t.r.f.Y.t.f.f._._.t.r.N.N.f.f.f.r.t._.[ _ f.f.7.E ` O.r.8.[ ( f._.%._.d.] ;.:.] ] 7.Y.m.r.N.N.} ' ;.] `  .#.#.+.8.( ( 7.8.[ E U ` 9.O.[ P 5.7.O.O.g.r.t.r.+.r.#.r.O.O.+.+.+.+.+.O.O.7.8.+.+.u._ ( 8.f.[ ' ' 7._._.8.[ _.'._.oXXX7.] ] [ _ } m.R.%.R.R.} [ 7.[ [ p.oXR._.oX7.,.c.XXu.[ ] c._._.O.] d.|.N.N.Y._._.N.N.N.Y._._._._._._._._._._._.}.Y._.|.7.[ Q.$Xf.[ ] 7.|.#Xc.[ u.[._._.t.,.:.:.:.:.8.|._._._._.f.[ 7.7.[  .f.oX_.].}.[ u.|.}.9.[ 5.XX|.Q.[ [ _._.%.N.t.t.N._.#.#.%._.#.#._._.r.t.#.t.r.+.#.N.#.f._ } _.R.8.[ _ O._._.r.( _.oX_.oXf.[ [ 5.[ [ 8.Y.N.m.Y.Y.7.,.7.7.,.7.u.Q._.}.u.[ 8.|.Y.7.] ] f.f.[ / 7.+.+.r.+.+.O.8.r.#.+.r.+.} O.r.+.8.#.+.+.8.r.8.r.d._ [ Y.Y.O.' ` O.N.8.T E ` ` [ 3.7.] G n Y ` O.#.+.+.#.+.( T / R [ 8.N.N.Y.O.( 8.Y.d.[ / ` O.r.O.( } +.O.+.+.#.#.+.+.#.+.+.#.+.+.+.+.#.#.#.#.#.#.#.r.8.} O.v.v.7.] [ p.Y.u.[ 7.|.N._.8.] ] [ ,.] 8.N.%.%.%.N.8.:.,.,.' 7.Q.N.N.`.8.[ f._.Y.} ] 7.|.Y.7.` d.r.#.r.N.N._.%.N.%.%.%._.N.m.#.r.r.O.O.",
"+.+.O.O.8.+.8.8.+.+.+.8.8.8.f.8./ 8.Y.Y.r.} 8.Y.t.Q.,.] f._._.9.] >.:.] ,.d.Y.N.#.#.#.+._ ` ' ` R / 7.+.#.7./ _ +.#.7._ ` 7.r.} L T } O.O.+.#.r.+.O...O.+.O.( [ 8.+.+.8.+.+.+.+.+.O.#.f.} ( 8._.Y.u.7.8.Y.N.d._ O.Q.|.oX8.[ [ ] ] 7._._.N.N.N.N.Y.8.,.,.5.,.5.8.Y.f.u.[ O.f._.f.7.8.Y.Y.7./ _ Y.t.#.#.t.r.#.#.Y.Y.f.f.f.Y.Y.t.t.f.r.t.r.r.8.f.t.Y.[ _ f.t.d.[ O.r.#.r.[ ( 8.R._.r.[ ] :.:.] 7.Z.r.r.m.r.r.t.7.' :.] ` [ r.#.8.( / 7.+.8.] T 3.7.O.] P 5.O._ O.8.8.8.t.#.+.+.8.O.[ 8.#.+.+.O.+.O.O.7.+.+.8.` ` 8.Y.8.[ 7.Y.N._.8._ f.oX'.oX7.[ [ [ ) } N.R.%.N.%.%.r.} ] ,.[ [ f.|.Y.Q.7.[ c.|.}.9.7.}._._.O._ z.^.Y._.Y.Y.Y._.N.N.f.Y._.Y._._._.f.Y.Y._._.Q.|._.Y.O._ Q.OX|.8.7.c.|.oXz.[ 8.OX'.Y.[ :.>.;.:.u.oXY.Y._._.N._.f.[ ,.5.[ [ f.]._.Q.} u.|._.|.8.u.oX_.c.' [ t.#._.N.#.N.t.N.N.N.#.N.#.#.N._._.t.#.#.+.8.t.#.#.8.( } N.N._.8.O.t.N._.r.( u.oXoXf.[ [ [ ] ] u.Y.m.r.Y.r.m.Y.7.[ 7.7.,.,.u.Q.Q.u.[ 8._._.f.7.7.Y.t.[ R 7.8.+.#.#.8.O.O.O.+.+.+.+.O.[ } O.O.O.+.r.d.8.O.8.u.` [ d.Y.8.8.8.8.t.7.J I ] ` ' 7.] n G J U O.+.O.+.+.O.O.O./ P / / _ d.r.d.O.' O.r.Z.8._ O.8.#.O./ } r.+.O.O.O.+.#.+.+.+.+.#.+.O.+.#.#.+.#.#.N.#.+.+.8.[ O.f.v.f.7.7._.t.9._ O.Y._.d.] ] :.] :.7.N.#.#.%.%.#.Y.9.] :.,.' 7.N.N._.7.) f.Y.R.d.7.f.Y._.7./ 8.r.#.#.N.N._._.R.%.%.N.N.N.N.#.#.r.r.O.",
"+.+.O.+.+.8.8.+.+.+.8.r.8.#.r.8./ 8.N.N.Y.r.Y.Y.r.}.[ ] t._.8.[ ] ,.] ,.8._.N.r.N.t.#.+.+.[ / ` ` R ) +.r.7./ [ +.+.r.+.[ +.+.[ U / } +.O.+.#.#.+.O.O.+.+.O._ } +.+.O.+.+.O.8.+.O.+.+.8.O./ +.N.r.Y.d.f.t.r.8._ [ Q.}.f.[ ,.,.] 9.Q._._.N.N.N.t._.|.7.] 5.,.,.,.f.Y.u.[ 7.f.t.Y.|.Y.Y.t.8./ _ d.r.r.r.N.t.+.8.t.Y.t._.t.Y.r.t.t.8.8.r.r.t.r._.Y.f.[ _ t.r.8.r.r.N.#.f.[ / 7.N.N.O.' ,.,.] 7.Y.m.r.r.m.r.8.t.d.3.] ] ` E  .+.8.( / O.+.r.7.[ 8.O.O.[ R 5.7.+.+.7.f.r.t.r.+.+.t.O.( 9.8.+.8.O.7.+.O.7.O.+.u.' ` 8.Y.Y.d.d._.r.|.8._ 8.'.'.8.] [ [ _ } t._.N.m.R.N.%._.N.[ [ 5.] 5.c.Y.Q.[ [ c.oX_.}.}._._._.O.[ S.|.Y._.Y.t.t._.Y._._.f._._._.Y.}._._.Y._.|.}.f.f.Y.7.[ c.|._.Y.Y.|.'._.c._ 7.oXY.O.] >.:.:.9._._._._._._.N._._.u.[ 5.,.] 7._._.Q.} u.|._.|.|.Y._._.}.) } 8.#.r.N.N._.#._.N._.N.N.#.#.#._.N.#.#.#.#._.N.r.#.8.) O.N.N._.N.#._.#._.8.( 8._.f.O.] 5.[ [ 7._.N.r.r.N.r.t.N.f.[ ,.7.5.,.j.d.}.u.[ u._.Y.oXY.Y.Y.t.[ / 7.t.+.+.t.t.O.[ [ 8.+.O.7.O.} O.O.O.O.u.Y.f.7.O.7.7._ } d.Y.r.Y.R.8.t.O.J J ] ` [ ,.L J Y P ] +.O.O.O.O.} +.+.} / / ( ` O.8.Y.O.) +.8.+.#.8.r.+.#.O.( +.r.+.#.O.O.+.#.#.#.#.#.#.#.O.O.+.#.#.r.+.O.O.O.+.p.[  .f.t.v.oXf.t.t.8._ 7._.f.,.' ] ] ' 7.t.%.#.#.%.#.#.N.Y.9.] 7.] ] +.N._.O.) f.Z._.Y.Z.}.t._.7./ 7.N.N.#.N.N.R._.%.%.N.%.N.N.N.#.#.r.Y.8.",
"+.+.+.+.+.8.+.+.+.8.8.8.8.r.r.7.( +.r.N.r.N.r.r.N.Y.[ ) f.v.[ ] >.` [ 8.t.r.t.r.r.r.+.+.#.+.' / ` ` R [ 8.7.R _ O.O.+.8.O.+.O.7.U T 7.+.+.O.O.+.O.O.O.O.+.+.O.O.O.O.O.O.O.O.O.O.+.O.O.8.[ P [ r.+.8.d.8.+.r.8.( [ }.d.7.,.,.] 7.}.}.Y.Y.N.N.t.N._._.Y.7.] >.,.] 7.}.u.] 7.c.r.r.Y.Y.r.t.u./ ] r.+.r._.t.Y.8.+.8.r.f.d.Y.r.r.8.8.f.f.t.8.r.f.r.Y.f._ ) t.r.+.r.r.r.m.r.[ / O.Y.+.) ,.,.] 7.Y.Y.r.m.m.r.8.m.+.r.r.O.` >.E / O.8./ / } +.+.3.3.O.O.7.[ / 7.8.+.+.8._.r.8.+.+.+.8.+.[ 7.+.8.8.+.8.+.+.O.7.+.u._ ( r.Y.r.Y.t.r.N._.7.` 8._.9.7.,.[ _ } Y._.N.N.N.N.N.%.%._.8.[ ] :.' 7.}.Q.[ ] c.}.Y.}.}.}.N._.7.[ z._.Y._.Y.Y.t.r.Y.Y._.|.Y._._._._.Y.Y._._.Y.Y.t.r.f.7.[ f.'.N.R._._._.].d.' 7.oX7.] ,.:.' u.}.Y.N.Y._.N.N.N._._._.9.[ ,.5.[ u.oXc.[ 9.|._._.OXY.Y._.}.' [ d.#.#.t.N.N.N.N.N._.N.#.#.#.#.#.#.N.#.#.t.N.N.t.+.8.) O._.N.r.N.r.r.N.N.+./ r.f.} [ ,.] _ +.Y.Y.r.r.r.8.r.t.r.m.8.[ ] 7.,.[ u.}.8._ 8._.f._.N._.r.f.O./ 7.8.+.#.#.r.+.O.O.+.+.8.O.8.8.7.] [ 8.f.f.u.+.O.7.8._ 7.Q.Y.Z.Y.Y.r.+.7.I n E / ] ` L U I _ 7.O.} O.} } O.O.+.+.[ / ) ) ) +.Y.O.( O.+.+.+.+.r.+.O.O.' O.r.+.+.#.+.O.O.+.#.#.#.r.+.O.O.O.#.#.+.O.O.7.+.+.7.[  .8.g._._.t.#.#.8.` O._.O.] ,.] '  .r.r.#.#.#.#.#.#.#.r.Y.7.' ,.] _ r.Y.O.( f.Y.m.N.Y.Z.Y.N.7.` u.Y.#.N.N.%.`.N.%.#.#.N.N.#.r.+.#.N.N.N.",
"+.+.O.+.O.O.+.r.+.r.8.8.r.f.d.7.) +.r.N.r.N.r.r.N.Y.[ ` f.t.] ,.] ] 8.t.#.8.8.r.r.r.+.+.+.r.7._ / ` ` [ +.8./ _ O.+.O.+.+.+.O.7.T P O.8.O.[ [ O.O.+.O.O.O.+.+.+.O.+.O.} } O.} O.+.O.O.8.' P [ 8.8.7.8.7.+.r.8.( O.}.8.5.5.,.5.Q.|._.Y.Y.N.N.N.Y._.N._.}.,.:.,.,.7.}.f.] 7.Y.r.r.d.f.f.N.c.` _ t.O.8._.Y.f.N.r.8.t.r.f.d.r.r.r.8._._.Y.8.r.t.8.f.d._ _ t.r.+.#.#.#.N.r.} ` O._.[ ] 5.` O.f.Y.t.r.r.r.r.r.m.+.+.r.r.] ' ` / O.8.( ( O.} +.} } O.O.u.[ ` 9.7.+.t.g.8.+.+.+.#.O.+.O.O.O.8.+.8.r.+.O.+.7.8.+.u.[ ( r.Y.t.Y.N.r.N.Y.8.` r.oXO.7.7._ [ Y._._.N.N.N.N.N.N.N.%._.t.' ] ] 5.b.}.[ [ }._._._.Y._._._.7.[ z._.Y.Y.Y.|._.f.f.Y.}.Y.f.f._._.f.f._.Y.Y.f.8.f.Y.Y.7.[ f.'.N.Y._._._.].d._ 8.oX7.:.,.] 9._._.N.Y.N._.N.N.N.N.N._._.7.[ 7.,.9.oX}.[ u.|._._.|.Y._.oXXX] } _.t.#.t.N._._.N._.N.%.#.#._.#.#.#.#.t._.#.N.N.#.#.t._ O._.N.r.N.#.N.N.N.8.( f.f. .[ ] _ O.N.N.t.8.8.+.#.r.f.r.r.N.8._ ,.5.[ 8.}.7._ u.Y.Y.r.r._.r._.7.` 8.t.+.+.8.8.+.t.8.+.#.8.+.8.7.[ _ 7.f._.8.8.7.7.8.c.[ 8.|.Z.Y.Y.d.r.+.u.T J T / / ` ` J ` O.O.O.O.O.O.+.+.O.O.+.+.[ ) _ ) [ 8.O._ O.+.#.#.+.r.+.O.O._ } #.O.#.t.t.#.+.O.O.+.r.r.+.+.O.+.8.7.+.8.f.d.8.8.7._ O.8.#.t.r.t.#.#.8.` +._.O._ ,.` [ r.#.#.#.#.%.#.%.#.#.#.N.f.5.] ,._ 8.Y.7.) f.N.r.N.N.d._.N.9.` f.Y.t.N.N.N._.%.#.#.#.+.#.#.#.#.#.N.N._.",
"O.+.+.+.O.O.O.r.r.#.+.r.r.8.d.7.( 7.r.r.N.r.r.t.#.f.[ ` f.g.[ ` ] 9.r.8.+.8.+.t.r.8.+.+.+.+.+.+./ T ` _ O.7.P _ +.O.O.+.O.O.+.7.T T O.+.O.O._ [ O.O.O.O.O.O.O.O.+.O.} O.} [ { } O.+.O.#.` P O.8.O.8.7.O.+.8.7.` } Y.9.,.:.5.c.Y.f.Y._.N.r.r.Y._.Y.Y.Y._.c.,.:.5.7.}.c.] 7.Q.8.r.d.d.d.Y.d.` ' Y.r.t.f.Y._.t.r.r.Y.r.t.8.f.t.r.+.t.|.t.r.r.8.t.#.8._ ( r.r.#.r.+.r.r.r.7./ 8.t.[ [ ] [ f.Y.r.Y.r.r.+.+.8.+.8.#.+.#.8.] R ) O.8.( ` 8.O.O.O._ O.O.u.7.` 7.7.#.8.8.O.O.+.O.+.O.O._ O.} +.7.8.+.+.O.+.8.9.#.d._ _ 8.N.N.Y.r.r.#.Y.8.' f.}.7.5.] [ f._._.Y.N.N.#.N.N.N.N.%.%._.8.] ' 5.p.XX[ [ Q._.Y._.Y.Y._.oX7.[ d._.t.Y.Y._.|._.f.Y._.f.8.t.Y.Y.f.t.f.Y.t.u.f.f.f.}.7.[ Y._.N.Y.Y._._._.u.] 8.|.7.:.:.7._.t.N.N.N.t.t.N.N.t.N._.N.'.}. .,.j.7.oX}.[ u.|._._.|.Y._.|.}.] [ _.N.N.t.#._._._._.N.#.#.#.r.N.#.+.t.t.#.t.N.#.#.#.r.[ O.Y.N.m.r.#.N.t.N.8.( d.d.O.] `  .t.N.r.8.r.r.+.r.8.r.r.N.r.Y.7.[ ] 5.7.Q.7._ u.f.r.r.r.r.r.f.3.` 8.r.O.[ O.8.+.#.#.#.#.#.8.7._ ` O.Y.r.r.8.8.8.f.d.u.[ 7.|.Y.d.Y.Z.8.8.7.E T U ) _ E J T O.O.} O.O.} O.+.+.+.O.O.+.+.( ) _ ( 8.O.( O.8.+.8.r.8.O.+.O._ O.+.+.t.#.#.r.8.+.O.O.r.r.+.+.8.+.8.8.8.+.d.r.+.8.7.' O.t.#.#.8.+.#.N.8.( O.Y.O.[ _ [ 8.#.#.+.#.+.%.%.#.#.#.#.#.Y.d.] ' ] O.Y.7._ d.N.N.r.N.Y.N._.8.` 8.t.N.r.r.#.#.N.N.#.+.+.#.#.#.#.#.#.N._.",
"{ O.+.r.+.+.O.8.r.8.8.r.8.8.f.7.) 8.N.#.N.r.r.t.r.f.[ _ f.u.) ` 7.v.t.r.r.#.r.r.r.r.8.+.+.O.+.#.[ ` R ) +.#.P _ 8.O.O.+.O.O.+.7.T P O.+.+.+.O.O.O.} O.O.O.+.O.O.+.O.O.+.O.[ _ } +.r.+.#._ P 7.8.O.7.O.O.8.8.7.` O.Q.7.,.5.u.}.Y.f.Y.Y.N.t.t.N.t.N.Y.Y._.|.u.:.:.7.}.c.,.9.Q.r.8.f.d.d.Y.u./ _ |._.N.f.v.N.r.Y.Y._.r.#.r.t.8.#.#.r.r.t.r.r.r.t.+.7._ _ d.r.r.r.+.t.r.f.7.( 8.t._ ` 7.f.N.N.r.Y.r.+.O.O.O.r.8.r.+.+.t.7./ ( +.8.( _ r.#.O.O.} +.O.8.O.( u.g.#.8.8.O.O.@.O.O.+.O._ O.[ [ 8.+.8.+.+.r.8.8.t.Y.[ _ r.N.N.N.r.N.#._.8.] }.}.7.[ [ f._._._.R.Y.N.r.N.N.N.N.N.N.%._.7.' [ f.oX[ [ }._.f._._.Y._.oX8.[ d._.t._.Y.Y.|.oXY.Y.f.f.f._.Y.f._.f.t.f.Y.Y.Y.f.f.}.7.[ Y._.N._.Y._._._.u.] u.oX5.] 9._._.N.N.N.N.r.#.N.N.t.N._._._.'.f.7.[ 7.oX}.[ u.#X|.|.|.Y._._.Q._ 3._.N._._.t.N.t._.#.#.#.#.#.N.N.#.#.N.t.t.t.#.#.8.#.f.[ O._._.t.t.t.t.r._.7.' d.u.[ ' [ 8.N.N.r.r.r.N.r.t.+.r.t.Y.r.N.Y.8.] ] 8.Y.8._ 8.f.+.Y.r.r.r.d.[ ` 8.+.O.} O.#.+.#.r.t.#.+.8.+.} 7.f.N.r.8.+.8.f.f.f.d.[ 7.}._.Z.Y.Y.8.8.7.T P ' ] ' L J [ +.O.} O.} } O.O.+.8.O.8.+.8.+._ ( [ t.+.( 7.Y.+.r.m.+.O.r.O.' } +.N.N.r.t.N.N.r.+.+.+.+.r.r.r.8.+.+.+.8.8.8.8.+.+._ O.8.#.#.t.+.#.t.+.( O._.[ ' } 8.N.#.#.+.+.#.%.N.%.#.#.r.r.t._.u.] ` +._.7.' u.N.N.t._.N.N._.7.` 8.r.t.#.+.#.N.#.N.r.r.#.#.+.N.r.#.#._._.",
"} +.+.#.#.#.+.+.+.#.+.r.r.8.d.7._ 7.m.r.r.r.8.r.t.d.] ) c.7./ 7.f.r.#.N.r.r.r.8.r.r.8.+.O.+.+.+.#.O.( ( O.8.R ` 8.+._ O.O.+.O.O.~ P [ #.+.+.+.+.O.} _ [ O.O.O.O.O.O.+.+.+.[ [ +.r.#.#.r._ P O.8.+.O.} 7.u.7.7.` O.Q.7.5.f.}.f.Y.N.t.r.r.t.t.r.#.8.r.Y.N.Y.}.9.] 7.oXc.,.8.Q.r.r.r.d.f.d.7./ _ |._._._.f.Y.t.Y.Y.t.8.r.r.t.r.r.8.r.8.r.+.r.Y.8.8.7.( _ f.r.r.#.#.N.r.8.} ( 8.t._ [ }._.r.r.m.r.r.t.8.+.8.r.8.r.+.+.#.r.} _ +.#.( ( 8.+.O.+.O.+.+.8.[ ( 7.8.t.t.+.@.O.O.O.O.O.O.O.#.O.O.O.8.+.+.+.#.8.t.r.t.} [ r.N.r.N.r.t.t.Y.8._ f.}.O.[ u.'._._._._.t.N.N.r.N.N.N.N.N.N.%.N.3.[ d.}.[ ,.}.Y.Y.Y.Y._.|.|.8.} d._.N.f.Y._._._.f.Y._._._.Y._._._._.f.t.Y._.f.f.f.f.7._ d._.N._.Y._._._.8.] u.}.O.7.|._.N.N.N.N.t.t.N.N.N.r.t.t._.N.'.'.Y.7.8.oX}.[ z.XX_.|.^.Y.|.Y.d.[ [ _.N.N._._.r.#.r.#.#.#.#.+.t.#.#.#.N.t.t.#.#.8.#.#.g.[ O._.N.t.t.8.Y.t.f.+.( d.d.[ _ g.Y.#.t.N.N.#.t.r.+.r.N.r.t.N.N.N.Y.O.[ +.Y.8._ 8.8.r.r.r.f.d.8.[ / O.r.#.8.+.+.#.#.#.#.r.r.8.8.t._.r.#.8.8.O.8._.8.8.Y.} O.d.Y.Y.Y.d.d.7.7.U J ) ] I G ] 8.O.O.O.} _ _ O.+.O.O.+.7.O.#.#.} ` O.Y.8._ O.r.r.r.8.8.+.8.O.' O.t.r.N.N.t.t.r.r.r.8.8.r.r.r.r.r.+.+.r.r.8.8.#.+.7._ O.+.O.#.+.#.t.#.O.( O.Y.[ [ r.r.#.#.+.O.O.#.m.#.%.#.#.#.N.#.N._.8._ +._.7._ 8.t.m.N.Y.N.N.t.7.` 7.t.#.#.r.r.N.N.N.N.t.+.#.#.#.r.N.N._.Y.",
"+.r.+.#.#.#.+.+.+.#.+.8.r.r.8.} ` 7.r.r.r.t.r.r.t.u.] ] d.8.O.r.r.#.#.r.r.t.r.r.r.r.#.+.+.#.+.#.#.r.7.[ O.8./ / 7.+.} O.O.+.[ ' ~ P [ +.O.+.+.+.+.O._ O.O.O.+.+.} } O.O.} [ O.r.r.#.#.N.[ R O.8.O.O.7.8.u.] [ ]  .}.u.7.f._.t.Y._.r.r.N.t.#.#.#.r.r.N.f.Y._.f.7.8._.Q.,.9.Q.d.d.d.f.Y.8.} ` [ _.Y.|._.Y._.r.f.r.r.r.Y.r.t.t.Y.8.8.8.#.+.8.d.8.8.8.( ( 8.N.#.#.r.N.r.O.} ( 8.N.+.Y.N.N.N.N.m.r.r.Y.r.N.8.8.N.r.+.#.+.#.+.O.O.r.( _ O.} +.8.O.O.8.8._ ` 7.+.#.#.+.8.+.O.O.+.O.O.+.#.+.+.+.r.+.8.8.g.8.t.#.r.O.O.8.t.r.Y.Y.N.t.8.O._ d._.+.8._._._._._._.N.N.N.N.N.N.N.N.N.m.r.N.t.8.r.}.[ 3.c.f._.}.Y.|.Y.f.8.O.d._.Y.Y.Y._._.t.t.Y.}.'._._._.oX|._.t.t._._.v._.Y._.7._ d.N.N.Y.Y._._._.8.] u.|.8.Y._.Y.Y.N.N.N._.N.N.t._.N.N.N._._._._.OX_.t._.}.} z.}.t.|.R.|.|.8.u.} [ _._.N.'._.t.8.+.r.t.r.#.8.8.#.#.r.t.N.#.#.t.#.8.#.g.[ O._.t.N.t.t.f.f.O.+.) r.f.+.7.t.#.8.r.r.#.r.N.8.+.+.r.t.t.N.N.r.N.N.#.+.Y.8.[ 7.O.r.m.d.Y.u.} [ ( 8._.r.t.+.+.r.t.#.#.t.t.r.t.r.r.+.+.f.8.O.8.f.t.t._.O.7.7.r.R.Y.d.Y.+.[ P J ` [ P ~ +.#.O.O.O.[ _ _ [ O.} O.7.} } O.r.+.} +.Y.8._ O.8.r.r.r.r.r.7._ _ +.N.r.f.N.t.8.8.#.r.+.8.t.N.r.t.t.r.r.Y.r.d.8.O.#.7._ } O.O.t.#.r.r.+.} ( O.N.+.+.r.#.#.#.O.O.#.%.%.+.#.#.#.#.t.#.#.N.Y.8.r.Y.7._ 7.r.r.N.r.N.t.+.7.` 7.r.#.r._.N.N.N.t.#.#.#.#.#.#.#.t.t.t.Y.",
"r.#.+.#.+.+.+.#.+.+.+.8.8.8.O.] ( 7.8.O.+.t.r.r.7.7.] ) 8.t.r.r.#.t.#.8.8.r.f.f.r.8.#.8.8.+.+.#.#.t.+.O.O.7./ / ' O.+.+.O.O./ ` / P [ O.O.+.8.+.+.O.O.O.O.O.+.+.} } [ [ _ O.r.#.#.t.#.#._ R [ [ _ 7.8.u.] / 3._ [ }.r.8.8.8.t.t.t.Y._.N.r.+.+.r.r.r.r.N.Y.Y.Y.Y.Y.Y.Q.,.7.c.7.u.Y.Y.8.[ 7._ [ _.t.f.d.f.f.Y.r.r.f.f.Y.N.N.r.t.t.t.8.+.+.7.8.8.8.O./ ' 7.O.r.r.r.r.O.O.O.( 8.N.#.r.r.Y.N.N.r.t.r.r.r.#.r.N.r.r.+.+.O.+.+.+.+.r.( _ } ( } +.+.r.} [ } ( 7.O.O.O.+.+.O.+.O.} O.#.+.+.+.O.+.+.#.t.t.f.8.#.#.8.[ O.+.O.t.N.t.Y.O.O.O._ d.Y.t._.Y._.N._.N.N._.N.t.Y.t.#.N.t.#.#.r.r.N.N.N.Q.[ ,.z.O.8.|.|.Q.O.r.r.} f._.N._.|._.f.f.Y.f.f.Y.'.'._._._.f.f.t.Y._._.Y._.}.7._ u.r.+.Y._._.p.8.u.] 7._._.Y.N.N._.N.N.N._.N.t._._.N.#.N._._._._._._._._.}.[ u.d.O.Q.|.|.u.O.Q.[ [ _.N._._._._.t.t.r.r.r.t.+.#.+.t.r.#.t.t.t.t.t.t.#.Y.[ O.f.O.+.Y.t.f.[ O.7.( 8.Y.r.r.r.#.#.#.+.r.r.r.8.O.O.8.t.r.#.t.+.r.r.N.#.Y.7.' 7.[ O.Y.N.f.[ O.} ' Y.N.r.+.+.+.8.r.r.t.r.8.r.t.8.O.+.8.f.u.O.7.u.f.f.f.[ 7.8.O.8.|.Q.d.} [ ^ J ` O._ _ _ [ O.} ( [ ( _ _ [ O.O.+.O._ } 8.8.+.+.m.8._ O.O._ 8.f.8.O.[ _ _ O.m.r.r.r.#.+.+.#.8.#.r.r.N.N.t.8.r.r.r.f.8.8.+.+.7.' [ O.( +.N.r.} _ O.( O.N.#.m.#.#.#.+.#.+.+.#.%.%.#.#.t.r.r.#.r.#.r.N.t.Y.+.( 9.7.O.Y.N.r.O.O.7.` 7.r.N.#.N.N._.%.#.#.#.#.#.#.#.#.#.+.+.t.",
"+.r.#.+.+.+.#.r.+.+.8.r.8.O.O.[ ( 7.u._ [ Y.Y.O.) 7.:.] 8.t.#.#.r.#.#.r.r.r.8.8.+.+.r.r.#.+.+.#.#.+.+.+.O.O./ ) ` ) [ +.7./ R 7.' P } +.} O.O.+.O.+.+.O.O.+.O.+.+.O.[ [ O.+.#.#.8.8.+.O.( R _ _ / O.f.7.R [ u.( [ f.t.8.8.#.#.N.N.N._.#.+.+.#.N.N.r.r.N.Y.Y._.Y.N.Y.c.[ 7.c.] 7.|.Y.[ [ d._ [ _.t.8.8.r.f._.t.r._.t.f.N.N.r.Y.N.t.8.+.8.7.8.8.+.O.( _ 8.( [ Y.N.7.( 8.7./ 8._.#.r.r.Y.N.r.r.N.r.r.#.+.r.N.r.N.+.+.+.+.+.#.+.r.( _ 7.( / 7.+.7.( _ 7.( O.O.[ [ +.8.O.+.+.} O.#.+.+.O.O.#.r.8.t.r.8.#.7.8.t.[ O.+.) 8._._.8.[ 8.7.( u.Y._._.N._.N.N.t.t.N.N.N.Y.N.r.r.#.#.N.t.t.Y._._.Q.] [ Q.O.] }.$XO.[ }.8.} Y.|._._.Y._.t._._.N.r.t.v._._._.v._._.f.t.v._._.}.}.7.[ f.8.[ f.oXf.[ 7.c.] 7.'._._.t.t._.N.N.N.N.N._._._.t.#.t._._._._._._._._.}.[ u.c._ 9.|.f.[ 8.XX_ [ |.N.N.N.N.N.N.N.#.#.r.t.#.#.#.t.#.#.#.t.#.+.8.r.t.Y.| O.Y.O.( f._.7.( u.u.) 8.Y.8.8.r.t.+.#.r.N.r.r.t.O.} r.+.r.+.+.r.N.#.#.%._.O.' 8._ ` r.Y.O._ f.O._ N.N.#.O.+.+.8.r.t.r.8.r.r.8.+.7.8._.Y.f.8.8.d.f.f.8._ 7.}.O.} Q.c.} ( 7.] P ' ` ( _ / / [ _ ( O.[ _ [ } O.O.+.O.[ O.+.+.#.#.t.O.( 7.7.' [ 8.8._ _ 7.[ } r.#.r.+.+.r.#.#.+.r.r.r.N.N.t.8.8.#.r.r.8.8.8.+.7./ [ 7./ [ t.+.( O.8./ O.N.O.r.r.r.#.#._.#.+.#.#.%.%.%.N.N.t.r.t.t._.t.t._.O._ 8.7.} O.'.8./ 7.7.` +.r.#.#.N.N.N.#.#.#.t.#.#.+.#.#.%.#.#.#.",
"O.+.+.+.+.#.+.8.+.8.8.8.7.O.7.7.` } d.3.` d.u.( [ c.] ) f.r.r.r.#.r.#.r.N.r.+.+.+.r.#.#.#.#.+.+.O.O.O.O.O.7./ _ 9.( R [ [ P _ 8.` P } +.} [ } O.+.O.+.+.+.+.O.+.+.+.+.+.O.+.+.+.+.O.O.+.( P O.7.( _ 7.) _ 9.7.' [ f.8.8.r.#.O.+.t.#.#.+.+.O.8.N.N.r.r.r.Y.Y.Y.t.m.Y.u.' 7.XX7.] d.7.( 8.u.' [ Y.8.r.r.8.f.8.r.Y.N.Y.t.#.t.N.t.r.r.+.+.8.8.r.+.O.+.( _ f.O.( 8.r._ } Y.O./ 8._.N.f.r.r.r.r.r.r.r.t.#.+.+.r.N.m.m.#.+.+.+.+.+.+./ _ 8.} ( [ O./ / 8.[ / O.7.[ [ O.+.8.8.O.} O.O.+.+.O.O.#.t.r.8.+.8.8.r.8.r.[ [ d.O.( f.f._ O.f.7.) 8._.t.Y.Y.N.r.r.#.N.r.N.N.t.t.N.r.t.N.t.N.Y._.Y.N.}.[ ] Q.c.[ 7.9.O.d.|.+.} Z.|.Y.Y.f.Y.Y.Y.Y.Y.N.t.8.t.N._._._.Y.t.t.Y.}._.f.f.7.[ _.Y.( 7.XX+.[ c.u.' 7.'.N._.r.#.N.Y._.t.N.N._._.N.#.#.N._._._._._.t.t._.}.] 9.XX7.5.u.5.[ /.Q.} [ _.N.N.t.t.N.N.N.N.t.#.r.#.#.#.#.#.N.#.#.O.O.O.+.t.t.[ | _._.| [ O._ 7.f.8.) 8.Y.+.7.7.8.r._.r.t.t.t.8.+.O.+.r.r.#.r.N.t.r.m.#.r.} / 8.7.' O.7._ O.d.} ' r.t.+.8.O.8.8.r.r.r.r.r.r.+.+.r.d.r.Y.Y.8.8._.g.+.7._ O.oXf.[ 7.[ _ O.8.` R / J ( O./ ( _ } O.} } O.} O.O.O.O.O.O.} O.r.+.+.N.} ( 7.8.O.) [ O._ O.7._ } 8.+.+.+.+.r.r.+.+.+.#.r.t.r.#.#.#.+.#.8.8.8.+.8.} / _ 8.[ _  ._ _ r.7.( } r.+.+.r.t.m.#.N.N.+.+.#.#.%.%.t.t.N.N._.Y.Y.t.t.f.[ ( d.f.+.' u.O._ d.7.( +.r.#.#.N.N.#.#.#.#.#.#.#.#.#.#.#.#.#.#.",
"O.+.+.#.+.#.+.8.8.r.7.7.O.7.8.8.` 7.c.d.] ,.[ [ u.c.] ) r.#.#.r.#.N.m.t.N.r.#.8.r.t.#.#.r.r.#.+.O.+.O.O.+.7./ [ u.+./ / T [ O.} / / } O.} [ [ O.+.+.+.#.+.+.+.+.O.} O.O.O.#.+.O.O.O.O.r.[ ( +.f.O.` ` [ d.8.O._ [ t.8.8.N.+.O.+.#.#.+.#.#.O.+.r.N.N.N.r.Y.Y.Y.r.r._.8.' ,.XX}.O.[  .+.Y.7.` [ Y.#.f.f.r.r.8.8.N.N.Y.N.r.r.#.#.r.+.+.#.+.d.r.+.+.8.' _ Y.t.[ [ [ O.r.Y.O./ 8.N.N._.r.r.r.N.r.r.r.r.+.#.+.8.r.8.+.+.+.#.+.O.+.+.( _ 8.t.O._ R ) [ d._ / 7.O.O.+.[ O.+.+._ } O.O.+.+.O.#.+.+.#.+.#.t.r.r.#.f.[ [ t._.O.+.O.+.r.t.O.` 8.Y.r.N.N.r.8.r.t.N.#.t.t._.N.N.N.N.N.t.N._.Y.t.N.|.,.,.Q.}.8.7.O.f._.Y.7.} Y._.f.f.f._._.N.N._._.Y.N._.N.Y._.N.Y._._._._._.t.f.7.[ _.$X7.O.8.7._.oX8.] 7._.N._.N.t.#.N._.N.N.N.N._.N.#._._._.N._.N.N.t.t._.}.] 7.#X}.7.7.[ f.^.d.3.} _.N.%.#.#.N.N.r.N.t.#.r.r.t.#.t.t.#.#.#.+.+.+.#.#.N.} O._.'.r.[ ) 8.Y.#.8.[ 8.t.r.8.[ O.r.r.r.t.r.r.#.r.+.+.#.#.+.N.N.r.r.N.+.+.} ( 8._.8.[ _ 7.r.r.[ ' r.#.#.r.8.r.r.r.r.Y.t.r.r.8.r.f.d.r.Y.Y.8.8.f.8.O.8.[ O.oX].8.7.[ r.N.8.T P ` K _ 8._ ( [ O.O.O.O.#.O.O.O.O.O.+.+.O.O.r.+.+.N.O.' 7.d.r.[ / _ +.r.O.' O.r.O.O.O.+.7.8.r.+.+.8.r.r.r.8.#.r.+.+.#.8.+.O.+.O./ _ 8.8.O.` ) r.r.O.` } N.+.+.#.8.#.#.r.r.+.+.#.+.#.%.#.t.Y.N._.f.r.t.N.Y.O._ f.Y.f._ ' 7._.Y.7.) 8.r.#.#.t.N.t.#.%.#.#.#.#.#.#.+.#.#.#.#.",
"+.+.+.+.#.+.+.8.8.8.O.} 7.O.8.8.` } d.u.O.7.[ 8.8.9.] ) 8.#.+.#.t.r.N.N.r.r.#.t.r.#.#.r.r.r.r.#.+.+.+.O.O.7.( _ O.7._ ` ] 7.[ [ / / O.O.[ O.O.O.O.O.+.+.+.#.8.+.O.O.} O.+.#.O.O.+.+.+.t.[ / O.8.+.O.[ 8.r.[ [ _ [ d.r.8.#.#.+.O.+.+.#.#.+.+.+.+.t.r.N.N.N.Y.r.r.t.f.9.` [ }.Y.8.O.7.f.+.7.` [ Y.r.r.f.t.r.8.8.r.t.r.Y.#.+.#.#.+.r.+.+.+.8.O.+.+.8.' _ r.8.+.} } Y.8.7.5./ 8.N.N.Y.N.r.r.r.t.r.#.+.+.#.+.+.+.+.O.O.+.+.+.+.O.#._ ) +.+.+.O.` +.O.+._ ( 7.O.O.+.} O.} } _ [ [ +.O.} +.#.+.+.+.+.8.r.t.r.t.Y.[ _ 8._.Y.8.+.N.r.8.} ( 8.Y.t.t.r.t.#.8.Y._.N.N.N._._.N.N.N._._.Y.t.t.t.t.|.,.,.c.p.8.d.d.}.8.8.7.[ f.|.t.Y.Y.Y.Y._.N.N.N.N._._.N._.N.t.N.Y.Y._.f.r.r.f.7.] f.#XY.8.8.|.oX8.9.[ 7.oX_.Y._.r.t.N.Y._.N.r.N.N.N._._.N._.N.N.t.t.t.N._.}.[ 7.Q.d.c.f.d.|.8.d.7.} _.N.#.N.#.t.t.r.r.r.r.r.+.+.N.N.#.#.+.#.r.r.#.#.#.N.[ O.t.t.r.8.8.|.+.O.u.[ 8.t.t.d.} O.+.8.t.t.+.r.#.r.+.+.O.} O.r.r.t.r.+.O.#.} ( 7.8.+.7.} f.+.+.[ / +.r.#.8.r.r.t.N.N.t.r.Y.7.} 8.d.r.f.r.r.8.f.u.r.u.u.[ } f.+.+.f.Q.Y.8.} J J / P / } [ ( [ O.O.+.+.+.O.O.O.O.O.O.O.O.O.+.+.#.t.O._ 7.+.8.7._ O.+.+.} ' 7.8.O.O.} } O.7.8.+.r.d.O.O.8.#.r.#.+.+.+.+.O.O.O.O./ _ +.O.8.} 7.f.+.O.` O.R.+.+.r.+.#.#.#.+.+.+.#.+.+.#.#.r.N.N.#.r.r.r.t._.O._ u.7.Y.8.7.c.t.+.9.) +.t.#.#.#.#.#.#.#.#.#.%.N.#.#.#.#.#.#.#.",
"8.8._ ( +.+.+.r.+.+.O.7.7.O.8.u.` 3.8.O.O.f.8.O._ 7.[ ) 8.#.+.#.r.r.N.r.r.r.r.N.r.+.+.#.r.r.r.r.r.+.8.+.O.7.` _ [ _ _ 7.8._ / [ / ` O.O.} O.O.+.O.O.O.+.O.t.7._ } r.+.O.+.+.+.#.#.O.#.t.[ ( [ O.O.8.r.r.O./ [ [ _ 8.8.+.+.t.#.+.#.+.N.#.+.O.+.#.#.+.t.N.N.r.8.r.t.d.9.` [ u.O.O.Y._.8.[ 7._ [ _.r.8.r.t.r.8.r.r.t.m.Y.O.} r.#.+.r.+.+.#.O.} O.+.8._ _ 7.} O.d.r.t.O.[  ./ 9._.N.Y.Y.r.+.+.8.#.+.+.O.8.8.O.+.+.+.#.+.+.#.+.O.r._ _ 7.( [ 8.+.+.( O._ / 8.8.O.O.+.} [ +.O.[ O.+.[ ` } 8.N.#.+.t.#.8.t.8.t.f.[ [ 8.8.r._._.r.O.7.} ` 7.Y.t.#.r.N.r.t.t.Y.N._._._._.N.t._._._.t.t.r.Y._.oX[ [ c.7.7.|.oX8.[ 8.7.[ Y.OXY._._.N.Y.N.N.N.N.Y.8.O.#.N.t.N.Y.t._.f.t.f.Y.Q.9.[ u.}.r.f.|._.9.O.8.[ 7.OX_.Y.Y._._.r.t.t.t.N._.t.N.N.N._._.N.#.#.N.Y._._.Q.,.7.8.[ 7.oX|.u.[ z.7.} _.m.%.N.t.t.r.N.#.r.t.O.` _ 8.N.#.#.+.#.N.N.#.#.t.t.[ O.t.O.O.N.Y.f.[ [ u.[ 8._.r.Y.8.O.8.t.r.t.r.t.r.8.+.t.+.+.+.8.r._.#.+.O.+.[ ( 7.} _ 8.r.d.} [ } ( +.r.+.8.r.r.r.Y.m.r.Y.f.] / 3.u.r.r.r.8.t._.Y._._.u.[ 7.9.[ O.oXY.7. .] J L ` T T ` ( ( [ +.O.+.8.} ( [ O.O.O.O.O.+.+.+.#.#.N.O._ 7.} _ +.r.8._ [ O._ 7.d.8.8.} } 7.8.8.r.N.8.] ] O.N.N.+.#.#.+.+.O.O.+.+.( [ +.( O.f.d.7._ 7._ O.Y.+.8.+.r.#.+.#.#.+.O.#.+.O.#.t.r.t.r.#.#.N.r.t._.7.[ 7.O.+.8._.}.O.[ 9._ 8.t.#.#.+.#.r.#.%.#.%.N.8.} +.#.#.#.%.%.",
"8.} ` ( } 8.8.8.8.8.O.7.7.8.r.u.` } 7._ [ d.f.[ ` 7.] ) d.#.+.#.#.#.r.t.r.r.r.r.r.#.O.+.r.t.8.+.+.r.8.+.#.8./ _ [ R ( 8.8./ / 3.` / O.+.O.O.O.+.+.+.O.+.8.7.] ` ] O.#.+.+.#.o.+.o.+.O.8.[ /  .[ ( O.t.8.) / [ _ _ 7.+.+.r.8.#.#.r.r.#.+.O.O.8.8.#.#.#.r.N.r.t.d.f.Y.7./ [ 7.) ) d._.[ ) 7.) _ Y.+.r.r.r.r.r.8.#.N.Y.7.` _ 7.r.#.#.#.#.+.O.O.+.+.8._ _ 7._ _ Y.Y.O._ 7. ./ 8.N.r.N.N.t.8.8.O.+.+.+.+.8.+.r.+.+.r.#.m.r.+.#.+.r._ [ 7.( / +.t.[ R O.[ / 8.8.#.8.O.+.O.O.O.+.+.] ` ' ' } t.r.#.t.N.t.8.t.#.f.[ [ u.O.[ Y.oXO._ 7.7.` 7.t.t.t.r.N.r.t.t.t._.v.t._.t.t.t.f._._.t.f.f.Y._.}.[ [ c.O.[ c.XX,.' u.9.[ f.oX_._._._.N.N.N.N._.f.,.` O.t.N.t.N.N.t.f.f.f.f.}.8.[ u.f.O.8.OXf.[ 7.8._ 7.oX_._.Y._._.t.t.r.t.N.Y.t._.t._._.N.r.#.r.Y.N.t._.Q.[ 7.9.) [ c.}.[ ,.Q.7.} Y.N.%.N.N.N.t.r.r.N.O.' ' ` _ #.#.#.+.#.#.#.N.N.#.r._ O.f.[ ) 8.f.O.)  .8._ 8.t.t.t.r.8.r.t.r.t.N.t.r.r.+.t.N._.r.t.r.t.8.+.} +.[ ( +._ / 7.f.7.` [ 7.( O.+.#.8.+.8.8.r.r.Y.Y.3.' ` ` 3.8.r.8.r.f.Y.Y.Y._.d._ 7.7.[ O.u.7.[ _ ,.J J ` K R _ / ( [ O.+.+.O.[ ( [ O.+.O.O.O.+.+.r.r.#.N.O._ 7.[ ( [ d.7.( } 7.' 7.Z.r.8.8.7.8.8.8.Y.d.[ ] ,.[ +.N.#.t.t.+.O.+.+.+.+.) _ +.( ) f.8.) ] 7.) [ Y.+.+.+.#.#.#.#.#.+.O.+.+.O.+.r.t.t.r.r.8.r.r.r._.7.] 9.[ [ O.f.f.[ [ 8.) 7.t.#.+.#.#.#.#.#.#._.8.[ ' [ #.%.+.%.%.",
"} ] ] ` ' 7.8.8.8.+.O.8.8.r.t.8./ 3.9.] ' 7.9.] ' 7.] _ d.r.+.+.+.r.8.r.N.Y.r.8.t.#.+.8.+.r.+.O.O.8.r.+.#.u./ _  ./ R ] [ / ` 7.` / O.+.O.+.+.#.r.#.#.#.8.] ' ] [ [ +.#.+.#.o.O.O.O.O.+.( ( 7.[ / _ O. ./ ` [ ` ( O.O.#.r.#.r.r.8.#.#.+.O.r.t.r.N.t.8.#.r.Y.Y.d.f.Y.7./ [ u.) ` ,.7.) [ 9.) _ f.r.r.r.8.N.N.r.t.Y.8.] ] ` ' 8.N.#.+.#.+.O.+.#.O.8._ [ 7._ ` O.7.[ _ 7.[ ` 8.r.#.N.r.Y.Y.Y.r.#.+.+.r.+.8.+.+.r.+.r.8.8.O.#.#.r._ _ 8.) / [ 7._ / 7.[ / O.+.O.+.O.#.+.+.+.8.[ ` ' [ ] [ O.t.N.r.r.8.#.t.r.Y.[ [ c.7.] 7.f.[ ] 9.7.` 7.r.t._.N.N.N.r.#.t.t.t._._.f._._.t._._.f.}.}.f._.oX] ,.c.5.] 7.j.:.] c.u.[ d.|._._.N._.R.N.N._.f.3.:.,.[ 7._.t.Y._.t.f._.f.f.|.7.[ u.c.[ 7.}.u.] 7.u.] 7._.N._._.Y._.Y.t.N._.t._._.t._._._._.t.t.t.Y.Y.t.'.Q.[ 7.9.] ] 7.9.[ 7.Q.7.[ _._.N.N.N._.N.%.N.+.] ' ] ] ' O.#.#.+.#.+.#.#.#.#.r._ O.f.[ ` ,.7.] ] 7.7._ 8.N.t.r.r.Y.r.r.N.Y.r.Y.r.N.r.r.r.Y.m.Y.r.8.8.O.O.8.[ ( 7.[ E ] 7.[ / [ 7.) 8.r.r.r.8.8.+.8.r.Y.7.,.:.' / ] 7.8.8.Y.Y.f.Y.r.N.f.[ 7.7.O.[ ,.7.] ] 7.J J ` Z /  .( [ O.[ O.+.O.[ [ O.} O.+.+.O.+.8.N.N.+.r.O.' 7.O.( _ 7.] _ 7.7.` 7._.r.8.r.8.8.r.Y.d.7.] ,.7.[ [ 8.N.t.+.O.O.+.#.+.O.( _ 7.( ` 7.,.` [ 7.) [ Y.+.#.r.+.#.N.#.#.%.O.O.O.O.+.#.t.r.t.N.8.8.t.r._.O._ 9.5.5.] 7.7._ [ u._ +.r.#.#.N.#.t.N.#.%.t.[ ] :.` O.%.+.%.%.",
"] ,.] _ ` [ 7.r.+.+.8.8.8.r.Y.8./ 3.7.] ' :.:.] ] 3.[ _ d.r.r.r.+.r.r.t.f.f.t.t.#.r.#.#.+.8.+.O.+.+.8.+.+.7./ [ O.` T E T / ` ,.` ` } O.O.#.r.r.+.#.N.7.[ [ :.[ } } [ +.#.#.+.O.O.O.O.+.) ( 7. .) ` ) _ ` ` [ _ ( +.8.8.8.r.r.+.O.O.r.+.+.r.r.N.r.r.r.8.8.r.Q.Y.t.f.7./ [ 7.] ` ] ] ] [ 7.[ _ d.r.t.r.r.N.r.N._.8.[ :.:.' ` _ +.N.#.+.+.#.+.+.+.8._ [ 9.[ ` ] ) ) _ 5.[ ) 7.N.N.r.Y.N.N.N.N.r.O.+.+.r.+.+.+.8.8.8.O.+.8.+.#.t._ [ u.) ` ` ) ) ` O. ./ 7.O.( } +.+.O.+.8.} ' ' ' ] [ ,.[ 8.t.#.+.8.8.8.t.Y.[ [ z.7.] ,.5.,.] 7.7.) 7.r.t.N.N.N.N.N.N.Y.t.t.f.}._._._._._._.Y._.}._._.}.] ,.z.5.:.:.,.,.,.u.u.[ d.|.t.N._._.Y.N._.N.} ' ,.,.] [ 8._.N.N.Y._._._.Y.Y.7.] z.c.:.:.7.,.] 7.9.[ 7._._.Y._._.N.N.Y._._._._._._._._._.N._._.t.t.Y.N._.f.[ 8.9.] ] :.,.,.7.f.8.[ Y._.N._._.R.%._.8._ ] ,.] ] ] _ O.r.#.#.#.#.+.+.#.f._ O.f.[ ' ] :.:.] ,.7._ 7.Y.r.t.r.t.Y.Y.N.Y.r.Y.r.N._.r.} 8.Y.r.r.r.+.7.+.8.} ( 7._ / ' ' ] ' ] 7.] r.t.+.r.r.r.+.r.r.O.[ ,.:.` ' ' [ 8.r.r.Y.d.r.r.f.d.[ [ 9.[ [ ,.] [ ,.:.J ) 7.( ' [ _ _ O.O.O.O.O.O.O.O.O.O.#.#.+.#.8.8.8.+.t.} ` 7.7.] ] ] ` _ 7.7.` 8.Y.r.r.8.8.8.Y.Y.7.' ] ,.,.,.[ [ 8.#.O.[ O.O.O.#.O./ _ 7.` / ' ' ' [ 9.] O.f.+.r.N.m.#.+.#.#.#.+.O.{ O.#.N.r.t.t.N.t.r.t.N.Y.O.[ 9.7.,.] ] ' [ [ 9.] O.r.#.#.#.t.N.#.%.r.} ] ] ] ] _ +.N.%.%.",
"] ,.] ] _ _ [ 8.8.r.8.r.r.r.Y.8./ 7.7.] ] :.;.:.] ,.,._ d.r.8.8.+.+.r.Y.r.Y.N.N.r.r.r.r.r.8.O.+.8.8.O.O.O.+./ [ 7.` T E T / / ] ` ` [ O.O.+.#.#.#.r.9.[ 3.7.,.[ O.7.} O.#.#.+.X.O.O.O.#.[ ( 7. .` ` ` ] ) / [ _ ( 8.8.+.r.t.r.+.} +.r.#.r.r.r.8.#.8.t.t.t.8.f.Q.f.f.7./ 3.7.) ` ] ] [ ] 7.[ _ f.+.+.r.Y.N.m._.r.[ ] 7.] ] ] ` [ r.#.#.+.r.+.+.#.r._ [ 9.[ ) ] ` ] ` ,.5.) 7.N.N.Y.N.Y.t.N.t.#.+.+.+.t.r.r.+.8.8.+.+.8.+.#.+.f._ O.9.) ` ` / ) `  .7./ 8.O._ +.O.O.+.t.O.] :.,.] ] [ [ [ O.8.#.+.8.r.8.t.Y.O.7.u.5.[ :.,.,.] 7.9._ 7.Y.r.r.t.t.N._._._.t.t.t.}.}._._._._._._.f._.}._.}.] 7.z.,.:.,.:.,.:.9.u.[ 8._.t._._._._._._.O.' ,.,.,.,.] [ u.Y.N._.f.f.d.f._.7.[ c.z.:.>.>.,.,.,.j.[ 7.oX_.Y._._.t.Y._.Y._._._._.N.t.t.N.t._._.N.t.r.N._.d.[ z.z.] ] :.:.,.7.f.u.[ Y.N._._._._._.r.[ ] [ [ :.] [ ] _ +.#.#.#.#.+.#.#.t._ O.u.[ ' ' :.:.' ,.9._ 8.r.t._.Y._.Y._.t.t._.r.8._.|.8.[ +.f.r.r.r.+.t.#.Z.O._ O.) / ` ' ] ' ] 9.] 8.N.#.r.r.r.8.r.7.[ [ 7.] ' ' ' ] 7.r.N._.r.+.t.Y.u._ ,.9.[ ,.,.] ,.5.,.I [ O.O.} O.} [ O.+.O.O.O.+.O.O.O.O.O.+.+.8.O.O.O.+.Y.O._ 7.[ ] ] ' / ' 7.7._ 8.Y.#.r.+.r.m.Y.8.[ [ ,.[ ,.,.[ ] } O.O.O.O.O.O.o.} / [ [ ` E ` ` ] ] j.[ O.Y.#.+.r.r.+.+.#.#.#.N.#.O.O.t.r.N._.t.Y.t.7.+.Y.Y.7.] 9.7.,.] ] ' [ [ 9._ O.t.#.#.#.t.t.#.t.O.] ] [ ] [ ` [ r.R.R.",
",.] ] ] _ ] ] [ 8.d.r.r.r.r.N.8.` 7.7.] ] :.:.:.] 5.,._ d.r.#.8.+.+.8.r.N.r.r.t.r.8.8.f.r.+.O.8.r.8.+.O.O.7./ [ 7./ P ` ` T / :./ / } O...O.O.#.N.+.[ 7.7.7.,.[ O.O.O.O.} #.#.+.+.+.+.+.[ ` 7.[ R ` ] ] ` ` [ ( ( 8.r.r.r.r.#.+.+.+.+.r.t.r.#.+.8.r.r.t.Y.r.8.r.Y.Y.O./ } 7.` ` ] ] ] _ 7._ _ t.O.O.+.8.t.t.8.[ ] :.,.] ] ` ] _ O.+.#.#.+.+.+.#.r._ [ 7._ ] [ ] ] ` [ [ ( 8.r.r.Y.r.r.N.N.+.+.+.8.+.+.r.r.8.8.O.+.8.r.+.+.#.f._  .u.` ` ] / ` / ,.[ ( O.+.+.O.O.t.r.O._ :.] ] ] ,.[ [ O.[ O.t.N.N.r.r.r.Y.O.O.u. .] ,.,.,.:.7.7.' 8.t.r.#.#.t.N._._._._.t.t._.|.|._._._._._._._._.oX}.] ,.z.,.:.,.,.:.] 9.9.[ 7.Y.t.N.Y._.'._.7.] :.,.,.,.,.,.] [ u._._.t.7.7.d.}.9.[ c.l.:.,.,.>.,.,.j.] 7.oXY.Y.f.t.N.Y._._.Y._._.Y.t.r.t.t.t.N.N.Y.f.8.#.R.d.[ u.z.:.] :.:.,.7.c.7._ Y._._._.N.'.r.[ [ ,.[ [ ,.,.] ] ] ] O.t.#.#.8.#.#.f._ O.u.] ' :.:.:.' [ 9._ 8.t.t.|.}._.f.t.r.Y.t.r.+.8.Y.8.O.8.8.N.#.r.8.#.#.|.} ( O._ / ' ] ] ' ] 7.) +.N.N.r.+.t.t.8.[ } [ ,.:.' ' :.:.[ O.Y.t.8.8.r.N.d._ [ 7.[ ] ,.,.] [ ,.n z P O.+.O.O.O.O.O.O.O.+.O.O.+.O.O.[ } +.+.O.O.O.O.Y.7.' 7.[ ` ` ' ' ` 7.7.' O.Y.r.8.+.m.Y.8.[ ] ,.[ [ [ ] [ [ [ [ O.+.O.O.O.O.} / _ } R E ` ` ` ] 7.] [ Y.#.+.+.O.+.O.+.#.%.#.r.#.#.r.N.N.Y._._.f.8.+.t.|.O.[ 9.7.] ] :.' ] [ 9._ O.#.#.#.#.#.N.t.O.] ] ] [ ] ] ] ] [ r.Y.",
"] ] ] ' ' :.] [ [ 8.Y.Y.r.N.N.8.' 7.7.] :.,.:.:.] j.,.] 8.#.#.r.8.r.+.r.N.t.r.r.#.r.r.r.+.+.+.8.8.r.8.O.O.8.` [  ./ T ` ` T E ] ` / +.+.O.+.#.t.8.} [ 7.7.7.7.[ [ 3.O.7.[ O.+.t.#.O.#.t._ ( [ ) / ` ` ` ` _ } ( ( 8.8.r.r.#.+.r.t.+.+.r.N.#.#.8.t.Y.t.t.Y.Y.8.8.t.Y.7./ [ 7./ / ] ' ] ] 7._ ( r.O.O.+.8.r.8.[ ' :.] ] ,.] ' ] [ } O.N.#.+.+.+.%.r.[ [ 7.) [ 5.] ] ) [ [ ) 7.t.t.r.r.r.r.r.+.#.+.t.+.O.+.f.r.+.O.7.d.r.8.+.#.f.) [ 7.) ` ] ` / E ,.[ ( +.r.+.+.r._.O._ :.,.] ] :.,.,.3.} [ [ +.Y.|.N.t.r.t.O.O.u.,.:.,.:.:.:.7.7.' 7.r.8.#.#.N.N._._._._.f.Y._._.oX_.|._._.|.OX}._.oX}._ ,.j.,.:.,.,.:.:.9.9.[ 7._._.N.Y._._.7.,.,.,.,.3.,.,.,.,.,.5.u._.t.+.8.Y.}.8.[ z.9.:.,.,.>.:.5.9.[ 8.|.Y._.t.t._.Y._._._.t._._.Y.t.f.f._.t.N._.Y.r.#._.f.[ 9.u.] :.,.:.,.7.f.+.[ Y._._._._.f.O.[ ,.[ [ ,.[ ,.] [ [ ] _ 7.r.N.#.#._.Y._ O.7.] ] :.:.:.] [ 7._ 8._.t.f.r.8.r.Y.d.N.r._.+.[ 8.r.8.r.+.t.#.N.#.+.#.t.[ ( O._ / ] ' ] ] ] 7.` +.N.%.#.r.Y.8.O.,.7.[ ,.:.] ] ,.,.[ [ 7.8.t.#.#._.f.] [ 7.[ ] ,.,.] ,.,.j g ` +.+.O.O.#.+.O.+.8.O.O.O.+.+.[ _ +.+.+.8.8.O.O.t.7.' 5.] ` ' ] ] ` 7.7._ 7.R.r.8.m.Z.8.[ [ 3.[ [ [ [ ] [ ,.[ [ O.O.O.O.#.+.O.( [ O.R ` :.' ` ] 7._ [ t.+.O.O.+.#.+.8.r.#.+.r.#.t.t._.N.Y._.Y._.Y.r.t.Y.O.[ 9.7.] ] ,.] ] [ 9._ O.r.#.#.#.t.f.7.] :.[ ] ] ] ] ] :.' [ 7.",
"' ] ] ' ] ] ] [ _ } 7.c.Y.r.N.8.' 8.3.] :.:.,.:.] 9.7.[ 8.r.#.r.t.r.r.N.r.t.#.r.r.r.#.+.+.8.r.r.+.r.8.O.+.7.` [  ./ E E ` E / ] ` ( +.+.+.t.r.7.[ [ O.7.7.7.7.[ [ 7.O.3.7.O.O.+.t.#.#.t.[ ( [ ) R / ` ` / ) } ( ( 8.8.8.8.+.+.r.t.#.#.#.r.r.#.r.Y.f.Y.t.Y.Y.d.8.8.Y.7./ [ O./ / ' ] ` ] j._ ( r.8.8.r.Y.u.[ ] ] ] ] ,.] ] ' [ [ } } O.#.N.+.#.%.#.[ O.7._ ,.,.,.] ) 7. .) +.f.r.d.r.f.8.+.O.8.#.8.+.O.8.r.r.+.+.r.8.r.r.r.#.d.) [ 7.` ] ] ' / R 7.5._ d.#.+._.d.O.] [ ] [ ] ] ,.,.3.7.} 3.} } 7.f._.Y.r.t.O.O.8.5.,.,.,.,.:.7.7.' O.t.#.r.t.t.N._._._._._.Y._._.|.|.|.|.}.|.oXoX|.|.}._ ,.l.,.:.,.,.:.] z.9.[ u._.N._._.Y.7.3.3.,.,.:.,.,.,.,.,.,.:.7.d.Y.t.r.Y.oX8.} z.j.:.2.2.,.:.7.z.[ 7.|.t._.f.t.Y._.}._.t.r.Y.Y.Y.N.Y.t.t.N.N.Y.Y.r.t._.f.[ 7.8.] :.,.,.:.7.c.7.[ _._.&.]._.+.[ 7.[ [ [ ,.[ [ [ ,.] ] ] _ 7.Y.r.#.N.t._ [ 7._ ' :.:.:.` 5.7.) 8.Y.N.r.#.r.r.Y.Y.r.r.Y.8.} r.Y.#.N.#.t.#.r.r.+.#.r._ ( 7.[ ` ' ] :.` [ 9.( 8.N.r.Y.Y.u.O.7.,.[ [ ,.] ,.,.,.:.,.] _ 8.N.#.#._.f._ } 9.[ ] :.,.] ,.` j ` f.8.+.8.+.+.+.+.r.f.O.( [ +.O.[ [ O.+.+.+.+.+.O.N.O.` 7.] ` ] ] ' ] 7.7._ 8.Y.8.Y.R.8._ [ 7.3.,.,.] ] ] [ [ [ [ [ [ +.#.+.#.+.( [ O.` / ] :.' ) 7._ [ r.+.+.+.+.+.#.N.+.O.+.r.+.r.t.N.N.Y.t.N.N.Y.Y.N.d.O.] u.,.] :.:.:.) O.9.] O.t.#.#.N.Y.7.[ ,.[ [ [ [ ,.,.] :.:.] :.",
"' ' ` ] ] ] ,.,.[ [ [ 7.f.f.N.8.' i.7.[ ,.>.,.:.[ z.7.[ u._.r.r.r.r.r.N.r.#.#.r.#.r.r.#.#.r.r.8.8.8.+.+.+.7.`  .7.` / E ;.` ` 7.` ( +.#.#.t.+.[ ,.,.7.7.O.7.O. .[ 7.7.} 7.7.[ O.8.f.r.#.[ ( O._ / E ` ` / _ } ( [ r.r.+.+.#.8.+.8.t.+.+.#.8.8.t.Y.r.f.Y.f.Y.Y.r.8._.9./ [ 7.` ` ' ] ` [ 8._ ( f.Y.Y._.f.7.] ,.[ [ ] [ ] [ [ ] ] 3.} _ } m.#.#.#.r.{ O.d.[ [ ,.,.] [ u.7.( 7.r.N.Y.r.r.+.+.O.8.+.r.8.+.r.r.r.8.+.t.+.r.t.N.#.f.]  .u._ ] ] ] ` ` 9.[ _ u.r.#.7.[ ] ] [ ] [ :.] ] 7.7.7.} 3.[ [ [ 7.f.Y.N.Y.O.[ d.7.,.,.,.,.] j.9.' 7._.N._.N.t.N._._._._._._.}._.|._._._.|._.|.OXoX|.}.[ 7.c.5.,.:.,.:.,.c.u.[ r._._.'._.7.3.7.7.5.,.:.:.:.,.,.,.,.,.,.} u.}.t._.|.9.3.c.9.,.2.2.5.,.z.c.[ O._._.f.f.r.8.t._.r.8.8.f.t.f._.Y.t.t.N.R.N._.Y.N.Y.u._ 7.u.[ :.,.,.:.7.Q.7.} }._._.'.8.O.3.7.O.[ [ [ [ [ } 7.[ [ ] ' ] 8.Y.t.r.8.( _ 7.[ ' :.,.:.] 9.7.` 7.f._.t.N._.r.f.Y.r.N.r.+.8.Y.N.#.r.#.N.#.r.r.+.+._.[ _ 7. .` ' :.:.' 7.9.` +.Y.N.Y.d.O.,.,.,.[ [ ,.,.7.3.,.,.[ ] [  .d.N.%.R.d._ O.u.[ ] ] ,.] 7.E z 7._.#.#.r.7.+.8.r.r.+.[ _ [ +.O.O.O.O.+.#.O.O.+.+.N.O._ 7.[ ` ] ] ' [ 8.7._ 8.R.N.R.8.} [ 3.3.3.3.[ ] ] [ [ [ [ [ [ [ O.#.#.#.+.( } 7.) ` :.,.] _ 7._ } N.#.#.m.#.+.#.N.+._ +.t.+.r.t.r.t.t.t.t.r.Y.Y.t.Y.O.[ c.7.] :.:.,.) 7.u._ 7.t.#.N._.7.,.,. .[ ,.[ 7.,.,.[ ] ,.,.,.",
"' ' ' ] ] ] ] ,.[ [ [ [ 7.d._.8.' d.d.} ] ,.,.] 7.Q.O.[ f.t.t.t.#.#.#.r.#.#.#.r.#.#.r.r.r.8.8.r.8.+.7.O.#.8.( [ u.[ E E ` / [ 7.) ( O.t.r.O.] [ ,.[ [ 7.7.O.} O.O.} O.7.[ [ ,.[ 7.8.8.8.[ ( O.O./ R ` / / } O.( O.N.#.r.8.#.#.+.8.r.8.#.+.+.r.Y.f.N.f.f.f.t.Y.d.r.f.7.T [ u.) / ' ` ` 7.u._ ) Y.t.Y.f.7.[ [ ,.[ [ [ [ ] [ [ [ [ ,.[ ' ` O.m.#.+.t._ O.}.9.[ 5.[ [ 7.c.7.( 7.t.N.Y.N.r.+.r.+.O.+.t.+.#.r.N.8.r.8.r.r.t.r.t.#.Q.[ [ c.O.` :.' / ] 9.[ ` 7.g.+.[ ] 5.[ ] [ 7.3.] ] 7.7.7.7.5.,.,.,.,. .8.Y.Y.[ [ Y.8.[ ,.,.,.,.c.8.] u._._._._.N.t.N._._.Y._._._.}._._._._.|._.oX|.|.|.|.[ 7.b.9.,.>.,.:.7.}.u.[ r.'.oXf.7.7.7.5.,.,.,.,.,.,.,.,.,.,.3.3.,.[ 8.Y._._.7.[ c.c.,.2.6.:.7.XXc.[ 8._.N._.Y.t.t._._.Y.Y.t.f.Y.f.t.N.t.8.r.Y._._.Y.t._.8._ 8.Q.7.] ,.,.[ u.}.7.} _.]._.8.7.7.7.,.[ O.[ ,.[ 7.3.3.3.,.] ] ] [ 8.r.#.8./ _ 8.[ ` :.] ] [ d.7.( 8.t.t._.N.Y.N.Y.r.N.t.r.+.r.Y.N.r.r.#.#.N.N.+.#.#.f.O.( +.9.` ] :.] [ 8.8.( 7._.t.7.3.7.7.7.,.,.,.,.7.7.7.5.,.[ ] [ [ 7.r.N._.Y.[ 7.Y.7.) :.:.` 9.` l [ r.+.#.8.8.7.O.+.O.O.[ [ [ [ O.O.O.O.+.+.+.+.+.O.N.O._ u.8.' ` ] ] } d.8._ 8._.R.r.} [ 7.O.} 3.,.[ [ ,.[ [ [ [ ] [ [ [ +.#.#.+.( O.r.[ ` ,.,.) O.8.' O._.#.#.+.%.#.#.#.+.} +.r.#.#.r.r.8.r.r.r.r.d.t.t.Y.} [ c.u.[ ' :.'  .f.u._ 7.t.N.r.7.[ ,.,.[ [ ,.,.,.,.[ [ ,.,.,.,.",
"' ] ' ' ` ] ,.,.] ,.[ ] [ 7.Y.8.( m.OX8.] ,.:.] r.|.O.[ f.r.N.N.r.r.#.#.#.t.#.8.#.#.#.r.r.r.8.8.+.8.8.O.8.8./ | d.7.` ` ` ` +.d.` ` 8.8.O.[ ] ,.[ [ ,.7.7.O.O.} O.O.O.7.[ ,.5.,. .O.+.r.[ ( +.8.) R ` R ( 8.O.( O.Y.r.f.f.#.+.t.t.r.Y.t.+.+.r.t.Y.Y.Y.r.d.f.f.r.r.Y.7./ 3.c.,.E ] ` ) u.u.' ( Y.r.7.[ ] ] [ ,.[ ,.,.[ O.,.[ ,.3.] ] ] ' _ } +.#.t.} O.oXc. .,.[ [ Y.Y.O.( 8.N.r.Y.t.r.+.Y.8.O.+.r.#.r.r.t.8.8.8.r.r.N.8.+.t.}.7.[ }.u.` :.] / O.u.[ ` 7.8.+.7.[ 7.[ [ [ 7.3.[ [ 7.7.7.7.,.,.,.,.,.[ 7.8.Y.} [ _._.[ ,.,.] 8.#X8.[ f._._._._._.t.t.f._._.Y._.|._._._._._.Y.}.oX|.Y.|.XX[ 7.%Xc.,.,.:.] u.|.9.[ f.oXf.7.,.5.7.,.5.,.,.,.,.,.,.,.,.,.,.7.,.:.,.7.f.|.7.[ Q.}.7.,.2.:.8.#Xc.[ d.oX_._._._._.oX|.'.oX_.Y._._.t.f.t.#.8.t.t.t.t.t._.8.( 7.XXc.[ ,.,.O.|.oXO.O.|.oXu.,.7.7.5.[ [ 7.[ 7.3.3.} 3.,.,.] ,.] [ [ O.+.8.` _ t.+.` ] :.` 8.}.7.` u.8.r._.t.t._.N.r._.r.N.+.r.r.N.m.N.#.#.N.N.+.r.#.r.O.( #.Y.[ ` >.' 7.f.8.( 8.Y.+.[ ,.j.7.7.7.7.7.7.7.,.7.7.,.[ [ 5.,.[ [ +.`._.} 7._.f.] ` ] ] c.` y ] t.#.+.8.8.O.O.O._ +.+.O.[ [  .[ O.#.O.+.+.+.+.+.t.O._ d.Y.} ` ] ] O.Y.8._ 8.R.8.O.} 7.O.O.3.[ [ ,.7.} [ [ [ [ [ ,.[ [ [ O.#.+.( O.t.O.` ,.:._ f.u.( O.Y.+.#.#.r.N.+.+.+.+.O.+.+.+.#.r.8.t.8.r.r.r.f.Y.Y.7._ c.}.7.' ,.' 7._.7.) 8.t.8.7.[ ,.5.[ [ [ ,.:.,.[ ] ] ,.,.,.,.",
"] ] ' / / ' ,.,.,.,.,.,.[ 7.f.8.( r.`.Y.} :.] 7.Y._.} [ d.#.#.N.N.#.r.r.r.#.#.r.8.+.+.8.r.r.8.8.8.8.8.+.#.7./ [ 8.u.[ E E [ 8.u.` ` 8.+._ ,.,.[ [ ,.,.,.7.7.O.O. .O.7.O.} 5.5.,.[ [ +.t.O.( +.t.O./ P R [ r.O.( [ r.t.N.r.r.r.N._.Y.t.t.r.r.r.8.f.Y.Y.f.Y.f.f.8.8.d.7.^ ,.Q.9.` / ` O.r.8.' ( Y.8.] ` ] ,.] ,.,.,.[ 7.O.,.,.,.,.[ ] ,.[ ' ( O.m.r.[ O.|.|.u.[ [ 7.Y.Y.} ( 8.t.N.t.8.r.#.r.r.r.+.+.8.r.+.+.+.8.8.r.t.r.+.#.8.Q.7.[ f.d.[ ' ` [ 8.8.[ ( 7.r.O.O.O.[ [ ,.7.[ [ 7.7.7.7.7.,.,.7.7.,.7.7.[ 7.Y.} _ _._.7.,.:.7.Q.oX8.[ f._._._.Y._.N.t.t.Y._._._._._._.|._._.|.}._.Y.Y._.XX[ 5.oXoXj.] :.j.Y.}.7.] f.|.7.,.,.5.,.,.5.,.,.,.,.,.,.,.,.,.,.,.5.,.:.] u.|.9.[ c.XXu.,.:.7.Q.#Xd.] u.}.t.Y.Y._._._._._._.Y.Y._._.N.t.r.8.8.t.t.r.8.N._.8._ 8.#XXXu.] ,.Q.#X|.7.} #XY.7.7.7.7.7.7.,.,.3.[ [ 3.3.3.,.,.,.,.,.,.] ] 8.d._ ( t.8.[ ` ` 7.f.f.7.` 7.t.r.Y.N.t.t.N.t._.N.r.#.r.+.t.N.N.#.%.#.r.r.#.#.N.} _ 8._.8.] ` ,.u.Y.7.( t.Y.} 5.7.7.7.7.9.9.7.7.3.7.7.7.,.[ [ 5.,.,.] [ Y.|.[ O.Y.Y.O.` 7.7.f.T 9 E _.t.8.7.O.+.+.O.O.} +.8._ [ [ } +.8.+.O.O.+.8.8.r.O._ 8.Y.d.[ / O.r.Y.O._ 8.Y.} } 7.O.} 7.[ ] [ 3.} 3.3.[ [ [ [ [ [ ,._ [ #.8.( [ f.8._ ] [ 7.Y.8.' O.N.#.#.#.8.r.#.r.O.+.+.+.O.+.N.r.8.t.r.r.8.t.d.f.Q.O._ f.}.u.] ] 7.f.N.7.` 8.Y.O.] ,.,.,.] [ [ [ ] ,.] ,.,.,.,.5.,.",
"] ] ] ` ` ,.3.3.,.,.,.,.,.O.f.u.( 8._._.8.[ 7._.N.Y.[ [ d.t.#.r.N.r.r.N.r.r.+.r.r.+.+.8.8.8.8.r.8.7.7.O.+.7./ [ 7.r.7.` ` 8.r.O.` / 7.O.] ,.,.[ ,.,.,.,.7.7.O.7.7.O.O.O.O.5.7.7. . .+.t.O.( +.t.8.[ R _ 8.+.} ( [ +.r.r.#.r.N.N.f.r.r.t.N.r.8.t.f.d.Y.Y.d.d.f.r.+.f.8./ [ Q.Y.O./ _ d.r.8.( ) Y.8.] ' :.,.] ,.3.[ ,.7.O.O.} ,.[ [ [ [ [ [ _ [ #.Y.} O.}.|.|.8.7.Q.Y.f.O.( 8.t.N.t.+.8.r.+.r.r.+.r.8.8.+.+.+.t.8.8.8.8.+.t.8.f.5.) 9.f.8.[ ` 8.r.7.[ ` u.f.O.O.O.[ [ [ } [ [ 7.7.7.3.,.[ 7.7.7.7.7.7.[ 7.}.5._ Y._._.9.7.c._.|.7.] 8._._._._._.Y.Y.t.f._._.t.r.Y.|.}.}._.|.Y.f.f._._.}.[ [ XXXXf.5.,.f._._.7._ d.oX7.:.5.,.,.5.,.,.5.,.3.7.,.,.,.,.3.,.5.7.,.[ 8.XX9.[ f.#X|.8.7.z.oX|.u._ u.r.+.t.Y.Y._.Y._._.Y.Y._.Y._._.N.r.t.t.N.r.t.t._._.8._ 8.oXOXoX7.8.+XOX|.O.O.|.Y.7.7.7.7.5.7.7.,.,.[ ,.7.3.,.,.7.3.7.7.,.,.[ +.f._ ( t.t.8.[ _ f._.t.O.` 7.Y.r.f.t.t.r.N.Y.Y.t.+.r.t.#.t.t.t.N.N.#.#.t.r.+.r.O._ 8._._. .) u.N.t.7.( f._.O.3.7.7.3.7.7.7.7.,.3.7.7.7.,.7.7.5.5.7.,. .t.}.[ O.Y.Y.r.8.d.r.u.G 2 l [ 8.g.+.O.@.+.#.O._ +.+.[ [ [ +.+.O.[ ) O.8.8.+.t.O._ 8.r.m.O.[ 8.N.N.O._ 8.d.} } 7.7.7.3.] ] ,.3.3.,.3.3.,.[ [ [ [ [ _ [ 8.8.( _ t.N.O.] O.Y.r.7.( O.Y.t.#.+.O.O.8.8.O.+.+.8.O.O.r.t.r.8.8.r.8.f.8.t.f.O._ f.Y.Q.} ,.f.N.t.7.` 8.f. .] ,.,.] [ [ ] ] [ ] ,.,.] ,.,.,.5.",
":.,.] ,.[ ,.,.7.,.,.,.,.,.O.f.d.( +.N.N.N.8.N._.%.Y._ [ f.t.+.#.+.t.r.r.#.+.r.r.r.8.+.8.8.8.8.8.7.O.O.O.8.7.R [ +.#.8.O.O.r.+.O.R ( 7.O.[ ,.,.5.,.,.,.3.7.} 7.7.7. .[ [ 7.5.,.7.7. .O.t.O.( +.#.#.+.O.+.#.+.[ / [ 8.+.#.t.r.r.r.r.r.r.r.r.r.r.r.t.d.+.+.f.Y.r.r.8.d.8./ [ Y.N.r.} O.m.+.+.( ( Y.r.[ ] :.:.,.} } [ ,.7.7.O.[ } ,.[ [ ] ' [ ] _ 8.Y.} [ Y._.Y.}.Y.Y.t.f._ ` 8.Y.+.+.8.r.8.r.+.+.+.8.r.+.O.8.f.r.8.f.7.7.8.#.8.f.[ ) 7.r.f.8.O.r.#.8.[ ` u.r.+.7.} 7.[ [ [ 7.[ } 7.7.,.3.,.7.3.7.7.7.3.7.7.Y. ._ Y._._.|.}.|.N._.7.] 8._._._._._.Y.Y.t.t.f.f.8.8.r.f.Y.|._.f.8.d.Q.Y.Y.}.[ [ XXoX}.f.u.Y.N._.7._ d.}.7.:.,.,.5.,.,.7.3.,.3.7.5.,.,.,.,.5.,.,.,.,.u.XX9.[ d.OX_.Q.Q.|._.OXu._ d.Y.#.r.Y.Y.Y._._._._.Y.t.Y._._.N.t.8.r.t.t.Y._._._.p._ 7.oX].OX|._.].`.|.O.} oXY.7.7.7.7.7.7.3.5.,.,.7.7.7.7.,.3.7.,.,.7.,.[ +.t._ ( #.#.N.8.8._.#.#.[ ] u.r.t.N.t.t.r.t._.t.#.r.r.N.r.t.+.r.N.t.#.N.Y.t.+.8.O._ r.N.N.8.8.N.r.N.O.) f._.O.,.,.5.7.7.7.7.5.7.7.7.7.7.7.,.,.7.5.7.7.O.r.}.[ 7.d.Y.Y.Y.r.8.7.n 6 l K ( O.O.O.O.+.8.+.O._ } O._ } +.+.[ ( _ 7.8.8.+.r.O._ +.r.r.r.8.m.#.r.O.( d.f.} O.3.O.7.3.,.,.3.3.3.3.,.,.,.,.[ [ [ [ ] [ r.8.( _ #.N.t.7.8.t.#.+./ } d.#.t.8.O.+.O.O.+.O.O.8.8.O.O.t.8.+.O.r.r.d.8.#.d.7.` u.m._.r.8.Y.#.N.8.` 8.f.[ ,.,.,.,.,.[ ] ] [ ,.,.,.] ,.,.,.,.",
"] [ ] ,.,.3.,.,.[ [ ,.5.,.7.f.z.( O.N.N.%.R.N.%.%.N._ O.f.f.r.#.O.+.r.8.+.O.+.8.8.8.+.+.8.r.8.+.O.O.7.8.8.7.R [ 8.+.+.+.8.#.+.O./ _ 8.[ ] ,.,.,.,.,.,.,.,.[ } 7.7.[ [ [ 7.} [ 5.7. .O.t.+.( O.#.+.+.r.+.O.O.[ / O.t.#.8.t.r.+.+.#.t.r.8.r.t.r.r.f.t.O.O.d.Y.r.r.f.d.8./ [ Y.#.r.8.8.#.+.+.( ( Y.r.} ,.,.:.,.,.7.7.5.7.5.[ ,.3.,.,.] _ ] ,.[ [ 8.Y.O.[ _.Y.f.Y.Y.r.N.f._ ` 7.8.O.8.t.r.+.+.+.r.+.8.8.O.O.8.r.r.r.8.+.O.7.8.+.9.[ ] 8.8.+.r.+.#.+.r. .` c.8.O.7.7.7.[ } [ 7.7.O.7.7.7.7.} [ 7.7.7.3.,.7.8.Q.[ _ Y._.Y.oX_.|.N._.7.[ u.'._._._._._.t.t.f.t.u.r.Y.f.r.f.Y.f.d.8.Y.}.f.v.}.] ,.XXoX_._._.Y._._.7.] d.}. .] ,.5.,.,.7.7.7.5.7.5.5.5.5.,.,.,.,.,.,.7.c.XX9.] u.OX_.|.oX_._.OX8._ c.XXY.d.Y.Y.Y._._._._.f.t._.8. .f.f.8.8.t.t.f._._._.u._ 7.oX'._.OX`.'.]._.[ 7.OXY.7.7.7.j.7.7.3.5.,.7.7.7.7.7.,.,.,.,.,.,.,.[ #.r.' _ t.t.r._._.t.#.#.O.[ u.r.N.r.N._.r.r.N.r.+.N.r.N.N.#.+.#.+.t.r.N.r.+.O.8.[ _ 8.#.#.N.N.N.#.N.O.( N._.+.7.,.7.7.7.7.,.5.7.7.7.7.8.7.,.[ [ 5.7.7. .t.|.[ O.f.Y.Z.N.r.O.7.I n ` ` ) _ O.O.O.O.O.+.} ( [ O.O.O.O.+.+.+.+.r.+.+.+.+.O.( +.r.+.r.r.r.#.r.O.( d.Y.} 3.7.7.7.7.7.7.7.3.3.3.[ [ 3.,.[ _ [ ,._ [ r.8.( [ #.#.r.r.r.#.#.O.( O.8.#.t.r.f.f.+.7.O.O.O.8.8.8.+.8.8.O.O.8.7.d.r.+.z.7.` 7.N.N.r.N.r.#.N.8.` 8.f.7.,.7.,.5.,.[ [ [ [ 7.,.[ [ ] ,.,.,.",
"] [ ,.,.[ 3.[ [ ,.,.,.,.,.7.Y.f.( +.N.%.%.%.#.%.#.N.[ } f.t.t.#.+.+.8.t.#.+.+.8.r.#.+.8.8.#.+.+.O.8.8.8.r.7.T _ 8.+.O.+.+.#.+.} ` _ u.O.] ,.[ [ ,.3.,.,.] [ [ [ [ [ [ [ [ [ [ [ [  .+.t.O.( O.#.+.+.#.+.{ O.[ / [ 8.r.Y.t.#.+.+.#.#.r.r.r.r.t.r.t.f.8.8.d.r.t.r.r.Y.8./ [ f.#.+.r.8.+.+.8.' ( Y.r.} ,.,.5.7.7.3.7.7.7.,.,.,.3.,.,.] ] [ :.,.O.r.Y.O.[ Y.Y.N.t.r.r.r.r._ ` 9.O.+.f.r.r.#.r.8.8.+.+.+.+.O.+.O.t.8.8.+.8.8.8.+.9.,.] u.8.+.r.+.#.O.8.[ ` c.8.[  .7.7.7.} [ 7.7.7.7.7.7.7.O.7.7.7.5.,.7.[ 8.}.[ _ f._._._._.}.Y.|.7.[ f._._._._._.N.t.t.t.r.f.f.Y.Y._.f.d.d.d.Z.}._._.v.}.[ [ }.oXY._._._.N._.9.] d.}.[ ] ,.,.5.7.7.,.5.7.7.7.7.7.7.,.,.,.,.,.,.5.z.XX9._ u.oX_._.|._._._.u.' z.|.Y.Y.Y.Y._._.|.|._.Y._._.8.O.f.f.8.r.Y.t.f.f._._.7._ 8.|._._._._.].]._.} 7.#XY.7.j.7.j.7.7.5.5.7.7.7.7.7.7.,.7.,.,.,.,.,.[ #.t.' _ N.t.t._.t.t.#.t.O.[ f.N.r.N.N._.t.t.#.#.8.r.#.t.r.#.+.r.+.r.r.+.O.#.+.8.} _ +.#.#.N.r.N.#.N.7._ N._.O.,.7.7.7.7.,.7.7.7.7.7.9.8.7.7.[ ,.7.7.7.O.f.oX[ } Y.N.r.m.+.+.8.T U ,.7._ ] 7.+.+.+.} [ O.O.[ _ [ O.O.O.#.#.#.+.+.+.O.r.O.` O.r.#.+.r.#.+.r.} ' d.}.} 3.7.7.7.7.7.7.7.3.7.3.[ [ 3.,.[ [ [ [ [ [ r.d._ _ r.#.#.r.r.r.+.O.( } d.#.#.r.r.f.8.+.O.7.+.7.7.r.+.+.+.+.O.7.O.8.8.d.d.7.` 7.t.N.r.r.#.#.N.7.` 8.}.7.,.,.,.7.,.,.,.,.,.,.7.,.] [ ,.,.,.",
"' ,.3.3.3.,.] ] [ 7.,.,.,.7.Y.f.( +.N.#.%.#.#.%.#.N.[ [ f.t.r.r.#.r.#.r.t.#.+.r.r.N.r.N.r.#.+.8.8.r.r.8.r.7.R _ 8.+.O.#.+.+.+.8.` ` u.O.] ,.,.,.,.,.,.:.,.,.,.[ [ [ [ } [ [ 7.[ [  .+.f.O.( +.#.+.#.#.+.O.+.[ / [ 8.r.Y.r.O.+.t.#.+.r.t.r.r.r.r.r.r.t.N.t.r.t.r.d.f.7./ ] d.r.#.r.r.#.#.d.' ( _.r.[ [ 7.7.,.5.[ [ 7.7.3.7.,.,.5.[ ] ] ] ,.[ O.f.Y.} O.Y.Y.Y.r.r.N.r.f.[ / 7.O.r.N.+.8.r.N.#.8.8.#.+.r.8.8.+.+.+.t.8.f.8.8.8.c.,.] u.+.+.#.+.#.O.8.[ ` d.d.[ ] ,.5.[ ,.3.3.7.7.7.7.7.7.7.9.7.7.[ 7.,.[ 8.}.[ ] f._._._.Y.}._.|.7.[ c._._._._.N.t._.Y.d.t._.f.f._.|.Y.Y.r.Y.Y.Y.Y.}.Y.Q.[ ,.}._.Y._._._._.}.9.] d.}.[ ] :.,.,.,.,.,.7.7.7.7.7.7.7.5.,.,.,.,.,.,.u.XX9.] 8.oX_._._._._.'.u.' u.}.t._.Y._._.Y._._._.Y._._._.Y.Y.r.r.r.Y.Y._.d.t.8.7.[ u.|.|.OX_._.]._._.} 7.#XY.7.j.7.7.7.7.7.7.7.7.7.7.7.7.7.7.,.,.,.,.,.[ 8.f._ _ t.t.t.t.t.N.t._.O.[ f.Y.N._.N.t._.N.+.#.#.#.t.#.#.N.+.r.N.r.+.O.+.N.#.+.[ ' +.N.#.N.r.N.#.Y.7.) r._.O.,.7.7.7.3.3.7.7.7.7.8.9.9.7.7.7.9.7.7.7.O.t.oX[ 7.Q.Y.r.r.+.8.7./ I ` _ T E ) 7.[ [ } [ #.+.} [ [ } O.} +.+.+.+.+.+.+.r.O._ O.r.#.+.r.r.8.Y.} ` d.|.O.[ 7.} [ 3.3.7.7.3.,.3.3.3.[ [ } } [ [ [ } r.f._ _ r.+.#.t.8.#.#.8.( } f.#.+.r.8.r.8.+.O.7.7.+.+.r.8.O.+.8.O.+.+.7.7.f.d.7.' u.r.N.N.#.+.#.r.8.' 8.Y. .] ] ,.,.,.7.,.,.[ [ 7.3.[ 3.,.,.,.",
"] ,.[ 3.3.[ ] ,.[ ,.7.7.[ O.f.f.( 7.N.%.#.#.#.#.%.N.[ [ f.t.#.r.8.#.#.r.r.r.r.+.+.r.N.N.r.r.+.8.8.8.r.r.r.7.R ] 8.+.+.+.+.+.r.u.` ) 8.O.] ,.,.,.,.,.,.,.,.,.,.[ ,.[ [ } O.O.7.7.[ [ +._.O.( 8.#.o.r.+.O.t.r.[ / [ 8.r.+.O.+.r.r.#.+.+.#.r.8.8.r.r.r.r.t.r.t.r.8.8.8.7./ ,.d.r.r.r.+.#.N.d.) ( _.t.[ ] ,.,.,.[ [ ,.,.7.7.,.,.,.,.,.[ ] ] ,.[ O.f.Y.[ O.|.Y.N.N.t.t.N.Y.[ R [ 8.r.r.8.+.+.r.N.t.8.8.+.8.r.t.8.8.+.8.t.r.r.r.8.u.,.] u.r.+.#.O.+.#.8.[ / d.d.[ ] [ [ ] [ ,.3.7.7.7.7.7.7.7.9.7.,.,.,.,.,.+.}.,.] f._.Y._.Y._._.|.7.,.d.}._.Y.f.t.Y._._.Y.t.t.f.v.f.f._.Y.t.t.Y.Y.f.Y.Y.}.[ ,.}._.Y._._._._.}.7.] d.}.[ ] :.,.,.,.,.,.7.,.7.7.7.7.,.,.,.,.,.,.,.,.u.XX9._ u.OX_._._._.'.OX8.' 8.}.f.Y._._._._.N.#.t.Y._.Y._._.f.r.r.r.Y._._.f.8.8.7.[ u.|.|.|._._.'._.}.} 7.#X_.7.7.9.7.7.7.7.7.7.7.7.7.7.7.7.7.7.7.,.,.,.[ 8.f.' [ f.t.t.t.t.f._._.7.] d.Y._.N._.N.N.N.r.N.#.#.#.#.#.r.r.#.N.r.+.#.t.t.#.#.[ _ 8.N.N.N.#.#.%.Y.7.) #._.O.[ 7.7.7.7.3.7.7.7.7.9.9.7.7.7.7.9.9.9.7. .r.XX[ 7.Q.N.8.8.8.+.8./ G T ` P J / ] _ _ } O.O.O.+.O.[ ( _ [ } O.+.+.+.+.+.r.O._ O.r.+.8.r.r.r.f.O.( d._.} [ [ [ [ 3.3.3.3.3.3.3.3.} 3.} } } [ [ _ O.N.r._ [ r.#.#.#.#.#.#.7.` [ r.O.#.#.r.8.O.O.+.8.+.+.+.+.8.O.O.8.8.#.O.8.8.8.f.7.' u.N.N.r.#.#.#.t.8.` 7.f.O.] ,.[ ,.,.,.,.,.[ 7.3.3.,.,.,.,.,.",
"[ [ 3.3.3.[ ] ,.,.[ 7.,.3.7.f.d.( O.r.N.#.#.#.#.%.t._ [ f.t.r.r.8.#.r.r.r.t.r.+.+.+.8.r.r.r.8.8.8.8.r.8.8.7./ ] 8.#.+.7.+.r.r.7.( ( t.+.) ,.[ ] ,.] :.,.,.,.,. . .O.[ } O.O. .7.O.O.+.N.O.( r._.#.#.+.O.t.r.[ ` [ 8.+.O.O.r.t.#.t.+.O.+.r.+.#.8.8.r.t.r.Y.Y.t.8.+.8.7.` ,.d.r.r.m.+.#.N.r.( ( _.f.[ ] [ ,.[ [ ,.,.,.3.7.3.,.,.,.3.[ [ ,.,.[ [ N.Y.[ O.|._.N.N.t.r.N.Y.[ / 7.f.r.r.8.8.O.8.r.f.r.t.#.+.r.r.r.t.+.+.8.8.d.f.8.u.,.] 8.d.8.+.+.#.+.r.[ / d.r.O.,.,.[ [ ] ] 3.7.7.7.7.7.7.7.7.O.7.,.,.,.[ +.oX7.] f._.Y._.Y._.|.Q.7.[ u._.Y.r.8._.Y.f._.Y.t.t.Y._.f.f.f.f.r.d.Y.}.f.8.f.Q.[ ,.Q.oX_._._._._._.7.] d.}.[ ] :.:.,.,.,.7.7.5.7.7.7.3.,.,.,.,.,.,.,.,.u.XX9._ u.oX`._._._.'.oX7.' 8.}.f.Y.|._._.|.Y.r.r._._.Y._.Y.f.r.8.f._.Y._.f.8.8.u.[ 7.oXoX_.OX|._.OX|.[ 3.#XN.7.9.j.9.7.7.7.7.7.7.7.j.7.7.7.7.7.,.,.,.,.7.#.f._ _ _.t.r.f.t.t._._.7.] f.Y.N._._._.Y.Y.t.#.#.r.#.#.#.r.#.#.N.r.+.N.Y.r.t.t.} _ 8.N._.N.N.#.N.N.O.( t._.O.,.7.7.7.7.3.7.7.7.7.7.7.7.,.9.9.7.9.j.,. .f.XX[ 3.Q.Y.+.d.8.O.7./ n U O.] P ] [ O.| [ O.O.O.+.O._ ( O.O._ O.O.O.+.+.O.r.7.` +.r.+.8.r.r.r.Y.[ ( f._.[ [ ,.[ 3.7.3.3.3.3.7.3.3.7.7.} [ [ } [ _ O.r.t._ _ r.#.#.r.#.#.#.O.( [ +.O.#.r.8.8.O.} +.8.O.+.+.+.r.7.} 7.t.t.+.8.f.8.f.7.` 8._.N.#.N.+.#.Y.7./ O.d.O.[ 5.,.5.,.,.3.7.,.3.7.3.,.[ ,.,.,.",
"] ,.3.3.[ [ ] ] [ [ ,.,.,.7.f.u.( O.8.#.#.#.+.N.8.8.[ [ d.t.r.r.8.8.8.r.r.r.r.r.+.O.+.8.8.8.8.8.8.r.r.8.r.7./ ] 7.8.+.+.+.Y.+.} ( _ f.+._ ,.,.[ ] ] ] :.,.[ 7. .[ [ O.O.} [ [ [ 7.O.+.N.O.( 8.N.t.+.O.r.t.O.} ' [ 8.O.+.8.#.#.#.N.r.O.O.+.#.r.8.r.r.r.N.f.r.8.8.8.8.3.` ] d.r.r.r.r.r.#.+.` _ _.t.[ ] [ [ [ ,.,.[ ,.3.3.7.[ ,.,.,.,.7.,.,.] [ t.Y.[ O.f.N.N.N.r.N.t.8.] ` u.f.r.r.+.7.7.8.O.8.d.f.8.8.8.r.r.t.8.#.+.8.8.d.r.u.,.` 9.7.O.+.+.r.O.+.O./ d.r.O.[ 7.7.[ [ ] ,.} 7.} 7.[ [ [ } 7.7.7.,.[ [ 8.oX7.[ f.t.Y._.Y.|.f.d.7.] u.}.t.t.r.f.Y._.f.r.t.f.Y._.f.Y.f.8.t.r.Y.}.f.f.t.c.,.,.c._._.Y.}.oXt.f.7.] f.|.5.' :.:.,.,.7.7.,.7.7.7.7.,.,.5.3.7.5.,.,.,.u.XX9.] u._._._.N._._.f.7.] 9.oXY.Q.}._._.|.|.t.f._.Y._.Y.Y.f.r.t.f._._._.f.f.Y.c.,.7.|._.|._._.OX_.Q.} [ |.Y.7.7.j.j.7.7.7.7.7.7.7.7.7.7.7.7.3.,.,.,.,.O.r.f._ _ f.t.t.t.t._.Y.t.7.[ f.N.t._.Y._.N.Y.8.O.O.r.r.#.r.#.#.N.r.t.#.#.t.t.#.r.O.[ 8.#.N.N.r.N.N.+.O._ t._.+.,.3.7.,.7.3.7.3.7.7.7.5.7.7.7.9.9.7.7.7.7.d.XX[ [ Y.Y.8.8.O.8.7.U n R 7.[ E ` 7.7.O.O.} +.O.[ ' _ [ [ O.O.O.} +.+.+.+.r.O.` O.8.#.+.r.r.r.8.[ _ d.Y.} [ 3.7.} 3.7.7.3.3.3.3.,.3.} [ [ [ [ [ [ O.r.f._ _ #.#.#.#.r.#.} } ( _ 8.+.#.r.8.8.O.} 7.8.8.8.8.r.d.8.} 8.d.8.t.t.8.t.f.3._ 9.r.N.r.r.#.t.8.7.` O.f.O.[ 5.,.3.3.,.,.3.,.7.7.7.[ ,.,.,.,.",
"] ,.] ,.,.,.] ,.] ] ] 7.,. .f.u.( O.9._ 8.#.#.t.[ 7.,.[ f.Y.r.r.r.8.8.t.r.r.r.r.8.+.8.8.8.8.8.8.8.r.8.d.f.8./ [ 7.} +.r.r.+.( O.` _ r.+.[ [ ,.[ ] :.:.:.] [ [ [ [ } O.} [ [ [  .[ [ O.N.} _ 7.O.+.r.+.r.O._ O._ [ 8.#.r.r.+.#.r.r.r.r.#.+.#.r.r.r.r.r.N.t.8.8.r.t.8.3.' ] 8.8.r.r.r.8.[ O._ [ |.f. .] ,.[ [ ,.,.,.,.7.,.,.,.,.,.7.3.7.5.[ [ O.d.f._ O.7.O.Y.r.r.N.O.O.[ ` u.r.r.8.7.8.d.8.8.8.7.8.r.8.+.t.r.8.r.r.8.f.8.r.r.u.[ ` 9._ [ r.+.8.[ } O.` u.t.O.[ 7.O.O.7.[ ,.3.7.[ [ [ 7.[ 7.7.7.7.,.,.7.8.oX7.[ Y.+.8._._.}.O.u.9.] u.}.Y.Y.f.f._.}.f._.Y._._._.Q.Y.r.8.f.f.Y._.f._.f.d.,.,.u.8._._.oXf. .p.9.] c.XX5.] :.:.:.,.7.7.,.,.,.,.,.7.7.7.7.5.5.7.,.,.z.XX7.[ f.8.+._._._.t.7.u.[ 8.oX_.Y._._._._.oXf.N.Y.Y._.Y.f.t.t.t.t.Y._.v.t._.}.c.,.u.d.r.OX_._.}.7.z.3.[ |.Y.7.7.j.j.7.7.7.7.7.9.7.7.7.7.7.7.3.7.7.3.,.O.t.f.] [ O.+.Y.t.t._.7.O.7.[ d._.N.N.t.t.t.N.r.O.#.#.#.r.r.#.r._.t.t.#.#.t.N.#.t.O._ f.O.+._.#._.#.O.9.[ t._.8.[ 7.7.,.7.7.7.7.7.7.7.,.7.7.7.j.7.5.j.7. .d.XX[ [ u.r.r.8.O.8.' J J ` O.7.E U 7.O.O.+.O.O._ ( / _ O.} +.+.O.{ O.O.+.#.r.[ ` _ [ +.#.+.8.O.O.7.[ r.R.O.[ 3.} 7.7.7.7.3.7.,.,.3.[ [ [ [ [ [ [ [ O.t.f._ [ +.O.#.#.#.O.( } ' _ Y.r.+.8.#.#.O.O.O.8.d.8.8.d.8.} [ 7.8.8.#.r.8.f.8.[ ` 7.O.Y.#.t.r.8.O.7.` 7.f.O.[ ,.7.,.3.7.,.,.,.7.5.,.,.,.:.,.,.",
":.] ` ] [ :.:.,.[ ,.,.,.,.O.f.u./ O.8.( [ t._.O.( u.[ [ f.t.t.t.r.r.r.N.N.N.r.r.r.r.8.8.8.8.8.8.r.8.d.r.Y.u./ [ 7.( _ 8.8.( _ 7.` ( r.+._ ] ] [ ] :.:.:.] ] ] [ [ 7.,.] [ [ [ [ O.[ O.t.} ' 7.O.) 7.t.+.( [ 7.( [ 8.r.t.t.r.r.r.r.N.N.t.+.O.8.t.r.r.f.t.r.#.r.f.f.d.7./ ,.7.[ O.Y.d.[ _ 8.' [ |.Y.7.,.,.,.,.,.,.,.,.7.,.,.,.,.,.7.7.,.,.3.[  .f.f.( O.u.[ +._.t. ._ u.[ ( 8.r.+.+.8.t.8.f.f.8.O.+.r.r.8.r.r.#.+.r.r.Y.Y.r.8.u.,.` 9.[ ( 8.t.O.( O.7./ u.r.O.[  .O.O.7.O.7.7.O.[ [ [ ,.7.7.7.7.,.7.7.O.8.oX7.[ }.+.[ f.oX9. .Q.8.[ 9.}.}.}.Y._.}.}.}.|.}._._.}.Q.f.8.r.f.f.f.Y.Y.f.f.c.,.,.z.7.+._.oX7._ c.9.] f.XX .] :.:.,.5.5.7.7.,.,.,.,.7.7.7.7.7.h.7.,.,.z.XX8.[ }.8.( r.[._.+.8.c.] z.#X_.|._._.|._._._.N.t._.Y.f.t.Y.N.t.t._.f.f.f.Y._.c.[ 8.c.O.Y.$XoX7.} c.[ [ |.Y.7.7.h.9.9.7.7.j.9.9.7.7.3.7.7.7.7.7.7.7.3.O.t.f._ [ 5.[ +._._.p.[ 8.u._ u._._.t.t.t.t.N.r.r.t.#.+.#.+.t.t.N._.Y.r.t.r.r.t.f.O._ f.O._ N.N.t.[ 8.u.[ N.'.8.O.7.7.7.7.7.7.7.7.7.7.,.5.3.j.7.7.5.7.7. .t.XX[ 3.7.[ 8.r.8.] z Y U / +.7.E U ' } O.+.+.[ ( _ [ _ _ +.+.O.} O.O.O.+.+.#._ / [ _ ( +.8.[ _ +.8.} r._.O.[ } } 7.7.7.7.7.7.[ [ [ [ [ 3.3.} [ [ [ O.t.d._ } +._ } Y.8.( [ 7./ [ Y.r.#.+.O.#.+.+.} +.7.8.8.8.O.[ 7.d.8.8.+.r.r.8.8.] ` 7.O.O.r._.O._ O.7.` O.Y.O.[ [ [ ,.,.7.,.,.,.,.[ ,.,.,.,.3.,.",
"] ] 3.[ ` ] :.:.,.,.,.,.,.7.f.8./ O.r.+.( 7.f.( O.f._ [ f.r.t.t.r.t.Y.t.N.N.r.r.t.Y.8.8.8.8.8.8.8.d.d.r.Y.d./ [ d._ ( 7.[ _ O.O./ ( r.+._ [ ] ,.,.] ] :.' ` [ } ] ` ' ] [ 7.7.[  .O.+.f.} ( 7.8./ ) 8.[ ( O.7./ [ r.8.8.f.t.r.r.N.N.t.8.O.O.+.r.r.f.t.r.8.r.Y.d.f._.7.` [ d._ ( u.7.( O.d.( _ _.t.7.,.,.7.,.,.,.7.,.,.7.7.,.,.,.,.7.,.,.7.,.} Y.f.( O.}.O._ f.7.) +.}.[ ( 8.+.#.r.r.r.r.Y.Y.r.8.8.8.Y.8.8.t.+.+.8.f.r.Y.8.8.d.[ / u.u./ O.8.( ( u.O.~ 8.8.O.[ [ +.O.O.O.7.3.[ O.7.[ [ 7.[ 7. .,.7.7.O.r.OX7.[ Y.f._ 7.u.[ 8.}.9.[ u.Q.}.}._.oX|.}.f.f.}.}.}.}.Q.f.d.Y.f.t.t._.}.f.f.b.:.,.}.8._ 7.u.} 7.}.j.] f.|.O.] :.>.,.,.,.5.5.,.3.9.7.,.7.7.7.j.h.,.,.7.c.&X8.[ f.}.O.O.oX8.O._.p.] u.#X_.oX_.|.oX_.Y.Y.Y.t.Y.t.N.f.Y.Y.Y.f.f.t.v.Y.N._.d.[ u.%X7.O.XXf.O.d.}.[ } oXY.7.7.7.9.9.7.7.j.j.7.z.c.7.,.3.7.7.7.7.7.7.O.t.N.' } f.O._ u.8.O.} |.r._ u.f._.r.N._.r.t.r.N.8.8.O.+.+.r.t.N.N.Y.N.N.r.t.t.N.O.` f.f._ 8.f.7.[ _.8.[ N.].+.O.3.7.7.7.5.7.7.7.8.7.,.,.7.7.7.7.7.5.7.O.f.XX_ 3.8.7.' 7.u.U k :.T / 8.O.T T / O.O.O.+.} _ +.+._ [ +.O.} } O.O.O.O.O.#._ / 7.O.( [ } ( } r.+.[ r._.O.[ O.7.7.7.7.7.3.[ 7.7.} [ } 7.[ 7.O.[ [ O.r.8.( [ d._ ( 7.[ / +.8./ } Y.#.r.O.+.8.+.8.O.+.O.8.7.+.+.8.8.f.8.8.8.8.8.#.d.[ _ c.7.[ } 7._ ( 8.u./ O.Y.O.[ [ ,.7.,.,.3.3.] 7.7.[ ] 3.,.,.,.",
"] 7.Y.d.[ ' :.,.,.,.,.,.:.7.c.8./ O.8.r.O.O.[ O.d.8.[ [ f.N.r.r.t.Y.Y.N.r.r.r.r.Y.Y.t.r.8.r.8.8.8.d.d.Y.t.u.` O.d.8.O.` / 7.8.O./ ( r.O.) ] :.:.] :.] ' ` _ 7.u.[ T / ,.,.[  . .O.O.+.Y.[ / O.8.} _ [ [ O.7.O./ [ r.8.8.8.8.r.r.t.t.#.+.+.r.+.+.r.N.r.8.r.d._.Y.Y.f.7./ [ c.8._ [ [ O.8.7.( ( _.d.[ ] ,.,.,.7.,.,.] O.Y.d.} ,.,.,.,.5.,.,.,.} Y.f.(  .f.8.[ 5.[ O.f.d.[ ) 8.8.8.r.r.t.N.N.r.t.r.t.r.r.r.r.r.8.+.+.8.8.+.r.8.d.[ ` 8.f. .) ` } +.r.7./ 8.t.O.[ [ O.O.O.7.7.[ O.8.r.O.[ [ [ [ 5.7.7.7.7.t.OX7.[ f._.8.O.[ u.Y.d.9.,.9.c.Y._.|.|.|.}.f.f.}.}.}.}.c._.f.f.f.f.t.Y.|.}.f.c.:.[ }.f.O.5.,.9.d.}.9.] f.|.7.] >.,.,.,.7.,.,.,.u.|.f.7.,.7.7.7.h.7.,.3.c.#X8.[ u.}.f.O.7.O.r.}.7.[ 7.oX_._.|.|._._.Y.t._._.N.t.N.f.f.Y.Y.t.8.r._._.Y._.d.[ u.XXXX7.7.} d.Q.f.7.O.oXY.7.7.9.9.9.9.9.j.7.d.XXXXu.3.,.7.7.7.7.7.,.O.t.Y._ } _.f.+.O.[ O.d.f.d._ 7.f.t.N._._.N.N.#.t.8.+.O.r.r.r.#.N.N.N.Y._.Y.Y.t.t.[ ` f.Y.8.7.O.7.r.t.7.[ N.'.8.O.7.7.7.7.7.7.7.7._.Y.O.,.,.7.7.7.5.5.3.O.d.|.( [ d.f.' ] [ / T ,.T ( +.7./ / ] } O.} [ } } } O.+.O._ [ O.O.O.O.O.O.O.+._ / O.+.O.( ( O.O.r.+._ r._.O.[ 7.7.7.O.7.7.[ O.Y.Y.7.[ [ 7.[ [ [ [ [ O.r.8./ [ d.O._ _ ( } r.O./ _ r.+.+.+.+.8.+.8.r.8.7.7.7.7.8.d.8.8.8.8.8.8.8.t.f.[ ] f.d.7./ [ O.8.r.9.` O.d.O.[ ,.,.,.,.3.3.[ O.Y.Y.7.[ ,.,.3.3.",
"7.d.N.Y.8.] ' ,.:.,.,.,.] [ d.8./ 7.O.#.r.O.} Y.8.7.,.[ f.Y.r.f.t.Y.t.N.r.8.8.t.r.Y.Y.r.8.8.8.r.r.u.Q.t.r.8.` O.u.8.u.[ _ 8.7.[ ` _ 8.O.` ] ,.] ] ,.:.` ] 8.8.8.8.] / ] ,.[ [ 7.7.} +.f.[ ( 7.7.#.7.[  .+.O.[ / [ d.8.+.O.+.8.r.r.8.+.+.r.Y.r.#.r.t.r.r.r.r.Y.Y.N.8.3./ [ u.d.8.O.7.Y.+.7.` ( Y.r.[ ] ,.,.,.7.,.] } r._._.r.,.:.3.,.7.,.,.,.[ c.d.( ,.8.8.8. .O.f.r.7.[ ) 8.t.+.8.8.f.r.r.8.r.t.Y.r.r.r.t.8.f.+.O.O.7.8.r.+.8.[ ` 7.8.f.[ ` u.r.O.7./ 8.t.O.[ [ O.} 7.7.,.[ 8.#.#.r.[ ] 5.[ 5.7.5.5.7.f.oXO.[ u.t.Y.f.8.|.t.7.z.,.7.b.f.f._._.|.|.Y.Y.Y.}.}.}.}._.f.f.f._.f.d.Q.Y.f.Q.,.,.c.d.r.9.7.}.t.Y.9.] f.oX7.] ,.,.,.5.5.,.,.u.|._._.d.7.7.7.7.7.h.7.3.c.#X7.[ u.8._.u.[ 8.}.8.7.[ 7.}.Y._.|._.oX_._._._._._.f.f.Y._.f._.f.r.t._._._._.f.[ u.}.}.}.7.7.$Xd.8.u.O.oX_.7.7.j.j.7.j.9.7.8.XX|.|.|.8.,.7.7.7.7.7.,.O.f.Y._ O.f.Y.f.8.7.Y.8.8.u._ 7.f.r._.N.N.N.N.#.r.8.O.7.Y.m.r.r.t.t._.N.Y.Y.N.+.7.[ _ d.+.Y.f.O._.Y.+.u.[ N.'.8.O.7.9.7.9.7.5.7.d._._.t.7.[ ,.,.,.5.7.,.[ d.Q.( [ u.d.7.` ` 7./ ' / ( +.8.[ ] [ [ O.O._ O.} [ O.O.[ _ [ +.+.O.+.+.+.+.+.[ ` [ O.8.[ _ 8.O.+.+._ r._.O.} 7.7.7.7.3.[ O.t.N.N.r.7.[ ,.3.[ [  .[ [ r.8./ [ +.+.+.O.} #.+.O./ ` r.#.O.8.8.8.O.+.8.r.8.O.O.8.O.7.8.8.8.f.8.8.8.8.u.3.] 7.u.8.[ 7.r.t.+.9.` O.f.O.[ 7.[ [ ,.3.] 7.Y.R.R.Y.7.[ ,.3.,.",
"d.d.8.#.m.7.] ] :.,.:.:.:.[ f.8.( 7.O.O.8.r.N.Y.O.8.7._ f.f.N.Y.d.r.r.t.r.r.8.d.t.Y.Y.t.r.r.8.r.r.f.f.8.r.8.` 7.u.[ +.f.f.8._ [ _ _ 8.O.) ] ] ,.,.:.' ] 7.8.8.+.r.7._ ) ] [ ,.,.,.[ O.u.[ ` 7.+.O.8.7.7.O.[ [ / [ d.8.8.+.O.8.r.r.#.+.r.N.t.N.t.#.r.m.r.r.r.Y.N.N.r.,./ ,.7.} 8.d.d.7.[ 7.` ( _.8.,.] :.,.,.,.] 7.r.Y.N._._.u.,.,.,.7.3.,.:.,.Q.d.` 7.8.O.r.t.r.t.O.[ [ ( 8.r.8.8.+.7.7.8.r.Y.t.Y.f.f.r.r.r.r.8.+.O.8.8.r.#.d.[ ` 7.[ O.u.8.f.O.O.7./ 8.t.O.[ [ 7.} 7.[ ,.u.r.+.#.N.9.,.,.7.7.,.7.5.7.g.|.O.,.p.+.+._.OX_.+.7.z.3.7.f.Y.t.Y._._.|.|.}.Q.}.}.XX}.f.f.f.f.}.f.f.u.d.f.}.,.5.c.O.8.|.oX}.+.f.z.[ f.oX7.,.,.,.5.5.,.,.z.|.|.N._._.u.7.7.7.j.7.7.7.f.#X8.[ c.7.+.}.Y.|.t.+.8.[ 7.XX_.|._._.oX_._._._._._.f.f.f.Y.Y._.f.f._._.f._._.f.[ z.c.7.}.XXoXoX7.d.8.O.OX_.7.7.7.j.9.j.7.u.XX|.|._._.Q.9.3.3.7.7.7.7.7.Y._.[ O.f.+.+._.'.}.O.O.u.[ 7.d.8.N.N.N.t.t.t.Y.8.+.8.f.N.N.r.t.t.Y.N.f.r.r.+.8.3._ f.O.O._._._.+.+.u.[ _._.8.7.7.9.9.7.,.7.d._.N.%._.f.7.[ ,.,.,.,.,.[ d.c.( [ 7.d.8.` :.] J ] / ( 8.8.+.8.O.O.O.} O.O.O.O.O.O.O.} O.O.O.+.+.+.+.+.+.[ ` O.[ [ #.8.O.[ +.O.( r._.O.} 7.7.7.} [ O.t.Y.#.#.r.8.7.[ [ [ [ [ [ O.r.8./ [ +._ O.t.8.O.[ O./ _ 8.+.#.8.8.8.+.O.O.8.+.7.O.+.O.7.7.8.8.8.8.8.7.9.u.3.[ 7.[ 8.t.Y.8.[ [ 9.' 7._.O.[ ,.[ } ,.:.7.Y.R.N.%.R.m.O.[ 3.3.",
"u.u.8.#.#.Y.7.] ] ,.:.:.] O.Q.8.( 7.7.( _ r.r.O.( 8.O._ f.N.m.Y.m.r.r.r.8.r.8.8.Y.Y.Y.f.r.f.d.d.f.d.8.8.r.8.` 7.u._ _ d.Y.[ / O._ ( 8.O.) ' ' :.:.' ] 9.d.8.8.8.+.8.7.' ` [ ,.[ [ [ O.d.,.` 9.7.( 7.t.8.[ ) [ / [ u.8.d.8.8.8.8.r.r.r.r.r.r.Y.r.#.#.N.r.8.t.Y.N.r.t.7./ 7.7./ [ Y.d.` ) 8.` ( _.8.,.,.,.,.:.] O.Y.N.Y.N.N.N._.u.,.,.,.3.,.:.O.Y.d.( 7.7.( [ N.r.+.( _ O.( 7.r.r.8.O.O.+.f.Y.N.r.Y.Y.Y.r.d.8.8.8.8.8.t.8.8.r.r.[ ` 9._ ` 8.d.8._ [ 7.( 8.t.+.O.[ 3.3.] ] z.Y.r.8.#.+.Y.7.] ,.7.7.7.7.7.8.oX7.,.c.7.] 8.oXu.[ 7.S.7.9.d.f.t.f.|.}.}.XX|.|.}.}.|.}.Q.Y.}.Y.f.f.f.8.f.t.Q.,.7.c._ [ _.|.8._ f.c.[ f.#X7.,.,.5.7.,.,.u.oX|._._._.N.|.u.7.7.9.7.7.7.Y.#X7.[ c.7._ d.OXY.O.O.d.[ 7.oX_._.oX|._.Y.N._.R._._._._.f.Y._.f.8.f._._.t._._.u.[ c.z.] 9.#X|.u.[ c.8.O.OX_.8.7.7.j.j.7.9.XXoX|._._.Y._.|.7.3.7.7.7.3.7._._.[ 7.f.[ [ _.oX8.[ } u.[ 7.Y.#.#.N.N.r.t.t.Y.r.8.r.t.r.Y.r.N.N.r.f.r.8.t.t.}.7._ p.[ [ Y._.d.[ 7.u.[ _._.8.7.7.9.7.5.O.f._._.N.%.%._.f.O.] ,.,.,.,.[ d.c.' [ [ 7.O._ 9.P k :./ ( f.#.+.+.r.r.O.+.+.} O.O.{ O.O.+.+.O.O.+.8.+.O.O.8.] ` 7.( ( +.8._ ( O.O.( 8._.+.} 3.7.7.[ 7.Y.N.N.N.N.m.Y.u.[ _ [ [ [ [ O.r.+.( [ +.( [ N.O./ _ O.( _ 7.O.#.t.8.r.8.O.+.8.8.8.O.O.7.O.7.u.8.8.8.7.7.+.u.[ [ u._ [ r.Y.3.` [ 7.' 7.Y.O.[ ,.[ 3.] [ Y._.N.N.N.%.R.N.O.[ 3.",
"8.d.8.8.8.N.Y.7.] :.:.:.] O.|.u.( 7.7.` ` } [ _ ' u.O._ f.N.r.Y.r.r.8.8.8.r.8.f.N.Y.Y.Y.f.f.d.Y.f.d.8.8.d.9.` 7.9.] ' 5.7._ ` 7.) ( 8.O.` ' ' ] ` ] 7.u.r.8.8.8.O.+.8.7.` ] ] ] ] [ 7.f.7.` 9.7.R _ 8.O.( _ [ ( [ f.r.r.d.r.8.8.r.r.r.r.r.N.Y.r.#.+.r.t.r.r.Y.Y.t.Y.7./ 7.7./ ` 7.7./ ) 7._ [ |.8.,.,.,.,.] O.d.Y.m._.R.N.N._._.u.[ ,.,.,.:.[ Y.d.( 7.7.` ` 7.O._ ( [ O.( 7.r.r.f.8.+.r.Y.N.Y.Y.Y.Y.d.d.f.8.8.+.t.r.m.r.+.+.8.] ` 9.] ` [ 8. .` [ 7.( 8.t.O.} 7.3.] ] 8.Q.r.Y.m.N.r.N.Y.8.[ ,.7.7.5.7.p.|.7.,.z.7.] ,.9.7.:.7.z.7.7.d.d.f._.}.|.|.}.|.|.}.}.}.f.f.}.Q.f.f.f.f.f.f.Y.}.3.7.c.[ ] 7.7.3.] u.c.[ Y.#X9.,.7.7.,.,.u.|._._.'._._.N._.XXu.7.7.j.7.7.}.#X7.[ z.9.] ,.u.7.[ 7.u.[ 7.OX_._.oXoX_.t.t.Y._._._._._.Y._.t.8.r._._._._.N._.u.[ c.z.:.,.z.z.,.,.c.8.+.OX_.8.7.j.j.7.9.Q.|.|.oX_.]._._.OXQ.7.3.3.7.3.7._._.[ 7.f.[ ] 7.u.[ ,.7.8.[ 7.}.r.#.N.Y.N.t.r.N.N.8.8.Y.Y.f.t.N.f.f.r.t.t.r.N._.7.[ 8. .[ 7.d.7.] 9.u.| _.'.+.7.7.7.,.O.d._._._.N.R.%.R._.r.[ ] :.,.] _ d.d._ [ [ _ _ [ ,.G J :.R ( f.g.+.8.8.#.#.#.+.O.O.O.O.O.O.+.+.+.O._ _ } +.O.O.] ` O._ / _ [ ' ( O.O.( 8._.O.} 7.,.[ 7.Y.R.N.N.R._.N._.Y.8.[ _ [ ,.[ O.t.+.( [ +.( _ 7._ / [ O.' _ 8.O.O.r._.t.#.#.O.8.t.8.+.8.7.7.7.u.r.8.O.+.+.8.d.[ [ u.,.` ,.9.' ` [ 7.' +.Y.O.[ 7.,.] [ f._._._._._.R.N.R.Y.7.} ",
"r.f.7.[ 7.Y.r._.O.] :.,.] O.|.8.( 7.7.) ` ] ] ] _ 7.} _ f.r.t.N.r.f.8.7.+.+.d.f.t.Y.Y.Y.f.8.8.Y.d.Q.d.7.d.9.` 7.7.] ' ' ,.] _ 7.] ( +.+.) ] :.' ` 7.f.8.r.f.u.8.8.+.+.8.O.' ' [ ] ] 7.u.3.' 7.7.R / ) ` ( [ O.( [ f.r.r.f.r.r.r.r.8.r.t.N.t.f.t.r.r.r.r.t.8.r.r.N.Y.7./ ,.5.` ` [ [ / ] 7._ [ |.8.,.,.,.] } d.N.t.N._._.N._._.Y.oX7.[ >.,.:.[ Y.d.( 7.7.` ` ] ] ` ` O.O.( 8.t.r.Y.f.t.Y.Y.r.Y.N.t.r.Y.d.u.7.8.r.Y.8.8.8.+.+.8.] ] 7.] ` ' ,.] ` 7.7.( 8.f.O.[ 7.,.' 7.Y.Y.r.Y._.r.t.Z.r.Y.7.,.,.7.5.5.p.|.7.7.z.7.] :.,.,.:.7.z.3.7.u.d._._.Y.Y.|._.}.}.oXoXc.p.t.}.f.f._.f.}.}.f.Y.oX7.7.c.,.] :.,.3.[ z.z.[ Q.$X7.,.7.5.,.u.oX_._._._.t.t._._.|.oX7.7.9.7.7.}.$X+.O.z.9.:.,.,.,.[ 7.9.[ 9.XX_.OX|.|._._.|.}._._._._._._._.f.8._._.f._._.N._.u.[ z.z.,.,.,.7.,.3.c.9.O.oX_.7.7.j.h.7.Q.oX_._.oX_.Y._._.Y.'.Y.7.,.7.7.7._._.[ 7.c.[ ,.,.,.,.,.7.8.[ u.Q.f.t.#.Y.N.t.N.t.t.t.8.f.f.t.r.r.t.t.8.f.f.r.t.t.+.[ 8.O.[ 3.7.[ ] 8.9.[ _._.+.3.7.,.} f._.Y.N._.N.#.N.N.N._.8.[ ] :.] _ f.d._ [ [ [ T I I l T ,.P _ 8.#.#.8.O.8.r.+.O.{ O.+.O.O.O.O.+.+.O._ ` [ 7.O.O.] ` [ _ ( ' _ ' _ O.7._ 8._.[ ,.3.] } d.R.N.R._.t.r.N.N.r.Y.8.[ ] ,.[ } t.+.( } O.( ` ] ` ( [ } ` [ r.O._ O.8.8.#.t.+.#.r.8.+.r.7.f.8.8.8.+.O.7.7.f.f.,.[ u.7.' ' ,.] ' ,.7.` O.Y.O.[ 3.:.[ r._.Y.Y._.N.+.Y.m.%._.N.O.",
"Z.7.' ^ ] u.r.N.t.O.] :.] O.|.7.` 7.7.` ' ] ] ] ` 7.[ _ d.t.r.r.t.f.f.8.+.+.8.f.f.Y.Y.Y.f.8.+.8.Y.Q.Q.8.8.9.] 7.9.] ' :.:.] ] 7.] ( 7.O._ ' ' ` 7.u.8.t.f.u.,.[ u.r.O.+.8.O.] ' ] [ O.p.7.' 8.O.R ` / / ( _ O.( [ 8.t.N.r.r.r.r.r.+.r.N.N.N.t.r.N.r.r.r.r.r.r.8.t.f.7.` 7.,.` ` ] ] / ] 7._ [ _.8.O.] ,.} d.f.r.t.N._.7.O.r._.Y._._.7.] :.,.[ d.d.` 7.7.` ' ] ' [ ` 7.7.( 8.r.t.Y.t.Y.t.t.f.t.r.r.r.d.d.7.[ 8.f.t.r.8.O.+.8.8.' ' 7.' ' :.' ] ' 7.7._ 8.t.O.7.,.] 7.f.f.f._.}.d.3.7.c.Z.Y.Y.9.,.5.7.5.u.}.7.7.z.7.:.,.,.,.:.7.z.3.7.d.Y.|.}.Y.t.f._.|.}._.oX}.f.}._.Y.f.Y._._.Y._._.Q.O.7.c.,.] ,.,.,.[ z.z.[ Y.XX7.,.,.,.9.}._._._._.u.[ 7.}.oX_.'.}.9.7.7.7.}.OX+.O.c.7.:.,.,.,.,.7.j.,.9.XX_.|.|.|._._.|.oX|._._.Y._._._.f.f._._.f.f.f._._.u.[ c.z.:.,.,.,.,.,.c.9.O.|.}.9.7.j.7.f.|._._.oX}.7.3.d.|._._._.f.7.3.3.8._._.[ 7.c.[ ,.7.,.7.,.7.8.} 8.}._.r.+.r.r.N.N.t.t.t.r.r.r.t.8.r.8.8.8.d.r.t.#.t.O.[ 8.O.[ ,.[ 5.[ 7.9._ _._.7.[ ,.7.d._.Y._._.t.O.[ 8.Y.N.N.N.O.] ' :._ d.f._ _ }  .T v b T / ] R _ 8.+.+.+.+.+.+.O._ _ O.+.O.O.O.O.O.O.+.8.O.} } } 7.] ` [ _ ` ` ' ` ` O.7._ 8.f.[ [ :.[ d.Y.m.N._.N.} [ O.N.N.t.t.7._ ] ] O.#.+.( O.O.` ' ] ` ` ] } ' _ r.O.} O.} +.8.8.r.r.f.8.O.r.f.d.d.8.+.8.7.7.f.r.f.7.[ u.[ ' :.,.:.] 3.7.] O.f.O.,.:.[ 8._._._._.r.[ _ O.r.N.r.N.N.",
"8.' T T E :.d.r.t.r.[ ] ] O.Q.7.` 7.7.` ' ] ] ] ` ,.[ _ d.f.8.d.t.r.t.t.8.8.8.f.f.N._.Y.f.r.8.8.d.Y.Q.r.8.8.) 7.9.' ;.:.;.' ' 7.] ( +.+._ ' `  .f.r.8.f.p.[ ` / [ 8.#.O.+.#.O.' ' ] 7.p.7.( 7.[ T / / / ( _ O.[ _ 8.r.r.r.Y.d.r.r.#.+.r.N.N.r.t.Y.t.r.#.r.Y.d.8.+.r.} ` 7.[ ` ` ' ' ` ] 7._ [ _.8.[ ] [ 8.N.t.r.N.N.7.] ] [ f._.t._.Y.7.] ] [ r.c.` 7.7.` ] ] ' [ ) 7.7.( 8.d.Y.t.f._.d.f.f.r.r.t.r.d.Y.8.7.d.r.r.r.r.8.8.+.d.] ' 7.` ' ' ' ] '  .9._ u.u.O.,.] ,.c._.f.Y.f.u.,.;.] 8.Q.r.t._.7.,.,.7.u.}.7.7.8.5.:.,.,.5.,.7.u.,.7.c.}._._.r.8.f.}.|._._.}.|.Y.|.|.|._.f._._._.f._.Q.[ 7.c.,.:.,.:.,.] 9.9.[ Y.XX7.[ ,.9.}.|._._._.9.:.;.:.7.}.oX_.OX_.7.7.7._.OX+.O.c.7.:.,.,.,.,.7.z.7.7.#X_._.|.oX_.Y._._.|._._._._.Y._.t._.f.f._.Y.f.N._.u.[ c.z.:.,.,.:.,.3.z.8.O.oX_.9.7.7.u.oX_._.|.Y.7.,.,.3.d.|._._._.d.7.[ 7.Y._.} 8.c.,.,.,.,.7.,.3.i.} 8.Y.Y.8.#.+.r._.r.N.t.t.t.r.t.t.t.Y.r.8.r.r.d.t.r.t.O.[ 8. .[ [ ] ,.] 3.9.[ N._.O._ O.f._.N.N._.f.[ ' ] [ 9.Y.N.N.N.O.` ] _ d.f._ [ [ [ ` n I ,.T / ` ` 8.r.O.+.8.O.+.+._ } { O.+.O.O.O.O.+.+.+.#.+.} } 8.[ ' 3.] / / ' ` /  .7._ +.f.[ ] ] 8._.N.Z.R.Y.O.' :.[ 8._.r.r.r.O.` ` [ #.+.( O.O.` ' ' ' _ ' 7._ _ 8.+.#.#.8.r.+.r.+.#.Y.r.O.+.r.8.f.+.8.f.+.8.t.#.f.7.[ u.,.' :.,.' [ 3.7.] +.f.[ ] ,.7._.t.N._.t._ / ' ' O.Y.m.N.N.",
"' ^ T ' ` ` ,.r.#.r.8.[ ' } Q.7.` 9.7.` ` ] ' ] ] 3.[ _ d.r.r.f.r.r.r.r.t.f.f.t.t.Y._.f.r.d.d.8.8.d.Y.r.f.u.] 7.9.] ` ;.;.` ` 7.` ( 8.+.( ` [ 8.8.r.f.u.[ ' ;.' / [ r.#.O.+.+.7.` ` 7.c.3.( +.[ P / / / R _ 7._ _ 8.8.r.f.f.Y.t.r.+.+.+.r.t.t.t.r.t.t.#.r._.Y.+.+.f.7.` O.7.` ] ] ` ` ] 7.[ } |.8.( [ 8.Y.N.N.N._.7.] :.,.] 7.d.Y.t.N.f.7.` _ 8.Y._ 7.j.` ` ] ] ] ) 7.7.( 8.t.t.r.f.Y.Y.Y.d.t.8.d.d.Y.Y.Y.Y.f.8.r.r.r.d.r.+.d.[ ) ,./ ` ' ' ] ] 7.7.[ f.f._ [ ,.p.f.v.Y.f.9.:.;.,.:.:.9.f.f.f.f.7.:.,.u.}.7.3.8.7.:.,.5.5.,.j.u.] 7.Q._._.f.f.f.Q._.}._.}.}._._.Y.|.|._._.Y._.Y.f.Y.}.[ 9.c.,.:.,.,.,.] 9.9.[ Q.XXO.[ 9.XX|._._.}.9.:.;.>.:.:.7.Q.'._.OX}.7.O._.[.@.O.c.7.:.,.,.,.,.9.z.7.u.XXR.|._._._.Y.t.t._._._.|.}.Y.Y.Y._.f.Y.Y.Y.Y.N._.z.[ u.u.:.>.,.,.,.,.z.7.O.oXf.7.7.u.|._.'.oXc.7.,.3.7.,.7.Z._._._._.f.O.O.Y.|.[ 8.Q.,.,.,.,.,.,.7.8.[ 8.Y.r.t.8.r.t.N.Y.Y.N.Y.N.Y.t.t.Y._.Y.Y.r.N.r.r.t.t.O.[ 8. ._ [ :.,.] 3.7.[ Y.Y._ } f._.N._._.f.O.:.;.,.] [ 8.N.N.N.N.O.' _ Y.Y._ [ O.[ ` L E ` R ] / _ 8.#.+.+.+.+.+.O.[ _ { O.+.O._ _ O.+.O.+.+.+.O.O.8.O.[ 7.' / ` ` ` ` [ +._ #.f.) ] 7.Y.Y.N.R.R.3.' ] ,.] [ 7.f.#.#.8.7.` _ r.+.( O.O.` ' ] ' ` ] 7._ _ r.8.r.f.t.r.8.t.+.#.d.8.O.+.+.8.8.r.r.8.8.8.8.t.p.,.] l.,.:.:.,.] ] 7.9._ +.f.[ ] 7.t.t.t._.8.[ ` [ ] ' ' O.Y._.%.",
"` ;.` ` ` ` / 7.r.r.Y.8.[ _ d.7.` 7.7./ ` :.' ] ] 7.] [ d.t.d.Y.8.8.8.N.t.Y.Y.r.r.f.Y.t.r.f.d.d.8.8.8.f.Y.u.] 7.j.:.` ;.;.` ` 5.` ( 8.+.( ' 7.t.#.t.u.,.` :.:.:./ / [ #.+.O.+.+.} _ [ u.3.( O.[ P / ` / R ) O./ ( 7.8.t.Y.d.d.r.r.8.+.+.#.r.Y.r.t.r.r.r.f.f.8.O.r.Y.9.` O.7.' ] ] ' ` ] 9._ O.|.+.[ 7._.Y.t.N._.d.] :.,.5.,.] 7.f.t.t.Y.f.7._ 8.}.[ 7.7.` ] :.] ] ) 7.[ / 8.r.r.N.f.Y.Y.Y.d.Y.r.8.d.Y.d._.Y.t.8.8.8.Y.r.r.r.u.[ ` ,./ ` :.' ' ] 7.7.[ }.f.[ [ d._.f.Y.f.9.:.>.>.,.:.;.:.u.f.f.Y.d.[ ] d.|.7.} u.7.:.,.5.,.,.z.u.[ 8.|.Y._.f.}.Y._._._._.|.}.Y.Y._.Y._.}._.Y.f.f._.}.c.[ 7.c.,.:.,.,.,.] j.9.[ }.oXO.7.|.XX|.'.|.u.:.>.>.;.:.,.] 7.}._.OX#XQ.7.Y.OX9.O.c.7.] ,.,.,.,.8./.7.u.#X_.|._.Y._.Y.t.N.t._.oX_.}._.t.Y.}.Y._.f.Y._.Y.|.z.[ u.z.:.>.,.,.:.,.z.O.O.oXt.} 7.|.oX_.'.Q.7.,.h.,.,.3.3.} Y._._._.'.Y.+.t.|.} 7.Q.:.,.,.,.,.,.7.9._ 8.f.r.Y.r._.r.t.Y.Y._.Y.r.f.t._.r.Y.f.r.+.f.r.Y.r.r.O._ 8.[ ] ,.:.:.] 7.9.[ Y.Y.O.8._.N.%._.Y.7.] 5.:.;.:.:.] 8.Y.N._.Y.} _ Y.Y.[ ) O.[ U U ' T T ] / [ 8.8.8.8.O.r.+.} } ( _ O.O.O...O.O.O.+.+.O.O.+.+.8.O._ } ' / ` / / ` [ +._ 7.u._ } f.N.r.Y.Z.3.:.:.;.:.' ] ] 8.#.+.+.r.O.} +.+.( O.} ( ] [ ' ' ] 3.` _ r.#.+.f.r.r.8.+.+.+.8.O.O.8.+.8.+.t.8.8.+.8.8.f.u.] ] 9.,.:.' :.:.] 7.9.[ @.f.[ O.f.t.t.N.r.[ ' ,.[ ` :.' ` 7.Y._.",
";.' ' ' ` ' ` ` 7.Y.Y._.8.} 8.O.` 3.3./ ` ;.' ` _ 7._ ] d.Q.d.d.8.8.8.t.Y.Y.t.r.r.f.f.f.r.f.f.f.8.u.u.f.Y.z.] 7.9.] ;.;.;.` ` 7.` ( r.+.( O.8.#.t.8.,.:.:.' :.,.' / / [ +.+.O.+.r.O.[ 8.O.( O.[ P T ( ( / ) [ R / 7.r.t.Y.d.r.#.r.r.+.+.r.t.f.t.r.r.r.r.d.7.O.8.Y.f.7.` O.7.` ' ] ' ` [ 9._ } _.#.#.f.Y.N._._.d.,.,.,.,.,.,.,.] O.t.Y.t._.Y.+.+._.[ [ 7.` ` :.:.] _ u.[ / 7.8.8._.f._.Y.f.Y.d.f.f.r.8.t.f.r.r.8.8.8.8.d.r.r.d.[ ` 7.` ` ;.' ' ' 9.7._ v._.O.8.}.v._.}.j.,.>.,.,.,.:.,.:.,.8.}.f._.d.O.d.|.7.[ u.7.,.,.,.,.,.z.8.[ d.|._._._.Y.}._._._.|._._.Y._._._._._._.Y.f.f.Y.}.c.[  .c.,.:.,.,.:.] j.9.[ f._.8.b.oX}.oXoXu.,.,.>.>.,.:.,.,.] 7.}.OXOX#XY.Y.OX7.O.c.7.] >.,.,.,.z.XX7.d.#X_.Y.Y.Y._.Y._.Y._._._.|._.Y.Y._._.}._.Y.Y.Y._.|.z.] u.z.:.>.,.,.:.3.z.[ O.oXr.O.Y.oX'.'.Q.7.,.,.,.3.,.,.3.3.O.r._._._.'._.N.}.O.+.Q.3.:.,.,.,.] 7.7._ 8.Y.t.t.Y._.t.#.r.Y.Y._.t.d.t.Y.Y.f.+.+.+.8.r.f.8.8.O._ 7.[ ] ,.,.:.] j.8.[ t.N.#.Y.N.R.N.t.7.,.,.,.j.,.] ,.:.[ 8.Y.N._.Y.O.N._.[ ( } ] G U :.P J ' / ] 8.f.8.8.O.} } } [ ( } O.O.O.O.+.+.+.O.} } O.+.+.r.7.' } _ / ` ` ` ` O.7._ 8.f. .8.Y.N.N.d.3.' :.:.' :.' ] ' ] +.r.#.#.r.O.O.+.( O.[ / ] ] ] ` ] 7.' _ r.#.#.r.r.8.+.+.O.+.r.} O.8.+.+.8.r.r.@.O.8.t.r.p.] ` 9.,.' :.:.;.] 7.9._ #.t.+.t.v.N._.r.[ ' ,.[ ' ' ' ' ` ` 7.c.",
"` ` 7.7./ ` ' / _ 8.Y.Y.Y.8.d.[ ` 7.7.` T ` ' ` [ 7._ _ 8.d.8.8.8.8.8.8.t.r.8.t.r.Y.f.f.Y.f.Y.Q.f.f.c.u.f.f.] 7.z.] ` ;.;.E ' j.` ( 8.+.O.r.#.t.r.3.;.>.:.' 7.z.[ ^ T / [ +.O.O.#.#.+.8.} ( O.O.R T / / / _ } ( ( 8.r.8.Y.r.+.r.N.+.+.+.r.N.t.t.r.r.t.8.8.8.r.r.#.t.7.` O.7.` ' :.` ` 7.u.[ } Y.t._._.N._._.f.5.:.,.,.3.3.[ ,.] ` O.d.Y._._.N.r.f.] [ 7.[ ` :.:.` [ u._ ( 8.t.8.d.f.r.f.}.f.f.f.Y.8.O.r.Y.r.7.O.7.7.7.u.8.8.d.] / 9.] ` ;.:.` ] 9.7._ p.r.#._._.}.}.z.>.1.2.>.3.z.,.:.,.;.[ u.Y._.|.Y.t.}.7.} d.7.:.,.7.,.7.Q.8.3.Q._.Y._._.f._._._.}.}._.f._.Y._._._.Y._.Y.}.}.f._.}.[ 7.c.5.:.,.,.:.,.c.7.[ f._._.oX}.oXoXu.,.2.6.;.7.Q.9.' ,.,.[ 7.|.#X#XoX_._.7.[ c.9.] :.,.,.5.Q.b.7.z.XXr.t.Y.Y.Y.Y._.Y._.Y._.|._.f.Y._._._.Y.Y.}.Y._.|.z.] u.c.,.>.2.,.:.8.c.[ O.|.t.Y.oX_.'.Y.7.,.4.,.,.d.d.[ ,.3.[ [ Z._._._.[._._.O.O.}.7.] :.,.,.[ 8.8._ u._.r.r.Y.N.r.+.8._.t.Y.Y.8.8.f._.t.7.8.8.r.r.O.+.r.} _ 7. .' :.,.] ] z.z.[ r.N.N._.N._.#.O.] 7.,.3.Q.}.[ :.,.] _ 8.N.Y.|.Y.N.f._ _ 7.T y n ` I J ' T / 7.7.[ O.} ( ( } _ } O.} O.o.+.O.+.+.O.[ } +.+.} 8.O.( O. ./ ` ' / ` 7.8._ O.f.u.c.Y.Y.r.[ ' ,.:.' 7.9.:.' :.` ] 8.#.+.#.+.o.+.( O.O.` ` :.] ` _ 9._ } 8.+.#.8.+.O.+.#.O.8.r.} } 8.+.+.8.8.8.+.+.7.t.8.f.[ ` p.7.' :.>.' _ u.8._ 8._.$._.&.%.t.[ ' :.,.' 7.9.] ' ' ` ' ,.",
"' 7.r.8.} ' ` ' ` ] 7.Q.Y.r.d.[ / 7.8.] T ` ` ] 7.7.' ' O.+.+.r.8.r.8.+.+.8.8.t.f.Y._.Y.Y.}.}.}.Q.}.Q.f.f.u.) 7.c.7.` ;.;.` ,.z.` ( 8.#.+.t.N.8.[ :.:.;.' 7.d.Q.8.` T ^ / _ +.+.O.+.#.t.} ( O.+./ P / R ( +.O.( _ r.8.r.r.r.r.r.m.m.#.+.#.r.t.#.r.r.r.r.8.r.f.r.#.r.7.` O.u.] ` :.' ] d.d.[ } Y._._._.N._.8.7.,.,.:.,.d.N.O.[ ,.' ` O.Y.f.N.N.N.f.] [ u.7.] :.:.` 7.u._ ( 8.t.f.8.7.7.8.Y.f.Y.r.f.7.7.8.Y.r.8.7.O.7.8.O.+.8.u.] / 9.,.` :.;.` 3.9.7.] 8.r.t._._.}.9.,.1.1.>.,.z.c.u.,.:.,.] [ z._._._.Y.|.} } f.u.[ ,.7.,.u.#X8.3.Q._._.}.f.f.f.Y._.|._.f.f._._._._._._.Y.Y.}.}._._.}.,.7.c.9.:.,.,.:.9./.7.[ f.oX_.oXoX|.8.,.2.2.>.,.c.|.Y.7.:.,.,.[ u.XX#XoX'.oX7.[ Q.Q.7.:.6.:.7.XXc.,.z.|.t.f.}._.Y.Y._._._._._.f.Y.f.f.Y._.f.f.Y.Q.Y.Y._.z.[ u./.7.:.2.,.,.c./.[ O._.N._.OX'.Y.7.3.4.,.,.8.^.Y.u.[ :.3.[ 3.Z._._._.]._.} O.|.u.[ :.,.] 7.Q.d._ d.f.t.N.N.N.r.r.r.t.t.Y.Y.+.8.Y.Y.t.8.r.r.Y.d./ } u.O._ 7.7.) ] ,.:.,.z.u._ r._.%._._.r.} [ ,.,.3.c.|.|.f.7.' :.] ] d.Y.|.Y.N.Y._ ) 7.J e I U G L ` U ' } _ [ O._ / ( _ } O.O.+.+.+.O.+.O.O.O.O.+.O.O.O.8.} / 7.7./ ` ' ` ] 8.8.( O.}.f.Y.}.d.[ ' :.:.' 7.f.d.7.' ' :.' [ r.r.+.+.#.+.( O.8.[ ` ] ` ` 7.8.' } m.+.+.#.O.+.#.8.+.#.r.O.[ O.+.+.8.8.+.8.+.7.8.t.u.,.] f.u.] :.,.` O.f.u._ 8.'.&.&.].t.O.' :.,.' 3.r.f.7.' ' ' ' ' ",
"7.d.8.O.+.3.` ' ` ` ] u.Y.8.d.7./ 9.u.7./ ^ ` ,.d.7./ ' [ O.O.r.8.r.r.+.+.8.8.r.f.Y.}.f.f.}.Q.}.Y.f.Q.Y.f.9.` 7.Q.p.` E E :.8.u.` ` 8.#.#.t.t. .' :.:.;.,.d.Y.+.t.7.^ T T / [ +.+.+.o.r.O.( O.t.[ P P P _ N.+./ [ 8.+.r.r.r.m.r.r.r.+.+.+.+.8.r.r.r.r.r.t.r.r.t.N.r.7.` [ }.u.` ' ] 7.}.d._ [ '._.N._._.8.[ ,.,.[ ] 8._._.t.7.' ] ` _ O.f.t.t.N.f.] ] Y.f.] ;.` ] r.f._ / d.f.r.8.7.f.8.u.f.8.f.r.8.r.d.d.r.f.7.7.7.8.O.8.8.8.' R 7.u./ ` ` ' 8.u.,.' 7._.t._.}.u.,.1.2.,.>.u._.r.t.u.:.:.,.] [ c._.Y._.oXO.} Y.}.7.,.>.7.Y.#X8.[ d._.Y.f.f.f.f._._._._.t.t._.Y._.Y._._.Y.Y.f.}.}._.}.,.5.XXc.,.:.,.,.z.}.7.] f.oX'.oXoXz.,.,.h.:.,.c.|.Y._.Y.3.:.7.,.,.u.XXoX_.oX7.,.c.#Xd.,.,.,.d.$Xc.,.8.#X_.Y.Y.Y._.Y.Y._._._._._.Y._.f.f.f.Y.Y.d.Y.Y.t.Y.z.[ u.XXx.:.>.>.8.XXQ.,.} _._._.oX_.7.,.h.,.,.7.|._.t._.u.[ ,.,.[ 7.|.'._.]._.} O._.|.7.] :.] r.OX8._ f.f.N.N.t.t.t._.r.r.t.Y.r.+.+._.r.r.8.Y.#.N.u.K ] f.7.` 7.d.[ ` :.:.u.Q.9.) r._.%._.t.O.` [ ,.[ 8.|._.Y._.Y.] ' ] ` [ Y._.r.Y._.[ ` 7.G a =.U z L ^ U ' } _ } 7.[ ~ ( _ } O.O.+.O.O.O.+.O.O.+.#.+.O.O.O.+.[ ` 7.d.[ / E ` O.d.8._ 7.}.p.f.f.} ` ;.:.:.7.d.+.#.d.7./ ' ' / O.d.#.#.#.r.( O.N.+.` ] ` _ Y.8.' 7.Y.+.+.+.+.#.+.r.+.+.f.+.[ O.O.8.+.+.+.8.8.8.7.+.8.5.] c.f.7.' :.] d._.u._ 8.'.&._._.O.' ] ,.' ,.Y.t.#.N.7.` ' ' ' ",
"8.8.O.O.O.7.,.' ` ] ' [ 7.r.f.7./ 7.r.r.] T :.8.r.7./ ' 7.7.+.8.r.r.r.#.+.8.r.t.8.Y.}.f.f.c.Y.}.Y.c.c.d.8.9.` O.f.Y.7.E ` 7.r.d./ ` 8.#.t.8.[ ] :.:.' ] 8.f.r.+.#.8.' P T / / [ 8.t.#.t.O.( O.N.8._ R _ +.N.+.( _ 8.+.+.8.r.r.r.8.8.8.r.8.+.8.r.r.r.t.t.r.r.r.t.N.Y.9.]  .oX}.7.` 7.Q.Y.f.[ [ _._.'._.8.,.,.,.:.[ u.Q.r.%.N.d.,.' ' ' ) 9.t.N.N.f.[ [ _._.7.` ' 8.r.t._ / 8.r.8.r.r._.r.f.8.t.8.f.d.8.f.Y.f.f.8.t.8.8.8.d.O.7.' / 7.d.} E ` 9.8.d.5.' 9._._.oXu.,.>.2.>.,.z.Y.t.t.#.f.7.:.:.,.] 7.Y._.t._.7.[ Y.|.f.j.,.u._.OX8.] 8.Y.f.f.f.f.f.f._._._.f.p.f.f._._.Y.Y.Y.t.8.f.f._.}.,.7.}.XXj.,.:.u.|.}.7.[ d.oXoXoXz.7.h.7.,.3.c.XX}._._._.z.7.,.,.,.3.d.|.|.oX9.,.c.OX|.7.:.j.XX#Xc.,.u.XX_._.Y.Y.|.Y.Y._._._.|.Y.Y.}.Y.d.Y.Y.Y.f.f.8.r.Q.u.[ u.XXXXj.:.,.}.|.Q.[ } _._._.Y.7.,.5.,.,.7.Q.Y.N.N.t.Y.8.] ] 3.,.8._.]._._.} O._.'._.7.] 7._.].8._ Q._.t.t.t.t.t._.t.f.r.N.r.8.+.t.d.r.r.N.#._.,.n ,.f.7.` 7.t.8.] ' 7.d.Y.9.) 8._._.t.O.] ] :.] 7.Q.Y.Y._.N.Y.8.] / ' ` 7.Y.r.m.Y.[ _ :.n b T U G I ' P ` 9.[ ] [ [ ' _ [ _ [ O.} } } O.+.O.O.+.+.+.+.+.O.+.[ ` +.Y.8._ ` 3.r.r.+.( 7.c.f.f.} / ' ;.` 3.d.#.+.+.#.8.} ` ' ' / 3.d.N.r.8._ O.N.r.O.] ' O.N.7.` 7.r.+.#.#.+.#.+.+.r.#.r.7.O.O.O.+.7.8.8.8.8.8.O.[ 7.5.] u.}.d._ ] 8._.N.d._ r._.]._.+.] ,.,.:.[ d.m.%.#.N.t.O./ ' :.",
"8.7.O.8.O.+.8.] / ] ] ' ] 8.d.7./ 7.r.r.7.[ 7.d.+.9./ ' 8.8.+.7.8.r.r.t.8.8.r.8.8.Y.Y.Y.d.Y.Y.f.f.Q.z.7.8.9.` 7.r.r.r.[ 3.r.+.8.` _ 8.+.7.O.' :.,.] ] 7.d.t.#.8.+.+.7.] T / / ' 7.r.N.Y.O.( O.N.N.r.7.r.N.%.+.( _ 8.+.O.+.8.r.r.+.r.r.8.8.+.+.8.f.r.8.8.8.f.Y.r.Y._.u.] O._._.f.7.8._.d.d._ [ _._._.9.,.,.,.,.,.8.}.Y.r.N.t.m.d.] / ] ] [ 8.N._.f.[ [ }._.Y.7.7.f.#.r._ / O.O.O.t.t.r.Y.Y.8.r.+.f.f.O.f._.r.r.d.r.8.8.8.7.[ ,.' ` 7.r.8.[ } f.O.8.7.' 9.f._.f.,.>.,.,.,.u.}._.r.t.#.8.d.5.` :.,.:.7.f.t.}.[ [ f._._.Y.8._.N.|.9.' 8.r.f.}.f.f.f.f.Y._._._.f.d.f._._.Y.r.f.f.t.8.8.f.}.[ 5.Q.}.Q.9.7.Q.Y.}.7._ d.oXoXf.,.,.h.,.,.z.XX}.Y.}.|.Y.|.Q.,.,.3.,.7.f.oXoX7.[ c.|.|.Y.9.Q.OXoXz.:.z.oX_._.Y.N.Y._._.Y._._._._.}.f.Q.Y.Y.f._.}.d.7.8.}.u.[ u.}._.}.7.8.|.N.Q.[ } Y.N._.7.:.7.7.,.7.Q._.Y.N._.r.r.Y.7.' ,.3.,.u._._.|.,.7.|._.'.Y.O.t._._.8._ Y.Y.8.+.t._.t.t.N.t.8.t.t.f.8.8.r.Y.f.r.N.c.J n 9.f.7.` 7.r.r.7.[ f.r.f.7.( #._.N.O.` :.] ] 3.Y._.Y.r._.r.r.Y.9./ / ' ' 8.Y.d.8.( _ / n I U U I P ;.U ` 8.] ` ' ' O.[ [ } _ } O.O.O.O.O.O.+.O.O.+.#.+.O.+.O.` 7.t.r.8.+.r.#.#.+._ 7.f.8.7.' ` ` ` ,.u.8.+.#.#.+.#.r.7./ ' ` ' 7.t.N.7._ O.#.%.r.O.O.t.#.O.( 7.8.O.+.8.+.+.O.+.+.+.+.O.7.7.O.O.7.8.8.8.8.8.O.[ 7.,.` 7._.Z.7.7.Y._.t.u._ 8._._.8.[ ,.3.' [ d.N.#.#.N.r.t.t.[ ' :.",
"O.7.7.O.O.+.8.7._ / ' ' '  .d.7.` 7.r.r.r.8.8.8.r.8./ ] u.8.8.8.8.r.r.N.r.r.8.8.r.Y.f.Q.f.f.f.f.d.u.8.+.u.9.`  .8.#.#.8.8.#.#.8.` _ u.8.[ ] :.] ] ` 7.c.8.8.8.8.+.+.8.8.' / ' ' [ 7.Y.Q.7.` 7.N.t.t.t.r.#.N.#.( _ r.+.+.8.+.8.8.r.r.r.r.8.+.+.8.d.r.8.7.r._.Y.Y.Y.f.8.] 7._.v.f.d.u.f.Y.u._ _ Y.f.7.,.,.,.] ,.z.Q.t.t.t.N.r.r.Y.7._ ` ] ] [ t._.f.[ [ Q._._.Q.d.8.r.f._ / O.O.O.8.t.r.t.f.r.r.t._.Y.8.u.f.t.t.7.8.8.f.8.[ _ 7.' ` 7.#.8.u.8.8.O.7.,.' 9.f.u.5.,.,.:.,.l.}.f.f.t.r.8.8.f.u.,.:.:.,.:.7.Y.|.[ ] d.}.Y._._.Y.t.oX7.' 9.d.f.}._._.Y.f.f.Y.}.}.Y.Y.Y._.Y.Y.f.f.f.Y.d.t.t.}.[ [ c._.Y.Q.c.Q.Y.}.7._ d.oXd.,.,.,.:.,.z.XX}.}.}.}.}.Q.|.oXc.7.,.,.,.7._.oX7.[ c.oX_.|.|.|.'.#Xc.:.z.|.N._._.Y.t.Y._._._.Y.Y.|.|.|.Q.Q.Q.f._._.d.7.8.Q.u.[ u._._.Y.}.Y.N._.Y.[ } Y.N.u.,.,.,.,.7.Q.}.Y.Y.Y.N.t.N.Y.f.7.:.:.,.,.8.|.|.3.7.|._._._._._.N._.+.' d.r.+.#.t._.N.t.r.r.r.f.t.Y.r.t.f.Y.t._.Y.` n :.d.f.7.` 7.f.r.r.8.r.r.Y.7.( 8.N.O._ ] ' ` 7.Y.Y.r.f.N.N.r.r.r.u.[ T / ' [ 8.r.+.P P / I I Y Y I ` ,.U ` 7.O.' / / ' O.7.O.} [ O.O.+.O.} O.O.O.+.+.+.O.O.#.O._ 7.r.+.#.r.r.+.#.+.` 7.}.7.' ' ' / ] u.r.+.+.+.#.+.#.8.8.7.` ` :.] 7.Y.8.` O.#.#.#.t.8.#.#.7.` 7.r.O.[ O.#.+.O.+.+.+.+.+.+.8.+.+.+.#.8.8.8.+.O.+.7.[ `  .8.Y.t.t.r.r.N.8._ 8._.8.,.,.,.,.[ i.Y.N.N.t.r.N.t.t.f.} ' ",
"O.8.O.O.+.+.O.r.7.` ` ] ' ] d.7./ 7.8.t.+.8.8.8.r.z.` ' 8.8.r.8.8.r.r.r.t.r.8.t.r.f.Y.Q.f.u.u.d.8.9.7.8.d.9.` [ 8.r.+.+.+.+.#.8.` ] u.8.' ;.:.` ` 7.d.8.8.8.8.8.+.+.8.8.9.] ' ' ]  .f.}.7.` 8._.r.8.r.#.#._.8.( [ d.8.t.r.8.+.r.d.r.r.d.8.+.8.d.m.r.8.8.d.f.Y.|.Y.8.7.] [ _.f.f.Y.u.f.t.8._ [ Y.u.' :.,.:.,.8.Y.Y.t.d.r.#.r.r.r.N.7.` ' :.) O.f.u._ [ f._.f.Y.t.8.r.f.` / 8.8.O.7.8.Y.r.8.f.Y.f._.f.7.u.d.8.8.8.8.8.d.7._ O.8.] ` 7.8.O.8.+.O.O.8.[ ' 7.f.7.,.,.,.:.j.f.v.f.t.r.8.8.f.8.v.u.:.:.,.:.:.8.}.[ ] d._.f.Y.Y.t.t._.7.:.7.f.8.f.Y.Y.Y._.f.f.f.}.Y.}.Y.Y.Y.f.Y.Y.r.d.Y.Y.N.Q.[ ] f._.f.Y.Y.Y.Y.Q.7.] d.|.7.:.3.:.:.z.XX|.}.}.|.}.Q.}.|.}.|.Q.7.,.,.,.u.oX7.[ f.|._.|.|._._.OXc.:.8.|.N.Y._.Y.Y.t.Y._._._.|.Q.|.}.Y.}.}.f.f.f.f.d.Q.d.u.] 9._._.N._.Y.Y._.Y.[ 3.Y.Y.3.,.7.:.7.f._._.Y.Y.N.t.t.Y.t.Y.f.7.:.,.:.7.}.}.3.7._._._._._._.N._.O.` u.r.r.Y.r.t._.N.r.r.t.N.r.f.f.Y.d.Y.Y.Y.8./ 7._.r.d.7.` 7.t.#.t.8.8.r.r.3.( 8.t._ ] :.` [ d.Y.N.r.t.t.t.r.r.8.#.8.' P T ' [ +.O.U P ' E J U Y J ' 3.P ~ 3.O.' ` / / [ } O.[ ( _ O.O.} O.O.O.+.+.+.O.O.+.#.} _ 7.r.#.+.+.#.+.#.+.` 7.f.[ ' ' ` ] 8.r.#.+.+.+.+.r.r.+.#.r.} ` :.:._ d.8.' O.N.#.+.t.+.+.#.7./ 3.f.+._ [ } +.O.O.+.#.O.#.O.8.8.O.O.+.8.f.+.+.+.f.8.] / 7.7.Y.r.r.t.#.N.8.) u.|.7.:.,.,.:.8.Y.t.t.N.N.t.N.r.t.N.r.O.",
"+.+.+.7.+.8.+.8.r.7.' ' ] [ f.8./ O.8.r.+.8.8.8.8.z.' ] 8.8.8.8.8.r.r.r.r.r.r.r.d.Y._.d.u.u.u.8.8.9.9.d.Y.u.)  .8.#.#.#.#.#.#.8.] ,.c.9.] :.;.' 7.f.t.8.r.t.8.8.8.8.8.8.d.f.,.' ] 5.u.}.7._ u._.t.8.8.8.#.t.8.` [ d.r.t.Z.r.8.8.8.f.Y.r.8.8.r.d.f.f.d.r.f.Y.}.Y.8.r.9.] 7._.f.Y.Y.f.t.t.8.] [ }.7.:.>.;.:.u.Y.r.t.t.d.8.#.r.r.r.N.N.8.` ] ] [ u.u.]  .f.f.t.r.8.8.r.u.` ` 8.8.8.8.+.r.r.r.Y.Y.+.d.8.8.8.f.7.u.8.8.f.8.O.O.7.8.[ ] 7.8.+.+.O.+.8.8.5.' 7.z.5.,.:.,.9.f.t.t.t.f.8.8.t.f.f.f.f.9.:.>.,.:.7.|.3.[ d.Y.f.Y.f.f.t._.9.:.u.f.r.f.r.r._.|.Y.f.t.Y.}.Q.}.Y.Y.}.Y.N.r.t.Y.Y._.}.[ [ f._.Y._.Y.Y.Y.Y.7.] Q.}.5.,.,.,.9.|.}.}.|.}.}.}.}.}.|.Y._.OXz.,.:.,.8.}.7.[ f._._._._.|._.OXc.,.z.|.Y._._._._.Y.N.t.Y._._.Y.f.f.}.}.}.Y.f.f.}.Y._.Q.9.] u.Y._._._.Y._.N.f.[ } _.f.,.2.,.,.Y._._._._._.t.t.t.Y.Y.Y._.z.7.,.,.5.c./.,.7.}._._._.N._._._.7.` 8.r.f._.t.t.N._.r.r.t.t.t.f.t.f.r.Y.f.r.8.f.Y.t.r.d.3.` 7.t.#.r.8.r.#.r.7.` 8.t.[ ] ' } f.Y.r.t.N.N.8.8.r.r.8.+.+.7.` I U ` +.7.P T 5.5.T Y I J [ 7.K / 3.} [ ,.` / ` [ _ _ _ [ [ } O.O.O.O.+.+.O.O.+.+.r.O._ 7.r.#.+.+.+.+.#.O.` 7.9.] ' ' _ 8.8.+.+.+.+.+.+.r.r.8.+.+.7.] ' :.] 7.8.] 7.N.#.#.+.+.#.#.7.` 7.f.#.+.O.[ +.O.O.+.#.+.+.+.O.O.O.+.@.O.9.O.+.r.t.t.[ / 7.8.r.r.r.r.t.t.8.] u.XX7.,.:.,.9.f.N.t.N.t.N.t.t.t.t.t.N.r.",
"+.O.+.+.O.O.8.8.8.d.[ ' ] [ f.c.` 7.r.+.r.8.7.8.r.z.' ] 7.+.O.8.8.8.r.r.8.8.8.7.8.d.d.u.u.f.u.8.8.7.f.d.f.u.` 7.r.+.#.#.#.#.#.r.] [ d.7.] ;.' 7.f.r.r.r.t.t.8.8.8.d.r.7.8._.8.:.;.,.u.XX7.[ f.t.8.r.+.8.r.t.8._ [ f.r.r.Y.Y.r.8.+.8.u.8.8.r.f.u.f.f.Z.r.f.Y.Y.8.+.f.u.] 7.Y.f.Y.d.N.t.8.d.] [ }.7.:.:.:.9.Y.t.r.r.t.r.r.r.8.f.f.t._.Y.7.] ' ] u.f.[  .v.t.f.8.+.t.+.u.' ` 7.7.8.8.+.8.8.Y.d.7.+.d.f._.8.8.8.t.8.r.f.8.O.r.8.7.[ ] 8.+.8.O.} r.O.u.7.` j.8.5.:.:.j.v._.r.f.8.8.8.t.8.r.f.r._.f.7.,.,.:.7.XX[ ,.c.f.t.Y.r.f.r.}.9.' 9.d.Y._.Y._.f._._._.f.f.}.Y.f.f._.|.Y.r.r.Y.Y.f.Y.}.[ [ Q.Y.Y.Y.Y.Y.Y.Q.7.] c.d.,.>.:.9.|.}.}.}._.}.}.}.}.}.|.|._._.|.c.:.] 8.|.9.,.Q._.Y.|._.|.oXoXc.:.8.oXY.R._.Y.Y._.Y.Y._.Y.Q.|.f.f.XX}.}.}.f.f.|.f.f.|.8.] z.Y.Y._.Y.Y.Y.N.f.[ } _.8.,.,.,.d.'._._.Y._._.Y.r.Y.Y.Y.f.Y.|.z.7.,.3.z.XX,.7.|._._._.t._.N._.u.` 9.t.t._.Y.#.t.Y.N.Y.r.t.Y.Y.r.7.8.r.r.f.N._.r.r.r.f.7.' 8.r.#.8.r.r.+.f.7./ 8.t.[ ` [ d._.t.8.r.r.r.8.8.+.+.O.} } +.[ T J U 7.7.I J ,.7.` T U / O.3.J / 7.[ [ ] ' ~ ` [ _ O.O.} _ } O.} O.O.O.O.O.+.+.O.r.} ` 7.r.+.#.+.+.+.r.} ' 7.7.] ' ` O.r.#.+.+.O.O.+.8.+.8.8.+.O.#.7.:.;.[ 7.9.] 9._.#.#.O.+.#.+.7.' } r.#.8.8.+.O.O.+.O.#.+.O.O.+.O.+.O.O.O.[ O.8.t.#.v.7./ 7.8.+.t.t.8.t.t.8.[ z.}.7.,.,.7._.t.t.t.N.t.8.r.r.t.r.r.N.r.",
"} O.+.+.O.O.+.8.8.8.8.] / [ Y.Q.` 7.t.r.r.8.8.8.f.z.' ' 7.7.O.7.8.8.8.8.r.8.7.7.O.7.7.d.f.f.u.8.8.u.f.t.f.u.` 7.r.#.#.#.r.r.t.r.[ [ f.8.` ] u.Y.r.r.8.8.r.8.r.f.d.8.8.8.8.d.c.j.] ,.c.XX7.,.Q._.t.8.8.8.8.t.8.) [ d.r.r.r.r.r.r.8.O.O.8.r.8.r.r.r.r.r.d.f.f.f.9.8.f.u.] 7._.t.r.f.f.N.t.d.[ [ }.7.` ' 9.Y.r.t.r.t.r.N.N.r.r.Y.Y.Y.N.N.}.7./ _ p.f.[ O._.f.r.r.8.8.r.f.] / 7.+.O.7.7.7.7.f.d.O.8.|.Y.Y.f.Y.r.8.t._.d.8.r.r.+.8.[ _ 9.8.+.+.O.8.8.d.7.' 9.9.] ] 9.b.t.t.t.f.r.g.g.t.8.8.r.f.f.f.f.j.:.,.7.oX,.,.f.f.f.f.d.f.t.|.9.' 9.Y.Y.Y._._._._.oXoX_.Y.f.f.r.f.|._.t.r.r.Y.Y.Y.Y.Q.[ [ Q._.Y.Y.f.Y._.Q.7.] c.c.] ;.9.}._._.}.}._.Y.}.}._.}.}._._.Y._.oX9.[ 8.XXu.,.c.|._._._._.oXOXc.:.8.|.Y._._.Y.Y._._.Y.Y.}.|.|.f.Q.|.|.|.Y.Y.f.Q.Q.Y.}.u.[ z._.Y._.Y.Y.Y.Y.Y.3.3.|.r.] 3.c.oXN._._._._._.f.f.Y.Y.Y._.Y._.}.z.,.,.c.XX,.7.|._._._.Y._._._.u.` 8.f.t.N._.t.#.t._.Y.f.t.t.Y.r.+.+.f.r.Y.r.r.d.r.r.f.7.' u.t.#.8.8.r.8.t.7.( 8.t.( _ u.t.#.#.r.#.+.8.8.8.+.O._ _ } } } [ T J 7.[ n n ` 7.} 7.,.[ 8.7.J / 7.[ ' ' / / ' [ } O.O.+.} [ } } O.O._ [ +.#.+.+.#._ ` 7.r.+.+.+.+.+.t.O.( 7.9.` ` O.8.+.+.+.+.O.O.O.+.8.8.+.+.+.+.8.7.' [ 8.9.[ 7._.#.#.+.+.#.+.7.' } r.+.+.+.+.O.O.O.+.+.8.8.O.+.+.+.[ O.[ O.} 8.r.#.g.O.` 9.8.+.r.r.r.t.N.u.] d.}.7.] 8.f.N.t.t.t.N.r.#.+.t.r.t.t.t.d.",
"O.8.O.O.O.O.O.8.O.O.u.7.` 7.Y.z.` 7.r.t.r.r.8.8.d.9.` ' 8.d.8.7.+.8.+.8.8.8.d.8.7.7.8.Y.t.d.r.#.8.f.d.r.Y.8.` 7.r.r.+.r.r.r.t.8._ ] u.7._ 7.Y.t.r.t.8.+.+.8.8.8.8.O.O.+.8.8.Q.f.[  .f.Q.7.[ f._.t.r.t.8.t.t.7.) [ 8.8.8.8.8.8.Y.r.8.+.+.8.8.8.r.r.r.r.r.d.f.8.8.f.f.u.] O.Y.r.r.Y.r.Y.Y.8.[ _ }.+.` 3.f.t.r.r.r.t.r.Y.Y.d.r.d.N.Y.r.t._.Q.[ ` u.f.[  .f.Y.r.t.8.#.r.u.` ~ 7.O.O.8.7.7.7.8.8.u.Y._.r.f.N._.r.r.Y.N.+.8.r.r.+.8.[ ` 7.8.O.8.O.O.r.8.[ ' u.7._ 7.f.t.#.+.8.7.f.t.8.f.g.8.8.t.8.f._.f.7.] 8.oX,.] 8.Y.r.f.f.f.f.Y.7.' 7.Y.t._._._._._._._._._.f.f.f.Y._.Y.#.r.r.t.Y.Y.t.f.[ ] f._.Y.Y.f.Y._.d.3.] c.}.] ,.}._.f._._._._.}.}._._.}.f._._._._._.}.8.f.|.8.[ f._._.Y._._.|.oXu.[ u.|.Y.Y.Y.Y.Y._.|.Y.d.Y.|.Q.}.}.Y.}.|.Y._.f.f.f.Y.Q.z.[ u._.N.Y.Y.Y._.N.u.3.7.|.8.[ d.|._.N._._._.f.t.r.Y.r.f.Y.Y.Y.f._.Q.7.3.c.XX,.7.|._.Y.Y.Y.N._._.7._ u.t.t.N._.N.t.t.r.f.f.t.r.f.r.r.r._.t.r.r.r.d.t.#.f.7.' u.t.#.8.8.8.t.r.O.( 8.t.} +.t.#.+.#.+.+.+.8.+.+.O.[ ' [ } _ O.7.[ ~ [ / j G U / O.8.O.} 8.7.K T O.( / [ ' [ _ _ O.} O.+.} _ [ +.+.O._ O.#.+.+.#.+._ ` } r.#.+.+.+.#.r.} ` 7.7._ [ #.+.O.+.+.O.+.O.} O.8.#.8.r.+.+.r.8.} } 8.8.[ 7.t.#.#.r.+.#.+.} ` } r.#.+.+.+.O.[ } O.O.8.8.O.[ } O.O.O._ O.[ +.+.8.O.] ` 7.r.#.+.t.t.r.Y.8._ u.Q.O.O.f.t.#.N.N.t.t.r.r.8.r.r._.r.r.f.",
"O.+.8.+.} O.O.8.7.+.8.8.7.8.Y.z.` 7.8.#.r.d.8.d.7.3.' ' 8.r.8.8.+.8.r.r.8.8.8.8.8.8.8.t.t.r.8.8.8.f.f.r.Y.8.`  .8.r.#.r.r.N.8.7._ [ 8.8.7.f.r.8.t.t.r.8.7.+.7.7.O.O.7.7.8.8.Y._.8.8.f.Q.7.[ u.8.8.f.8.t.f.7.7.] [ u.8.8.8.8.r.r.t.f.r.8.8.8.r.8.r.f.r.r.Y.t.8.8.t.Y.u.] O.8.+.r.f.f.f.u.8.[ [ }.+.O.f.r.r.t.r.r.t.r.d.Y.f.8.8.r.t.r.t.N.Y.f.O.t._.[  .8.8.Y.f.8.f.7.7.` T 7.O.O.7.8.8.O.8.7.8.f.N.r.t.r.Y.t.Y.8.+.+.d.8.#.#.8.[ ' 7.8.8.8.O.8.O.7.,.` 9.O.+.8.8.8.+.+.O.7.8.t.r.f.t.8.8.8.f.f.f._.f.7.8.oX,.[ u.8.f.f.f.}.u.u.7.' u.Y.N._._.Y.Y._._._.f._.}.Y.Y._._.t.r.t.Z.N.Y.Y.r.f.,.,.d.Y.N.Y.Y._.u.7.3._ f.}.7.f._.f.Y.Y._._._.}.}._.|.}._.|.|._._.Y._._._._.7.[ d.t.Y.|._.|.}.f.9.,.8.|.Y.Y.Y.Y._._._._.f.r.Y.|.|.|.}.}.Y.Y.Y.Y.Q.r.Y.|.u.[ u.Y.Y._.Y.N.Y.+.7.} O.|.r.f.|.Y._._._.t.Y.r.r.8.r.r.Y.r.N.f.Y._.|.Q.d.}.XX,.7.}.Y._._.f._._.f.7.[ f.t._._.t.N.Y.N.r.r.8.t.t.Y.t._.Y.N.t.t.r.r.r.t.r.f.7.] u.#.#.r.#.t.8.+.} ( 8.t.#.t.r.#.#.#.+.#.+.+.+.+.O.[ [ } } O.O.O.} _ ( U l G Y ` ( ' [ +.O.[ U / _ / / ] [ O.} O.O.O.+.O.} [ } +.+.+.O.O.+.#.#.O.O._ `  .+.+.#.#.r.+.O.[ _ 7.+.+.8.#.#.#.#.+.8.8.8.O.O.7.8.r.r.r.r.r.r.8.+.8.8.[ 7.9.O.m.r.#.+.[ [ ' } 8.+.+.+.+.O.} [ _ O.8.O._ ' ' [ [ } [ [ } 7.} O.} ] ` 7.+.r.#.t.t.Y.8.7.] u.Y.8.t.N.#.t.t.N.t.t.t.r.r.r.t.N.N.t.r.",
"+.O.8.O.} +.O.+.+.O.O.u.d.d.Y.u./ 7.8.[ 8.d.8.u._ 3.,.[ 8.8.r.r.+.O.8.8.8.r.8.8.r.+.r.f.t.r.+.r.d.u.f.8.r.8.` 7.7.} 8.r.m.Y.[ 7.[ _ r._.r.8.8.r.r.r.8.f.u.7.7.8.7.u.d.7.8.t.r.t.f.t.r.v.7.] 7.O.O.d.t.r.7._ 7.[ _ 8.8.r.d.8.r.r.r.r.r.r.r.r.8.r.t.r.d.f.f.r.+.8.t._.u._ [ [ _ 8.t.t.u.] 7. ._ f.#.N.N.r.r.r.8.8.8.r.f.f.8.+.r.r.r.r.t.r.Y._._.Y.f._ [ 9.[ 8.f.r.8.[ } ' T 7.8.O.7.8.8.O.O.7.8.+._.N.r.8.f.N.N.+.O.8.Y.+.+.8.8.] ' 7.[ O.+.+.8.' [ ,./ 7.+.+.8.8.+.#.#.8.f.+.8.8.8.f.8.+.g.f.f.8._._.f.t.oX[ [ 9.O.f.f.f.c.[ 9.7.' u.Y.f.Y.Y.t.N._.oX_.f._._.Y.Y._.t.Y.t.r.Y.N.r.r.t.Y.,.,.f.+.+.N.N.u._ 7.7._ d._.N._._.f.t.t.t._._.Y.}._._.|.oX|.}._.Y.f._._._._.7.[ u.+.8._._.|.7.O.z.[ 9.|.N._.Y.Y.|.Y._.|.Y.f.}.|.}.Q.|.}.Y.d.Q._.Y.r.t.}.u.[ u.z.} u.OXY.7._ d.[ } oXN.Y._.Y._.N.t.r.Y.t.Y.r.r._._.t.Y.Y._.Y._.|.|.}.XX,.7.}.+.d._.t._.8.O.d.[ d._._.N.N.N.N._.N.t.8.t.N.t.t.N._._.t.r.r.t.8.r.t.Y.7.] z.[ } t.#.r.[ [ 3.` 8.t.%.%.+.#.#.#.+.+.+.O.O.O.} O.} [ [ } _ _ _ [ ` J J G G ` / / ' O.( ~ U / ` ' ( ` [ _ _ O.O.O.+.O._ O.O.O.+.#.O.} O.#.+.{ O._ ` [ } O.+.+.+.( [ [ ` O.+.#.r.+.+.#.+.8.8.8.8.O.[ 7.d.r.r.r.r.+.8.r.#.#.8.] 7.7.( 8.N.#.O.` ,.] O.8.+.+.O.+.8.O.} _ O.8.O.[ } [ [ ` [ _ _ O.O.[ ( O.[ / ,.[ #.r.t.8.8.O.7._ 8.N.N.t.N.r._.t.N.N._.t.r.r.N.t.t.Y.r.8.",
"+.8.O.O.} +.O.7.7.8.7.8.8.f.}.9.T 7.d.[ _ f.f.[ ( 8.[ [ u.r.+.r.8.O.} O.8.8.8.8.+.#.r.f.8.8.r.r.r.d.d.#.t.8.' 7.7._ [ r.Y.O._ 8.[ _ f.t.8.u.8.8.8.r.r.d.d.d.8.8.8.d.f.t.8.8.r.t.t.t.f.}.7._ 9.8._ [ _.8.) [ 8._ _ 8.t.r.d.f.f.r.r.8.8.r.r.r.8.8.r.r.Y.d.8.#.8.r.r.f.8._ 7.7.) O.Y.8._ _ 8.[ [ f.#.#.r.r.r.+.+.8.8.8.Y.d.8.7.f.Y.r.r.t.Y.Y.Y.N.N.f.` 3.p.[ _ u.f.[ ( d.[ P 7.7.+.7.7.O.7.7.7.8.+.t.r.r.r.f.Y.N.+.+.r.t.8.t.8.7.` ` [ ] ` 7.d._ / 7.[ / 7.7.+.@.#.8.#.t.r.8.8.8.8.g.@.8.8.8.t._.t.t.Y._._.oX[ [ }.O. .v.oX7.) p.7.` u._._.f.t.Y.N._.}.|._.}._._._._.N._.N.r.r.r.r.r.N.Q.,.[ }.O._ f.}. .( 9.7._ d._.t._.f.f.t.8.t.f.f._.f.f.f.}.XX|._.Y.Y._._.Y._.oX7.] c.8.O.f.OXt._ u.c.[ u.|.Y._.|.|.|.|.|.}.|.|.|.|.|.}.}.Q.}.f.Y.Y.}.f.Y._.z.[ u.Q.[ ,.}.f.[ 8.Y.[ [ oXf.f.f.Y._.N.N.Y.Y._._.Y._._._._._.Y._.Y._._._.}.XX[ 7.XX7.[ _._.8.[ u.d.[ f._._.N.N.N.t.N._.N.t.t.t._.t.t._.N._._.r.8.8.r.r.f.7.] u.[ ` 8.t.[ / 7.7.( 8.N.#.t.r.#.+.r.r.+.+.O.O.} } O.} [ _ _ ( ' _ ` [ K J T l n U [ [ / P ` T ~ ' _ _ _ _ [ [ _ } 7.O.} } O.O.+.O.O.O.O.O.O.O...O._ ` 7.O.( _ } ( ( O.O./ O.t.#.+.O.O.+.+.8.8.8.7.[ } 8.r.r.r.+.+.#.r.8.#.r.7.] 7.f.[ [ Y.#._ _ 7.] O.8.+.+.+.8.r.t.8.O.O.8.+.O.8.7.O._ [ _ O.O.} _ [ 7.[ ` 7.[ } +.v.O._ O.8._ +._.#.#.t.N.N.N._._._.r.r.r.t.t.t.8.#.r.",
"+.+.O.+.} O.8.+.7.8.8.8.8.d.z.7.P 7.d.7.( 9.9.( 8.d.] ] 8.r.+.8.r.r.O.O.7.8.8.+.+.r.r.8.7.8.r.r.8.8.8.8.r.8.` 7.d.} ` 7.9._ O.f.] _ f.t.8.f.8.8.7.d.r.8.d.u.7.7.7.8.8.8.+.8.8.t.t.8.f.Y.,.) 7.Q.O._ 7.[ _ 8.8.` [ u.r.d.r.f.d.r.+.8.r.8.t.r.8.8.r.r.f.r.+.8.d.d.8.t.8._ 7.f.[ [ 7.[ ( 8.d.` _ Y.r.+.8.+.r.r.d.8.t.8.r.f.+.8.Y.Y.t.r.Y.Y.}.t.r._.f.` ,.Q.7.( 5.,.( } Y.] U [ 7.7.+.+.7.+.f.7.O.8.8.8.Y.r.r.Y.r.+.r.7.8.8.8.} [ ' / 3.7.` ' ] / [ 8.[ T 7.8.+.+.@.#.+.g.t.8.r.t.r.#.+.r.r.#._._.t.8.f._.t.}. ._ XXf._ u.b.[ O.}.7.` u.Q._.t.t._._._._.|._.Q.Y.}.Y.Y._.Y.Y.t.r.r.d.r.t.}.:.] }.u.` 7.9.} 8.f.3._ u._.r.f.f.f.r.r.f.8.f._.f.g.f.Y.|._.f.Y.|.Y._._._.oX7.] c.Q.O.} c.+.O.|.z.] 9.oXY.Y.}.|._.|.|.}.|.|.|.}.}.Q.Q.}.}.f.u.f.f.f._.Y.f.] 9.Q.d.[ ,.5.8.Y.d.[ [ |.r._.r.Y.f.Y._.Y._.Y.Y.Y.N.t._._._.f.f.Y._.f._._.}.[  .}.c.[ u.c. .O.oX8.[ f.Y._.t.t._.N.N.r.N.t.#.r.N.r._.N.Y._.Y.8.7.r.t.8.f.7.] 7.u.[ [ 7.` O._.} ( 8.t.#.N.r.+.O.8.r.+.O.+.} } } } } [ _ _ _ _ ( / ] J l ` n c G [  .J T } T P _ _ _ [ [ 7.O._ _ O.O.O.O.} +.+.O.O.+.+.+.O._ { O._ / 7.8.( / ) ( [ r.[ T 7.f.O.O.[ [ O.+.O.7.8.O.O.7.7.+.8.8.+.+.8.8.+.#.r.7.` 7.|.7._ 7. .( 8.u.' O.d.7.O.8.8.8.r.8.O.O.O.7.O.O.O.8.O._ _ } O.[ _ O.7.] / 8.8.( ( 7._ _ r.8.( O._.#.#.#.#.t._._.t.t.r.+.#.f.r.N.8.r.r.",
"+.+.O.+.O.+.+.+.8.8.8.d.8.8.8.7.T 7.7.r.O.[ _ 8.r.7.[ [ d.+.+.+.r.r.r.+.+.8.+.8.#.r.8.7.7.8.8.8.8.8.7.8.f.8.` O.d.d.O.,.[ 8.d.8.[ _ r.t.8.f.g.8.8.8.8.f.d.7.O.7.7.8.+.O.7.r.8.8.f.t.t.f.7.] 7.t.t.7.) [ u.8.7._ [ 8.r.t.f.r.8.8.8.8.r.r.t.t.8.r.d.r.r.8.8.r.f.f.f.t.8.[ O.f.8.O.[ ] d.Y.8._ _ Y.r.#.+.O.8.r.Y.Y.N.t.Y.t.8.8.f.N._.Y._.Y.Y.d.N._.f.` ,.c.d.7.[ ` 7.8.8.] U [ 7.} 7.7.8.8.d.8.7.7.8.8.t.r.r.r.r.#.r.+.8.+.O.O.7.' ` 7.8.7.] P ] 7.+.O.T 7.7.+.+.O.+.r.#.8._.t.Y.t.8.g.8.8.v.t.t.8.f._._.t.oXO.[ _.'.d.9.7.9.f.Y.7.` u._.f.Y.Y._._._._._.Y.}.}.}.}._._.Y.Y.Y.Y.Y.f.r.t.}.,.] d.f.7.[ [ d.Y.8.5.] d._.r.f.f.f.f.f.8.f.f.f.f.f.v.}._.Y.Y.Y.}.}.}.}._.oX7.] c.c.d.7.[ +._._.u.,.9.XXY._._.Y._.}.|.|.|._.|.|.}.Y.}.}.Q.f.f.p.f.Y._._.f.[ 9.c.Y.d.,.7.|.r.d.[ _ |.t.t.Y.t.Y.r.N.Y.R.N.f.8.t.Y._.Y.f.r.f.Y._._._.t.}.[  .}._.f.9.7.9.}._.8.[ f.N.t.N.N._.N.t.#.r.#.t.N.N.t.N.N._.t.+.+.8.d.N.r.Y.7.[ 7.8.r.7.) 7.f.t.O.` 8.N.%.N.r.+.O.O.+.+.O.O.} O.O.[ _ _ } [ _ _ _ ' ` I l L / P J ` ` P ' O./ / _ [ _ _ O.7.7.O.[ _ } +.+.O.O.O.+.O.+.#.#.+.O.{ +._ / } 8.+._ ( } +.O.] T 7.r.+.O.O.O.O.+.+.+.O.O.7.u.8.#.+.+.#.#.8.8.8.#.r.7.' 7._.u.7.5.[ r.Y.u._ 7.u.7.+.7.7.7.7.O.} O.8.O.O.O.O.8.} _ ' [ [ } [ O.8.[ / 7.8.8.( _ ( #.t.7.' +.N.#.#.t.#.r.N.N.t.t.#.#.#.r.t.Y.f.t.r.",
"+.r.O.O.O.+.O.r.8.8.d.8.8.7.8.8.^ 7.7.O.Z.7.O.Y.O.3.,.[ 8.+.O.r.+.+.8.+.+.8.+.8.+.+.8.7.8.8.+.8.8.8.8.+.t.8.` [ 7.u.d.7.8.}.O.7.[ ` 8._.t.8.d.f.d.r.r.f.f.+.7.u.8.+.O.8.8.8.r.r.f.8.#.f.7.] 7.+.8.u.O.r.t.O.7.[ _ r.r.8.f.t.r.r.t.r.r.t.r.8.t.t.r.t.r.r.Y.t.t.f.t.t.9.[ 7.8.9.f.7.8.}.+.7._ [ Y.r.r.+.O.8.+.d.Y.d.Y.r.r.r.+.r.Y._.d.r.Y.Y.Y._.Y.Y.` ,.u.+.8.8.7.Y.O.[ ,.P [ O.[ O.7.f.r.8.8.7.[ 7.8.7.r.r.+.t.+.8.t.r.O.O.+.8.] ' O.O.r.7._ 8.O.} O.R  .+.#.+.| O.8.8.8.t.t.r.8.t.#.8.7.t.8.#.#.v._._.#._.O.[ f.t._.}.r.oX8.8.7.` 8.Y.t._._.Y._._.f.Y.f._.v.u.Y._.Y._.Y.t.Y.Y.f.r.r.Q.[ ] 9.7.8.u.d.f.O.7.7._ d._.g.f.u.f.Y.f.f.Y.f.f.t._.}.}._.Y._.f.f.oXoX|._.}.7.] z.7.r.d.+.'._.8.9.,.9.|.Y._._._._._.|.|.|.|.}.f.c.}.Q.Y.}._._.v.}.Y._._.u.[ 9.8.+.}.Q.}.f.O.d.[ _ Y._.r.Y.Y.Y.r.r.Y.m.N.r.r._.Y.Y.Y.t.Y._.f.Y._.N.N.}.,. .f.t._._.8.oX_.8.u.[ d.Y.r.N.r.r.t.#.#.#.#.t.#.#.N.t.N.N.t.+.+.Y.f.r.t._.7.[ 9.O.f.}.7.u.7.7.7.` 8.N.#.#.r.Y.+.+.+.+.O.} O.} _ ( ( _ [ [ _ ' _ / ~ E V k ' } ~ P / O.( ' _ / _ O._ _ O.O.7.8.O._ } 7.O.} } O.O.O.+.+.+.O.O.O.+._ / [ O.8.O.} r.O._ ] T [ r.#.+.+.+.O.O.8.O.O.O.O.8.r.+.#.+.#.r.#.8.8.+.+.7._ 7.u.7.u.d.f._.+.3._ 7.u.7.O.O.7.O.O.O._ O.8.[ _ O.+.} ' ' _ _ [ 7.} O.8.[ ~ [ [ r.} } O.t.O.7._ O.r.#.#.r.#.r.r.t.N.N.t.N.r.#.r.t.Y.r.8.",
"O.+.+.+.} O.+.8.r.r.8.8.7.8.d.z./ 7.7._ O.Y.Y.+._ 7.,.[ 8.#.+.r.+.+.+.+.+.#.t.8.[ } 8.8.8.8.8.8.7.8.8.#.r.u.` 5.7.[ +.Y.Q.7._ 7.[ ` 8._.t.f.f.f.f.Y.t.t.r.8.7.8.8.8.7.8.8.8.f.t.r.#.#.f.7.] 8.O.[ 8.Y.r.O.[ 8.[ [ r.r.Y.Y.f.r.r.r.r.N.N.+.[ 8.v.t.t.t.t.f.f._.f.t.t.8.[ 7.7.O.t.oXf.O.[ 7._ [ Y.r.+.r.r.8.+.8.r.r.r.r.r.r.r.Y.Y.f.+.8.Q.|.Y.Y._.Y.` 3.u.[ [ Y.^.7.` [ ,.T [ 7.O.7.O.8.r.r.7.7.8.u.7.[ 7.f.r.r.+.r.r.r.+.#.+.8.[ ) 7.[ } 8.r.O.[ O.[ R [ +.+.+.| O.+.t.r.r.+.#.#.8.#.8.+.@.@.g.t.Y.f._.v._.O.[ f.+.7.}.oXf.[ 7.7.` 7.Y.t._._._._._.t.N._.}.9.7.z.|._._._.t.r.r.d.f.r.Q.[ :.9.[ [ }.oXO.` 7.7._ d.}.t.f.f.f.f._.|.}.f.t.Y._._._.}.}._._._.}.}.}._.}.7.] c.7.[ d.|.oX+.7.z.,.7.|.t.Y.}._.|.|.|.|.oXoXc.7.9.}.}._._.Y.}.}.}._._._.u.[ 9.z.[ u.#XQ.,.,.f.[ _ Q.Y.Y.Y._.|.Y.Y.Y._.t.N.f._.Y.Y.t.Y.Y._.f.f.f.N.N.}.,.5.f.O.8._.}._.9.8.d.[ f._._.N.r.#.#.r.r.r.N.t.O.} r._.r.N.r.r.r._.f.Y.t.Y.7. .u. .O._.|.7.] 7.O.( 8.t.r.r.#.r.t.t.+.O.+.} ` _ / / / [ _ [ [ / T T K / P z J / ~ ( +.O.P ` _ / [ O.} O.+.7.O.O.O.O.7.3.` / 7.+.O.+.+.O.{ O.+.O.+.} / [ [ _ +.r.8.( [ } T [ r.+.8.8.+.+.+.+.+.+.O.O.O.8.8.r.r.r.r.r.r.r.#.+.7.] 7.u.[ 7.oXoX+.[ 7.` 7.f.9.7.O.7.7.O.7.} O.7.] ` [ } _ ( ' _ [ [ O.O.O.8._ / 7._ O.O.N.r.O._ 7._ O.N.#.r.r.r.t.t.N.t.N.N.N.r.r.#.N.r.#.8.",
"O.+.+.O._ [ +.+.r.r.8.d.8.8.f.u./ 7.7.) _ 8.i.[ ' 7.,.' 8.r.#.+.+.+.+.#.+.r.r.O.[ [ 7.8.+.8.8.+.+.8.8.+.#.8.` 5.7.` ] d.8.] ` 7.[ ( 8.Y.t.v.f.r.f.r.8.t.r.r.8.7.8.r.8.+.8.8.8.t.r.r.r.d.7.] u.7.` O.u.7.)  .8._  .Y.Y.Y.r.8.#.r.8.r.Y.8.] ] [ 8.t.r.t.t.r.f.f.r.g.t.9.) 7.7._ +.|.7.` _ 7._ _ Y.+.+.r.r.d.8.8.8.r.8.Y.r.8.r._.f.8.8.f.Q.}.f.f.}.d.` 7.9.] ` 8.d.] / ,.,.T O.u.} 8.O.O.r.r.8.r.Y.7.' :.3.u.r.r.+.r.+.#.#.#.O.7.[ ) 7.` ( 8.8._ /  .[ P [ +.O.+.+.O.O.8.t.r.#.t.#.#.@.8.@.8.8._._._.f._.t.f. .[ c. .[ p.b.7.` 7.9.` 8.Y.N.f._._._._.Y.Y.|.p.7.3.7.f.oX_.Y.N.r.Y.f.8.f.Q.] :.z.,.] 9.u.] ` j.7._ 8._.8.f.Y.f.f._._.f.t.8.t._._._.}._._._._.f.d.f.}.|.7.] c.7.) 7.Q.f.[ 7.z.[ 7.|.8.r.f._.}.oX_.}.oX}.j.,.7.u.}._.f.f.f.f.Y.}.t.f.u.[ 9.z.] ,./.9.' 3.f.[ _ Q.r.Y.|.f.Y.Y.r.r.r.t._.t.r._.r.t._.Y._._.t.t._.N.Q.] [ u.[  .v._.9.[ 9.d.[ f._._._.t.#.#.N.#.t.N.O.[ [ O.t.N.N.r.r.r.f.Y.Y.r.Y.7.[ z.5.] 7.c.[ ` 7.7.( 8.r.#.r.+.r.r.r.8.+.8.' z ^ / ' _ _ [ _ ( / P / ~ P P J z U Z ( O.T Z _ _ ~ [ O.O.+.O.O.O.O.O.+.7.] / ` [ O.O.O.O.O.} +.#.O.+.} / ,.[ ` } 7.[ / } 7.^ [ f.O.+.+.O.#.+.+.8.O.8.O.[ 7.8.+.t.#.8.r.f.r.#.r.7._ 7.9._ 7._.Y._ [ 9.` 3.u.7.7.7.7.u.8.O.O.8.[ ` / / ] } _ [ ( _ ( O.O.O.+.( / 7._ _ ( 8.O.) ( 8.) O.Y.#.#.t.#.t.t.t.t.t.t.r.t.r.t.t.+.O.8.",
"+.+.+.+.} _ O.8.8.d.d.f.d.8.r.u./ 7.7.] ' 3.3.[ [ 9.[ _ 8.r.+.+.+.#.8.#.#.r.O.] [ ,.] 7.9.#.+.+.+.7.8.#.t.u.` 5.7.] ' ,.:.' _ 9.[ ( +.N.t.t.r.t.r.8.r.r.t.t.8.8.r.8.8.r.r.#.#.8.d.r.g.f.5.] u.7.] ,.5.[ ] 7.8.[  .f.r.+.+.+.7.8.r.t.8.[ ] ,.] [ 8.N.t.r.r.8.8.8.t.t.+._ 7.9.) [ 9.[ ` ] 7._ _ r.#.r.#.r.Y.r.r.8.r.r.f.t.8.r.Y.r.8.d.Y.f.Y.Y.f.f.d._ 7.9.[ ] ,.3.` ' [ ,.T O.8.8.8.O.8.8.r.t.f.7.] :.,.,.7.8.N.#.#.#.#.#.#.#.8.[ _ 7._ / ,.[ / ` [ [ T [ +.+.@.#.+.+.#.#.r.r.8.8.r.@.7.#.t.N.t.t._._.f.8.f.[ [ z.5.] j.j.[ ] 7.9._ 8.Y.N._.N._._._._.oXz.7.7.7.3.9.Y.|.Y.r.f.Y.Y.Y.Y.Q.] ,.z.,.:.,.,.:.' 9.7.) 8.Y.g.f.Y.Y.t.f.f.8.f.f.t.N._._.Y.Y._._.Y.f.d.f._.|.7.[ c.7.] ,.9.j.[ j.z.,.9.XXt.r.f.f.Y._._.oX}.9.5.7.7.7.c.|.N.t.t.8.Y._._._.f.[ 9.z.,.:.,.,.] 7.d.O._ d.f.f.Y.Y.t.r.t.r.r.t.N.t.t.t.r.r.Y.Y._._._._._._.}.,.[ u.[ [ 9.u. .[ 7.u.[ 8._.N._.t.r.N.N.N.Y.+._ ,.[ [ 7._.N.r.r.r.f.Y.f.t.Y.7.[ z.5.] ,.7.[ ] 7.7.( 7.N.#.#.r.r.8.#.+.+.+.] I ` ] ( _ } _ _ ( ~ P ` ` P Z J I I U P T U P ` ' / [ +.[ O.[ [ } O.+.7.] ' ;.' ' O.O.O.O.O.O.O.+.O.+.} / ,.,.] [ ] ' ` 7.9.` } f.+.+.O.O.+.8.r.8.+.8.} [ 7.r.#.#.r.r.8.8.8.r.r.8.[ 7.9._ [ 9.7._ 7.9.] [ 7.O.[ 7.7.7.O.7.8.O.' ;.` T / [ +.O.} _ ( } O.O.O._ / ,.[ ] ` [ _ _ [ 7.) O.N.#.#.t.t.t.r.t.t.N.r.t.8.r.Y.r.+.+.u.",
"+.+.+.8.O.} +.#.8.d.d.d.d.r.d.u./ 7.7.] ] :.' [ ] 7.3.' 8.8.O.+.+.r.r.#.t.7.] [ ,.,.[ [ O.#.+.+.+.+.8.r.#.u.` ,.7.] ] ;.;.] ' 9.[ ( +.t.#.t.8.t.t.Y.r.8.t.r.8.r.t.7.8.N.r.8.8.8.r.8.8.}.5.] 9.j.] :.,.,.[ 5.j.,. .u.8.+.+.8.8.+.8.u.[ ] ,.,.:.] O.r.t.r.8.8.8.8.g.t.+._ 7.j.] ] :.:.' ] 7._ ( r.#.#.r.r.d.t.r.+.r.r.r.t.+.r.r.r.Y.Y.Y.f.f.f.r.r.c._ 7.9.[ ] ' :.' ' [ [ / [ 8.8.O.7.8.O.r.t.7.] ,.:.] :.,.7.r.#.#.+.t.+.#.#.f.[ ( 9.[ ` ' ' R ` O.[ R ` O.#.#.+.t.+.+.+.t.#.#.8.t.+.+.8.t.t.t.t.t.t.8.@.p.[ _ 9. .,.,.5.[ ] 7.9.[ 8._.t.N.t._.N.Y.oXc.,.,.5.7.7.7.7.c.Y.r.r.r.f.Y.Y.Y.] ,.u.,.:.>.>.:.' 7.7._ 8.Y.r.t.f.t.t._.t.t.Y.f.8.t._.Y.Y.Y._.Y.Y.Y.f._._.Q.7.[ z.7.] ,.,.5.,.7.z.,.7.oX_.Y.f.f.Q.f.oX}.8.,.7.7.5.,.7.c.}.t.t.f.f.f._._.f.[ 9.z.:.>.>.:.,.,.u.7._ u.r.r.r.Y.Y.Y._.Y.Y.r.r.t._.r.t.r.t.N._.N._._.N._.c.] [ 9.5.] ,.5.] [ 7.9.[ 7.t.t.8.t.N.#.r.t.8._ [ ,.,.,.} 8.f.t.r.r.f.f.r.t._.7.} z.,.:.:.,.] ] 7.7.( 8._.r.r.8.r.r.8.O.O.[ [ ` ' ( / ` [ ' _ / T J J P P Z P U J I I J T T / ` / [ [ [ _ [ 7.[ } 7.] ^ ' :.' ` ] 7.8.O.O.+.O.O.o.#.[ / ,.3.] :.' ' ` 3.7.` [ 7.O.O.+.+.O.r.r.+.O.+.O.O.8.8.+.8.8.8.O.O.O.8.8.7.[ 7.7.) ] ,.[ ] 3.8.,.[ r.8.} [ [ 5.[ 8.O.` ' :.` T U / 7.O.O.O.( ( O.{ O.[ ~ ,.[ ` ` ' / ] [ 7._ O.r.+.r.t.t.t.t.N.N.t.#.#.#.t.f.#.+.r.u.",
"} +.O.+.+.+.+.+.r.r.8.8.8.8.Y.u./ 7.7.) ] :.' [ ] 7.,._ 7.+.O.+.8.#.#.t.7._ ,.[ ] ,.,.,.[ +.8.8.+.8.8.#.t.f.` 5.7.] ] :.;.' ' 9.[ ) #.t.+.t.t.r.t.f.t.8.r.r.+.8.f.8.8.r.t.Y.f.8.9.+.8.c.5.] l.j.] ,.,.:.,.7.u.7. .8.8.8.8.8.8.t.8.[ ' ] ] ] ,.,.] } t.N.r.t.t.r.t.t.7.) 7.7.) ] :.] ] ] 7.[ ( f.8.8.f.r.r.8.r.r.r.t.Y.8.O.r.Y.d.Y.Y.Y.Y.f.u.r.Y.c.[ 7.u.[ ] ] ' ] ` [ 7./ } +.O.7.7.8.8.d.7.[ [ 5.[ ] ] ,.[ 7.r.t.#.r.#.#.t.f.[ ( 9.] ` ' / ` ` [ O./ ` | O.#.#.#.+.+.#.8.r.#.#.t.#.+.#.t.t.t.8.8.#.8.#.u.[ _ 9.5.:.,.,.,.[ j.z.[ 8._.N.t.t._._.|.c.7.,.7.7.7.7.7.3.7.d.Y.8.8.d.r.Y.Q.] [ z.,.:.:.:.:.' 7.9._ 8._.t.f.f._.}.Y.t.r.f.Y.f.t._.Y.Y.Y.Y.Y.N.Y._._._._.7.[ c.j.] ,.,.,.,.7.z.,.7.oX_._.Y.Y.Y.|.}.8.,.,.7.5.7.7.,.7.b._.Y.Y._._._.'.f.[ 8.x.:.>.,.>.:.,.u.O.' t.8.8.t.t.Y.Y.Y._._.t.Y.t.Y.Y.f.t._.t.N._._.Y.N._.c.] [ u.5.:.,.:.,.[ 7.9.[ 9.t.#.t.r.t.#.t.+.[ ] [ [ ,.,.[ [ 8.f.t.r.t.f.t.t._.7.[ z.,.] ,.:.,.] 7.7.( 8.N.t.t.8.8.8.+.O.O._ ` ( ` / ( / / ' _ / T x k d V U T U I J L J P T / ` R _ O.[ _ [ O.O.7.] / ' ] ' ' ' ' [ 7.8.+.+.+.+.+.#.} / ,.7.] ] ] ' ` 3.7.` 7.7.[ +.r.8.r.r.+.O.O.7.+.9.8.8.#.t.8.+.O.O.+.+.8.7.[ 7.7.` ] ,.:.[ ,.9.,.3._.t.8.7.[ O.7.u.] ' ' ] ' E U T / O.+.+._ [ [ ..+.} / 3.] ` ` ' / ` [ j._ O.r.#.#.t.t._.r.r.r.#.#.t.r.Y.r.+.8.t.r.",
"[ _ } +.O.+.O.+.+.+.O.u.8.7.d.8.T 7.7.` ' ,.' ' ' 7.[ _ 7.+.O.#.8.#.r.8.[ :.,.[ ] ,.,.,.[ [ 7.t.+.8.8.#.N.d.` 5.7.] ' :.' ' ' 9.[ ( 8.#.#.r.r.f.f.f.Y.t.8.8.+.8.f.8.+.8.f._.f.8.7.8.8.u.,.' j.j.] ,.,.] [ 7.u. .O.f.8.r.r.8.t.g.[ ' ] ] ] ] ,.[ ] ] } 8.r.r.f.f.t.t.O.` 5.5./ ' :.' ] ] 7._ ) d.+.+.8.8.+.+.8.r.r.r._.+.O.d._.r.d.d.f.Y.d.8.f.d.z.:.7.8.] ] ] ` :.' ] ,.T } +.O.8.7.8.d.7.[ ,.7.5.] ` ' ,.,.[ O.t.r.#.#.#.#.7.' _ 7.` / ` / ` / _ O.R ) [ _ O.+.+.+.+.#.8.r.#.#.r.t.#.#.t.r.8.#.#.8.t.8.8.[ ] 9.[ :.5.:.] ,.9.u.[ t._._._.N.f._.c.7.,.3.7.5.7.7.7.7.3.7.d.r.8.r.d.Y.Q.] ] 9.,.' >.:.:.' 7.9._ 8.Y.8.f.f.f.f.8.r.t.Y.f.Y._.N.Y._.Y.f.Y.t.f.}.f.t.oX7.[ c.j.] 5.,.] :.7.z.,.7.oXN.Y._.f.Y.}.u.,.,.7.7.,.7.7.,.,.7.}._.Y._._.N._.f.[ 9.z.:.>.2.>.:.,.u.[ ) f.8.r.Y.r.N.Y.r.t.Y.Y.f.r.t._.f.t._.f.r.t.Y._._.t.Q.] [ u.,.,.,.:.,.[ 7.u.[ 9.r.r.Y.r.r.t.8.[ ] [ [ ] ,.,.,.3.7.8.d.r.f.r.Y.t._.7.[ 9.] ] ,.:.,.] ,.7.( 8.Y.t.f.8.O.} O.] [ _ / ( [ ' ` / / ' ( T U J U n J L U U J G I I U U ` ` P _ O.( _ } O.8.7.` / ' [ ' ` ' ` / ] 7.+.O.O.+.+.#.} / ,.,.] ' ] ' / ,.,.' 8.8.O.+.#.t.t.#.+.O.+.+.+.8.+.+.8.8.8.+.8.d.8.+.r.7.] [ ,.` :.,.] ] ,.5.] ,.d.r._.8.7.8.7.[ ' :.' ` ` T T T T ` [ } _ [ ' O.O._ / [ ` / ` ] / / ` 7.) [ N.#.#.r.t.t.+.+.+.N.r.r.t.t.t.+.8.f.r.",
"O.O.O.+.+.O.O.+.} O.7.u.8.8.d.8.T 7.7.` ' :.] ' _ 7.[ _ 8.t.#.r.r.t.8.[ [ ,.,.,.,.,.,.,.,.[ [ 8.r.8.#.#.t.8.) 7.7.' ' ;.;.' ` 9.[ ( r.N.r.#.t.Y.f.Y.Y.t.8.7.8.8.t.u.8.8.g.f.g.8.8.d.r.f.7.] 9.j.:.:.,.,.] 7.u.5.7.f.f.r.r.f.u.[ ) :.:.] ] :.' ] ,.] ' _ 8.t.8.8.t.t.O.) [ [ ` ' :.] ` ' 5.` ) 8.+.+.+.O.7.8.8.r.N.t.Y.r.8.Y.Y.f.f.r.d.r.d.d.f.Y.c.] 7.9.] ] ] ' ] ' [ ] R [ +.+.8.8.d.7.O.,.,.3.7.,.` ;.,.,.] [ 7.8.t.#.+.+.7.` ) 7.` / ` ` ` R _ _ / O.8.O.@.+.r.#.+.t.f.8.+.#.t.#.#.#.t.t.t.#.r.8.g.8.d.[ _ 9.,.:.,.,.:.] 9.u.[ t._._._._.oXQ.7.,.,.5.5.5.7.,.7.7.7.3.7.d.Y.t.Y.Y.Y.] [ 9.:.' >.>.:.' 5.9._ 7.Y.8.f.f.t.g.8.r.Y.Y.f.Y._._._._._.f.t.N.Y.Y.v.Y.}.7.[ z.j.] ,.,.,.] 7.z.[ 7.oXN.Y._.}.}.u.,.7.7.5.7.5.5.,.,.,.,.7.}.|.Y.Y._._.f.[ 9.u.,.>.2.,.:.] u.[ _ f.Y.N.t.t.N.N.Y.t.Y._.f.8.8.t.Y.N._.Y.t.#.f._._.N.}.] [ u.5.,.,.,.,.[ 7.9.[ 8.f.f.Y.N.Y.8.[ ] ,.] [ [ [ [ ,.3.7.[ 7.f.t.f.Y.Y._.7.[ 7.] :.,.,.,.] ,.5.` 7.Y.t.d.8.7.} [ 3.[ _ ' ` _ _ _ ` _ / ` / P / ` ' U G U U J J L U L P ] ( / [ [ _ O.+.d.7.[ ] ' ' ] [ ' ` ' ] ' _ O.+.+.O.+.#.} ` ,.,.] ;.:.:.' ,.,.' 8.Y.+.+.+.#.#.#.+.+.+.#.8.8.8.#.8.8.#.r.r.t.r.r.8.7.) [ ,.' :.:.:.] [ 7.] [ 8.8.#.t.f.8.] ' :.,.' ' ` ` ` ` ` ` / [ [ _ _ O.O.( T ] ` ` ' ' / / ` 7._ } t.#.#.t.#.#.#.#.8.t.r.N.t.t.r.#.8.f.d.",
"O.+.+.O.O.+.O.O.O.O.7.8.d.r.d.7.T 7.7.` ' ;.:.` _ 8.[ _ r.t.#.#.r.8.[ ] ,.3.,.,.,.:.,.,.,.,.]  .8.t.#.#.#.+.( O.7.' ;.;.:.' ` 9._ ( t._.t.t.t.r.Y.f.t.8.8.g.f.r.8.f.f.8.8.8.9.8.Y.d.t.}.7.) 9.7.] ,.,.,.,.j.u.[ O._.t.8.r.u.,.' :.,.:.] ] ' ' ] :.,.,.] [ 7.8.8.8.8.O.` 3.[ ` ;.;.:./ ` [ ( ( r.r.r.r.8.8.8.8.8.t.N.m.Y._.Y.f.t.f.8.8.8.d.d.r.|.c.' 3.7.] ' ,.' ' ' _ ] / [ r.+.8.f.d.,.,.,.3.[ 7.[ ` ] 5.[ ] ,.[ 7.d.8.8.+.8.` ` 7./ / ] ` ` R ) _ / 8.f.#.#.+.+.+.r.#.8.+.O.+.N.#.t.#.t.N.t.#.r.t.8.t.Y.[ ' 9.[ ,.,.,.:.] 9.u.[ t.OX'._.oX|.7.,.,.7.,.7.7.3.7.3.3.7.3.,.7.Y.Y.d.Y.Y._ [ j.] ;.:.:.:.' ,.7.' O.Y.r.r.f.Y.t.Y.Y.t.Y._.Y.t._._.Y.f.t.t.t.f.Y._._.}.7.] c.9.:.,.5.,.] 7.z.[ 7.|._.Y._.}.p.3.3.7.7.,.5.5.5.,.,.,.,.,.9.}.|.Y._._.u.[ 9.u.,.>.,.,.:.] u.} _ }.Y.Y.Y.N.t.Y.Y.r.f.Y.t.8.+.t.Y.t.f._.N.t._.t.N._.Q.[ [ f.,.:.,.:.:.,.7.7.[ 8.'.N.t.Y.d.[ ] [ [ ] [ ] ,.:.,.7.7.3.O.8.Y.Y.f.f.}.7.} 7.[ :.:.,.,.` 5.7.` 7.d.t.8.r.d.7.[ 7.7.] [ ` ` _ [ _ ` ` / T ` / ` } T j J U I I I T L T [ ( ( [ } O.8.7.O.[ ' ' ] ' ' :.' ` :.:.] ` _ 7.8.+.O.#.O./ ,.] ' ] ] :.] ,.7._ 7._.+.+.+.O.@.+.+.8.O.+.8.#.+.r.8.#.#.r.8.8.r.#.8.8.' } ,.' :.:.,.] ] 7.[ _ 8.8.#.N.8.[ ] ] ] ] ] :.' ,.` ;.' ` E ` ' [ [ _ O./ T [ / ` ' ` ' / ] 7._ O.8.#.N.N.t.+.r.N.r.+.r.t.#.N.8.t.8.r.f.",
"+.+.+.+.O.+.O.O.O.8.O.8.d.d.Z.9.R 7.7.) ' :.:.` } 8.} _ r.#.#.N.8.} ] ,.3.3.3.,.] ,.,.,.,.:.,.[ [ 8.t.#.#.8.( 7.9.] ' ;.;.' ] z._ ( t.t.t._.f.t.t.t.t.8.8.f.f.f.t.f.f.f.8.#.8.f.Q.f.f.}.7.) 9.j.] ,.,.,.,.9.z.[ O.Y.t.Y.d.,.' :.,.] ,.,.] ' :.] :.,.,.,.[ [ u.Y.r.f.7.` 7.7.] ;.:.;./ ] 7.( _ Y.r.r.f.d.r.#.r.r.f.f.Y.Y.t.t.Y.r.r.8.8.7.8.u.d.Q.u.' 3.u._ ] ,.] :.` [ [ / 7.8.+.Y.d.7.,.,.,.,.7.7.,.,.,.5.,.,.,.[ [ 7.d.t.8.u.[ ' 7.) ` ' ' ` / 7.} / +.#.+.O.O.O.O.#.+.+.+.+.8.t.t.t.#.t.t.t.N.t.t.t.t.Y.3._ 9. .] ,.,.:.[ u.p.[ t._.'.[.}.7.,.7.5.7.7.7.7.7.5.3.7.7.7.3.[ 8.|.|.Y.Y.] [ 9.:.;.>.:.:.' 7.7._ 8.Y.t.Y._.Y.Y.Y.Y.N.Y.Y.N.N.N._._.t.t.t.t.Y._._._.Y.7.] c.9.[ ,.6.,.,.9.z.[ 7.oX_._.oXu.5.3.7.7.7.7.7.7.j.5.,.,.,.,.,.7.XX|._._.u.[ u.z.,.>.2.,.:.7.Q.} O.oXN.v._.Y._.t.r.r.Y.t.t.8.r.f.Y.N.N.t._.Y._.t.Y._.}.,.O.c. .,.,.,.,.[ 9.u.[ r._._._.u.O.[ ,.[ [ ,.[ ] ,.[ 3.3.7.7.7.} d.Q.Y.N.}.7.[ u.7.] ,.,.:.] 9.7.` 8.f.r.t.8.r.7.O.} [ } O._ [ _ _ ' ] ` / R ` ` _ [ T j n T U I U T P / O._ ( O.#.7.O.[ ) ` ` ' ' ] ,.:.' ' :.] [ [ ] [ 7.r.#.#.O.' ,.[ ] :.:.:.] 7.u._ O.t.+.8.+.+.#.#.+.+.O.+.+.#.8.r.8.8.t.r.#.8.+.#.t.u.[ 7.7.] ] ,.:.] j.z.[ [ 8.t._.8.[ ] [ ,.] ] :.] ,.:.] ' ` ;.` E ` ,.8.O.} ( / } _ / ' ' ` _ 7.7._ O.#.o.+.t.r.t.#.N.t.r.+.+.r.N.r.r.8.f.8.",
"+.+.+.O.O.O.+.r.8.8.8.r.d.8.Z.8./ 7.u.[ / :.:./ 7.d.[ _ 8.r.r.d.3.' ,.3.,.,.3.3.,.,.:.,.,.,.,.,.] [ 7.#.#.u.` O.u.] ` ;.1.` ,.c.[ ( #.N.t.f.f.8.8.f.8.r.t.8.f._.f.f.f.f.8.8.g.f.f.f.Y.f.7.] z.9.] :.5.,.] u.c.[ O.f.d.f.7.] ] [ ] ] :.,.:.' ' :.,.,.,.,.] ] 7.d.Y.Y.7.` 7.u.] E :.;.E 7.u.( _ _.#.#.f.d.r.+.+.r.8._ u.}.8.d.f.d.8.8.u.7.7.7.8.8.u.' 7.c._ ' ,.,.] ` 7.} ~ 7.8.8.d.7.,.,.,.:.,.7.3.7.7.7.[ ,.,.] ,.[ ,.7.8.r.8.] _ 9.[ / ' ] / ` u.} / O.+.O.O.O.8.+.+.#.t.8.7.t.#.t.t.#.#.#.t.N._.r.N.t.f.[ _ u. .] ,.,.' ,.}.u.[ r.'._.f.7.,.7.7.5.,.7.5.7.7.,.7.7.7.7.7.,.,.u.Q.R.|.[ [ c.5.;.:.,.:.] z.7.' r.N.t._.Y.f.Y.N.Y._.N.Y.Y.N.t.t.t.N.N.r.Y._._._.Y.Y.7.[ c.z.,.:.5.,.[ c.z.[ 7.oX_.}.c.5.,.7.7.,.7.7.5.7.7.7.7.,.,.,.,.,.u.}._._.u.[ z.c.,.>.2.>.:.z.XX} O.oXt.Y._._.Y.8.8.r.N.r.Y.r.Y.r.f.Y.N.r._.Y.Y._.N.t.}.7.O.v.7.] ,.,.:.[ f.f._ r._._.f.O.[ [ [ [ ,.[ ,.,.:.[ 3.,.7.7.7.} 7.u.Q.Y.}.} [ f.u.] ] ,.` 5.c.7.( u.f.8.t.8.8.7.O.} 7.[ 3.[ _ _ _ ' [ _ ~ T T ] ' _ T l I ` L I T U U _ O.( ( O.7.[ ` / ] ' ` ` / ] ,.' / ' :.] ] ] ] _ _ 7.#.%.+.] 7.7.' ;.:.:.' u.z.[ } +.8.+.8.8.+.8.+.O.+.+.O.#.#.8.t.r.r.r.+.+.+.r.r.u.[ O.f.[ ` >.;.] f.c.] [ Y.8.7.[ ] [ [ [ ] ] ' ' ,.] / ` ' ' ` ` T ' 7.O.O.] T 7.[ T ' ' / _ 8.7.( } t.o.O.#.+.#.N.#.t.r.+.r.r.r.t.+.8.8.8.",
"+.#.+.+.O.O.8.r.r.r.8.r.r.+.d.d./ 7.d.O./ ;.;._ 8.d.[ ] 8.t.8.,.] :.,.3.,.3.3.7.7.,.,.7.5.,.:.,.,.,.] O.r.d.) O.Q.7.' ;.;.:.8.Q.[ ' #.t.r.r.#.8.8.d.r.r.t.8.t.f.f._.}.f.8.8.f.c.f.v.t.}.9.[ z.XX5.:.,.,.5.}.Q.[ O._.8.7.:.,.:.] [ :.:.,.,.:.:.:.] ,.,.] ,.[ ] ,.u.Y.7.` 7.c.7.` :.` ] z.u.` ] f.#.r.t.d.r.+.8.f.7.T ,.}.t.r.r.8.8.r.d.8.8.+.O.r.d.] 7.|.7.` ,.[ _ } u.7./ 7.f.7.3.,.3.,.,.,.,.,.7.O.7.7.7.3.[ ,.,.,.5.[ +.#.8._ _ f.9.` ' ' ` } d.O./ O.@.O.O.+.8.+.#.#.t.r.8.#.t.t.t.t.t.#.8.t._._.t.#.Y.[ _ d.9.) ,.,.] 7.|.u._ t.OXt.7.[ 7.7.7.7.7.7.7.,.,.7.7.7.7.7.7.7.3.,.8.}.XX,.[ XXu.] :.>.:.5.XX9._ d._.t.Y.Y.N.Y.N.N._._.Y.f.t.t.N.t.Y.N.Y._._._.t.N._.7.[ c.c.5.:.,.,.9.}.z.[ 7.XX}.u.5.,.7.7.7.,.7.5.7.9.7.j.j.7.5.,.5.7.,.7.f._.f. .c.%Xj.>.2.>.,.|.|.} 7.oXN._.Y.f.Y.8.r.r.f.f.f.d.t.N.f.t.t.t.t.Y._._.t.t.|.7.O.oXf.[ ,.,.] 7.}.d._ Y._.8.[ [ 3.[ [ [ ,.,.7.,.[ ] [ 7.,.,.7.7.7.7.7.f.}.O.[ Y._.5.] :.] 9.}.7.` 8.t.8.r.8.8.+.O.} } 7.3._ _ } } _ [ [ ` / / ` ` _ / J T ,./ L T T T O.7.( _ 7.[ ` ] ] ' ' ' ` / ' ] ` ' ' ,.:.' ] [ [ [ [ O._.8.] u.u.[ ' :.:.] c.c._ O.@.+.r.t.r.8.8.+.+.+.8.8.8.#.8.+.r.r.8.+.O.+.8.r.u._ O._.7.] ;.' 7.f.u.[ [ Y.9.) ] [ [ [ [ ] :.' ] :.' E ` ;.` ` ;.E E E _ O.[ / 7.7./ / ' ` O.8.8._ O.r.#.#.t.#.r.#.N.N.m.r.N.r.f.t.#.+.8.8.",
"+.+.+.+.O.} 8.8.r.r.+.7.8.+.r.u./ 7.+.8._ ` / O.r.8.[ [ d.8.3.] :.,.,.3.,.3.3.7.,.7.3.,.,.,.:.:.,.:.' [ #.d.` O.Q.z.[ ' ;.7.d.d.[ ' 9.8.8.r.+.r.t.8.8.8.8.t.t.t.f._.f.8.8.8.t.}._.f.t.}.9.] u.XXu.,.:.:.d.OXd.] O.|.7.] :.,.] ] ] ,.] ,.,.] ,.] ] ,.,.] :.,.] ] [ u.9.` 7.f.u.] ` ` 9.c.7.` _ d.8.r.r.8.8.+.r.8.d.[ ] }.r.r.r.8.8.8.8.d.d.O.+.+.d.] [ |.f.' :.' [ f.d.[ ~ 7.7.[ ,.,.7.,.,.,.,.7.7.7.7.} 7.[ 7.,.[ 7.,.] [ +.d._ ` d.r.O.] / _ 8.8.[ / O.+.+.+.+.8.+.#.+.#.r.#.+.t.t.t.r.t.t.#.+.8.Y.t.r.f.] ( 8.}.[ ] ] } Y._.8.( f.oX8.7.7.7.7.7.7.7.7.7.5.,.,.7.7.7.7.7.7.7.,.7.c.XX,.[ Q.}.,.:.:.,.u.}.7.[ r._.t.t.t.Y.N.N.N.f.N._.t.#.t.N.N.t.t.Y.Y.Y.f.r.t.f.7.] d.|.u.:.:.7.Q.|.u.[ 9.XXu.,.5.7.7.,.,.7.,.5.7.j.7.7.7.7.5.,.,.,.,.,.7._.c.[ z.XXc.5.>.>.z.|.Q.} 7.|.Y.t.t.8.f.r.t.r.t.Y.f.8.8.f.Y.t.f.t.t.Y.Y.t.t.t.}.7.O.oX}.9.,.] [ Y.oX8.( Y._.7.,.,.7.[ [ [ 3.[ ,.3.[ ] ,.3.3.,.7.7.7.,.[ +.|.O._ t._.f.,.` 5.f.f.7.` 7.t.8.8.8.8.O.7.} [ } _ ( O.} } [ _ } } ` / / _ ' / K T 3.5.U Y U _ +.O./ _ 7._ ' :.:.` ` ;.` / ' ' ] ,.[ ' ] ,.:.] ,.7.[ | N.8.' 7.f.7.] ` ,.7.}.8.` 7.+.O.#.t.N.t.+.O.8.8.7.8.+.O.O.O.+.+.+.+.+.O.+.t.8._ } t.8.7.` ] p.8.8.[ [ r.O.) ' ] ] ] ] ] ] ' ' ] ` ` ' ` ` ` ` E E T ` O.[ T [ u._ T / ] 8.+.8._ O.#.#.r.r.#.t.+.#.r.r.#.N.r.t.8.+.8.r.8.",
"O.+.+.+.O.+.O.+.r.8.+.O.7.8.r.8./ 7.+.t.8.[ _ 8.N.8.] ] d.7.] ,.,.,.,.,.3.7.3.,.,.7.,.5.,.,.,.,.,.,.] [ #.f._  .Y.}.8.[ 3.Y.t.r.] ` 8.8.+.8.8.r.f.8.7.8.u.8.8.f.f.r.8.8.8.g.8.p.f.f.f.}.9.] u.oXQ.u.5.7._.].u._ 7.|.7.' :.,.[ ] ] ' [ ,.,.,.:.:.,.,.,.,.:.:.,.` ) f.u._ 7.f.f.9.] ,.c.f.7.` _ f.8.8.8.8.8.8.8.+.f.7.O.f.r.r.r.8.r.8.8.7.8.8.+.O.d.] ] Q.Y.i.3.' 8._.r.[ R 7.7.[ ,.,.7.,.,.,.3.[ 7.7.7.7.7.,.3.[ ,.,.3.] [ +.f.[ ` 8.t.r.O._ O.r.#._ / O.+.+.+.+.#.#.#.+.#.#.#.#.r.t.N.t.t.t.r.8.8.8.t.t.f._ ` 8._.d.7._ 8.'._.7._ f.oX7.7.7.7.7.7.7.7.j.7.j.j.5.7.7.7.,.5.5.7.7.5.u.XX7.,.}.oXu.,.,.z._.}.7.[ d.N.t.N.t.t.N.N.N.t.N._.t.#.t.N.N.t.t.t.f.Y.f.f.Y.Y.7.[ u.|.|.8.5.u.oX|.u.,.9.XX7.,.j.7.7.7.7.5.7.7.j.7.9.7.5.7.7.5.,.,.h.,.O._.}.5.d.#XoXc.7.7.|.oXY.} 7.|.N.t.t.t.f.f.t.r.Y.t.Y.8.8.8.f.Y._.Y.Y.Y.t.r.Y.f.}.7.O._.'.|.u.[ 8.'._.8.( Y.}.7.,.,.5.,.,.3.3.,.3.,.,.] ,.3.7.3.7.,.7.7.[ O.oX7.[ r._._.u.O.d._.f.O.` 7.f.8.8.8.8.+.8.O.[ _ _ _ 7.O.+.O.O.O.O.[ [ [ _ [ ' L / 7.u.] U ` 8.#.O./ _ O._ ' ' ] ' ' :.' ` ' ] [ ,.[ ,.,.,.,.] ,.7.7.| #.+.) +.Y.8.7.[ 7.f._.O.` 7.8.+.+.8.Y.8.+.+.8.8.+.O.O.O.O.+.+.O.+.+.+.O.+.#.8.] [ t.t.u.7.7.r.8.8._ | t.O.) ] ] ] ] ] ] ] ' ' :.] ` ' ` ` ` ;.E ` ` _ O.} P _ d.O.' ] 7.#.+.8._ 7.t.t.+.+.+.r.r.8.O.#.r.#.t.t.+.8.8.8.8.",
"O.8.+.+.+.O.O.+.+.+.O.8.} O.8.7.T 5.O.r.r.8.O.r.#.d.] ` d.7.[ ,.,.,.,.,.,.3.,.,.,.,.7.,.,.,.] ,.,.:.,.[ #.f._ [ Y.Y.f.d.d.t.#.8.' ' 7.8.O.7.8.8.f.u.O.O.8.9.8.t.d.7.+.8.f.@.+.7.8.f.f.c.7.) 7.}._.}.f._._._.8.) O.|.7.' :.' :.[ :.' :.,.,.,.,.[ 3.,.:.,.,.:.:.' [ Y.d.( O.f.r.f.9.9.d.8.7.` [ d.+.8.+.r.r.8.8.8.8.8.8.r.r.+.r.r.r.8.O.O.8.8.O.8.8.] ` d.r.Y.u.8._.8.8.] P 7.7.[ ,.,.,.3.,.[ ,.3.7.7.7.7.[ [ ] 3.O.[ 7.,._ +.r.[ / 8.t.#.8.+.8.+.+._ P O.8.O.#.+.+.#.#.#.#.+.#.#.#.t.r.t.r.t.Y.r.8.8.8.8.d._ ) 7.t._.d.8.Y.N.N.+.) r.oX7.,.7.7.7.7.7.7.7.9.9.j.7.5.,.7.,.3.,.3.7.7.f.$X7.[ }.|.Y.u.8.}.Y.f.7._ r.N.#._.N.#.#.N.N.t.N.N.r.#.r.t.t.t.t.g.t.r.r.8.r.}.5.] u.Y.|.}.f.Y._._.c.] 9.XX7.,.7.7.7.7.7.,.7.7.7.7.j.7.7.5.5.,.,.,.6.5.+.'.}.[ d.oX_.|.Q.Q._.Y._.] 3.|.8.Y.t.Y._.r.f.N.N.t.f.d.8.9.g.Y.r._.Y.r.Y.r.r.Y.Y.7.[ |._._._.r._._._.8.( Y.|.7.7.,.,.7.3.,.3.3.3.,.7.,.,.,.3.,.7.,.7.7.[ +.|.O._ t.N.N._.f.Y.r.t.[ ` 7.8.8.O.7.8.+.O.O.} _ [ } [ +.O.} +.} } O.7.] / _ ' J ^ 3.8.7.] 3.8.O.} / ` O.[ ' ' ` ' ] ] ' / ] ,.] ] ,.,.[ ] :.,.[ ,.7.O.+.} ( +.8.r.r.8.Y.t.r.[ / O.8.#.+.+.#.+.O.+.8.+.+.O.O.8.8.O.O.+.+.O.7.+.O.+.7.` [ r.#.r.f.8.+.#.7.) [ r.[ ` :.' ] ` ] ] ` ` ,.] ] ` ` :.] ` ;.' :.` ' O.[ P ` 8.8.7.7.8.+.#.8./ [ 8.O.+.O.+.Y.r.r.8.r.+.+.8.#.+.+.8.+.r.",
"8.8.+.#.#.+.+.#.O.+.+.7.O.O.+.8.P 7.7.#.#.r.+.#.#.d.] ' d.8.[ ,.,.,.,.,.,.,.,.,.[ ,.3.,.,.:.,.,.,.,.,.O.#.f._ [ f.t.t.Y.Y.t.+.8.` ' 7.8.8.7.7.8.f.8.O.7.7.8.g.t.f.8.+.8.t.g.@.+.8.f.f.f.7.' 9.}.N._._.N.N._.8.) 7.|.7.:.:.:.:.:.:.:.:.,.5.,.,.5.,.,.,.[ ,.] ' ' } _.d.( O.t.t.N.Y.r.8.7.7.` [ f.+.+.+.r.r.8.r.N.N.+.8.t.t.r.8.#.r.+.O.O.d.8.8.+.8.] ` d.r.8.Z.8._.r.8.` T 8.9.[ ,.,.,.,.,.,.,.7.7.7.7. .[ [ [ [ 3.3.7.,.[ +.t._ R 8.#.+.t.#.#.O.+.' T [ 8.+.8.+.O.O.+.#.#.#.8.#.t.r.8.+.t.t.f.t.f.8.8.#.f.] ] 9.r.N.Y.N.N.#._.+.( f.OX8.5.7.7.7.j.7.j.j.7.j.9.7.5.5.,.,.,.7.7.7.7.f.$X7. .}._._.|.}.}.Y.Y.O._ 8.N.t._.N.#.#.N.N.N.N.N.r.#.#.t.t.t.t.t.t.r.r.8.8.8.[ [ c._._._._.Y._._.f.[ u.#X7.5.7.7.7.7.7.7.7.7.7.7.7.7.5.5.,.5.5.5.5.5.8.oX}. .8.oX_._.oX|._.Y.f.[ ,.d.8.Y.Y.f._.Y.t.N.N.N.Y.d.8.9.f.r.t.t.8.f.Y.f.f.t._.7. .oX_.N._.N._._._.8.( _.}.7.7.7.7.7.[ 5.7.7.7.7.3.7.7.,.5.[ 7.7.7.[ O.+.oXO._ t._.t._.N.t.#.t. .` 7.7.O.+.O.8.+.O.O.O.[ O.O.O.O.} } O.O.O.O.] / T ' ] L ` [ 7.7.7.7.O.[ O./ ` 8.[ ' ' ` ] :.' ` ` ] ,.[ ,.] ] :.] ,.,.,.,.,.[ #.[ / 7.t.#.r.t.t.#.r.[ ` 7.#.8.8.+.+.O.+.8.8.#.8.8.8.8.8.8.7.+.+.+.7.+.+.8.+.` [ t.+.#.t.8.#.@.7.` [ r.O.` ' ] _ _ ] [ ] ] [ ,.' ` ' ' ] ] :.' :.` ) O._ P ` 7.8.+.8.8.+.#.8.~ [ +.+.8.#.r.r.#.N.r.r.#.t.+.#.+.+.8.r.8.",
"+.+.#.+.+.+.+.+.+.O.O.7.7.O.O.7.P 7.8.+.#.r.+.+.t.r.' ' Z.8.] :.,.,.,.,.,.,.] ,.,.,.,.,.,.,.,.,.3.3.] [ r.f.) [ f._.#.t.Y.t.+.8.` / 8.8.8.f.8.+.8.f.r.f.8.#.t.t.r.f.8.+.8.8.+.7.d.f.8.f.7.' 9.}.t.Y.Y.t.N._.8._ 7.Y.7.:.;.:.] ] ,.,.,.[ ,.:.,.,.,.,.[ ] ) ' ' ` } Y.8.( O.8.#.r.f.t.7.9.9./ [ f.+.+.8.8.8.r.r.+.8.+.8.+.t.r.8.8.r.r.r.8.8.r.t.O.7.' ` u.r.+.d.8.8.t.+.` / 8.O.[ ,.,.,.,.,.[ 7.7.7.7.O.[ 7.[ 3.[ [ 7.[ ,._ O.f._ / 7.#.O.8.#.+.O.+.' P ` O.#.O.#.O.O.+.+.r.#.r.+.8.t.+.O.r.r.8.t.f.t.8.+.f.] ` u.8.r.N.r.N.#._.+._ f.oX8.7.7.7.7.7.7.j.j.5.j.7.7.7.5.,.3.,.3.7.7.7.f.$X7.[ }._._._._.f.t.Y.[ _ 8.r.t.t.t.N.r.#.N.Y.N.N.r.#.t._.t.r.t.r.#.Y.Y.t.r.7.] ] }.Y.Y._.Y.Y._._.u.:.u.XX7.,.7.5.7.5.7.7.3.3.5.7.7.5.5.7.7.5.7.7.5.5.+.'._.[ 9.'._.N.|.|._.t.f.[ ,.8.8.r._.f.Y.Y.t.r.t.t.f.8.g.8.f.8.8.8.f.8.f.f.t.r.}. . .oX_.N._.N._.N._.+._ Y.Y.7.,.7.7.[ 7.7.7.7.7.O.7.7.5.7.3.[ 7.3.7.7.O.#.oXO._ t._.N.N.t.r.#.f.O./ 9.8.O.8.7.+.O.O.} } } } } O.} O.} } } O._ / T ` ,.' L ` ,.7.O.O.[ O.[ } T / u.7.' ] ] / ' ` / ,.] ] [ ] ] ] :.,.] ] ,.,.[ [ +.} / 7.t.+.#.r.#.#.t._ ` 7.8.+.r.8.O.O.+.8.+.r.8.+.r.O.8.8.7._ } 7.+.O.8.8.O.` } r.+.#.#.8.+.+.9.( _ r.O./ ` ] ] [ [ ' [ ] ' ] ' ' ' ` :.' ' ` ` ` ) _ _ P ] 7.+.+.8.O.8.+.7.P [ +.t.+.r.r.+.r.#.+.r.#.t.r.+.+.r.8.r.8.",
"+.8.+.+.O.+.+.+.+.O.O.7.8.+.8.7.R 7.8.+.r.r.+.+.N.r.] ` Q.8.] ,.,.,.,.3.,.,.,.,.,.,.,.,.,.,.,.3.,.,.] [ r.t.) [ f._.#.t.t.t.t.8.` ` 8.8.r.f.8.8.8.8.r.r.r.t.t.r.r.f.r.8.9.+.8.8.f.f.t.Y.9.] u.|.N._.f.t.N._.8._ 7.|.8.:.:.:.,.,.,.,.,.] ] ,.,.,.,.] ` ` ` ' ] ] [ f.8./ 7.t.#.#.g.8.8.8.7._ [ u.+.8.r.8.8.t.d.[ _ 8.8.+.8.r.8.r.r.t.N.8.r.t.r.8.7.` ] 8.8.r.8.7.t.8.7.] / 8.7.[ ,.,.,.[ 3.7.7.7.7.7.O. .3.7.7.[ [ [ [ ] _ +.f.] T 8.#.o.+.+.#.+.+._ U / [ O.#.+.+.O.#.+.#.#.#.@.8.r.+.+.r.r.f.8.8.8.8.#.f.[ ) 8.8.r.t.r._.N.N.8._ f.OX8.5.7.9.7.7.7.7.7.j.7.7.7.7.7.,.,.7.7.3.7.7.f.$X9.[ }.oXN.Y.Y.Y.Y.f.O._ r.N.#.#.N.#.#.#.#.#.Y.N.r.#.t.N.t.t.8.t.t.N.Y.Y.Y.f. .[ c._.Y._.Y.Y._.|.u.,.u.#X8.5.5.7.7.3.5.5.7.7.5.7.7.7.7.7.7.7.7.7.7.5.+.'.}.[ u._._._.}._._._.Q.,.] d.#.t._.t.t.t.r.t.t.r.t.r.r.t.Y.f.8.t.Y.Y.Y.f.t.t.f.7.O.oX_._.Y.N._._._.8._ }.}.7.5.,.7.7.7.7.7.,.,.7.7.7.5.5.7.7.7.7.7.7.+.#.oX+._ t._.N.t.8.t.r._.O./ 7.8.8.d.8.8.O.[ _ 7.+.O.} } O.O.O.+.[ _ ' ' ` ] 7.,.U ` ,.7.O.[ } } O.7.` ` 8.7.[ ,.] / T ` ` ] [ ,.,.] ] ] ] ,.:.] ] [ [ ( #.7.` +.t.#.#.#.#.#.t.[ ( 7.t.t.f.r.O.O.8.r.8.+.r.8.8.8.8.7.O._ _ O.8.7.+.8.7.` } t.#.#.+.O.+.8.7.` _ t.O.` ` / ` _ ] ' ' ] ] ' ' ' :.' ` E / E ` ` _ } [ / 7.8.O.O.8.7.#.8.7.~ } f.#.#.r.r.r.#.#.#.t.r.r.#.+.r.N.r.r.8.",
"+.8.O.+.O.O.#.+.O.8.8.8.8.O.+.7./ 7.+.+.r.r.+.+.t.8.' ` Q.8.] ,.:.:.,.,.,.7.3.,.,.,.,.,.:.,.,.,.:.] ` [ r.f.) [ Y.N.#.r.r.t.t.8.` ` 8.t.8.8.r.8.+.+.8.8.8.r.8.r.r.8.f.f.8.+.+.r.f.8.f.Q.7.' 9.|.Y.Y.t.t.N.Y.u._ 7.|.7.] ;.:.:.,.3.:.] ] :.,.5.,.] ] ` ` ] ] ] ] } Y.7./ 7.t.+.#.g.+.t.r.7.' } Y.r.+.r.r.r.r.f.O.( O.8.O.O.8.r.#.r.t.r.t.N.8.8.8.7.' ' u.8.8.8.8.8.O.8.[ / d.+._ ] ,.,.7.} 7.7.O.7.} O.O.7.7.7.7.[ _ ] ` [ O.f.] T 7.#.#.+.O.#.+.+./ T T ( _ +.O.+.O.O.#.#.+.O.#.#.8.t.8.8.t.Y.t.#.O.8.8.8.] ` 7.r.+.t.t.N.t._.7.( r.oX7.[ 7.7.7.7.5.7.7.7.5.7.7.7.7.,.,.,.3.7.7.7.f.$X7.[ }.|.t.Y.Y.Y.Y.Y.O._ r.N.#.#.#.t.t.#.#.#.t.N.t.r.r.t.t.t.8.r.t.t.r.t._._. .[ p.Y.Y.Y.N.N._.|.u.] 8.#X7.,.7.,.,.,.,.5.7.,.7.5.j.7.5.5.,.5.7.7.7.,.+._.f.[ u.oX_._._.f._._.}.[ ' Q.r.f.f.t.r.8.t.r.#.t.r.r.t.8.t.N.N.8.f.f.t.8.t.r.f.7.[ _._.N.N.Y._.N._.8._ f.f. .,.,.7.3.7.,.,.,.7.,.7.7.7.,.3.7.} 7.7.7.O.#.'.O._ t._.#.t.#.#.#.Y.O.( 8.t.8.8.r.r.O.[ _ O.r.+.O.O.O.O.+.+.} [ ] ,.,._ 7.,.T :.3.} } 7.} _ +.8.^ / 8.7.] ' ' ' / ' ' / ] [ ] ,.:.] ] ' ] [ ] ' ] [ t.O.( 7.t.#.#.8.#.#.t.[ / O.r.t.r.+.O.+.8.8.8.8.8.8.8.8.8.7.7.O.O.+.7.+.+.7.7.` _ r.#.+.+.O.+.8.7.` [ t.O.` ` / ` / ` ' ] ' ' ' ] ` :.' T T ` ` ` / _ O._ / 7.8.O.O.8.O.+.r.3.T 7.d.+.r.r.8.+.+.#.+.+.#.#.+.f.r.r.r.r.r.",
"O.+.+.+.O.+.+.+.+.r.r.d.8.+.+.7./ 7.r.+.r.#.+.r.r.u.' ` d.8._ :.] ,.] ] ,.,.3.5.,.:.,.,.,.,.,.,.] ' ' } r.f.) [ _._.t.8.r.f.t.u.' ` 8.t.8.g.8.8.8.9.@.8.r.8.8.r.8.8.f.d.8.7.8.d.f.f.f.f.5.] u.}.f.Y.d.Y.N.Y.u.] 7.Q.7.] :.:.,.,.,.:.] ,.,.5.,.[ ] ] ] [ [ ] [ ] O.Y.8.( O.r.#.#.t.g.t.r.8.) O._.r.r.r.Y.N.r.Y.Y.7.} f.O.O.r.t.#.8.r.r.N.Y.r.r.+.7.] [ f.8.8.7.+.8.8.8.[ ( 8.+.[ ] [ ,.] [ [ 7.7.7.O. .7.7.7.7.7.[ ] [ ] [ +.f.] / O.+.+.+.O.#.O.+.( T ` [ O.O.O.8.O.[ O.+.O.O.+.r.#.t.#._.N.t.8.#.7.8.#.d.] ) 7.8.8.r.r.t.r._.7./ 8._.+. .5.7.7.7.7.7.7.j.7.7.7.7.7.,.[ [ ,.7.7.7.Y.$X9.[ }.oXt.t.Y.Y.Y.Y.+.[ 8.t.t.r.t.N._.N.N.N.t.r.N.N.t.r.t.r.r.t.t.r.N.t.t.f.7.[ p.f.t.N.Y._._.}.u.[ u.#X7.5.7.,.,.:.,.,.5.7.7.7.j.h.5.5.5.5.7.5.7.5.+.'.v. .u.|.'._.Y.Y.}._.}.[ ' Q._.N.Y.r.t.#.t.#.t.#.t.r.t.r.t.t.t.8.t.8.t.8.f.r.f.O. ._._.Y.Y.Y._.N._.u.( 8.d.7.5.,.,.[ 7.,.,.,.7.7.7.7.5.,.,.,.7.,.,.[ } r.oX+._ r._.t.t.r.t.r.f.O.( 8.t.r.r.r.8.7.7.} 7.+.r.#.+.O.8.+.O.O.7.7.7.O.} 7.,.T ,.9.7.} O.O.O.O.7.' ` r.8.] ' ] [ ] ] ] ` ' ] ] ] ,.,.,.:.:.] ] ] ] [ t.8._ 8.t.+.+.8.#.#.t.O.( O.O.O.8.+.+.8.8.8.8.+.8.r.Y.d.8.+.8.8.8.+.7.+.#.+.7.` } t.#.+.+.+.@.9.7.` } N.O._ ' ' ` / ` ' [ ' ] ] ] ] ;.E T T ` ` ' ` _ O.[ ( 7.7.O.O.+.+.8.7.,.T 7.8.r.r.r.+.+.8.8.+.#.+.+.r.f.r.t.#.r.t.",
"} O.O.+.+.+.+.r.+.+.8.8.+.r.+.7./ 7.r.O.+.r.O.t.8.7.' ' d.8._ ] :.,.:.] ,.,.,.,.:.:.:.,.,.,.,.] ' ' ' [ r.f._ [ d.N.N.8.r.Y.+.7.] ` 8.r.8.8.8.8.8.8.8.8.8.r.8.8.r.r.8.8.+.8.t.8.8.f.8.7.,.' 8.d.d.Y.d.Y.Y.d.7._ 7.Q.7.] :.] ,.,.] :.,.:.,.,.:.,.,.,.,.[ [ [ [ _ O.f.8.( O.@.t.r.#.t.f.7.O._ [ Y.t.t.r.Y.r.8.r.Y.r.+.8.+.+.t.r.+.+.8.t.8.Y.Y.r.O.7.] 3.u.8.8.7.7.f.7.} [ ( +.O.[ [ ] ,.:._ ] 3.7.7.[ 7.[ ,.7.,.[ [ ] [ ] ( +.d.) T [ _ O.+.O.+.[ } / P [ +.O.+.O.+.#._ ( O.O.+.+.+.#.#.r.t.r.8.+.r.d.+.+.f.] ` 7.7.r.8.8.Y.8.+.O./ #._.O. .5.5.,.7.7.7.5.7.j.7.7.7.7.,.[ ,.,.,.7.7.f.%X7.[ d.|.N.r.t._.f.+.O.[ 8.t.#.t.Y.r.r.#.#.r.#.r.t.r.t.r.#.r.Y.N.t.r.t.t.r.d. .[ u.r.#.N.t.Y._.f.7.,.9.XX7.,.,.,.,.,.,.,.,.7.7.j.7.7.7.5.7.5.5.7.5.,.+.'.c.[ u.}._.|.Y.Y.oXd.d.,.' Q.Y.N._.r.#.r.r.t.#.r.#.8.8.r.N.r.t.t.#.#.f.f.r.t.f.[ [ v.t.f.Y.f._.f.d.7./ 8.Q.7.,.,.,.,.3.3.7.,.,.7.7.,.5.,.5.,.,.,.,.[  .8.|.O.} 8.#.N.t.r.N.r.O.} ` 7.8.r.r.+.8.8.u.8.O.+.8.+.8.O.O.O.7.O.8.8.} O.+.7.[ T ' 7.7.} 7.} 7._ ` / ` +.+.) / ' [ ] ' ] ] ` ] :.:.:.[ ,.,.' ] ' :.] ( 8.8._ O.+.#.#.#.t.8.+.[ ` [ O.O.+.8.8.8.8.r.8.+.+.r.Y.8.+.+.+.+.+.+.+.O.+.8.7./ [ 8.O.+.+.+.8.O.[ ( [ N.O.` ' [ ] ` ` ' ' ] ] ` ' ] ` T T E ` E ;.] ( O.[ / ] O.+.} O.+.8._ ] T } +.#.+.+.+.#.+.+.r.t.+.#.+.r._.#.+.r.r.",
"} +.O.+.O.+.#.r.8.+.O.8.8.r.8.7./ 7.d.[ } N.+.+.[ 7.] ' d.r.] :.:.:.,.,.,.,.,.:.] ,.,.,.,.,.,.:.] ] ' [ r.d._ O.8.O.#.t.N.8.} 7.[ ' 8.t.8.8.8.8.r.d.8.9.8.r.r.8.r.8.#.+.8.t.t.t.f.8.O.O.,.] 8.8.8.Y.Y.Y.8.7.7.] 7.Q.7.] :.:.,.] ] ,.,.:.,.,.,.,.5.5.,.,.,.[ [ [ [ f.8.' 7.O.#.t.t.t.8.O.O._ O.Y.t.t.t.r.8.r.Y.r.Y.r.8.#.#.N.N.+.+.+.t.t.f.t.#.O.7.] 7.u.O.8.f.8.7.[ _ [ ( +.+.[ ,.:.,.,.] ] 5.[ ,.[ 7.[ ,.,.[ [ [ 5.,._ _ +.d.` T [ ( [ #.#.[ ( } / T [ O.O.o.O.+.#.+.O.+.+.+.#.#.#.8.+.#.#.t.t.f.r.r.#.d._ ' 7.O.t.r.8.u.[ O.O.( 8._.+.[ 3.7.7.7.7.7.7.7.5.7.7.7.5.7.7.7.7.,.,.7.d.XX5.] u.Y.Y.N.N.v.+.O.+.[ 8.t.r._.Y.r.#.#.#.r.r.t.r.8.#.#.r.t._._.N.t.t.r.t.f.5.[ f.r.+.N._._.t.8.9.,.9.#X8.,.7.,.7.7.,.,.5.,.7.7.7.7.7.j.h.7.7.5.,.,.+.'.c.[ u.f.+.f.|._.f.O.d.,.] }.t.t.N.t.#.#.r.r.t.t.t.#.r.t.t.r.f.t.r.r.t.t.r.t.f.[ [ 8.O.O._.N.f.+.7.} / u.}.7.,.,.7.3.,.,.7.,.,.5.,.,.5.,.,.,.,.,.,.,.O.8.oXO.[ 8.O.#.N.t.t.O.[ 7.( 7.8.#.8.r.8.r.r.8.8.O.O.8.8.O.O.} O.+.+.8.7.+.O.u.} / ' 7.7.O.7.7.' P / / ` +.8._ ` ` ` ] ] ] ] ' ] ] ,.,.] ] ] :.] ] :.] [ r.7.` [ O.+.t.t.g.+.O. .] O.+.8.8.8.8.8.8.r.r.8.8.8.8.+.+.8.#.+.8.8.8.O.O.8.O./ ,.O.) +.t.#.O.) [ _ [ t.O._ ' ] ] ] ] ' ] ] ] ` ' ] ' E E ` ' ` ;.` [ +.[ / ) [ +.O.8.O.O.( ,./ } +.+.O.+.#.t.#.t.r.t.t.t.+.8.f.8.8.Y.d.",
"_ } O._ } 8.+.8.8.+.O.8.r.+.d.7.R O.d._ ` 8.8.( _ 7.] ` z.d.] :.:.:.,.,.] ,.:.:.:.:.:.,.,.,.,.,.] ' ' [ 8.8.` [ 8.( _ r.Y.[ [ u.] ` 8.t.8.8.8.8.8.8.8.8.8.8.r.r.8.8.8.8.r.8.r.t.r.7.O.7.,.' 8.8.] u.|.u.] 7.9._ 7.Q.7.,.:.:.:.] ] :.:.,.:.:.:.:.,.,.:.,.,.] ,.[ [ f.7.( 7.O.( 8._.8.[ [ 7.` [ _.#.r.Y.r.r.r.Y.r.t.r.+.#.t.+.t.r.+.8.t.r.Y.#.+.+.O.` 3.u./ 7.f.O.) / 3.' / 8.+._ ] ,.,.[ ,.] ] ,.,.] ] [ [ ] ,.[ [ ,.,.] _ +.8./ T 7.( / +.#./ T O./ P [ O.O._ O.o.O.#.+.O.+.#.+.#.+.+.+.#.r.N.t.t.r.f.8.8.` ` 9._ O.r.t.,.R 7.O./ 8.Y.7.[ ,.7.7.7.,.5.7.,.,.5.5.7.,.,.7.7.7.7.,. .u.}.,.] u.7.+._._.7._ +.+._ 8.Y.t.t.t.#.+.r.N.m.r.r.r.N.r.8.#.N.N.N.N.t.r.r.t.8. .] f.c.[ +.'.t.O.7.z.] 9.#X7.,.,.,.3.,.,.,.,.,.5.,.5.5.7.5.h.7.5.,.,.,.+.oXc.[ u.Q.[ 5.}.f.[ 7.}.] [ }.t.t.r.r.N.#.#.+.t.t.t.r.+.#.r.t.t.r.t.#.r.r.r.t.8.] _ u. .' f.Y.7._ u.7.` u.Q.7.,.,.,.,.7.,.,.,.,.:.,.,.,.,.,.5.5.,.,.,.[ 8.|.} _ d.O.[ r.r.7.( 7.7./ 7.8.+.r.8.d.r.8.r.r.O.7.8.7.O._ O.8.O.O.8.8.+.+.u.[ / ' ` 3.7.} ,.T I :.` ~ +.7.) ` / ` ' ] ' ' ' / ] ] ] :.' :.:.:.,.' ] | #.[ / 5.[ [ g.f.O.( O.O.( 7.r.#.8.+.8.#.r.8.r.8.+.8.+.8.8.+.+.8.8.+.+.+.O.O.[ ~ ' 7./ ( 8.+.) ( 9.` ( r._ ` ' ' ] ' ] ] ] ] ' ' / ` ' ` ` T ` E T E [ 7.' ~ ] T [ O.8.7.( } 7.~ } r.O.+.r.+.#.r.t.8.r.t.r.+.+.8.+.d.d.d.",
"O.O.[ ( _ 8.r.r.8.8.8.8.r.8.r.7.T 7.8.7.( 7.7.( 7.u.,.' z.d.[ ,.:.:.,.,.,.,.;.] 7.:.' ,.,.,.,.:.:.] ' [ r.8.`  .Y.7.( 7.7.( 7.f.[ ' 8.t.r.8.8.r.8.8.8.8.8.8.8.8.8.8.r.r.r.r.t.f.8.7.7.d.7.' u.c.] 5.c.7._ z.u._ 7.}.u.,.:.:.:.:.,.:.>.:.] 7.7.] ] ,.,.:.,.:.,.[ O.Y.7.( 8.d.( O.t.O._ 8.f._ [ Y.r.r.f.Y.Y.f.t.N.Y.r.r.#.#.r.t.r.r.r.Y.t.r.#.+.+.+.`  .c._ _ u.[ R [ 8._ / 8.+.[ ] ] ] ,.,.] ,.:.] [ ,.] [ ,.,.[ 5.] ,.] _ +.u.( / r.O.R _ [ P ` 7.` P [ +.} _ ..o.#.#.+.+.O.#.#.t.8.+.#.t.t.r.r.Y.t.8.#.8.` ` 8.[ ` 7.f.` ` d.7.( 7.Y.O. .,.7.5.7.7.7.5.,.9.z.7.,.7.7.7.7.7.7.,.[ d.XX[ ] c.7.( 7.f.[ } f.7._ 8._.t.t.t.8.8.r.r.t.r.r.t.N.N.t.t.t.N.N.t.t.r.f.f.u.[ ] f.|.7. .Q.7.[ c.c.] 9.#X7.,.,.,.,.5.7.,.7.,.5.j.5.,.5.5.h.5.5.5.,.,.7.oXc.[ d.XX9.,.z.9.[ Q.}.[ ,.}.N.N.t.t.N.t.t.#.N.#._.#.+.+.N.N.t.r.r.#.r.r.8.t.8.` _ f.d.[ 7.u._ O.}.7._ d.}.7.,.,.] ,.,.,.,.:.] 7.u.7.,.,.7.,.7.5.5.,.[ 8.|.[ _ f.u._ O.7.[ _ c.7.( 8.8.8.d.r.r.r.t.r.r.7.7.7.u.O.} 7.8.8.8.+.7.8.+.d.3./ :./ ] O.7.] T / ,.' / +.+.] ' ' ] ` ] ] ' E ` 7.,.' ' ,.,.,.,.,.,.] | g.[ / 7.8.O.O. .( [ d.O.( O.t.#.r.8.#.#.#.r.t.8.+.7.8.8.#.+.#.#.#.+.+.+.O.} [ T ] 8._ ` [ _ ( O.u.( ( #._ ` ' ' ] ] ] ] :.` ] 7.` T ;.' ` E T U T T [ 7._ T [ ` ( [ 7.) ( 8.7.( O.r.+.r.t.#.#.+.r.r.f.8.8.+.+.8.7.8.f.u.",
"O.O._ ( [ +.+.+.O.8.8.8.r.r.8.7.P 7.7.8.[ ] ' 7.f.3.,.' i.d.[ ] :.,.:.,.,.:.` 7.f.9.' ' ,.,.:.:.:.' ' [ 8.8.` [ r.Y.[ ] ] +.d.8.] ' 7.t.8.8.8.8.t.t.#.8.r.+.O.7.8.8.8.8.r.t.8.8.8.8.r.d.7.` 7.Q.8.,.,.[ d.Q.7.] 7.Q.7.,.:.,.:.:.:.,.:.' 7.Y.u.,.' :.:.] :.,.] ] [ f.7.( 7._.8.[ [ _ 8.t.8._ [ Y.8.8.8.Y.Y.t.t.r.r.r.r.+.#.r.#.8.t.r.r.t.8.#.t.+.7.` _ f.f.[ ] / O.8.7.` / +.O.) ` ' ,.] ] ] ,.' ] +.8.[ ] ] ,.] ] ,.] ' [ +.u.` / +.#._ / T [ } } ` T _ O...O.O.+.#.+.O.O.O.+.#.8.8.+.+.r.r.#.8.8.8.8.+.u.` ` 7.f.' ,.,.[ 8.r.O./ 7.Y.O.[ ,.,.5.5.7.7.,.7.}.oXd.7.[ 7.,.,.7.7.,.,.d.XX,.] f._.[ ] [ O.f.f.O.[ 8._.t.t.8.r.r.#.8.t.t.t.r.r.N.N.t.r.t.N.r.r.f.8.8.u.[ ] u.|.f.[ [ O.Y.XX9.,.7.@X7.,.,.,.5.,.,.5.,.,.l.XXz.,.,.5.5.,.5.,.,.,.7.oXc.[ u.Q._.7.,.,.d._.8.[ [ }.N._.t.#.t.Y.N.#.#.#.#.#.#.+.t.#.t.#.r.r.8.r.t.8.7.` _ 8._.r.[ ] O.f.8.7._ u.Y.7.] ] ,.] ] ] ,.' [ r._.8.[ :.7.,.5.7.7.,.[ 8.}.[ [ 8.t.8.} ] [ 8.u.3.` 7.f.8.8.f.8.r.t.8.8.8.7.7.7.} O.7.7.8.+.O.8.8.+.d.[ ~ 3.7./ / 5.` _ } ' ^ ( +.O.` ] ] ' ' ] ] ` T [ r.8.[ ' :.:.:.:.,.,._ | #.O./ O.Y.r.[ ` O.t.r._ / O.+.+.r.r.#.+.8.N.r.8.+.O.+.7.+.+.+.#.+.+.#.O.+.+.[ ~ ' +.O.O.( / O.8.O.( ( #.( / ] ' ` ] :.' ` ` +.t.O./ ` ;.` ` E T ` T ) 7.` T 3.8.( / ) ( 7.O.[ / } 8.r.+.8.r.t.8.8.+.8.+.+.O.8.O.8.7.u.8.",
"_ } O.} O.O.O.+.O.+.8.8.u.8.d.7./ 7.7.} 8.[ _ d.8.[ ,.` 8.d.[ ] :.:.:.:.:.' 3.d.r.f.7.' ] ,.,.:.:.:.' [ 8.8.)  .8.t.8.] 7.f.8.7.[ ' 8.t.8.f.f.f.t.8.#.r.r.#.O.7.8.8.#.8.r.r.8.8.8.r.r.Y.7.' 7.f.Y.z.7.d.oXd.7.[ 7.f.O.] :.:.:.:.:.:.] 7.f.r.r.u.,.] :.,.:.:.,.] [ f.8.( 8.t.t.+.[ O.f.8.8._ } Y.8.+.8.8.r.Y.Y.r.8.8.r.#.+.8.r.8.r.r.r.+.8.8.r.r.8.[ [ 8.t.r.[ _ t.O.' ` / 7.O.` ' ' ,.:.] ] ] ] 8.+.#.+.[ ` ,.] ] ] ] ] [ +.f.[ ( O.#.+.O.} f.[ [ ' T [ O.O.+.O.#.o.#.O.O.O.#.+.8.+.+.8.t.8.t.8.8.8.8.r.d.` ` 7.f.7.3.[ f.t.8.O.( 8.Y.+.[ ,.5.,.5.,.,.7.Q.|._._.8.[ ,.7.7.,.,.,.7.f.oX[ ] u.f.8.} O._.Y.8.O.[ r._.t.t.8.t.r.#.N.Y.t.#.#.t.N.t.t.t.t.t.t.t.d.g.8.u. .[ u.f.N.d.[ 8.[.d.7.7.7.OX7.,.,.5.5.,.5.,.,.7.XXoX|.9.,.,.5.5.5.5.6.,.7.oXc.,.z.Q._.|.8.u.oXf.d.[ 3.}.t.t.t.r.r.8.r.+.r.#.#.r.r.r.N.r.r.t.t.r.t.8.r.#.8.] _ 8.r.m.u.7.Y.8.8.8.[ 8.Y.O.] ,.,.] ] ] ] [ d.N.%.N.7.[ ,.,.7.7.7.,.[ 8.}.[ [ 7.+.r.d.[ d.f.7.3.` 8.d.8.t.d.r.r.r.8.8.8.r.7.} [ 8.r.8.O.+.8.8.8.#.d.3./ 7.z.9.' ` ] 7.+.] T ` 8.+._ [ ,.] ] ] ' ` [ 8.+.r.8._ ` ,.,.] ] ] ) O.t.O.( [ 8.Y.+.O.d.#.+.[ ( O.8.+.+.+.+.+.+.r.8.+.+.+.+.+.8.+.+.+.8.+.8.+.O.+.O./ [ O._ O.} _ +.O.[ / _ t.[ ` ] ' ] ] ] ` ` 7.#.+.o.O./ E ;.E / ' ' / [ 7._ P _ 8.O./ ` 7.8.} [ ` _ r.#.+.#.r.r.r.8.O.+.+.+.O.O.8.r.8.8.7.",
"} O.} O.} O.O.} O.O.O.d.8.7.8.7.~ 7.7./ [ d.8.d.[ ' ,./ 8.u._ ] ] ] ,.:.' 7.f.r.8.r.f.7.' :.,.:.:.:.' [ r.u.]  .7.O.+.8.d.7.[ 7.,.` 8.8.8.u.t.r.8.8.8.#.t.8.+.8.8.8.8.8.8.8.8.r.d.8.8.Y.7.` 9.u.7.Q._.Y.8.[ 7.[ } d.[ ] :.;.:.:.:.` 7.f.r.8.#.r.u.[ ' :.:.] :.] [ f.8._ 8.8.O.r._.f.O.[ 7.( } Q.8.r.8.8.Y.d.f.r.+.+.r.+.O.+.8.+.8.8.O.O.8.8.+.t.r.[ 7.8.[ 8.t.O.O.( ` _ / O.} ` ' ] ] ] ] ' ] 7.#.+.+.#.O.' ' ' ] ` ] ] _ 8.u.[ ( } ( O.m.8.O./ _ [ P } 8.O.+.#.+.#.#.+.#.O.+.#.O.O.8.r.+.8.t.+.r.8.O.8.8.` ` 7.[ [ u.d.d.[ O.7._ 8._.O.[ :.,.,.,.:.7.Y.|.Y._._._.7.[ ,.5.,.,.,.[ f.oX[ [ 9.O.+._._.f.O.7.O._ 8._.8.t.t.8.8.r.t.N.r.#.r.N.r.r.r.t.t.r.f.r.8.d.d.u.5.] c.u.O.f.f.Y.Q.7.9.7.O.#X7.,.,.,.,.,.,.,.7.|.|._.'.|.7.,.5.5.,.5.2.,.7.oXc.5.z.c.7.Q.XXQ.8.7.f.[ [ }.t.t.N.r.8.+.+.#.#.+.t.+.r.r.r.t.r.8.t.r.t.8.t.8.u.] [ 7.[ 7.Y._.f._ O.u._ 8._.O.] :.:.[ ] ] [ r.N.#.%.%.N.7.,.,.7.,.,.,.[ 7.Q.[ [ u.[ } _.d.Q.] 7.7.' u.8.8.r.r.r.r.8.8.r.8.r.8.7.O.r.8.8.+.7.8.8.+.8.f.7.' 3.} f.7.' [ 7.` ` ` ' 8.O.] ' ' [ ] ' ` ] 7.+.O.+.#.+.' ` :.] ] ] ] [ t.O.) [ _ O.#.t.d._ [ O.` [ 8.+.O.r.+.+.8.O.+.8.8.O.O.+.+.O.O.O.+.7.+.8.+.O.[ / [ O.~ _ 8.+.[ ( [ / { r._ ] ' ' ] ` / ' 7.8.+.O.+.+.] / / ` ` / ` ] [ 7._ ~ ` } O._ 7.7.[ _ 7./ _ +.+.r.+.+.r.r.8.+.r.+.+.O.} O.8.r.7.7.",
"+.+.O.O.O.O.} O.} O.8.8.8.8.7.7./ 7.7./ / 7.d.O._ ] ,.` 8.u.] ] ] :.:.] 7.d.t.r.r.r.r.d.7.] ] ,.:.:.] [ t.f._ 5.7._ _ Y.f._ ` 9.[ ` 8.t.8.9.#.#.#.8.r.r.r.8.8.8.8.8.8.8.8.8.r.f.f.f.r.d.7.] 8.u.[ 8._.r.[ _ 8.O.O.f.7.] :.:.:.:.] 7.f.r.r.r.r.r.f.8.] ' :.:.:.] } f.8._ 8.8.( 7.oX8./ [ 8._ O.Q.8.8.u.d.f.f.r.8.8.8.r.8.O.O.8.r.8.+.+.O.8.8.+.r.8._ 7.9./ _ f.8.[ / _ 7.( +.O.` ] ] :.:.] ] 7.8.+.+.+.+.+.7.[ ' [ [ [ ] [ +.f.[ _ } / ( +.+.[ / _ O.P O.#.#.#.+.#.+.#.#.#.#.8.8.+.O.8.r.r.8.8.8.8.7.+.+.7./ ' 7.` ` 8.Y.7./  .8.[ 8._.7.[ :.,.,.,.7.c.|._._._.Y._._.9.[ ,.,.,.,.,.f.oX[ [ 9.[ [ '.'.O.` 7.+._ 8._.N._.Y.t.t.#.t.Y.t.r.t.N.t.t.r.t.t.t.f.f.f.f.f.}.7.[ }.8._ 8._.f.7.[ u.7.O.#X7.,.,.,.,.,.,.7.Q.|.|.|.|._.}.9.,.,.7.5.,.,.8.oXc.5.c.c.[ 7.*Xu.] 7.c.O.,.}.t.t.t.r.r.8.8.#.#.#.r.#.#.#.r.#.r.#.t.t.t.t.t.g.p.[ [ 9.[ [ f.f.O.[ 7.u.[ 8._.O.[ ,.,.[ ] [ d.N.%.%.N.#._.Y.7.[ ,.,.,.,.[ 8.}.[ [ u.[ ) u.f.7.` 7.O._ 8.8.8.f.8.r.r.8.r.r.r.8.r.t.8.8.r.r.8.8.8.d.8.+.f.7.] 7.] _ 3.8.8.] P ' ' ' +.O._ ' ` ] ` ' [ 7.O.O.+.+.+.8.+._ ' :.] ] ] | t.O.) [ _ _ +.t.7.( } 8._ [ 8.+.+.#.r.t.t.r.+.+.r.8.+.+.+.O.O.O.O.+.9.+.+.O.[ ` [ 7.T ` +.8.` / [ ( } t.[ ` ] ] ' ` ` 7.8.+.+.#.O.O.7.[ / / ] ' ` ` [ 7._ / ` / ( _ 8.O./ _ 7.) [ +.+.+.#.+.r.r.+.#.+.#.#.O.O.O.8.f.8.7.",
"} O.O.} O.O.} } } } 8.8.8.O.7.3./ O.[ / R ] [ ) / ,.,./ 8.8._ ] ] :.' [ f.f.r.r.#.t.8.r.d.[ ' :.:.] ' [ t.f._ [ 7._ / 7.7./ ' j.] / 7.r.#.+.+.8.r.8.+.r.8.8.8.+.8.r.8.+.8.8.8.d.Y.t.+.r.7.' 8.u.] 5.u.9._ } u.[ O.f.7.;.;.:.:.' O.Y.t.#.r.r.r.r.8.d.7.` ' :.:.' [ Y.8._ 7.7.( _ 8.[ / 3.8._ } _.r.8.u.8.u.t.#.+.8.8.8.8.+.O.8.8.+.8.r.O.+.8.+.+.+._ O.7./ / [ 7._ / O.[ / 7.O./ ` ' :.;.`  .8.+.+.+.+.+.+.#.+._ _ ] ] ] [ #.u.[ ` 7./ / [ O.( ~ } } T O.#.#.r.+.O.+.r.+.#.r.r.8.+.+.+.+.r.+.8.#.7.8.O.O.7./ ` 5.` E ,.9.[ `  .7._ r.Y.O.] ] ,.,.7.f.oXR.|._._._._._.|.7.[ ,.,.,.,.d.|.[ [ 9.[ ` 7.7.' ` 7.O._ 8.N.t.t.f.f.r.N.t.r.r.r.r.t.t.r.r.r.f.f.r.d.Y.f.Y.}.7.[ Y.9.` 5.f.7.[ [ u. .O.XX7.:.,.,.,.:.,.c.|._.|.|.|.|.|.}.7.,.,.,.,.,.8._.c.5.z.c.,.,.c.7.' 7.c.} [ c.f.t.r.f.Y.r.r.+.#.r.+.r.+.r.N.8.+.#.8.8.f.d.8.t.d.] [ u.[ ] 7.7.[ [ 8.8.[ 8.Y.7.] ,.,.' _ 8.N.r.t.%.N.N.N.N.Y.7.[ ,.5.,.[ 8.}.[ [ u.[ ' ,.7.' ' 7.} ` 8.f.8.8.8.+.8.r.r.#.8.r.#.8.8.8.+.t.8.r.8.8.8.8.d.O.' 7.[ ` / } 8.R J ;./ / +.+./ E ` E E ] 7.+.} } O.+.+.+.r.+.' ' ] ' ` | t.O.`  .] / [ 7.' / 7.7.` O.8.+.+.O.#.t.t.r.O.O.8.8.+.O.8.8.8.O.O.O.7.7.O.8.7.( [ 7./ / ] ] P ` [ / _ N._ ( ] ' / ` 7.8.+.#.#.O.O.O.+.7._ / / ' ` E _ +.( / ] P / / [ ` P [ 7.( _ 8.#.+.8.8.8.8.+.#.#.+.#.#.#.O.+.8.+.7.",
"_ _ } +.O.+.O.} O.O.8.7.O.O.8.} / 7.[ / R ` ` ` ` [ ,./ 8.u._ ] ' ] ] u.d.r.r.r.8.r.r.8.r.u.[ ] ] ,.:.[ t.f._  .9.] ' :.:.' ] 9.,.` 8.t.#.+.+.t.r.r.8.8.r.r.8.8.8.r.8.8.8.8.r.f.r.8.8.Y.7.] u.u.[ ,.5.5.[  .9.5.O._.j.' ;.;.] [ d.N.t.N.r.O.7.f.r.r.d.7.' ;.:.' _ d.8._ 9.7.` ] ,.[ _ 3.8._ O.|.t.t.8.7.7.8.8.8.8.8.8.8.8.8.8.8.8.+.r.+.8.+.o.O.O._ 7.O.` / ` ` _ / [ 5./ +.O.` ] ` ] ` [ 8.+.+.8.O.} O.+.+.+.+.[ ` ] :.[ @.d.[ ( u._ ` ] ` ` / [ 7.( O.#.+.t.+.O.+.t.#.r.#.#.+.8.#.r.+.8.r.t.8.+.+.O.O.8./ ' 7.] E :.,.] ) ,.7.[ r._.O.] ] ,.[ d.|.|.oXOXf.8.Y._._._._.7.[ ,.,.,.f.oX[ [ u.[ ] :.] ' ' 7.7._ 8.t.+.#.#.8.t.t.t.t.t.t.t.f.f.r.r.d.d.d.r.f.f.Y.Y._.7.O.}.7.` ,.7.5.[ 5.z.[ O.oX7.,.,.,.,.,.u.|.Y.|.|.}.}.|.|.|.Q.7.,.,.,.,.7.'.c.,.z.c.5.,.h.,.:.7.z.7.[ c.f.r.r.r.Y.Y.t.#.#.#.#.#.#.r.Y.t.r.#.r.8.t.t.t.t.c.[ [ u.[ ] ,.,.[ [ 7.u.7.O._.O.] ,.[ ' 8.N.N.N.N.#.} 8._.r.N.Y.7.,.,.,.[ 8.}.O.[ u.5.] ,.,.:.' ,.7.` 7.f.8.u.7.O.+.r.8.8.r.r.r.t.r.t.8.8.8.t.8.8.8.#.Y.O._ 7.[ ] / ] ] T U ;.E / +.O.` E T E ] 7.O.O.+.O._ O.8.+.+.+.O.) ` ] ` [ t.} ( [ [ ' ) ] ' ` } 7.] O.8.+.+.+.+.+.+.+.8.+.O.} O.8.+.8.r.8.8.O.7.7.+.8.7._ } 7.` ' _ ` ~ ` ] / _ N._ ( ] ' `  .8.+.#.#.#.( O.#.O.+.+.) ` ' ' / [ +.( R [ / / / ` / / [ 7.` [ 8.#.#.t.r.8.+.8.8.t.#.#.o.#.+.+.+.8.7.",
"} } O.+.O.O.O.} O.+.8.O.} O.7.[ T 7._ P R ` / ) ` ] [ / 8.8._ ] ' ' 7.r.8.8.r.u.[ ] 8.r.8.r.8.[ ' :.:.[ N.t._ 7.9.] ' :.:.' ' 3.[ ' 8.r.+.#.r.8.r.t.#.+.8.8.+.+.8.8.8.8.+.8.r.d.7.8.8.d.7.] 8.9.] :.:.,.,.[ 7.[ O.u.[ ' ;.` [ r.N.r.t.t.7./ ' 8.Y.t.r.f.[ ` ;.' _ 8.8._ 7.7.` ,.,.] _ [ 7._ O.Q.8.t.7.7.+.7.8.8.8.f.8.+.8.8.r.#.8.+.+.8.8.+.+.#.O.` O.7./ ` / / ` / ` [ / O.[ / ` ` ` ] u.8.+.8.7./ T ] +.O.+.+.O._ ' / ] O.8._ ) 7._ ` ` / ( R ` 7./ [ +.+.+.O.O._ +.t.#.+.#.+.+.8.#.#.r.r.+.+.#.O.8.O.7.` ` ,.` E ` ` ] ' [ 7.[ +.Y.O.] :.] 8._._.}.oXQ.7.:.7._.'._._._.O.:.,.5.f.oX[ [ u.,.' :.;.' ' 3.7._ 7.8.+.+.#.r.t.r.r.N.N.r.t.Y.8.8.r.t.r.8.t.r.f.d.Y.}.7.[ Y.7.` ] ] [ [ ,.9.[ O.|.7.] ,.:.:.u.|.f.Q.|.c.7.7.XX|.Y.|.Y.7.:.,.,.+._.c.,.z.z.,.2.2.,.:.,.z.9.,.z.7.8.f.r.t.r.Y.t.+.+.8.+.t.r.t.N.r.+.t.8.8.f.f.f.u.] [ u.[ ] :.:.,.] 5.8.7.O.Y.[ ] :.' O.N.r.d.N.8.] ' [ 8._.N.N._.O.[ ,.[ 7.|.} ,.8.[ ] ,.:.,.' ,.7.` 7.8.8.g.7.7.7.7.8.r.8.8.r.t.r.t.r.8.8.8.r.r.8.+.f.7.' ,.[ ] ] ] E U T ` T / O.[ / T U ] 7.O.} +.+.[ R / } 8.O.O.8.O.( ` ` _ +.[ ` ,.] ` / / ` / ] 7.` [ 8.O.O.O.O.O.O.+.+.8.8.O.O.+.#.+.+.+.+.O.7.7.7.7.7._ } 7./ ] ] ' ` / ] / _ t._ ( ` / [ #.+.O.t.7._ / _ +.#.O.8.7.] / ` / ( 7._ T [ / T ` / T ` ` 7.` _ +.+.r.+.r.+.+.r.8.#.#.#.O.+.+.#.O.8.7.",
"O.O.O.+.+.+.O.} } O.O.O.} O.7.[ P [ ) R R ` / ` ` [ ] / u.7._ ' ] 7.d.r.#.d.9.:.` E ,.d.r.8.t.8.[ ] :.O.t.t._ 7.9.] ' :.:.:.' 7.,.` 7.8.+.8.+.r.t.t.#.+.8.8.8.8.r.8.t.r.8.d.f.8.7.8.d.Q.7.] u.9.] :.:.,.,.[ 9.[ [ d. .` ;.] 7.t.#.N.f.[ ` ' ' ] 8.Y.t.t.d.[ / / _ 8.u._ 7.7.' :.,.] _ ] 7._ } Y.r.8.8.8.8.7.u.8.t.f.d.+.#.8.r.#.#.O.+.#.r.+.O.#.O.` O.O./ E / / ` / ) _ R +.| / ` ` ] 7.8.+.8.7.' T T ` } +.O.O.+.+.[ / ` 7.p._ _ 8.` / / / ` R ) [ P O.#.+.+.8.+.} O.+.#.#.#.+.r.+.8.r.t.+.O.+.8.8.8.+.8.` ] 5.` E ` ` ] ' ,.7._ 8._.O.] ] 9.Y._._.|./.7.>.6.,.9._._._._.f.[ :.,.f.XX[ [ u.,.:.:.:.' ' 7.O.( 7.8.#.r.r.t.t.r.#.t.N.t.Y.t.+.+.f.Y.f.t.t.Y.Y.d.f._.7.[ Q.7.` ] ] ] [ 7.u.[ O.oX7.] :.:.9.Q.Y.Y.|.z.7.,.,.9.}._.Y._.d.,.:.:.+._.c.,.c.z.5.2.2.,.,.,.z.j.:.u.7.8.f.f.Y.N.r.r.r.8.r.r.t.r.N.t.r.r.t.8.f.u.f.f.u.]  .c.[ ] :.:.,.] ,.7.[ 7.f.[ ' ] 7.N.%.t.Y.8.] ' >.] 5.f._.N._.d.7.,.,.7.XX7.[ u.,.:.,.:.,.' ,.j.` 7.9.8.t.r.t.8.t.r.t.g.t.t.t.t.t.f.f.8.+.8.8.8.8.f.O.] 5.[ ] ] [ / T T ` T / O.[ ` ` ' 7.O.O.+.7.] / T E ` } +.O.O.+.O.( ` [ 8.[ _ 5.:.` / ` ` / [ ,./ O.r.+.+.O.+.8.+.8.8.+.r.+.O.#.#.+.+.+.+.7.7.7.8.7.7._ O.5.` ' ] ] ` ` ] / ( t._ ( ] [ 7.O.#.8.9.] T ` ' _ 7.8.#.8.7.` ` / [ 8._ ~ [ ` / ` ` / / ] 5.` _ O.+.+.8.8.#.#.8.+.#.#.o.O.+.#.#.8.7.7.",
"} } } { +.O.} O._ } } O.O.[ 7.[ Z ` ` / T / ` / ` ,.] R u.7.` ` 7.f.8.+.#.8.] T ;.>.` 3.f.8.8.r.8.} ' O.t.r.` 7.9.] ' >.>.' ' 7.] ~ } +.#.8.+.+.r.#.O.#.+.8.8.8.8.r.r.r.r.r.8.7.8.8.u.Q.7.] u.9.] :.:.:.:.7.u.[ [ u.,.T ` 7.r.+.#.r.7.' ` :.:.` ] u.f.r.t.8.[ / ` 8.u.' 7.7.` ] ,.] ` ] 7.( [ Y.#.#.t.8.8.8.8.r.t.f.8.O.+.r.+.#.+.O.+.+.+.+.+.+.7.` _ } ~ / ` / / / ` ` R O.O./ / ] u.8.+.#.7.' T ` ' T / O.+.O.+.#.8.[ ` [ 8._ ( 7./ T ` ^ R T ` ` P O.8.O.+.+.8.8.O.O.r.#.#.+.+.+.+.+.r.+.+.O.8.r.O.+.u.` ` ,.` E >.` ' ` 7.7._ +.Y.O.] 7._.Y.Y._.}.7.2.,.7.3.,.9.|._._.oXu.[ [ f.oX[ [ u.,.:.:.:.' ` 3.} ( O.t.r.t.t.t.r.N.r.r.t.N.Y.8.+.8.d.f.f.Y.Y.d.f.f.r.f.O._ Y.7.` ] ,.] ] 7.9.] 7.|.7.' :.u.}.d.Y.}.z.,.,.h.h.>.9.|.Y.r.Y.u.,.' O._.c.,.z.z.,.2.4.,.,.:.u.,.] 9.u.r.t.r.Y.Y.r.8.t.8.8.r.r.t.N.r.r.#.t.f.d.f.t.+.u.] [ c.[ ] ,.:.;.] ] 7.[ O.d.[ ' 7.Y.#.#.t.u.] ;.;.,.:.] [ f._.N.Y.u.,.] 7.}.7.[ u.,.' ,.,.:.;.,.7./ } f.8.8.t.t.r.t.r.t.t.t.r.r.t.r.t.f.8.+.O.u.8.+.f.O.` 7.[ ` ] ' / E L T Y / O.` T [ 7.O.[ O.O.] T E ' ' T ` 7.O.} O.+.[ / _ 8.[ ` ,.] / / ` ` E ] ] / [ 8.#.#.r.#.+.r.+.+.+.+.+.O.+.#.+.+.+.8.O.} 7.O.8.7._ } [ / ' ] ' / ` _ P ( r.( ( O.7.} +.#.7.[ E ` / ` ^ ` O.+.O.8.O./ / _ 8.( ~ [ ( / / ` T R [ 5./ ` +.+.+.+.+.r.+.8.+.8.+.O.O.#.+.#.8.7.7.",
"O.} _ _ } O.O.O.} O.O.+.O.O.8.7.Z _ _ R / / ` / ` 7.] ` u.O.( O.d.r.+.8.7.] ` ;.;.:.;.' 7.f.u.8.t.d.} [ N.f.) 7.9.:.;.>.>.;.] j.] / } +.#.8.8.r.r.+.+.#.#.r.r.8.8.r.r.Y.f.8.+.7.8.d.d.c.7.] 8.9.:.,.,.:.:.7.z.[ [ f.7.' 7.d.#.#.r.,.' ;.;.' ;.' ' ] u.d.r.t.u.[ _ 8.d.' 7.7.' :.,.] ` ] 7._ } Y.t.N.Y.Y.Y.f.t.8.r.f.8.+.#.r.+.+.#.#.+.O.+.+.#.+.8._ / _ / / ` / / / ] _ R O.+./ ] 8.f.+.8.7.] ` ;.` ` / ` / O.+.+.+.#.8.} [ 8._ ( [ / E ` ^ E E ] _ / +.+.#.#.+.#.r.#.#.r.#.t.+.+.+.+.#.r.r.+.+.+.8.+.+.8._ ` ,.` ` :.:.] ] 9.u._ #._.O.7.Y._._._.Q.7.2.2.,.,.3.7.,.u.|._._._.u.O.t.oX[ ,.z.,.;.:.:.:.' 7.O._ 8.Y.t.t.t.t.t.N.r.r.r.t._.8.+.r.r.d.Y.Y.t.r.8.8.f.Y.O._ f.7.` :.:.] [ 9.8.[ 7.oX .) 8.}.Y.Y._.u.,.,.,.,.7.6.,.9.Q.Y.N.Y.z.3.O._.c.,.z.z.>.2.4.,.>.3.z.[ ] z.Y.f.r.r.f.d.Y.t.Y.t.r.#.r.t.Y.r.r.#.r.Y.f.8.r.8.u.,.O.c.[ :.,.:.:.] ,.9.[ O.f.[ 7.r.t.r.t.8.,.;.:.:.:.:.,.] 7.f._.N._.u.O.7.}.7.[ u.7.:.>.>.:.' 3.9.' 7.f.t.t.r.r.N.N.Y.t.t.t.r.t.t.t.#.8.r.8.+.8.d.8.r.O._ 7.7.] ' ' ` / T T Y ] 7.` / [ 7.} O.O.) E E ` ` ' / T ` O.O.} O.+._ [ 8.| ( [ ] ` ` ` ` E ] ,./ O.t.#.N.t.r.t.t.r.#.+.+.7.+.+.t.+.+.8.8.7.7.[ O.8.7._ [ [ / ` :.' ` ( [ / _ #.( _ +.O.O.@.+.] ' ' ' ` ' / / ' [ } O.O._ ( [ r.( / [ ( / ` ' / / [ 7./ _ 8.#.+.8.8.r.#.#.#.#.#.O.+.#.+.#.r.8.7.",
"} [ _ _ _ O.O.O.O.+.O.O.O.7.8.7.K [ 7.R R / ` / ` 7.] / u.[ _ d.8.+.8.7.] ` ` ;.' ;.:.;.' 9.d.r.8.t.8.O.t.r.) 7.9.] ;.1.>.;.,.8.] ` 7.r.+.8.8.r.r.8.#.+.r.N.r.r.r.+.8.Z.d.t.8.d.d.8.r.Y.7._ 8.9.,.:.,.,.] 9.z.[ [ d.+.7.d.r.8.8.[ ` ;.' ' :.;.:.' ` ] 8.r.8.t.r.+.8.u.' 7.9.' ] :.' ` _ 7._ O.Y.r.N.r._.Y.8.8.+.#.r.+.+.#.r.+.+.#.O.+.} O.+.O.+.8.( P ` / T T ` / T [ _ P O.O./ O.d.+.+.8.' ` ' ] / ] / T ` / [ +.+.+.O.+.O.O./ / [ ` U ^ ^ T / 7._ P O.8.+.#.r.+.+.r.#.#.#.#.+.+.} O.r.#.+.r.+.O.+.8.O.O.` ` 7.` ` ` :.' ] u.u._ r._.+.f.|._._.Q.3.2.2.,.3.7.,.,.,.,.d._.Y._.|.8.t.}.[ [ c.7.' ;.:.] ) 8.7._ 8.N.#.t.t.t.t.t.t.8.#.t.Y.t.r.8.r.r.t.Y.r.t.f.8.t.Y. .) d.7.` ;.:.:.] u.9._ 7.}.O.O.}.Y.N._.u.,.:.,.,.,.,.h.2.:.9.Y.t.r.Q.d.+._.c.[ z.z.,.>.2.2.:.7.z.[ [ }.f.f.Y.8.r.8.d.t.r.f.#.+.t.r.t.t.r.+.8.f.t.8.g.r.c.,.[ c.[ ' :.:.:.] 9.u._ O.d.O.r.m.r.t.8.] ' :.:.:.,.:.:.,.]  .c.Y._._.t.8._.7.[ u.9.' >.;.:.` 7.7._ d.8.8.r.r.r.r.t.f.t.8.8.8.t.r.r.+.8.8.r.+.O.8.8.8.} ) 7.7.' ' ` / / T T I ' 7.R / O._ } +.] U E ` E ' ' / T T ' } O.O.O.O.[ +.[ / [ ] T ` ` ` / ,.3./ 7.f.O.+.r.r.r.r.r.+.+.8.+.O.O.+.+.+.+.8.8.7.[ 7.9.7.' [ 7.` / ' ] / _ [ / ( #._ O.O.O.#.| [ ' ` / ] ' / ` ;.T ' O.+.} [ ( _ +.( / [ _ ~ ` ` ` / [ [ / } +.#.+.8.8.+.#.8.#.t.+.#.O.+.#.t.8.8.7.",
"_ _ _ } [ } } +.} } [ 7.O.8.8.7.P [ 7.) T ` / ` [ 9.] ` 8.O.8.t.#.8.7.] ` ;.` ` ,.,.` :.;.' 7.d.r.r.r.#.N.8.) 7.z.,.;.1.1.;.7.z.[ [ 8.8.#.+.8.r.8.8.r.r.r.#.r.t.r.r.8.r.f.f.Y.Y.Y.d.t.}.7.[ u.d.,.,.,.,.5.f.z.[ } r.#.#.%.r.8.] / ` ' ' 3.8.,.' ] ;.' ] 8.r.r.r.t.t.8.` 7.9.] ' :.] ` [ 8.( O._.#.r.Y.r.r.8.+.+.8.8.8.+.t.r.8.+.r.+.#.O.O.O.8.+.7.( / [ ` T / ` / ` ,.] / O.O._ 8.#.8.7.] ' ;.` / ] 7._ T E ` T [ +.+.+.+.O.O./ ` 7.] U T T P ` 7.[ / O.#.#.#.#.r.r.t.r.8.} _ +.r.+.+.+.r.#.r.8.8.8.+.O.7.] ` 7. .` ] :.' O.Y.u._ r._.N._._._.Q.7.>.2.,.,.8.Q.3.,.,.,.[ d._._._.Y.N.}. .O.c.9.] :.:.' [ Y.8._ 8.N.N.t.t.N.t.r.r.#.8.t.Y.N.t.t.t.8.t.t.Y.N.N.r.r.Y.7.) 8.d.[ ] ,.:.7.c.8.] 7._.#.Y._._.Y.8.,.:.>.:.:.z.u.:.2.2.:.7.Y.t.Y.Y.N._.p.[ c.Q.j.>.2.2.,.u.c.[ 7.}.Y.f.f.t.r.8.r.8.r.8.8.r.t.r.t.t.t.8.8.8.t.r.8.8.}.7.O.f.7.) ,.:.] ,.d.u._ 8.N.#.N.N.N.u.[ ' :.:.] 7.c.3.:.,.,.] 7.f._.Y._.t._.O.[ z.u.] :.:.:.' 9.3._ f.t.#.8.8.r.8.8.8.+.#.8.8.f.r.8.#.8.8.f.8.+.O.O.u.7.[ 9.7.' / ` / E E E J T ` ( _ O.} O. ./ T E E / [ 7./ T T T / O.O.O.+.O.#.[ / 7.[ / E ` ` ` 7.7.` 9.7.( } #.#.t.r.#.+.+.r.+.O.} O.+.+.+.+.7.7.7.8.8.7.` [ 9.] / ] ] ` O.7./ _ #.O.8.#.+.O.) ` ` ` / 7.7.` / ;.` / ' 7.9.+.} _ O._ / } [ / / ' / ) 7.7.( O.+.#.#.8.+.+.8.8.8.+.O.O.O.+.+.r.r.+.7.",
"( _ } O._ } } } } } O.7.8.} O.7.P ' 8.O.P / / / 7.u.] / 8.r.r.r.r.7.' ;.;.;.` ,.8.u.' ` :.' / 9.f.r.8.#.N.8.` 7.c.7.` 1.1.' 8.d.] [ r.8.+.+.+.+.8.r.8.8.+.+.r.8.8.r.+.r.8.r.Y.f.f.Y.f.Y.9.] 8.|.7.:.,.] O._.u.] [ Y.r.#.N.r.[ ` ` ` ` [ t._.d.[ ] ' ' ` [ 8.d.r.t.t.7.( O.u.[ ` :.' ` 7.8.( O.Y.+.8.r.8.8.8.r.+.+.8.8.+.+.N.r.+.+.t.8.O.r.O.+.+.} / _ 8.[ U T T T _ 7.' P +.+._ +.+.7.' ` ;.:.T ] O.O.} ] U T E / ] 7.+.O.O.7./ / 3.[ T U U P [ O.[ / [ O.+.8.#.r.r.#.#.+._ } +.+.O.O.O.8.#.+.8.r.+.O.O.7.] / 7.u.` ' ' ` +._.8._ r.'._._.OX}.7.,.,.,.:.7._.|.d.} ] 3.] [ f._.Y.Y._.}.[ [ Q.u.] :.:.` O.|.7._ 8.f.t.t.N.t.t.r.+.r.t.N.N.t.t.t.t.t.8.r.f.f.Y.N.#.Y.7.( 8._.O.' :.] 8.|.8.' 7.|._._.N.N.r.,.:.:.>.:.9.}.Q.7.:.2.,.] 9.Q.Q.Y.N._.u.] c.c.z.:.2.>.3.Q.z.[ 7.|.t.Y.r.8.r.f.t.8.#.8.r.8.r.r.t.r.r.8.+.+.8.d.+.8.f.9.[ Y.c.] ] :.` 7.Y.7.( r._.r.m.N.d.[ ' ' :.' 7._.|.z.[ ] :.,.] O.b._.N.r._.O.] d.c.,.' :.' ] c.[ ( d.8.+.8.8.7.8.8.+.8.+.t.f.r.t.+.+.t.8.8.t.8.+.+.r.7.[ 7.u.] T E ` P R / J L ` O.[ _ O.[ E E ` T T [ } } } / U T T / O.#.O.+.#._ / O.7.` P ` E ` 7.7.` ,.[ ) 7.8.+.#.#.O.+.+.+.+.} O.+.O.+.+.O.O.7.7.8.7.[ / ] 9.,.` ` ` _ 8.} / ( r.#.#.f.O.] ` ` T T _ +.#.} ^ ^ ;.` ^ ' 7.8.+.+.+._ ~ [ O./ T ' T ] d.O./ +.O.O.+.+.+.#.+.8.+.O.O.r.+.O.O.#.+.O.7.",
"( O.} } } O.} _ [ O.8.7.O.[ O.7.P ` 8.7.` E E _ 8.d.] ` u.r.t.r.7.' ;.;.` ` 3.8.8.8.8.] ` >.' ] 9.f.f.#._.8.) 7.}.u.,.;.;.,.r.Y.[ [ 8.r.8.+.O.O.+.r.8.+.+.t.r.8.r.8.8.8.r.r.r.d.d.f.Y.}.8.[ d.oXu.,.] ,.r._.d._ } _.t.N.d.[ ' ` ` / ] 8.r.#.N.f.} ` ] ' ` [ d.Y.r.t.8.( 7.}.7.` ] ' _ u.d.( O.}.8.8.8.8.8.r.t.r.t.#.r.+.+.r.r.#.r.#.O.[ r.+.} O.O.( [ r.8./ T T / O.7._ R 7.+.O.t.7.] ` :.` ` :.8.O.O.O.+.` T ` / / 7.O.+.O.8.[ ` O.O._ P I ~ +.+.[ / } O.O.+.r.t.#.#.#.+.+.t.O.+.#.O.O.+.+.+.#.+.8.+.O.7.[ / 7.Y.O.` / O.t._.8._ t.OX'.OX|.7.,.,.:.:.7.Y.Y.N._.d.[ ] ,.] [ Y.|._._.|.} } Q._.7.' ' [ r._.+.[ u.r.+.r.t.r.r.r.r.t.N.N.N.N.t.r.t.f.8.t.t.f.Y.Y.N.f.7.` 7.|.d.[ ` ,.Y._.8._ 7.oX_._._.8.[ :.:.;.:.9.Q.f.Y.Q.7.;.2.>.] 9.|._.N._.u.] c._.}.7.>.>.8.Y.c.[ 7.|.Y.t.f.r.r.Y.Y.t.t.8.t.#.r.r.t.8.t.t.#.+.7.8.r.8.d.9.[ _.}.7.] ` ] t._.7.( d._.t.N.r.[ ' :.' ' 7.Y.f.Y._.f.] ] ] ] ] 7.Y.Y.t.}.7.[ d.}.8.] ;.] 7.XX} ( 8.r.8.8.8.8.8.8.r.t.r._.t.t.8.#.8.r.8.r.t.t.r.t.f.8._ 7.u.3.E E E P ) ,.L / 7.9. .[ ] ` E E E E ] 7.O.[ O.[ / T T T ( O.8.+.+.[ ` 7.8.[ E T / [ 9.7.' ' [ O.8.+.#.#.8.+.+.+.+.O.O.+.+.O.+.+.+.+.8.7.+.O.[ / ] u.7.] / ` O.8.7./ _ t.t.r.7.] / / E T ) 8.+.O.+.} ` T ` / / ' 7.#.#.r.[ ~ } O._ T ` / 7.f.7.( +.} O.O.8.+.8.+.8.+.O.+.#.+.+.+.+.+.+.7.",
"_ [ _ [ } O.} [ _ [ O.O._ } } } P ( 7.7.[ / / 7.8.8.] ` 7.8.r.7.` ;.:.;.` ,.8.8.7.7.8.u.' ;.,.' ' z.Q.r.N.8.' 7.f.f.7.' :.d.r.d.] ' 8.r.+.8.8.O.O.+.+.+.r.8.r.r.+.8.8.8.8.8.8.r.d.u.f.Y.7._ 7.}.Y.7.[ 8.Y.N.u._ } Y.N.Y.3.' ;.' ` ' 7.r.#.8.t.N.r.} ' ' ` ` 5.f.r.t.8.` 7.Y.8.7.` ` 7.f.8.` [ u.+.8.+.8.r.8.r.t.r.+.8.+.+.8.+.+.+.r.[ / O.O.( [ O.' ` 8.8.} T T O.O.7.( P [ +.O.7.' ` ;.;.E ' 8.#.} O.O.O.O.' T ' / / O.+.O.7.[ / O.O.O.` T [ O.O.[ P 7.8.O.+.+.r.#.#.+.t.#.#.+.+.O.+.O.} } +.O.+.+.O.+.O.] / O.t.8._ _ f.t._.8._ r._.oXoX7.,.,.:.:.3.f._.N.N.N._.7.] :.[ _ 7.}.|.Y.|.O.[ Y._.8.7.[ u.Y.Y.O._ 7.8.+.+.8.t.t.r.N.t.t.N._.N.r.t.t.f.f.8.r.Y.f.8.#.Y.O.( 7._.Y.7.] u._.R.8.` 7.|.N._.r.[ :.:.:.' 7.}.f.d.f.Y.c.,.>.,.:.:.z.^.%.N.u.' u.}.Y.d.,.7._.r.d.[ 3.d.8.u.8.8.f.r.r.t.t.r.8.t.r.#.r.#.r.8.8.+.+.7.8.8.f.,.[ f.Y.Y.7.' 8.N.t.O./ d.N.N.d.] ' :.] ' 7.d.f.d.f.Y.Y.u.[ ' ,.:.] 7._.t.f.7.] f.Y.Y.7.' ,.f.}.[ / 7.8.+.+.8.r.8.r.t.+.t.t.N._.+.r.8.8.r.t.+.#.r.+.r.8.` O.9.8.] P U / [ ] J [ 8.[ [ [ ^ E ` T T ] 7.O.[ _ _ +.} T T / T / } O.+.[ `  .+.+.` U ' +.+.[ / :.7.O.O.O.#.8.+.8.+.O.O.O.8.O.O.8.+.O.+.+.7.+.} O.3./ ` 7.+.[ ' 3.u.O.7.^ ] 8.8.7.' / ` T T [ 8.+.O...O.#.3.^ ` ` T T ' O.O.r._ ~ _ O.O./ T ] 8.8.[ / [ O.O.O.+.+.+.#.8.O.+.+.O.+.#.+.+.O.+.7.",
"} [ _ O.} O.} } ( _ _ [ [ O.} O.R ` O.8.O.[ } 8.8.i.] / 7.f.7.' ' :.;.` ,.8.8.8.8.u.8.8.8.] ;.:.' :.8.r._.u.` 9.f.t.u.7.8.Y.t.d.[ ' 8.r.+.r.8.8.8.+.O.r.r.8.8.8.8.r.d.8.8.7.8.r.d.d.f.f.7._ 7.Y.Y.Y.r.r.t.Y.u._ } Y.N.7.;.;.;.` ] 9.8.+.#.r.r.r.Y.f.,.` ] ` ` 7.f.f.9.' 7.Y.t.d.7.O.d.N.u.` ] 7.O.+.9.8.r.8.t.r.r.r.8.+.r.8.8.+.+.8.O._ O.O.} O.7._ ` O.r.8.[ [ 8.O.O./ P _ @.O._ / ;.;.` ` 8.8.+.O.+.O.O.#.7.` ' ` ` ' O.+.8.[ / [ O.O.O.} O...+._ R 8.t.#.+.O.#.#.#.#.%.#.#.#.+.O.#.+.O.O.+.+.8.7.+.O.7._ / O.t.r.r.r.N.t._.8.[ 8._._.9.,.5.,.:.7.Y.Y.N.N.Y.N.N.f.7.] ] ] ] 7._._.}.7.[ f._.N.f.f.Y.t.Y.O._ 8.f.8.#.t._._.Y.N.t.t.t._.t.#.r.Y._.Y.r.r.8.t.8.#.N.+.) O.Y._.m.8.Y._._.8._ 7._._.8.[ ' :.:.' 7.c.d.f.Y.Q.f._.c.,.>.,.:.:.7.N._.9.] u.Y.Y.Y.d.d.t.N.f._ ,.i.8.8.8.8.t.t.t.t.#.8.t.r.8.#.8.#.t.#.r.r.r.7.+.8.c.[ ] f.Y.N.r.8.t.#.N.O./ 8.Y.r.3.' :.' ' 7.c.8.t.f.Q.d.N._.u.] :.:.] [ u.Y.}.7._ f.Y.N.f.8.8.f.|.[ / 7.+.+.7.7.8.r.t.t.r.#.t._._.t.r.r.f.8.8.+.8.t.+.t.u.` ,.9.d.9.' T ] 8.] J _ +.| [ [ ` ` ` T ' 7.O.} O.[ } O.+.[ ^ T T E / [ r.[ ) +.#.+.O._ O.+.+.[ / 7.r.O.O.+.#.+.+.r.8.O.O.8.r.8.8.+.O.+.8.7.O.O.O.7.7.` ' O.+.+.8.8.8.7.3./ [ f.O.' / ` / T [ 8.#.O.O.O.O.O.8.7.' ` ` ` ` ] +.O.` ~ [ O.+.} ` O.#.#.[ P O.+.+.+.+.O.+.r.+.+.#.+.#.+.#.+.+.+.8.7.",
"} } _ } O.} _ _ _ _ _ 7.O.} } } T / 7.8.7.8.8.8.+.8.' ^ 7.8.[ ` :.:.` ] 8.8.+.+.+.#.7.7.#.9.` ;.:.` ' 7.N.8.` 7.r.r.r.r.f.r.r.r.' ' 7.r.#.+.+.r.8.8.8.+.8.8.+.8.r.r.8.d.8.8.8.8.d.f.d.u.7.` 7.Y.N.t.r.r.#.N.8.` [ Y.f.] ;.>.' ' 7.t.+.+.+.+.8.8.Y.Y.d.,.` ' E ) 8.f.7.` 7.t.#.r.8.8.r.r.u./ ] f.7.7.8.+.r.r.r.r.t.r.r.+.r.8.+.+.+.O.#.+.} [ O.O.O.' / _ +.O.O.O.O.O._ R K `  .[ / ` :.T ` 7.#.O.+.O.O.O.O.O.+.} T ` ` U ) +.+._ P [ O._ O.O...O.O.( / 7.#.#.r.#.+.+.#.#.+.t.#...O.+.+.O.8.+.} +.+.+.O.[ 7.' P O.t.8.t.t.t.#._.7.) 8.|.9.,.,.,.:.7.Y._.N.t.N.t.t.t.N.d.,.' ] ' ' 7._.Q.[ [ f._.N._._.t.#.Y.} _ d.Y.f.t.8.f._.N.r.r.t.t.t.t.r.#.t._.Y.r.#.8.8.t.t.r.O.( O.Y.N.Y.Y.Y.Y._.8.` 7._.f.,.;.:.:.` ,.c.f.r.f.Y.Y.d.f.}.z.:.,.>.;.;.7.N.7.' 9.Y.Y.f.Y.f.t.t.u.` ,.Y.8.8.r.8.8.t.t.8.t.#.8.r.+.+.t.r.#.#.#.8.8.+.8.8.9.] _ f.N.r.N.r.t.#.Y.} / 8.Y.7.` :.:.` 3._.t.r.r.r.t.d.f.f.f.8.,.' ,.' [ f.Y.3.' 8.N.#.N.t.t.#._.[ ~ 7.8.+.+.8.+.8.r.r.#.#.r.t.N.r.r.8.8.#.#.+.8.8.#.8.7./ [ 8.8.u.9.} _ +.T J _ _ [ ` / ] ` E ,.7.O.} } _ [ [ _ +.8.' T T T P ) 7.[ ( O.O.{ O.O.+.O.O.[ ` 7.8.O.+.O.+.r.r.+.8.8.+.+.+.8.+.O.O.+.9.O._ [ } } 7.] ` O.+.+.r.8.+.8.7.R [ z._ T ` T P [ r.+.+.O.O.O.O.} O.+.7.` ` ` ` / } } / T [ } O.O.O.+.+.#._ P O.} #.+.8.O.O.+.8.+.+.O.+.+.O.O.+.+.+.7.",
"O.O.} } } } _ _ } } } O.O.O.O.} R ` 7.8.O.8.8.7.7.8.] / 8.7.` ;.:.` ] 8.+.+.+.+.+.+.8.8.#.8.7.' ;.:.` ,.r.8.' 7.8.r.r.t.f.t.#.8._ ' 8.r.#.+.+.+.8.f.8.8.8.+.8.8.r.r.d.8.8.d.d.Y.Y.f.r.d.7.] 7.}.Y.t.t.r.#.N.8.` [ Y.9.;.1.:.] 7.r.#.8.+.+.+.8.t.f.f._.d.[ / ` ` O.f.7./ O._.#.#.r.8.r.t.7./ [ }.8.r.t.8.8.t.r.r.Y.N.t.8.+.8.8.+.+.+.8.+.7.[ O.O.} ~ T [ 7.} } _ [ _ [ / P ' [ ` ` ` :.` 3.+.+.+.#.O.#.+.+.O.#.O.] T ` T R [ 8.` K [ O._ O.O.O._ } ( / u.+.#.t.#.+.+.#.+.#.O.O.O.+.O.#.+.+.O.+.#.8.O.O.+.7._ / +.f.r.t.t.t.t._.7._ 8.}.7.,.,.,.7.Q.Y.Y.N.N.r.t.r.N.t.Y.8.] ' ] ] 5.f.}.[ [ f._.N.N._.N.t.N.7.[ d.Y.t.t.8.t.t.N.r.t.t.N.t.t.r.#.r.r.t.r.#.t.f.f.t.N.7.` O.Y.Y.Y._.Y._._.8.] 7.|.7.:.:.:.' ,.z.f.f.f.f.f.Y.f.f.f.Q.9.:.>.>.;.7.Y.9.' 9._._.f._.f.f.f.d./ 3.Y.r.r.Y.r.r.r.t.t.t.r.r.r.+.#.r.8.8.+.+.O.7.8.t.8.u.] [ f.Y.r.N.t.#.N.Y.O./ d.f.[ :.:.;.,.f.r.t.t.t.r.r.f._.r.f._.u.' :.:.] 8._.} ' 8.t.#.N.t.t.t._.O./ 7.r.#.r.r.r.8.+.#.t.t.t.8.N.t.f.9.+.+.8.r.r.+.8.t.8./  .u.8.8.f.7.} O.K I  ._ E E ` ` ` :.9.O.} O.O.[ | } } O.#.7.' T T T / 7.O./ ( ( _ ..O.+.O.+.[ [ 8.8.+.+.O.+.r.m.r.r.r.+.+.8.} O.+.8.+.O.[ _ [ O.} ] / ` O.O.O.+.O.+.r.7./ [ u.] ` T ^ ' #.#.O.O.O.O.O.O.+.O.O.7.3.' ` ` ` [ 7.' T } } O.O.#.O.o.#.} / O.O.#.#.r.O._ } 8.#.#.+.+.O.+.+.+.8.8.7.",
"} } _ } _ _ _ O._ } } } } O.[ [ T ' 7.O.8.7.} 8.O.8.] ~ 8.7.` :.' ] 7.8.+.+.+.O.+.8.8.8.8.+.8.7.` ' ;.] 8.d.` 7.8.+.t.r.r.t.+.r.[ / u.r.+.8.+.8.8.8.8.8.+.r.r.8.8.r.r.d.d.8.f.Q.d.8.d.Y.7.] 8.Y.N.N.r.r.r.t.8.` } Q.7.;.>.' 7.Y.#.8.r.#.+.+.8.r.f.d.f.}.u.` ` ' [ f.7./ 7.t.#.#.+.8.r.8.7.( 7.Q.8.8.r.r.#.#.t.N.r.f.t.#.#.8.r.8.+.8.+.8.O.( [ 7.O.~ / [ [ O.[ _ O.( O.T P [ [ T ` ` E ] +.} O.+.8.O.} O.O.+.O.O.O./ E ` U ) 8./ U [ _ ..{ { { ( +._ P 7.#.o.#.#.#.+.O.+.+.O.O.+.#.O.O.+.+.O.O.t.#.O.O.#.9.` / 7.8.t.t.#.t.r.N.7._ 8.f.7.,.>.7.Q._.Y.Y.Y.N.r.r.r.N.t.r.Y.u.' ' :.[ u.|._ [ Y.N.N._.N.t.#._.7._ d._.#.t.t.#.O.r.r.t.t.r.t.r.r.r.8.8.r.#.N.f.r.r.t._.O.` 7.t.N._.f.Y.Y.Y.u.' 7.}.[ :.>.` ,.f.r.8.d.Y.f.8.f.f.Y.d.f.Y.7.;.>.;.[ f.8.' 9.f.t._.f.r.r.N.d./ [ d.r.N.r.N.m.#.r.t.t.Y.r.+.r.+.8.r.8.O.O.+.8.8.8.r.u.' [ f.r.N.r.#.N.#.t.7./ d.d.' :.;.] d.t.8.t.t.t.8.t.8.f.d.r.t.Y.7.' :.] O.}.} ' 8.r.N.N.#.t.#.f.} / 7.+.r.+.r._.r.#.+.8.t.#.t.8.8.8.7.8.8.8.r.8.+.8.t.7./ [ 8.r.8.8.7.O._ J I / / E L Y T [ 7.} O.+.} } O.[ _ O.} } 8.O./ T ` / O.[ P ( _ { O.O.O.O.+.[ _ } 8.8.O.O.+.8.r.Y.r.+.+.O.+.O.O.O.O.+.O.} } [ _ [ _ T ` } O.O.} O.+.+.7.` [ 9.` / T / O.+.O.O.O.} O.O.O.+.O.O.O.+.[ T ` ' _ 7._ P [ [ O.{ O.O.#.+.} ~ [ +.O.+.+.O.O.O.+.O.+.+.+.O.8.+.#.O.7.8.",
"( [ } } _ _ } O.} O.[ [ _ _ [ [ R ] 7.O.7.O.7.7.8.u.] ` u.7.' / ] 8.8.+.+.+.+.+.+.r.+.8.8.+.+.u.,.` ` ] 8.d.' 7.g.#.#.t.8.8.#.f.[ ' 7.r.#.+.+.r.8.8.+.8.r.r.r.r.r.r.r.d.r.d.f.r.r.r.d.Y.7.] u.Y.N.m.r.t.t.N.8._ O.}.7.' :.9.f.t.t.r.r.8.#.r.r.r.Y.d.f.Y._.9.] ` O.f.8./ 7.f.#.8.8.8.8.8.8._ 7.}.r.#.r.r.8.8.r.N.Y.8.8.#.t.r.r.8.8.8.f.+.[ _ O.u.7./ `  .O.O.O.[ O.[  .` T 7.[ / ` ` :.} O.O.+.+.+.[ ( [ O.O.O.O.+.O.` ` / ) 8.' / O._ ..O.[ O...+.[ T O.#.#.o.#.t.+.+.O.+.O.+.O.O.O.+.O.O.#.t.8.O.O.8.8.8._ ) 8.t.t.t.r.t.t._.7.) p.}.7.:.7.XX_.Y.Y.Y.t.N.N.N.r.N.N.Z.t._.9.:.:.[ 8.oX ._ Y._.N._.t.t.t._.7._ 8._.t._._.r.@.+.N.N.r.r.t.r.r.r.8.r.r.r.t.t.t.t.t.f.7.) 7.t.N.Y.f.Y._.oXu.[ u.}.7.:.:.7.f.f.r.r.r.8.f.f.f.t.Y.r.t.f.f.,.;.;.[ t.u.] u.f.t._.f.8.f.Y.z.' [ r.#.r.r.N.N.r.r.#.#.8.8.r.r.+.8.r.+.+.+.8.f.r.8.t.z.] [ f.t.N.r.r.t.#._.O.( d.d.] ` :.z.f.t.t.t.r.N.t.Y.t.t.r.f.r.t.Y.7.' ] 7.}.3.[ d.N.t.t.#.r.#.Y.O.( 7.r.#.r.r.t._.t.#.#.r.#.g.8.r.8.8.8.8.8.8.r.t.8.f.7.` 7.8.8.8.u.O.O.O.J I ' ( ] T Y ` O.O.O.O.O.O.+.+.O.[ } } O.+.8.[ / / ` 7.] / O.O.O.O.O.+.O.8.} _ O.+.+.8.+.O.7.r.8.+.+.8.8.O.8.+.O.7.O.O.O.7.O.O.} _ ` [ O.O.O.O.+.+.+.7.` [ 9./ K / 7.+.O.+.O.+.+.+.+.#.O.O.O.+.7.+.` T T [ 8.[ ~ O.O.O.O.O.O.o.t.O./ [ O.O.O.+.+.+.+.8.+.#.+.+.+.7.+.8.+.8.8.",
"( ( [ [ _ _ _ [ O.} ( ( ` _ _ ] T ' 7.7.} 7.O.O.8.7.` ( u.[ / ' 8.r.+.+.+.+.O.#.#.+.#.#.+.#.+.+.7.[ / ` 8.u.` 7.d.8.+.r.8.7.8.d.[ ` 7.t.+.r.8.8.8.+.+.r.r.8.8.r.r.r.8.8.r.d.8.+.8.d.d.d.7.' 7.Y.r.r.r.r.r.N.8.` O.Q.[ ` 7.v.#.#.t.t.8.+.8.8.8.r.8.r.d.d.Y._.7.` [ f.9./ 3.Y.#.8.8.+.8.d.7.' [ }.r.8.+.8.f.8.7.8.8.8.8.8.t.f.r.r.r.8.+.[ [ +.r.O.9./ ^ O.+.} O.[ [ +.[ T P ' ] E U ] 7.[ _ [ +.O.O.O.O.} _ [ O.O.O.+.O.~ / ( O.( ~ +..._ O._ O.O.} _ T } #.+.#.#.#.#.#.} _ } +.O.O.O.O.O.O.O.+.O.O.#.r.+.8._ ( 7.t.8.r.r.r.t.Y.7.) 8._.[ ] Q._.t.Y.Y.Y.r.N.Y.N.r.r.t.Y.r.8.Y.9.' ] 8.XX[ ] f._.N.t.t.t.t.Y.7._ 8.N.t.t.N._.r.+.t.N.t.#.#.r.8.r.d.8.8.r.t.Y.Y.r.r.d.[ ` 7.Y.f.f.f.r._.oX8._ 9.}.[ ' 3.f._.#.r.r.#.8.d.r.r.r.r.r.r.8.t.u.,./ _ t.u.) 9.Y.t.f.f.8.r.Y.8./ ' r.+.r.N.r.N.N.r.#.+.8.8.+.+.+.8.+.+.+.r.8.8.r.t.8.8.] [ d.N.r.r.r.r.t.t.O.( 8.u.] ' d.Y.r.t.t.r.8.t.t.r.f.r.8.r.r.r.N.Y.,.] 8.Q.[ ' d.N.#.r.r.+.r.f.} / 8.t.+.#.r.r.r.t.r.+.+.t.8.Y.r.8.8.8.8.r.#.8.d.+.8.7./ 7.d.8.u.f.} } 7.z n 9.7.U Y [ [ [ O.O.[ _ O.O.+.O._ _ } } } } O._ ~ ( +.' / 7.+._ } O.O.+.+._ ' 7.O.O.8.+.+.O.O.O.O.8.8.+.8.O.8.8.O._ } O.O.7.+.O.} / _ +.{ _ +.O.O.8.[ R ] 7./ P _ O.O._ _ _ O.+.O.+.+.O.[ } +.O.+.O./ J _ r.[ P } +.{ { O.O.+.t.} ~ _ O.+.[ } O.#.+.+.#.#.O.7.7.O.7.8.8.8.7.",
"_ [ ( [ _ _ ( [ O.[ ( ` _ [ _ ] R ` 7.7.O.7.O.+.7.7.` ) 8.[ ( 7.8.+.+.+.+.#.+.r.#.#.r.#.+.8.+.+.#.8.[ _ +.d.) O.d.#.#.r.r.8.8.8.[ ' 8.r.r.t.r.r.r.+.+.r.r.r.r.8.8.r.r.d.d.r.+.8.d.Y.f.Y.7._ 8.Y.r.r.r.r.t.N.8._ +.}.O. .d.#.#.#.r.8.8.8.+.8.r.8.8.r.Y.f._.}.f. .O._.u.` } f.8.8.8.8.8.8.7.[ O.}.r.8.8.r.Y.f.8.+.+.r.t.8.f.r.Y.8.8.O.} O.r.r.#.+.u.] ` [ O.O.O.[ O.O.[ P P [ ) P ` 7.7._ ( [ +.+.O.+.#.O.+.O.O.O...O.+.[ / ( #._ ( O.{ { O.O.#.O._ [ / O.+.o.#.#.#.+.+.{ _ } O.O.+.O.+.O.O.O.....+.t.#.#.t.[ ) +.8.r.t.t.t.t.r.O.) p.f.+.d.Y._.N.Y.Y.Y.N.t.r.N.r.Y.f.f.r.8.Y.Y.3.] 8.oX,.[ f.f.N.Y.N._.r.8.O.[ 8._.N.N.N.N.N.N.r.r.N.N.r.t.t.t.t.8.8.t.f.f.f.r.r.f.7.` 7.Y.Y.Y.Y.f._.}.9._ u._.[ O.Y.N.N.t.t.#.r.r.8.8.r.+.8.8.r.r.t.f.u.[ _ t.u._ 8.f.f.t.d.r.f.8.7.[ [ Y.#.r.N.t.N.Y.t.8.8.8.t.+.+.+.#.+.8.r.#.#.8.8.r.r.u.[ } r.t.r.r.r.r.t.t.O.` 8.f. .7._.v.#.r.t.r.r.N.t.8.+.+.r.t.r.t.t.Y.d.O.+.Q.} _ 8.t.#.t.8.r.r.8.[ ( 8.t.r.t.t.t.#.N.t.#.#.r.f._.Y.r.+.8.8.t.8.8.+.+.7.7./ 7.f.i.d.d.+.O.O.G G 7.) z / 7.[ _ O.+.[ _ O.O.[ _ _ [ _ [ _ { #.+.} [ +.[ / O.O.O.O.O.O.+.+._ ' 7.+.8.8.r.8.O.O.O.+.7.r.+.+.+.#.r.O.[ O.8.+.O.O.8.O.( ( } ..O.O.O.+.O.] R _ 7.( _ 7.} { _ ( ( O.+.+.O.O.O.} O.7.O.+.#.3.~ ( f.} / [ O.O.O.+.O.#.#.O./ ( +.+.} [ O.+.O.8.#.+.+.+.8.+.+.8.r.r.8.",
"_ _ { } _ _ _ [ _ _ _ [ 3.} O.[ T ` ] } O.O.O.8.[ ] ` ( O.O.O.+.+.O.+.+.O.+.+.+.#.t.+.#.+.+.+.+.O.+.r.+.+.8.` [ O.8.#.+.t.f.[ } [ ' 8.r.r.r.r.t.+.8.r.8.r.d.8.+.8.r.d.d.f.r.8.r.d.d.d.Y.7.' 7.8.r.r.#.r.8.O.7._ O.|.t.#.t.#.#.#.#.#.8.+.+.+.8.r.t.r.r.Y.f.f._.d.7.f.8.` [ 7.+.8.+.r.8.[ 7.[ [ }.t.8.d.r.r._.f.8.t.8.8.r.r.d.8.#.+.O.+.+.r.+.#.t.8./ ` ] ( O.} _ +.` / P J [ [ _ 7.[ [ _ _ _ O.} #.O.O.O.#.O.} ......O.+._ _ +.( / _ / O...O.#.( / [ / _ +.O.#.#.+...+.+.O._ { O.O.O.O.O.O.O.O.#.t.+.#.#.8._ ( O.O.r.r.r.Y.O.O.O.( 8.Y.f._.t.r.N.N.#.N.Y.r.r.r.r.Y.t.8.8.+.r.Y.d.7.r.|.,.] c.8.+.Y.N.Y.O.O.O._ 8._.N.N.#.r.N.N.r.t.#.#.t.N.t.8.#.t.t.d.r.r.8.8.t.f.,.` 7.7.d.Y.r.Y.Q.u.7._ 8.Y.+.r.N.r.t.N.#.#.r.N.t.8.+.+.+.+.8.#.#.#.Y.r.+.8.7.` 7.8.7.Y.r.r.f.] 9.3.] Y.t.r.r.N.N.N.t.#.r.8.8.r.+.O.+.#.r.+.#.+.r.8.8.r.u.] [ 8.+.8.8.+.Y.8.O.O.( 8.8.+.8.r.+.#.+.r.t.r.r.r.r.+.8.8.8.r.r.r.r.d.8.+.Q.[ ' 7.O.r.r.+.N.u.} [ ( 7.r.t.t.r.t.#.t.t.8.+.+.t.r.t.#.+.r.8.8.8.#.+.8.8.3./ 3.7.8.d.8.O.O./ y j ` T K ] _ _ [ O.7.} ( _ } ( _ } _ _ [ O.} } +.+.O.O._ / _ _ } O.+.#.} _ ] ` [ 8.r.8.8.8.7.} O.+.O.8.8.O.+.+.+.O.O.8.+.+.+.+.O.} / / ( _ O.O.+.O.` ` T / 7.} } } } } { O.[ O.} O.#.+.O.7.O.O.+.+.O.8.O.O.8._ T ] _ O.} O.O.#.} _ / [ O.O.O.O.[ } O.O.+.O.O.8.7.8.+.+.8.8.8.",
"O.O.{ O.} { } O.} } _ O.O.} +.[ T ' ` [ O.8.O.O.( ,.' ` +.#.+.O.+.O.+.+.O.+.+.#.O.O.+.#.#.@.+.@.+.+.#.#.+.8.` [ O.+.#.t.f.O.( 7.,.] 8.Y.r.r.t.t.r.r.r.r.r.r.8.8.8.r.r.r.d.f.Z.Y.t.d.r.Y.7._ O.+.O.r.N.r._ [ 8._ O.oXN.#.#.#.#.#.#.t.r.r.8.8.8.t.f.r.f.f.Y.f.Y.Y.r.Y.u.' 3.[ [ 8.Y.r.[ [ 9.]  .}.f.f.f.f.f.t.Y.Y.t.8.8.r.r.8.8.8.8.+.r.+.+.#.#.#.8.` ' ] / O.+.O.O.( ` ` K [ 7.O.7.[ } [ O.+.8.O.O.O.#.O.O.O.[ O.O...+.#.O.O.#.( / _ ( ( #.O.( / ( [ / _ #.#.#.+.+.O.+.#.o.O.O.O.+.O.+.+.+.O.+.#.#.#.r.#.g.[ ( O.| +.t.N.8.( 7.7.( 7._.t.t.t.t.r.#.#.t.N.r.r.r.r.N.r.8.+.r.r.t._.Y.r.|.,.] c.8.O.f._.+._ 7.7._ 8._.N.N.#.N.N.t.t.t.#.#.8.r.r.8.r.Y.Y.t.8.8.8.r.t.Y.7.' j. .7.}.Y.f.8.7.z.[ +._.N.N.N.N.N.N.t.r.r.Y.N.r.8.+.8.+.+.+.#.#.t.t.#.r.7.` 7.7.[ 8._.t. ._ z.[ } Y.t.t.r.t.Y.N.N.t.r.8.t.t.+.+.+.r.#.#.8.r.r.r.8.8.u.,.O.8._ +.t.#.r.( _ 7.) 7.8.8.r.#.+.O.+.8.r.r.r.r.t.+.+.+.#.8.r.#.t.r.r.r.Q.[ _ 7._ O.N.N.f.[ [ } ` 7.t.8.r.t.t.N.t.r.r.#.8.r.r.8.8.8.r.r.8.8.8.+.8.d.9.' 7.O.} d.f.O.[ J 0 c ' ( ]  .` ` O.O.+.+.[ [ [ [ } _ _ O.+.O.} _ O.#.+.#._ / _ ) ( O.8.O.( _ ,.' [ 7.8.Z.d.8.O.} O.+.+.+.+.O.#.+.+.+.#.+.+.+.+.+.+.O.( ' ( ( _ +.} ( / ` P ( O.O.} _ _ } } O.O.O.O.+.+.+.#.r.+.+.+.+.O.+.+.#.8.` ~ ] ` O.O.#.O.O.( ] / [ +.+.O.+.O.+.+.+.} 8.8.8.8.7.8.+.O.8.8.",
"+.O._ } { } } O.} _ _ [ O.O.O.[ P ' 7.) ( 7.} ( _ 9./ / +.+.+.+.O.O.O.O.+.+.+.+.O.O.O.+.#.O.O.O.O.+.+.O.#.O./ O.8._ O.f.7._ O.d._ ' 8.r.8.8.+.8.r.r.r.r.r.8.7.8.r.8.r.f.8.r.d.r.r.d.r.r.} ' 8.8.( O._.O.( +.u.`  ._.N.t.+.#.t.#.#.8.r.8.#.+.8.r.r.f.f.r.f.r.8.d.t.f.7./ 7.u.` [ c.7.' 8.u.` [ Q.r.f.f.8.r.f.t.8.t.8.8.7.8.8.t.+.8.+.O.#.N.+.#.#.O./ / 5.R / 9.O.( R 7./ Z [ +.} O.+.O._ O.O.} [ O.+.+.O..._ O._ _ O.O.O.o.+.+.( P O.[ ~ [ ( ) / O._ T [ +.o.+.O...O.+.O.O.O...{ O.+.+.O.O.O.O.+.8.#.t.#.#.) ( 8.+.( 8.f.) [ f.[ / 9.t.8.t.t.t.#.t.t.r.r.N.8.8.r.r.+.8.8.8.r.t.Y.f.t.Y.[ ' c.c.[ O.u.[ [ u.7.' 8._.t.t.N.r.t.t.#.r.t.#.+.#.r.r.t.t.t.r.8.8.d.r.8.Y.3./ l.9.( 9.}.7.[ }.c.) 8.'.#.N.t.N.N.t.t.#.r.r.t.t.+.+.8.#.+.+.t.t.t.+.#.t.7./ 7.d.O._ c.u._ 8.f.' [ Y.r.r.t.r.r.N.r.#.t.#.r.8.8.+.t.+.r.#.#.8.r.r.r.+.u.] [ Y.( _ r.8._ ( d.7.( 8.r.+.t.+.O.O.r.t.+.r.t.8.8.+.+.#.r.+.#.r.r.8.+.#.d.' ` 8.8.( 7.d.O._ u.7./ 8.t.#.8.r.N.t.r.#.r.r.+.8.8.+.r.r.r.r.r.+.+.8.+.8.9./ 8.9./ } d.} / v 2 c 9.O.~ [ ` T  .O.O.O.} ' ] O.[ _ O.+.O.( ( { O.O.O.#.' T O.[ ( _ 5.` _ 8.[ / } 7.} 8.8.7.8.8.} O.+.O.O.+.O.+.O.+.#.#.+.8.+.+.+.[ / [ 7.( / ` / / ' ' K / O.} O._ / ( _ _ O.O.O.O.O.+.+.+.+.+.O.O.} } O.O.+./ T 7.' / O.#.O.( ..3./ _ #.O.[ O.O.+.7.O.[ O.8.8.8.r.O.7.7.8.7.",
"} } _ _ } O.} } _ _ _ O.} O.O.} P _ u.O.R ] ( [ +.7.` / 8.O.O.+.O.+.+.+.+.#.+.+.+.+.O.#.+.O.} _ O.#.+.O.#.O./ O.Y.7._ [ [ +.N.r._ _ 8.r.+.+.+.#.8.r.r.t.f.8.+.r.r.r.8.8.r.t.8.r.f.t.r.r.7.' r.|.O._ O._ +.r.8._ [ Y.#.#.t.#.#.#.t.8.#.+.+.#.r.8.r.t._.f.8.8.8.8.f.t.7./ 7.c.7.] [ [ 8.Y.u._ [ }.t.f.f.f.p.r.t.8.r.t.8.+.8.r.t.8.8.O.O.8.t.r.t.r.7./ ` 9.] / [ / / _ O.` K [ +.O.O.+.+.+.8.[ _ ( O.#.+.O.O.O.O.} O.O.O.O.+.O.+.( / +.+.( / P  .} +.[ / [ O.......O.O.O.O.+.O.O.O.+.O.+.O.O.+.+.+.t.r.t.o.#._ ) r.f.[ [ [ [ 8.t.O./ 7.t.#.t.t.t.r.t.r.t.r.r.r.r.r.8.+.8.r.8.8.t.f.t.t.f.[ ' c.XX7.[ [ [ 8.Y.O._ 8._.t._.N.N.r.8.#.t.N.N.r.#.r.Y.N.t.f.t.r.r.d.r.t.Y.7./ 9.c.5.,.7.[ 8.$X9._ 8.'.#._.N.N._.r.t.#.#.r.t.t.r.+.8.#.N.N.Y.r.8.+.o.N.u.` 7._.f. .[ 7.r.Y.8.[ 3.Q.#.f.Y.r.8.#.t.r.t.r.8.O.#.r.N.#.r.r.8.+.8.r.+.t.d.] [ _.+.( O.[ ( r._.8.( 9.r.8.t.8.#.+.r.+.t.r.r.+.+.+.8.+.+.+.r.#.r.+.O.#.Y._ ` u.Q.8.[ ] [ 8.Y.7.` 8.t.#.r.r.Y.N.t.r.r.r.r.8.8.8.t.r.r.t.r.8.8.8.8.8.8.' 9.f.[ / ] ' [ L e v  .} _ } ( / [ } 8.#.} _ } O.O.{ } ( ( ( O.O.O.O.O.#._ / 7.O.[ / R ] 7.d.[ / 7.7.O.7.} O.7.8.+.+.8.O.+.+.O.+.+.+.+.#.r.r.8.+.O.[ / _ +.O.( T T _ } ' P / O.} O.} ( ( ( [ } O.O.O.} O.O.} O.O.O.+.[ ( O.+.O./ E j.,.) ` [ _ O.t.7./ [ 8.+.+.O.[ O.7.O.O.8.O.u.8.8.7.O.7.8.7.",
"_ _ _ _ _ _ } { _ O.[ [ O.} O.O.T _ } 8.' / [ d.} [ ` / O.O.O.} O.O.O.+.O.+.+.+.O.O.#.#.#.t.+.+.+.+.+.O.O.O./ [ r.Y.O.` 3.r.+.8._ ` 8.#.+.8.8.+.+.+.r.r.r.r.r.8.8.8.8.8.8.8.r.r.d.8.+.f.7.` +._.N.+.[ #.N.O.+.[ _ t.#.+.r.#.+.+.#.#.+.O.O.+.r.#.r.f.f.r.7.7.8.8.8.f.7./ 7.d.8.7.,.7.Q.8.7._ [ }.r.8.f.f.d.8.8.r.r.8.8.#.r.r.#.r.+.} O.O.+.t.+.+.7./ / [ 7.O.( R O.[ ( ` K _ O.O.+.O.O.O.8.+.7.7.#.O.+.O._ O.O.O.O._ _ O.O...+.( P [ } _ ( / O.{ } O./ _ O.O.+.O.O.O.O.O.+.O.O.O.O.O.O.O.+.+.#.#.+.8.+.O.8._ ( +.t.+.O.O.f.+.O.O./ O.t.r.r.r.t.t.r.r.r.r.r.t.t.r.r.r.8.8.8.8.r.f.r.#.f.] ' u.}.d.7.7.7.8.8.O._ 8._.N.N.Y._.r.+.#.8.r.Y.r.#.N.N.t.t.r.r.r.r.d.8.t.Y.} / 7.8.f.u._ 7.|.f.7._ +._.N.N.N.t.t.t.r.#.#.r.r.8.r.+.+.8.t.t.r.+.+.+.+.r.u.` 7.8.r.d.[ 7._.8.8.[ [ Y.r.r.f.r.+.+.+.r.#.r.8.O.+.r.#.r.m.r.+.O.+.+.t.+.u.] _ t.r.+._ / u.8.+.8.( O.r.t.8.r.+.+.+.+.r.#.+.+.8.+.+.+.+.#.#.+.+.O.+.+.d.' ( 7.r.Y.8._ 8.r.8.7./ 7.r.r.r.r.8.f.r.#.t.r.t.8.8.r.r.r.f.r.8.8.O.8.8.8.7.' 7.u.8.:.:.7.O.T G Y ] _ | _ [ _ ` [ O.O._ _ O.} _ { { ( _ +.#.O.} O.O.O._ / [ [ +.[ ` 7.O.O.[ / 3.8.O.} O.} [ 7.7.+.O.8.O.O.+.O.O.+.+.+.8.7.O.O.} [ / ( } } } _ / _ _ / P ~ O.O.} +.{ ( ( _ [ } O.} O.{ } O.} O.O.+.( P _ O.} ` T :.9.7./ ` ( r.r.[ / [ 7.+.8.O.[ O.} 8.7.O.+.8.8.8.7.8.7.7.8.",
"O.} / ( } } } } } O.} } O.O.O.O./ [ _ [ } } 7.+._ [ _ ( +.+...O.} O.+.+.O.+.+.+.O.O.O.+.#.r.+.#.+.+.+.O.#.O./  .+.+.8.7.u.+.} 8.[ _ 8.t.#.8.r.8.+.8.r.r.N.Y.8.8.d.8.8.r.r.d.f.f.8.O.+.Y.7._ O.8.+.#.N.N.+._ +.O.[ t.#.#.#.#.#.+.O.+.+.+.+.+.+.r.N.r.f.r.8.8.u.8.8.f.7.( 9.8.O.8.}.d.7.O.+._  .}.r.Y.Y.f.t.8.8.r.t.t.r.8.8.r.r.r.r.+.O.O.+.+.O.O.8.' ` _ _ O.7.O.g._ ( [ P } +.O.8.+.+.+.O.+.r.+.#.O.#.O._ _ +.} _ ( } O.O...+.( / _ ( ( +.O.O._ O.O./  .+.o.#.+.+.O.+.+.+.#.+.} } +.+.+.+.#.r.+.+.O.O.O.8.[ ( +.O.O.t._.8.| O.O./ O.r.#.r.r.r.t.Y.N.r.#.t.r.N.N.N.t.t.t.t.r.8.r.t.#.f.] ' 9.8.8.r.}.8.+.r.7.) 7._.N.N.Y.Y.t.8.#.r.N._.8.#.N.N.t.t.r.r.r.Y.f.t.t.t.7.` 9.@.+.Y.8.f.t.+.9.[ +.'._.N.N.t.r.t.t.r.N.r.t.#.r.#.+.+.8.8.8.+.8.8.#.t.8.) 8.8._ 8.Y.Y.t.O.u.} [ |.t.r.f.r.+.+.8.+.8.r.f.O.8.r.r.r.N.r.#.+.8.8.t.#.p.] _ p...O.r.O.8.} O.7.) O.t.#.8.+.O.#.#.r.r.+.+.+.r.+.+.+.+.+.r.+.+.O.#.+.Y._ ' +.+.O.t.r.f.7.O.7.` 7.r.r.r.8.8.8.r.r.N.t.t.8.r.r.t.r.Y.8.+.+.7.8.7.r.8.] 7.7.7.8.d.}.7.k j J [ | ) ' [ [ [ O.} _ ( [ +.} O.O.} { O.O.O.O.O.[ _ +.] ` [ ( _ +.8.7.( O.[ ` 7.8.O.8.8.7.O.O.O.O.8.8.} } +.O.+.#.#.#.O.O.O.O.O.O./ ( [ ( } r._ / ( ' P / O.O.O.+.O._ ( [ [ } O.+.} O.} O.} O.+.} T J K ' O.` T ] [ 8.3.' [ 8.O.[ '  .#.8.8.8.O.O.+.8.7.8.8.8.7.u.8.8.7.7.8.",
"O.( P T [ { _ O.} } } O.} } O.} / [ ( / _ +.O.( / [ ` / 8.O.O.O.} O.O.+.O.+.+.O.O.O.} +.+.+.+.+.+.+.O.O.#.} / O.O.( [ d.Y.[ ( d.} ( 8.r.#.r.8.r.r.r.8.r._.u.[ [ u.f.8.8.f.r.d.f.8.7.7.d.7.) 7.7._ O._.r._ ( 8.[ [ t.#.#.+.#.N.+...O.#.+.O.+.O.#.t.r.8.8.r.r.8.r.r.r.7./ 7.8.( [ |.Y._ [ 7.( [ }.t.f.Y.r.r.r.r.8.f.f.8.[ 7.d.t.r.r.m.N.8.8.+.#.O.+.` `  .R / +.8.[ / ( _ P O.O.O.8.+.O.O.+.O.O.O.O.+.+.+.[ ( _ _ ( _ +.O.{ ..O.( P [ / P +.f.( / O.} / 7.8.O.+.+.O.+.8.+.+.r.O.' ' O.#.O.+.#.#.#.+.O.+.O.+._ ( +.| ( #._.O./ O.O./ O.r.#.r.r.+.r.N.Y.#.#.t.r.r.N.t.N.N.t.N.8.r.8.8.t.f.] ' 7.7._ O.OX8._ 8.O./ O.r.r.Y.r.f.f.8.+.t._.8.[ _ 8.Y.r.8.r.r.r.t.f.t.#.r.O.` u.@.( 8._.8.[ O.9._ O._.t.N.r.r.t.8.8.8.r.Y.r.t.8.+.+.+.#.+.8.+.8.7.+.t.7.` 7.7.) [ oX|.[ [ d.[ [ }.r.t.r.8.r.r.8.+.t.t.7.:.[ u.t.#.r.#.t.r.Y.r.8.8.u.] ) p._ ( r.#.O./ [ +./ O.8.8.#.+.r.+.8.r.8.O.+.r.+.+.#.O.+.+.+.+.#.+.O.#.f._ ( +.} ( 8.Y.8._ O.} / 8.r.+.8.8.8.+.r.r.r.t.f.O.O.8.r.r.8.+.O.+.8.8.+.8.7.' 7.7.] 7.[ 7.] k n n ~ O._ / _ [ _ O.O.( _ [ } O.O.} ( _ O.{ } O.} ( [ +.' ` 7.( / } 8.O./ } } ( } 8.r.8.8.8.8.7.} O.8.7.[ _ O.#.#.+.+.+.+.+.+.8.O._ / _ } D ( +.( Z ( ( P / } { O.O.} _ _ { { #.O.O._ _ O.} [ O.O.T k v n U ] T T ' T ] } 8.8.O.( ,.' _ r.+.8.8.O.+.7.7.O.u.8.' ` 7.9.7.7.+.7.",
"_ P P T ( O.{ O.} } O.O.} O.+.O./ [ [ / ( 8.[ / / ,.) ` 8.+.O.O.O.O.} O.O.+.O.O.O.O.O.O.+.#.+.O.O.+.+.O.#.O./ O.O.( / 7.7.' _ f.O._ d.N.#.t.t.r.r.r.r.Y.f.7.,.:.[ 8.r.r.r.t.f.d.8.u.u.u.7.) 7.7._ } t.+.( [ +.| [ r.#.#.#.#.N.#.O.O.+.#.+.O.#.+.#.+.+.8.r.t.t.r.8.f.9.( 7.8.) _ 8.u._  .7._  .}._.t.Y.r.r.t.Y.r.Y.u.[ ] :.7.d._.Y.N.N.N.Y.r.t.#.+.( [ 9.( / 7.O./ R [ [ / O.8.+.7.O.O.O.+.+.8.+.O.O.+.+.O._ _ _ } O.o.O.X...O.( / O.( P } O./ / +.} / 7.8.O.O.O.+.r.#.r.r.+.[ ` ' _ +.#.#.#.#.#.#.#.#.+.#.( ( 7.[ ) 7.8.[ ) O.O.( O.#.#.r.r.r.#.8.r.N.r.N.N.r.t.t.t.Y.Y.r.t.t.8.8.t.f.] ] 7.7._ [ d.O._ 8.7.) O.8.8.r.t.Y.f.t.t.N.t.} ' ' [ 8.r.r.r.r.r.8.f.r.r.Y.O.) p.8._ 7.c.O._ 7.9._ O._.t.N.t.N._.t.r.#.r._.Y.r.r.8.r.t.t.t.t.8.8.+.@.t.7.) 9.7._ [ u.7._  .f.[ O._.r.t.t.#.r.t.r.t.f.7.,.:.] [ u.r.r.#.r.r.Y.t.r.g.u.) ) p.[ ` O.+._ ( _ 7./ O.#.#.#.r.t.#.#.#.#.+.+.O.r.+.O.#.r.#.r.r.r.+.+.#.f._ ( +.[ ( O.Y.O.) O.O.` 8.t.t.f.Y.r.8.t.r.r.f.7.] ] 7.f.r.8.8.8.r.f.r.r.r.7.' 7.7.] [ ] ' P U ] G L ( [ ( [ O.[ O.O.[ O.} } O.} _ ( [ +.O.O.O.O.O.O.8._ ` 7._ ( _ [ _ / O.7.` [ 8.8.8.8.8.7.7.7.8.7.,.] ] [ 8.r.r.#.r.r.#.r.r.#.O./ [ O.P R _ ~ D ( ( P ( +.O.{ O._ { { O.#.t.+.O._ { O.O.} O.` V j v n J / T T ' E / ' u.7._ ` 7._ [ 8.8.+.+.7.8.7.9.8.u.7.^ T ,.7.8.7.8.O.",
"~ U P T ~ _ O.{ } O.O.O.} } +.O.P [ [ / / [ ` / ` ] ` / O.O.} O.O.O.O.O.[ } O.O.O.O...+.+.+.O.O.O.+.+.O.+.} / [ 7._ / ' ] ` _ 8.} _ r.r.#.#.#.t.r.8.f.d.3.:.,.,.] ,.u.r.r.r.8.r.d.8.8.f.7.` 7.7._ ] [ [ _ [ +.[ ( 8.+.#.#.#.#.#.#.{ O.#.+.+.+.O.+.+.#.8.8.r.t.r.#.r.8.( 7.7._ ) [ 7.) [ 7._ [ Y.Y.Y.t.f.Y.r.r.Y.f.,.:.,.,.] 7.f.Y.Y.Y.r.r.r.+.#.+.( _ u._ ` [ _ R / _ _ R } O.O.} O.O.} } +.8.O.} +.+.O.+.O.O._ O.O.O.+.O.{ O.( / } ( T / / T ` } [ / 7.O.O.O.} +.+.8.t.#._ ] ] ] ' [ +.#.#.#.+.#.#.+.#.r.( ( +.[ ` ] [ _ )  .O./ O.t.#.#.r.t.8.+.+.r.N.r.r.t.8.r.t.r.r.t.r.t.f.8.r.f.' ,.7.[ ] ' ,.[ _ 7.7._ 7.f.8.r.Y.Y.d.Y.Y.r.O.` _ [ ] [ 8.d.8.8.8.8.r.r.r.d.O.) u.9._  .7.[ _ 7.j.) O.t.#.r.N.t.t._.t.+.8.t.t.+.+.8.f.8.r.t.t.+.8.8.+.8.7._ 8.7.] ] ] ] _ } u.} [ _.r.#.#.r.r.+.t.f.7.] :.:.:.' 3.8.r.+.r.8.8.d.t.+.7.' ) 9.] ` ` ] ` / [ 7./ O.8.+.r.r.r.t.#.+.8.+.+.O.+.+.#.#.+.r.r.+.+.#.#.O.r._ ( O.| / _ 7.] ` 7.7.( 8.f.t.d.r.r.r.8.r.Y.7.] :.:.] 7.f.r.8.d.r.r.f.t.r.7.] 7.7.' ' ] ' I I ' T K P / _ ` [ O._ [ } [ } [ ( } _ { } O.+.+.} [ O.O.+.[ / 7.[ ` ` ` ` ( [ 3.` [ O.} O.+.O.7.7.8.8.[ ] ,.,.] [ 8.r.#.+.+.r.+.+.#.[ / _ [ P T / P D / / P / 7.} _ { { O._ O.+.+.O.} _ } _ { O._ z j n G n J T T K ,./ U E :.` ~ ] 7.` ' 8.+.O.7.+.7.7.7.u.3./ ' ' ^ / 7.,.] ' ",
"T / T / / ( [ +.} +.O.O.O.O.+.O./ [ [ ( / ` / ` ` ] _ R [ O.O.O.O.+.+.O.[ [ } +.O.O.O.#.+.#.+.+.+.+.+.+.#.} / O.7._ / ` ' ` ) 7.} _ 8.r.#.#.#.r.r.Y.f.7.,.,.,.,.,.,.3.8.t.r.8.r.f.8.8.Y.7.` 7.9.[ ] [ [ [ [ +._ ( +.+.#.#.t.t.#.#.+.+.#.#.+.O.O.+.+.8.8.r.r.8.f.r.r.8._ O.7._ _ [ [ [  .8.[ [ 8.8.f._.Y.Y.N.Y.f.7.,.,.,.5.,.,.} f.R._.r.+.+.O.#.r._ [ u.[ ] [ ) ( ( _ [ ( O.O.[ O.O.8.} O.[ O.} O.+.+.O.O.O.O.O.O...O.+...X.+._ ( O._ / / / ( ( } [ ( +.+.O.O.O.#.+.r.+.[ ] ,.] ] ] [ [ +.#.#.#.#.#.#.o.#._ _ 7. .` ] ] [ [ O.O./ O.t.#.t.r.t.t.8.r.r.r.N.r.8.8.r.t.r.8.r.8.f.f.t.t.d.] ,.9.,.] ] ,.,._ 7.7._ 8._.r.f.f._._._.Y.7._ ] [ ] ,.,.[ 7.d.r.r.r.r.f.Y.Y.7.[ u.9.[ ,.5.[ ] 7.j.) O.t.#.r.t.N.t.t.t.r.8.8.8.+.+.8.8.t.t.#.#.8.8.8.+.8.7.) u.7.[ ] :.:.] [ u.O.[ Y.#.#.8.r.t.r.f.7.:.,.,.:.,.,.,.[ 8.#.r.8.t.8.r.#.u.' ] 9.[ ` ' ` ) ` [ O./ O.r.#.t.r.r.+.#.#.r.+.t.O.+.O.#.#.N.#.#.+.#.8.#.#.r._ _ 7.O.` ] ] ] ` 7.7._ r.N.#.8.8.d.r.r.f.8.[ :.,.,.' [ 8.r.r.r.r.t.r.8.f.8.] 7.,.' ' ;.` E j c U T U R ` / ) _ _ O.} [ [ ( _ | [ O.O.O.#.+.+.O.O.+.r.[ _ 7.[ ` ` ` ` ( [ 7._ [ O.O.+.O.O.8.8.7.[ ] ,.,.,.[ [ [ 8.#.+.8.r.8.O.O.[ ( } [ D / ` T P / ' P / _ ( _ } O.O.} } _ } _ } } O.} +.[ R k n G L I P ` T U ,.' ` ` ` T / ] 7.` _ 8.+.+.9.7.8.8.7.7.' ^ ] ` T n n c e b ",
"/ / T T / ` / O.O.} } +.} O.+.O./ [ _ ` / E T ' ^ ' ) P [ O.O.O.O.O.O.O.O.O.O.O.O.+.O.+.#.+.O.+.+.+.O.+.#.} T [ 7./ / ' ` / ` 7._ ( 8.t.+.r.r.8.t.Y.7.,.,.,.,.,.5.,.,.7.u.r.8.r.d.r.8.d.,.' 7.5.] ] ] ] [ _ 7.[ ( r.#.+.#.t.r.O.O.#.#.O.O.O.} O.+.+.8.8.8.r.f.8.8.t.7.' O.7.) [ [ ] [ [ 7.[ [ 8.O.8.Y.Y.N.Y.f.7.[ 5.7.,.,.,.,.] 7.d.N.r.r.+.r.+.8.] [ 9.) ] ) ` _ / ` [ / } O.+.r.8.u.8.8.[ [ O.#.+.+.O.O.O.O.} O.O.O...X...+.[ / 7.' T ` ~ ) ~ [ [ / 7.O.O.+.+.+.r.O._ ] [ ] ] ] ] [ _ } #.#.#.#.#.#.+.8._ _ 7.[ ] ] ` [ ) [ 7./ | 8.#.#.r.#.#.t.r.r.r.t.t.r.8.Y.Y.d.8.8.r.8.u.r.r.u.` ,.9.,.' :.:.,.] 7.7._ 8.f.t.f.f._.}.f.O.[ } ,.] ] [ ,.] [ 8.N.r.r.Y.r.t._.O._ u.7.[ :.,.,.[ ,.7._ } Y.t.8.8.8.t.8.r.r.+.8.r.r.r.+.+.8.+.8.8.+.8.+.+.r.7.` 9.7.` :.:.' :.] 9.} [ Y.#.+.8.8.#.t.7.] :.,.,.:.,.,.:.] 7.8.8.8.r.8.8.8.u.' ] j.` E ` ` ] ` _ 7./ O.+.#.r.8.#.O.+.#.+.+.+.+.+.O.+.+.+.O.O.+.8.+.+.#.r._ ( 7.[ ` ] ' ] ` ,.7.( 8.r.+.8.8.8.8.f.8.,.:.,.>.,.,.:.] 8.r.r.8.8.8.+.r.7.] 7.[ ' ;.` E T w 7 I ` T P T _ ' [ [ _ _ O.[ ( [ } [ [ O.+.O.O.+.O.} O.r._ ` 7.] / / ] ' / [ 7.( } 8.8.8.7.7.8.9.,.' ,.,.[ [ 3.,.[ O.7.r.8.+.+.O.O.[ / ( _ D / ` T P ( _ D ~ _ ( } O.} O.O.[ ( _ _ O._ [ O.O.E G n I J P / ) ' U U ' ' / / T U ` / :.' ` 7.7.8.8.7.O.8.9.` U T ;.G m u 2 i *.<.",
"/ ` / / / ` ` _ O.O.} +.O.O.+.O.( 7.[ / / / E / / ] _ ~ } +.O.+.O.+.O.O.O.+.O.+.O.O.O.+.#.+.O.+.+.#.#.+.+.[ / _ ] ' ` ' ' / ' 7._ ( 8.t.#.r.#.N.Y.9.,.,.,.,.,.,.,.,.,.,.7.f.r.8.d.8.8.u.,.] j.5.] ] ] ] [ [ 7.[ [ t.t.t.N.r.+.O.+.t.r.+.#.+.O.O.+.+.8.8.8.d.f.d.8.8.7._ O.7.) ] [ ] ) [ 8.[ | f.+.+.r.t.N.f.7.,.5.5.7.,.5.,.,.] ] } f.N.r.r.N.r.8.[ 7.7.) ) ] ) _ ` [ [ ( O.+.+.8.8.8.t.r.O.[ 8.#.+.+.+.O.} O.} } _ { O.+...#.} ( } ( / ` / ) / [ [ / +.O.+.#.#.r.8.[ ] ,.] ,.,.] _ [ [ [ } #.#.#.#.+.+.t.[ _ 7.[ ` ] ] ] ) O.7./ | 8.t.r.r.#.#.r.t.t.t.t.t.r.d.f.f.Y.Y.f.r.8.8.+.r.d.' ,.9.:.' :.:.,.] 7.7.[ 8.f.t.f._.}.d.O.[ 7.7.3.,.] ] ,.3.,.[ 8.Y.f.d.f.N.Y.O.[ u.7.] :.,.,.[ ,.7._ O._.t.t.f.8.#.#.Y.8.+.+.t.N.t.8.8.#.+.#.r.r.f.r.#.t.7._ 7.7.] :.:.:.:.[ 9. .[ f.r.N.t.#.Y.u.7.:.,.:.,.,.:.,.,.,.] O.t.t.t.r.r.8.f.] ] j.` E ` ` ] ` _ 7.( +.#.#.r.r.+.+.8.+.8.#.+.+.+.+.8.O.[ _ } 8.r.+.#.#.t.[ ) 7.[ ` ) ' ] ` 7.7.( r.r.#.r.8.r.r.8.,.:.:.,.,.,.,.,.,.,.8.t.r.+.+.r.f.8.[ 7.,.] ;.` ` T w e ;.O._ ` ` ` [ 7.O.[ _ } O.[ ( O.O.[ O.+.O.} [ O.+.+.r.[ ` ,.] ` ` ] ] / [ 7._ O.Y.r.r.d.r.8.3.] ,.,.[ [ ,.[ 7.7.O.O.d.r.r.+.+.+.O.( ( ( P ` ' T P _ _ ~ / O.{ } O.} O.+.O._ _ [ O.} } ' I n I L R R _ _ O.,.` I :.:.T / / T ` ` ,.' _ 8.+.7.8.8.u.7.Y c m p m m a i m =.,.;.",
"/ / / / ~ ` ' ` ' 7.} } O.O.+.} / 7.[ / T ` E E / :.` / } O.O.O.O.O.O.+.O.O.+.+.O.} +.+.+.+.O.O.+.r.8.O.+._ T [ ] ' ' ` ' ` ` ,.) ( 7.8.#.#.t.Y.7.,.,.,.:.,.,.,.,.,.,.,.] 7.f.f.8.8.8.8.,.) 7.,.` ] ,.] ] [ 7._ [ r.r.N.N.N.#.#.r.+.#.#.+.+.#.O.O.+.+.8.8.8.7.7.+.+.7.(  .7.` ` ] ] ` [ 8._ [ |.r.+.8.N.f.O.[ ,.5.,.,.,.,.:.:.' ] ' 7.d.Y.r.+.t.r._ 3.7.` ] ] ) ` ) [ _ R O.8.+.+.8.r.+.r.O.O.O.+.+.+.O.} ( _ _ [ _ _ _ { +.+.[ / [ ' T ' ` / / _ _ / O.+.+.+.r.8._ ] [ ] ] ] ] ] ] [ [ [ _ O.8.%.+.#.+.#.[ _ 7.[ ` :.] ' ` O.7./ [ t.#.#.#.8.#.t.r.r.t.t.r.t.f.r.d.f.f.8.r.t.8.+.8.u.] ,.9.,.] :.,.:.] 7.7._ 8.Y.8.t._.u.[ [ ,.[  .[ ' ] [ ,.,.3.,.[ 8.f.r.r.f.r.O._ u.7.' :.,.] ] 7.7.) O.t.r._.t.r.8.#.r.t.7.+.r.r.8.t.r.+.8.+.+.d.f.Y.#.r.7.) 7.7.' ;.>.;.' :.9. .[ f.Y.r.t._.8.,.,.,.] ,.:.:.,.,.,.[ :._ 7.Y.t.8.f.8.8.] ] 5.E E ` ` ` ` [ O./ +.#.+.#.#.#.+.+.+.+.t.+.O.#.+.+.O.} } 8.O.+.r.r.+.8.[ ( +.] ` ] ' ' ` 7.7.( 8.r.8.8.r.f.7.[ :.,.,.:.:.,.,.,.,.,.} 8.r.r.8.+.r.8._ 7.7.' ;.` T T e j 5.O.( } [ / _ } +.O.( [ O._ ) [ } O.O.O.} } [ [ 7.+.8.[ ` ,.` ` ' ' :.` ] 7._ O.r.r.8.8.d.7._ [ 3.,.,.] ] ,.7.7.O.O.O.r.r.+.#.+.} ( ( ( R / ` / P ( _ P ( O.[ _ } O.O.} [ _ } _ _ } _ V j v I U /  .O._ [ 7.' J ] ] U T ` T T [ 7./ ' g.#.+.8.8.,.n a M I a w p b b U E / ` ",
"/ / / / ` ` ] ' ` [ O.O.} O.#.} R ,._ / ` ` ` E / 5.] ` 7.+.O.O.+.O.O.+.O.O.+.#.O.O.O.+.+.+.+.+.+.8.O.O.#.O./ [ } ` ' ` ' ` ` 7.] _ +.8.#.f.f.7.,.5.,.,.,.,.,.7.[ ,.,.,.,.[ O.u.r.8.8.u.5.` 7. .` ] ] ] ) [ 7._ O.N.#.r.t.t.N.N.%.+.#.#.O.#.N.+.+.+.8.8.8.+.O.O.+.8.O._ O.5.) ] ] [ )  .g.[ O._.r.#.t.d.O.[ ,.,.7.,.,.,.,.:.] ] :.:.] O.Y.N.#.t.f.[ [ ,.` ] ] ] ] ` [ _ / O.8.+.8.8.8.8.8.8.+.O.+.O.r.O.O.} [ _ O.O.O._ _ { O.' / O._ T ' ` ` / _ _ / +.8.o.#.8.O.] :.,.[ ,.,.] [ [ [ [ [ [ [ } r.%.#.o.#._ _ 7.[ ] :.] ] ` O.7.( O.t.#.t.r.8.r.t.r.t.t.t.t.r.r.f.f.r.8.8.r.t.d.8.f.f.) ,.9.,.:.:.,.:.' 7.7._ 8.Y.t._.u.7.[  .O.[ O.[ ] [ 7.3.,.7.3.,.[ 8.f.r.r.t.O.[ u.7.] :.:.] ] 7.7._ 8._.#.t.N.N.t.#.t.t.r.r.t.r.t.#.t.8.#.+.8.8.8.+.#.Y.7.) 7.7.' ;.>.:.' ,.u.O.[ f._.N._.8.7.,.,.,.:.,.,.:.5.,.,.[ ,.[ [ 7.Y.N.t.r.p.] :.5.` E ` ` ` E  .O.( +.#.#.t.#.t.+.#.+.8.#.+.O.#.+.#.+.+.+.8.O.+.O.+.+.t.[ ( +._ ` ] ' ] ` 7.7.( 8.r.#.r.d.8.[ [ ,.5.,.,.,.,.,.,.,.,.,.3.8._.Y.8.t.8._ 9.9.;.;.;.T ;.n n [ +.O.O.} [ _ [ } } [ O.+.} ) ( O.O.O.+.O.O.} [ O.+.t.} ` 7.] ` ] ' :.' ,.9.[ 7.r.#.N.d.9.[ [ ,.3.7.3.[ ] [ 7.7.O.O.O.O.r.r.r.#.O.( } [ / / ` T P _ [ P ' +.O._ } O.+.} [ _ [ _ O.' J l G J L / [ +.+.O.+.7.,.T ] ] T / ` P T 7.3./ ] 8.8.O.7./ c a I / :.T T U E ` T U / ` ",
"/ / / / ' ` ' ] ' ` [ 7.} O.+.} T } [ ~ ` ` ` T ' 3.' ` 7.O.O.+.O.O.O.O.O.+.+.+.O.} O.+.+.O.O.+.#.O._ O.8.} / } 7.` E ` ` / _ 8.] ( +.r.r.d.7.,.,.7.,.,.,.:.,.,.5.,.[ ,.,.[ [ O.f.8.O.8.,.` 5.5.) ' ,.[ ` [ 7._ [ 8.#.+.+.#.#.#.r.#.+.#.#.O.+.r.O.+.#.8.8.+.O.O.8.8.O.` +.7.` ` ] ] ) O.u.[ [ Y.+.r.d.,.] [ ,.[ ,.5.7.,.:.] :.:.:.] ] ] 7.r.#.t.8._ [ 3.` ' ] ' ` / [ _ ~ O.O.+.8.8.+.+.8.+.8.O.O.+.} } +.} ( [ O.O.+.O._ _ O./ ~ O._ T ^ ` / / O._ / 8.8.8.8.[ ] :.,.] ,.] ] ] ] [ 3.[ [ [ ] _ O.N.#.+.t.[ ( 8. .` ' :.` ` 8.7./ 7.r.t.t.8.#.+.r.r.r.8.r.r.r.r.r.r.r.#.r.8.8.f.r.t.Q.] [ z.,.;.:.,.,.` 9.7._ 8.Y.Y.f.7.[ 7.O.[ [ [ ,.3.[ ,.,.3.,.,.,.,.,.8.r.r.r.O._ 8.7.` :.:.' ] u.7.` 7._.#.t.t.r.t.t.#.#.N.t.t.t.#.#.r.#.+.+.8.+.O.O.#.r.7.` 7.9.] ;.;.:.` 3.z.} _ f.f.Y.u.,.,.,.,.:.,.:.,.,.,.,.] ] ,.,.,.] u._.r.r.f.:.' 9.] E ` ` / / O.O.( 8.#.#.8.+.O.+.#.O.O.#.#.+.+.#.+.O.O.#.+.8.+.O.O.#.+._ ( O.[ ` ` ] ` / 7.7./ 8.r.8.f.7.[ [ ,.[ ,.,.,.,.,.,.,.,.,.,.,.} 8.}.t.r.7.] 7.9.' ;.` E ;.J n ` O.O.} _ O.[ _ _ } } _ O.O.( ( } } O.O.O.} [ [ [ +.r._ ' 7.[ / ' :.;.' 7.7._ 7.8.8.d.9.,.] ,.3.[ 3.7.[ [ } 7.7.O.O.O.} O.8.#.r.O.( } O./ E E U P O.[ P / O.O.O.[ _ O.} [ ( / ( _ L j v U T ' ] } O.+.+.+.[ } ( ,./ P T U J ~ T T J ' U J ` ) L I U ` / / ' ' / ` ^ ` ` / ` ",
"/ ` / ` ' _ ] ] ' ] ] 7.O.O.+.} T 7.7.) ` ' ` / 3.u.' ' 7.+.O.+.+.+.O.+.+.+.+.O.O.O.O.+.O.+.O.+.#.O._ O.r.O.( O.8.] E ' ` / 7.c.[ ) 7.t.8.} ,.5.7.7.7.,.:.,.,.,.,.5.,.] [ ,.[ [ 7.r.8.8.[ ` 7.7.) ' ] [ _ +.8._ [ r.#.+.+.#.#.+.#.+.+.#.r.O.O.+.#.#.+.+.r.8.8.8.8.r.7.( 7.u.) ` :.] _ 8.f.[ [ N.r.O.[ ] ] [  .[ [ 5.7.,.[ ] ,.:.,.] ,.] [ } r.N.r._ [ u.[ ` :.' ` _ O.[ / +.r.8.8.8.+.+.8.8.8.+.+.#.' / _ ( { O.#.O.+.O.{ ..+.( ( O.O./ ^ ] / ( 8.[ ` 7.f.8.[ ] ,.] ,.:.,.] [ [ ] ,.3.3.,.[ ,.] [ O.r.#.t._ _ r.+.) ] :.` [ Y.7.( 7.t.t.t.r.+.+.t.r.r.r.r.r.t.8.8.r.r.r.t.r.8.f.8.t.}.]  .c.7.] :.,.:.[ c.9._ 8.oX}.7.[ 7.5.O.7.7.7.7.7.7.,.7.7.,.,.7.5.,.3.d._.Y.O._ 8.8._ ] ,.' [ x.9._ 7.Y.t.t.t.t.N.r.t.t.#.t.#.#.#.#.t.#.r.+.r.8.+.+.8.t.7.) 9.u.] ' 1.:.' 9.c.} [ Y.oXu.,.,.,.,.5.,.,.,.5.,.,.] ] :.,.:.,.,.5.8.Y.r.f.,.] u.5.` ` ' ` [ 8.O.( 8.8.+.O.O.O.O.#.O.+.#.#.+.#.#.+.+.+.#.8.r.r.+.+.+.r._ ) 8.7.` ` ] ` _ f.8./ +.Y.d.7.[ :.[ [ ,.5.,.7.,.,.,.,.,.7.,.7.,.7.7.r.Y.u.] 7.c.,.E T ;.7.U J / ] _ O.} O.+.} _ O.O.O.+.+.[ [ [ O.+.+.O._ ( [ O.+.r.[ _ 9.7.` ' :.:.] 8.u.[ 7.Y.8.7.[ [ :.,.7.,.3.7.} } O.7.O.O.O.7.O.O.} +.r.8.( O.+./ R E P / +.7.T ' O.[ [ _ [ O.} _ ( ( / P n J L P [ } } +.O.r.8.+.[ O.[ 7._ T T U J P g J K J g U ' [ ) ' E / ` ] ` / ` ' ' ' ] ` ` ",
"/ / / / / ] ` ' ' [ ] [ 7.O.#.O.~ } 8.O./ ' ` _ 7.8./ / 7.+.O.O.+.+.+.+.+.O.O.+.} O.O.O.O.+.O.O.O.O.O.O.+.O./ [ 8.7./ ` ` ] 8.d._ ` 8.8.[ [ ,.5.,.,.7.,.,.] [ ,.,.[ [ ,.,.,.,.,.] O.8.8.[ / 7.9.] ' :.' } Y.8.` [ 8.+.+.+.+.+.#.+.+.#.+.#.+._ O.#.+.+.+.+.+.r.8.+.r.7.( O.c. .` ] ] [ t.d._ _ N.+._ ` ] ,.] 5.5.5.[ 7.7.,.] :.,.] ' ] ,.] ] O.r.8.( } }.7.' ] / ( +.8._ P 8.8.8.O.O.+.+.7.8.8.+.+.+.^ ' [ ( +.O.O.O.O._ { { O._ / } 7.` E / ` } 8.[ / 8.8.[ ] ] ,.] ] ] ] ,.[ [ [ [ ,.7.7.[ :.,.] ` 7.#.t._ _ 8.8.] ' ` ] r.f.3./ O.N.t.8.r.r.8.+.r.t.r.r.8.8.8.r.8.8.r.8.8.8.8.8.r.Q.,.[ c.c.[ :.>.' 7.}.7.` 8.}.7.[ [ 7.[ [ 7.7.7.7.7.7.7.3.7.7.7.,.7.7.[ 7.f.Y.O.' 8.f.} ' :.] 7.Q.7.` 7.t.#.#.#.#.#.#.#.#.r.t.#.#.#.r.r.r.+.r.r.8.f.8.+.t.7./ 7.z.j.' ;.;.[ z.z.[ [ Q.u.5.:.,.,.,.,.,.,.,.,.,.,.:.:.,.:.:.,.,.,.[ u.r.d.] ] d.7.` ` ` ` +.8.[ / 7.+.O.O.O.8.O.O.+.+.O.#.#.#.O.+.+.+.+.r.+.+.+.+.O.8.' ( 8.u.) ` ] ` +.}.8./ 8.d.7.[ ] ,.[ ,.,.7.,.,.,.5.,.,.,.,.,.,.,.[ [ 7.f.u.] ,.z.7.^ U ,.j.U N ` J J ` O.O.[ } [ [ } O.} } O.O.O.} O.O._ _ { O.O.} 8.[ ` 7.7.] ` ;.:.5.z.7._ 7.f.7.] ] [ ] ] [ 3.[ [ O.7.O.O.7.O.O.7.7.} _ } 8.7.( [ 8.[ R T E [ 7.3.P ` } ( ( { _ _ ( ( ( ( n v n I P ] ' } } _ [ O.O.O._ _ _ 7.} U I ;.n e J / / _ ` 7.] ) R ] / ` / ' ' ' / / ' ' / ' ` ",
"/ / / / ' ' ' ] ] ,.] ] _ O.#.7./ O.r.8._ / / 7.8.7.E / 7.+.O.O.O.+.+.O.O.O.O.O.O.O.O.O.O.} O.+.+.+.+.O.+.O./ [ 8.8.] E ` 7.f.8.` _ u.7._ ,.5.7.5.7.3.3.,.[ [ 7.7.[ [ 7.,.,.,.,.[ _ } r.7.` 7.f.5.] ] [ 8._.8.` [ 8.+.r.#.+.+.+.+.#.#.+.#.+.} +.r.+.+.#.+.+.8.8.r.t.7.` O._.9._ ] :.8._.t._ [ Y.+.` ' ] [ [ 5.7.7.[ 7.7.5.,.,.:.,.] ,.] ,.] ( +.8._ [ |.Y.O.` ) O.r.8._ P O.8.O.O.O.8.O.+.+.O.+.r.8.~ 3.+.O.O.O.O.O.O._ _ O.8._ ( O.8.O.` T [ 8.r._ ` u.8.] ' :.,.] ) ] ] [ [ [ ,.[ 3.3.3.[ ,.,.,.] ] +.t.[ ] 8.Y.+.` ] 8.Y.Y.[ / 7.t.t.r.r.Y.r.8.r.t.t.t.8.8.r.r.8.8.r.8.8.8.7.8.t.}.,.[ b.}.7.:.:.7.d._.7.' d.f.[ [ 5.5.[ 7.,.7.7.7.7.7.7.7.7.7.7.7.7.7.,.[ +.Y.7._ 8.Y.8.[ ' [ d.Q.7.) 7.t.#.+.+.O.+.#.#.#.r.t.t.#.t.t.r.#.+.r.t.t.t.r.r.Y.7.` 7.f.u.,.;.' 7.}.u.[ ,.c.7.,.,.,.5.,.,.,.,.,.5.,.,.,.,.:.,.,.,.,.,.] [ r.Y.] ] r.f.O.` ` O.#.r.[ R O.O.O.8.8.#.+.+.#.+.O.#.#.#.+.+.r.#.+.r.+.O.O.+.+.8._ ( 8.t.O.) ` [ r.'.8./ 8.8.[ :.:.,.[ ,.5.7.,.5.5.5.,.,.,.7.5.,.,.,.] 7.r.f.] [ u.u.7.7.9.u./ I ` J l T [ O.[ O.O.O.O.O.O.O.O.+.O.O.O.O._ } +.+.O.O.8.[ ) 7.d.7.:.;.,.z.c.7._ 7.d.O.] 5.7.[ [ [ [ 3.O.3.7.O.7.7.O.O.7.} [ [ [ +.u.( _ t.O.` / ] #.+.[ T ] O._ _ O.} ( ( _ P G e j G T / _ [ O.[ ' / _ 8.8.[ _ [ 7.] e w m q n ,.' ~ +.[ [ _ ) ` ' ' ] / ' ] ] / / ` ' ' ' ` ",
"` ( / / ' ` ] ] ,.' :.:.` } 8.7.~ } #.#.O.[ } 8.#.7.T / 7.O.O.O.} ..+.+.O.O.O.O.O.O.O.O.O.+.O.O.+.O.O.+.+.[ P _ +.8.7.] ,.8.r.8.( ` 8.7.] [ 5.,.,.7.,.,.[ [ [ [ [ [ [ ] ,.[ ] ,.[ _ } r.3./ 7.f.7.[ ` 7.t.r.7.` [ 8.+.+.#.#.+.O.+.#.+.+.#.O.} +.+.+.+.+.+.O.O.8.r.8.O./ } t.8.O.] 7.t.#.r._ _ Y.+.' ] ] ] [ 5.,.,. .} [ 5.,.,.] [ ,.,.[ ,.] _ +.8.' _ 8.N.8.} O.t.+.+.` Z 7.O.} 7.} } O.O.O.8.+.+.8.P ' O.O.O.O.o.O.O.{ .._ O./ / O.+.8.O._ 8.+.#._ / u.7.[ ,.] [ ] [ ] [ ] [ [ [ ,.[ [ [ [ ,.] :.] _ +.f.[ _ +.t.r.+.8.Y.#.8.:.R 7.t.#.r.r.r.t.t.#.r.r.t.8.+.+.8.r.8.8.r.8.8.8.+.t.}.,.] f._.u.7.,.d.t.t.3.` 8.d.[ ,.,.,.,.[ [ 5.7.7.7.7.7.7.7.7.7.7.,.,.5.[ +.Y.7.` 7.N.r.+._ O.t.r.7.` 7.8.+.r.#.#.#.O.#.#.#.#.r.r.8.8.8.+.#.#.8.#.r.8.t.r.7.R 7.f.p.f.7.[ f.f.u.] ] c.7.:.,.,.,.,.,.,.,.,.,.,.5.,.,.,.,.,.,.:.,.] ] 8.Y.] ] 8.8.8.[ [ r.+.#.} P O.O.+.r.+.+.+.#.+.t.+.O.#.O.+.r.+.#.+.+.+.+.O.O.O.7.( ( +.#.r.O.[ t.#.N.+./ 8.8.] :.] ,.[ 5.,.5.7.7.5.,.7.7.7.5.,.,.] :.] [ 8.f.[ ] 7.d.d.f.8.8.] z T I j / ' _ [ } 7.O.} } } O.O.} O.+.} _ _ [ O.O.} +.r._ ( O.8.8.] ] z.d.u.7.` 7.8.[ } [ O.7.O.[ [ } 3.[ } O.O.O.7.O.O.O.7.[ } 8.8.( ( #.+.O.[ } O.+.O.Z ` 8.+.} _ [ [ T J j j J J z P ` ' ' _ [ _ / ' 7.O.[ _ _ } ^ v n n z _ 8.~ P #.[ [ ` ] / ' ' ' ' ' ' ' ' T T / ` ` ;.",
"] ' ` ' ' ] ] ] ' ] ] :.] O.r.7./ 7.+.o.#.#.+.#.+.7./ ' 7.O.+.8.O.O.O.O.O.O.O.O.O.O.O.#.r.8.+.+.O.O.+.O.#.} P _ 7.+.8.8.8.8.#.8.` _ u.u.[ [ ,.,.5.7.,.,.5.O.} } [ [ ] ] ] [ ] [ [ [ O.r.O./ 7.8.8.9.7.d.N.t.7./ [ 8.+.#.r.#.+.O.#.#.+.O.+.+.O.+.#.8.8.O.} O.O.+.+.8.O./ [ #.#.#.8.r.t.#.r._ [ _.8._ :.] ] [ [ ,.[ [ O.7.5.7.,.[ 5.] ,.:.] ] [ 8.u._ ) 7.r.r.8.+.r.+.+.( P 7.O.7.8.O.7.O.O.8.8.+.+.r.` ` O.O.+.O.O.O.O.O.O._ } / R 7.+.+.r.+.t.+.8.) ` f.8.[ 7.[ [ 3.[ [ ,.[ [ [ [ [ [ [ [ [ ,.,.[ ,.[ 8.t._ _ 8.t.t.Y.N.t.#.8.] / 7.t.r.t.r.r.r.r.8.t.r.@.+.+.+.8.r.r.8.8.8.f.8.+.t.Y.,.,.u._.Y.r.d.Y.#.Y.3.` 8.f.O.,.,.,.7.5.,.7.7.7.7.7.7.7.7.7.5.,.7.7.5.5.8.|.7._ 7.t.#.N.r.#.#.r.7.` 7.r.+.r.t.t.#.#.#.#.#.g.t.8.[ } d.#.8.#.8.#.#.8.t.t.9.E 9.f.t.f.f.u.v.d.u.] ,.}.u.,.7.,.5.5.7.,.,.,.,.,.,.,.,.5.,.,.,.:.:.:.[ r._.[ _ 8.#.r.8.+.#.+.N.} P O.#.+.+.#.#.+.#.#.N.#.#.+.O.+.t.r.#.+.+.#.+.O.+...8._ ( +.#.#.r.#.N.#.N.+.( d.d.} ,.,.[ ,.5.,.5.7.7.,.,.7.7.7.3.5.7.3.,.] _ 8.Y.[ ] 9.d.d.d.8.u.] J / T z R _ _ O.} _ _ [ O.O.} O.O.+.+.O.} _ } O.O.+.+.8.[ ` O.8.8.8.8.z.8.d.7.) 7.d.O. .[ O.7.7.O.7.[ [ [ O.O.O.O.O.} O.7.7.7.O.#.d.( ( #.o.#.8.O.O.#.O.Z ` O.} O.O.[ ` V j J / ( ` T ' _ _ ' [ } } [ } O.O.O.[ K ~ _ 3.8.O.} O.O.} / O.+.[ / / ` ' :.' ' ` ` ,.] ' E E :.' ;.",
"' ] ] ' _ [ ] ] ` ` ' :.] [ 8.7.P  .+.#.O.#.8.#.O.8./ / 7.+.} O.+.{ { +.O.O.O.O.O.O.O.+.8.+.+.+.O.O.+.O.+.[ P ) 7.8.+.8.8.+.8.7./ _ u.8.} [ ] [ [ ,.5.,.,.[ [ O.[ [ ] ,.[ ] ] ,.,.] O.t.[ / 7.8.7.8.d.8.#.t.} / [ 7.+.r.#.O.O.+.#.+.O.O.+.+.O.O.r.8.+.O.[ } +.O.O.8.} / _ #.+.+.r.+.#.#.8.( } N.+.[ ] [ [ [ ,.,.,.[ [ 7.,.] ,.] [ ,.] ] ,.] [ 8.8._ _ 7.8.+.8.+.+.+.8./ T 7.8.O.7.7.O.O.7.O.8.+.#.+./ [ O.} O.O.O.O.O.O.{ O.} / E 7.+.O.8.r.#.#.#.( ` z.+.[ ,.[ ,.[ ,.,.[ [ ] [ ,.[ 7.[ [ [ ] ] ,.,.[ 8.g._ _ 7.t.r.N.N.r.#.r.] ` 7.r.t.t.t.#.#.8.8.#.+.+.+.8.8.8.8.r.8.r.r.8.f.8.+.f.,.] u.f.#.N.Y.r.#._.[ ` d.d.O.[ ,.7.3.7.7.7.5.,.[ [ ,.3.,.5.,.,.,.5.,.5.u.}.7.` 7.t.#.#.N.#.#.t.9.` 7.t.#.+.r.#.#.o.#.+.8.8.r.8.O.O.8.+.r.r.+.+.8.+.#.Y.7.E 7.f.t.r.Y.t.t.f.8.] 7.}.u.7.,.,.5.,.5.,.,.,.,.[ [ ,.,.,.,.:.,.,.5.:.] r.f.] [ 8.8.+.r.+.+.+.N._ P 7.#.+.+.+.#.+.+.#.#.#.#.O.+.+.+.r.+.O.r.+.+.+.O.O.8._ / +.#.O.t.#.#.o._.O.( d.f.O.,.,.,.[ ,.3.7.,.,.,.[ ,.5.7.7.,.,.,.] ` _ 8.f.[ ] 9.f.8.u.8.7.[ I K ' z z ' _ _ _ ( _ } O.O.[ [ O.O.O.{ _ O.+.} } +.O.+._ / [ O.8.r.d.u.8.r.O.) 7.f.O.[ 7.[ } 7.7.} [ [ [ O.} } O.3.7.3.[ 3.} O.+.d.( ( #.o.+.r.+.O.#.] J ^ ` ( _ [ T U U / / _ ~ _ _ _ ' _ } } [ 7.O.} O.7._ T j U 7.O.} +.O.O.O.7.T } +._ E T ' ] ' ] / ' ' ' :.] / ` ` ' ;.",
"] ] ] [ [ ] ] ` ' ' ' :.:.[ 8.7.R  .+.#.+.#.8.#.#.u.` ` 7.+.O.+.+.O.O.+.+.O.O.O.O.O.O.+.O.O.+.O.O.+.+.+.8.[ P ) 8.8.+.8.8.+.t.8.` [ r.8.[ [ [ [ [ [ 7.5.[ [ 5.7.3.,.,.,.[ [ [ ,.5.[ O._.[ / 7.d.7.7.8.7.#.8. .` [ 7.O.+.O.O.+.#.o.+.+.O.+.+.O.O.O.O.[ } O.O.+.O.7.7. .R [ r.+.+.#.+.#.#.8._ O.Y.+._ ] [ [ [ 5.5.[ [ ,.] [ ,.:.' ] ] ] ] ,.] [ 8.u._ [ 8.r.+.+.+.+.+.+._ / 7.8.+.8.} _ } 8.+.+.+.#.+.O.8.#.O.O.+.+.O.#.O.....7._ ` 7.+.+.8.+.t.#.g.[ ] c.+.[ [ ,.,.,.,.] ] ] ,.,.,.,.7.7.[ [ ,.,.,.:.[ +.g._ _ 7.t.r.r.r.m.r.f.[ ` 7.t.r.t.#.#.#.t.r.8.+.#.8.r.r.r.r.8.8.t.N.r.r.+.+.d.[ [ p._.t.t.v.r.t._.,.' d.d.O.[ 7.7.7.7.7.7.7.,.[ [ [ ,.3.,.,.5.,.5.7.7.8.|.7.` 7.t.#.#.r.r.#.Y.9.) 7.t.+.#.t.#.#.#.#.#.8.8.r.8.8.+.+.+.#.+.+.8.8.8.8.r.7.` 9.Y.t.8.f.t.t._.u.5.7.}.r.7.,.5.5.5.7.5.,.[ ,.,.,.,.,.,.,.,.,.,.,.:.[ 8.f.] [ r.r.r.#.+.#.+.t.} / 8.+.+.t.8.8.O.O.r.+.#.#.+.+.+.8.+.+.O.#.+.O.+.+.+.8.[ _ #.r.#.#.t.#.#._.O._ Y.Y.7.] ,.,.[ ,.,.,.[ ,.,.[ ,.,.,.7.,.:.] ] ' [ +.f.[ ,.z.c.d.u.7.8.j.T U j.J k ] [ ` ' [ O.O.O.O.O.} } } +.} _ } O.} O.+.O.+.[ ` [ O.8.8.8.8.8.f.8.[ 8.f.O.O.7.[  .O.[ 7.O.} } O.O.O.O.[ [ ] ] [ [ O.r.d.( ( t.#.#.r.+.+.t.[ J / [ [ ~ / P ` ' [ / _ _ [ } } [ } O.} } 7.7.8.,./ T E J ,.u.9.7.8.7.+.8.7.R 7.O._ / E ` :.] ,.:.] ] :.] ] :.] ' :.' ",
"_ ] ) ] ] ] ' ] ' ] ' ' ] [ 8.7.P 7.+.+.#.#.+.+.#.7.` ` O.O.O.O.O.O._ O.+.+.O.O.O.+.O.O.O.O.O.O.8.+.+.+.8._ P [ 8.+.+.O.O.+.8.7.` _ 8.#.( ] [ [ ,.7.,.,.[ [ } 7.5.,.[ :.,.[ [ ,.[ [ O.t.[ / 9.8.7.8.7.O.O.8.7./ [ 7.[ [ O.+.+.+.#.+.O.O.+.O.+.[ _ O.O.O.+.O.O.+.7.7._ ~ [ +.+.+.O.O.#.#.8.( _ R.+._ [ ] [ [ [ [ [ [ ] ] ] :.:.' ` / :.:.:.] _ 7.8.( [ c.8.r.+.O.8.O.O.] P 7.O.8.8.} ( [ O.O.+.O.+.O.+.+.+.+.#.O.O.+.O.+.O.{ +.] E 7.7.8.7.O.#.#.f.} / c.7._ ,.:.,.] ] ] ] ] ' ,.,.} [ ,.,.,.:.] ] :.] O.t._ _ 8.r.+.r.r.+.N.f.[ / 7.g.8.+.#.t.r.r.r.+.O.+.8.+.#.r.8.8.+.+.r.Y.8.8.+.7.] ] u._.t.r.f.r.r.Y.[ / 8.f.O.[ 7.7.7.7.3.7.7.7.7.[ [ ,.,.,.5.,.,.,.,.[ 7.|.O.( 7.r.#.r.r.r.r.Y.9.` 7.f.#.+.#.#.#.O.#.#.#.+.8.+.8.+.O.+.8.+.8.O.+.8.#.f.7.` u.f.8.f.d.8.f.Y.8.3.[ }.8.[ 5.,.5.7.7.5.5.,.,.,.,.,.:.:.,.,.,.,.:.:.] 8.f._ [ d.#.+.r.+.+.+.r.} / 8.+.8.8.+.O.+.#.O.#.+.r.+.O.+.r.O.{ +.+.+.#.+.8.#.8._ ( u.#.#.#.+.#.#.Y.O.( d.Y.} [ [ ,.[ [ ] ,.,.5.,.[ ] ,.,.,.] ) ` ' ] [ 8.f.[ ] z.c.d.z.7.7.9.T I 7.U j K ` / / [ O.O.[ O.+.} _ } O._ _ ( ( } } } O.+._ / O.O.} O.8.O.O.f.7._ u.d.O. .3.7.[ [ [ } O.7.} } O.O.O.[ [ ,.[ ,.] } r.d.( ( r.#.#.+.O.+.#.[ J / ,.) / P / ] / P ` _ } _ _ [ } } } +.O.O.O.] J Z 7.7.` 9.7.O.8.8.O.O.u.3.T } O._ T ' ` ' ,.,.] ' ' ] ' ] ' ] :.' ` ",
"[ [ _ ] ] ] ] :.] [ ] ] ] [ 8.7./ 7.8.+.8.#.+.#.8.9.` ' 7.+.O.[ O.O.[ O.+.+.O.O.O.O.O.O.O.+.O.O.+.8.7.O.+.[ P ,.8.+.+.O.O.8.r.7.) _ 8.+._ ] ,.,.[ [ ,.] ] [ } } 5.,.[ ] [ [ [ ,.[ [ O.Y. .` u.t.8.8.7.O.+.t.7.` [ O._ O.+.+.+.+.#.+.O.+.+.+.+.O.O.8.8.O.} +.+.} [ [ ` / } +.O.O.O.O.+.#.8.( [ Y.+._ [ [ 5.[ [ _ [  .] ] ] :.,.] ` ` :.:.:.] [ 8.u._ [ f.r.8.8.+.+.+.8.[ / 7.+.O.8.8.O.O.7.O.+.O.+.+.r.#.8.O.O.+.+.O.+.O.O.O.8.[ ` 7.7.8.+.+.#.#.f.O.` c.7.[ ,.:.,.[ ] [ ,.] ] ] ,.3.,.,.,.] :.] ] ] ] +.t.[ _ 8.r.8.r.r.#.t.f.[ ` 7.g.+.+.+.t.r.r.#.+.+.8.8.#.#.r.8.8.+.+.+.r.r.t.+.O.] ] u._.N.t.r.8.t._.,.` 8.Y.O.,.7.7.5.5.7.,.7.7.7.,.,.,.,.,.7.,.7.3.,.[ 8._.O.( 8.t.#.#.r.8.r._.u.` 7.f.#.O.O.+.8.+.+.+.+.8.8.#.8.+.+.+.8.N.N.+.+.8.8.f.7.` u.Y.r.f.r.t._.Q.u.7.[ }.t.} ,.,.5.5.5.5.5.,.7.,.5.,.] :.,.,.,.,.:.:.] 8.f._ [ r.r.+.r.+.+.+.%.} ( 8.r.+.+.O.+.+.8.+.t.#.#.#.O.r.8.O.O.+.+.#.r.8.8.#.r.[ ) 8.8.t.#.+.r.#._.O.( d.Y.} [ [ ,.[ [ [ ,.7.7.,.] ,.,.,.,.] ' ' :.,.[ 8.f.,.,.z.c.c.d.7.8.7.' I 5.' j j T ( [ _ [ O.O.+.+.} { O.O.[ _ ( ( } } } +.8._ ` 7.+.} O.+.O.O.f.7.` 8.Y.O.[ 7.7.[ [ [  .} 7.O.7.7.7.O.} } 7.7.7.[ | 8.d.( ( r.+.O.+.+.#.O.[ P ' [ ` / / ` _ ~ ~ _ O.O.O.[ [ [ O.[ [ _ _ [ ` / O.#.O.( u.8.+.7.8.7.+.7.7./ O.8.[ ` ' ] :.' ] ` ` ' ] ' :.' ' ' ` ' ",
"[ ] ' ] ' ] ] ' ] ] ] ] ` [ 8.7./ 7.8.8.8.+.+.r.+.3.` ` 7.+.O.O.O.+.O.[ [ +.O.O.} O.O.+.O.O.O.O.O.7.O.O.+.] T ] 7.r.O.O.O.8.8.[ / ` 7.O.` ] :.] ] ] ' ] :.] [ O.[ [ :.:.] ,.[ [ [ _ O.Y.[ ` 7.f.8.7.7.7.+.8.7./ _ O.O.+.O.O.O.+.O.+.+.+.O.+.O.[ +.r.+.+.O.O.O.} _ ' ` T _ O._ } O.} +.#.7./ _ r.O.' ,.3.] _ _ ] [ ] ,.` ' ,.] :.] ` ` :.,.' [ 8.8.` _ 7.8.+.8.8.8.O.O.[ ~ 7.+.} 7.O.7.O.} O.O.O.+.+.+.+.+.O.O.O.#.O.} O.+.O.O.[ / 7.O.8.8.O.r.+.O.[ / 9.7.[ ,.,.] ] ,.[ [ 3.] ] ,.[ ,.,.] ] ] :.,.:.] +.t._ _ O.r.r.8.+.m.8.7.] / O.8.+.+.+.+.r.#.+.#.r.r.#.8.8.+.+.r.r.+.+.8.f.t.8.7.] ' 8.d.t.f.8.r.t.d.[ ` 8.f.O.,.7.7.,.[ [ 7.7.7.7.,.,.,.7.,.,.,.3.3.,.[ +.Y.O.( 7.r.r.#.r.r.r.f.9.` 7.r.#.#.+.+.#.+.O.O.+.8.#.r.+.+.#.O.8.r.t.8.+.8.8.r.7.` 7.f.r.8.f.r._.f.7.7.[ Y.8.[ :.,.,.,.5.,.5.,.,.7.,.:.:.,.,.:.,.,.:.;.] 8.d.] _ 8.+.+.+.+.#.+.+.} / 8.#.#.r.+.#.O.O.r.+.t.#.O.+.+.8.+.+.O.#.8.r.r.8.+.d._ ( 8.O.+.r.+.t.r.r.} ( 8.d.[ ] ,.[ [ ,.[ [ ,.,.[ ,.:.,.,.] ' ] ,.:.] [ 8.d.[ ] 9.c.u.u.8.8.} ' N ] / 0 v l L [ _ [ [ O.+.O._ _ O.O.( _ [ O.} } O.O.+._ ` O.O.+.} } +.+.7._ ( 8.f.[ [ [ [ [ [ [ [ ,.} 7.7.3.[ } 7.[  .5.,.[ _ +.8.( ( +.O.O.O.O.+._ ` U / ] T K / ~ / ( _ ' } _ O.} _ ` ' ( ) ' } } +.} O.O.[ ` 7.8.8.O.7.+.8.O.:.T 7.7.] ' ` ] :.` ` E ;.` ` ' ' ' ' / ' ` ",
"' ] [ ] ] ,.] ] ] ] ] ` ` [ 7.7.( 7.8.+.8.f.8.u. .[ ' _ 7.+.O.+.O.+.#.O.O.+.O.+.+.8.O.7.O.O.O.O.+.O.O.+.+.[ E ] O.8.O.r.+.8.7.] ` ` 7.+.` ` ' ' ] ' ] ,.:.] [ [ [ [ ,.,.[ ,.,.,.,.[ O.f.5.` 7.8.8.8.8.8.7.[ ] ` [ +.+.#.+.O.O.+.O.+.r.+.+.+.O.O.O.+.+.#.+.O.+.O.} _ ` T _ } ( O.O.} +.+._ T _ r.7.' ] [ [ ] ] [ 7.[ [ ] ] ,.:.,.,.] ] :.,.] [ 8.u._ [ O.+.r.r.8.r.O.' [ / 7.+.O.+.O.O.} O.O.} O.+.O.+.+.O.} #.#.#.+.O.O.+.O.+.} ) 5.| 9.r.8.t.8._ [ / 9.9.[ :.' ] ] ,.,.,.3.[ [ ,.[ ,.,.] ] ,.,.,.,.[ +.t.[ [ +.#.r.8.r.r.+.O.[ ` O.8.#.#.+.+.#.#.#.#.r.r.r.r.r.r.#.t.Y.r.8.8.r.f.f.u.' ] 7.8.t._.r.r.8.8.,.' 8.Y.7.,.7.,.5.,.,.7.7.,.7.3.,.5.,.5.7.,.,.,.,.[ +.Y.7._ 7.8.r.r.r.r.f.u.3.) 7.t.#.t.#.r.t.#.#.+.8.r.t.8.#.+.8.8.8.+.#.+.8.8.r.r.7.) 7.8.8.d.f.r.}.u.O.7.[ Y.f.[ :.,.,.,.,.,.5.,.,.7.5.,.,.5.5.:.,.:.:.:._ 8.d.] ] O.+.#.+.#.m.O.} } ( 8.8.t.t.r.t.+.+.+.+.#.+.#.8.O.+.O.+.#.#.+.t.r.t.8.8._ _ 7.[ +.N.r.t.8.7.7.` 8.f.[ ] ,.[ [ ,.[ 5.[ ,.,.5.,.,.,.] ] ] :.:.] [ 8.f.[ ] 7.u.d.c.u.9.` ` J ` U 9 I y e ' [ [ } O.+.O._ } } } _ [ } } O.+.+.O.8.[ ` [ O.+.+.+.+.[ [ ` / 8.f.O.[ [ [ O.[ [ [ [ O.7.7.} O.7.7.O. .5.,.[ O.8.8.( ( O.{ O.+.+.+.( T L P T / T P ( [ } +.} 7.[ [ ` ~ / ` [ O.O.O.[ O.O.O.O.[ ` 7.O.+.7.u.7.7._ ` T 7.7.[ / :.' ` E ;.` :.` ;.' :.' ' ' ` ` ",
"] ] ] ] ] ] ] ] ] ' ` ' ` _ 8.7./ 7.8._ 7.d.u.5.) 7.` ` O.+.O.O.O.O.O.+.O.O.+.8.8.8.O.O.O.7.O.O.O.7.O.O.8.} R ,.] _ 7.+.+.7.` _ ' R 7.O./ / ' :.] ] :.:.] [ ] ] [ [ [ ,.,.[ ,.,.,._ O.f.[ ` 5. .7.d.r.8./ ( [ / [ 8.+.+.+.+.O.O.+.O.+.8.+.O.O.+.+.O.+.+.+.+.O.O.8.O./ U [ [ P [ O.O.O.( ' / ( 8.O./ / ] ] ] [ ,.[ [ [ ' ' ] ,.] :.' ] ' ,.[ _ O.7.` [ [ _ 8.N.8.O./ ] _ R } O.O.O.+.} } [ _ } [ O.+.+.} O.O.+.+.#.+.#.O.O.+.8.[ / 7. .[ u.r.8.[ _ 7./ 7.7.] ' ' ] ' ' :.,.] [ ] [ ,.[ ] ,.[ [ ] ] ,._ +.t._ [ +.O.8.t.r.7.( 7.3./ O.8.#.8.+.#.+.#.#.8.8.8.r.t.8.r.t.r.t.Y.r.#.r.8.f.c.] ' u.+.O.t.t.8.[ 7.7.` 9.}.7.,.,.5.,.,.,.,.,.3.,.,.3.3.,.5.3.3.,.,.,.] 7.Y.O._ 9.O.} d.d.d.7.[ 7.` O.t.#.#.8.+.+.8.#.#.r.8.g.8.+.+.8.t.r.+.O.8.t.8.#.Y.7.` 7.O. .d.r.t.d.[ 7.7._ _.8.] :.:.,.,.,.,.,.,.5.,.,.,.,.,.,.,.:.] :.:.) 7.u.` ] 7.} +.%.#.O./ 8._ / 7.8.+.8.r.+.+.O.O.#.O.8.+.+.+._ [ 8.O.8.8.8.f.8.+.8._ ( 7.[ _ r.N.u._ 7.7.( 8.f.[ ] ] ,.[ [ [ ,.5.5.] ,.,.,.] [ ] ] ] ] ] [ +.d.[ :.7.7.8.c.u.7.T ` P T J $ J z d / [ ( O.+.} O._ { _ ( _ } _ [ O.O.O.O.O.` / O._ ( +.O._ ( [ [ / 7.d.[ ] [ [ [ 5.7.[ [ ,.[ ,.,.5.,.7.7.O.[ ,.] [ 8.8./ _ O.( } r.8._ P T J k U / P P _ 7.[ :.T P / / / _ _ O.} +.} ( ( O.} O.+._ E 5.` [ 8.8.7._ ` :.P _ 7.) ` ` ` :.` ` ` ` ] ' ` ' ' ] / ' ' ",
"' ] ] ] ] ] ] ] ] ' ' ] ` [ 8.7.( 7.u.} ] z.c._ 7.9.' ` 7.#.O.O.O.O.+.+.O.+.+.8.O.[ _ [ 7.8.O.+.O.+.O.O.8.O./ 7.,./ ` 7.7.[ ' 9.] / 7.O.` ' ] ] :.,.:.:.:.] ] ] [ ,.,.,.,.,.,.,.,._ O.f.[ ` 9. .) 8._.O.R O.7./ [ t.+.8.#.+.O.O.O.+.O.O.+.O.+.+.+.+.+.+.+.8.+.+.+.+._ P [ O.R ( +.O._ ( 7.' ( 8.O./ / ` ' ] [ ] ,.[ [ ] ' ] :.' ' ] ] ] ] ) ) 7.8.( [ 9.[ [ f.8.[ / 7.[ P O.+.} O.O.O.O.O._ [ _ [ [ } [ +.+.O.O.+.#.r.+.+.O.8.[ / 9.7.) 9.8.8._ [ u.` 7.7.[ ] ] ] ] :.] ,.,.] [ ,.] ,.:.,.,.[ ,.,.,.[ +.t._ [ u.O.[ t.f._ _ Q.O./ O.8.8.#.r.r.8.8.#.#.r.r.8.#.8.t.t.t.t.r.r.t.t.8.Y.c.] ' z.8.` 7.v.[ ` u.9.` 8.}.5.] ,.,.,.5.,.,.,.,.[ [ ,.7.7.,.5.3.[ ,.,.[ +._.O._ d.7._ 7.}.d.[ 3.u._ O.t.#.t.t.+.+.O.+.8.r.8.p.8.#.#.t.r.t.8.+.8.t.8.8.Y.7.) 9.7._ 7.d.t.7._ 8.9._ Y.8.[ :.,.,.,.,.,.,.,.,.,.,.:.,.,.,.,.:.:.,.:.] 8.8.` _ 8._ ( r.+.( } t._ ( 7.8.#.8.8.8.+.+.8.8.+.8.+.8.+.O.O.8.+.8.8.8.8.+.#.8._ ( 8.O.( 7.f.[ _ f.7.( u.Y.O.] ,.[ [ 5.[ ,.,.[ [ 7.:.:.,.,.] ] :.[ [ _ 7.f.[ 3.z.9.[ 7.9.[ ` [ R / Z 6 n / / _ ( ( } O.O.O.} O.O._ } { O.+.O.O.[ [ 7._ R O.} ( ` [ _ ` 8.7.` 7.u.[ ] [ ] [ ,.5.5.,.[ O.5.[ 5.5.7.7.7.7.7.,. .8.d.( O.8._ / O.7.~ T ] J z P ` ~ ` ' / V r j T } O.O.+.} } _ O._ ( _ O.O.O.+.[ E 5._ [ O.8.O.( [ 7.R [ O.) ` ` ] ] ` ` ` ` E ;.' ' ' ] ] ' ` ",
"/ _ 7.} ` ' ] ] ' ] ] ' ] [ 7.7./ } 8.f.[ 5.,.[ u.7.' ` 7.+.+.+.[ O.O.O.O.+.O.O.O.O.7.8.7.7.7.+.O.} O.O.O.O./ ] 9.5.T ' ' _ 7.7.` / 7.+.( ' ' ' :.:.] :.:.' [ 7.] ] ,.,.[ ,.:.] ] ] O.f.[ / 7.u.) _ 9.) ( 8.O./ [ 8.+.8.+.O.O.+.+.O.+.O.O.+.+.O.8.+.O.+.+.O.8.+.O.8._ P ' 7.` P ,.[ / } 7./ ( 8.} ~ / / ` ' ] ] [ ] ' [ [ ` ' ' ] ` ' ' ' ` ) O.8.( _ u.7._ [ ) O.7.} _ P O.O._ ( O.8.O.O.[ _ [ [ _ ( [ O.} O.} O.O.+.+.O.{ O._ / 9.u.[ ] ]  ._ [ 8./ 9.7._ :.' ] ,.,.] ,.] [ 8.8.] ' ,.,.:.,.,.,.] _ +.f._ _ 8.r.( 7.5.( 8.d.[ R O.r.+.+.#.r.r.#.#.8.r.#.#.+.+.r.r.t.r.t.r.8.r.t.Y.u.` ' 8.f._ ' 7._ } d.7.` 8.f.[ ] :.:.,.,.,.,.,.] [ O.[ [ ,.5.[ ,.,.,.:.[ +.Y.O.( 8.f.7.[ j.7.O.z.9.` 7.f.#.r.t.t.8.7.8.+.8.r.8.+.+.8.8.r.t.+.r.+.8.r.r.8. ./ 7.c.7.` 9.7.[ 7.u.7.[ f.8.[ :.:.:.,.,.,.,.,.:.7.7.[ ] :.,.] ,.:.:.:.] 7.8./ _ 8.8.( _ ( _ +.+._ ( 7.8.8.+.#.+.+.r.+.+.#.+.+.O.+.8.+.O.#.8.8.8.+.8.+.8._ ( +.8.[ [ [ _ O.d.O._ d.d.O.] [ [ [ [  .5.[ [ 8.Y.[ ' :.,.] :.] ] ] [ 8.Q.[ [ c.f.] ] ] [ [ ' ~ / z 8 s Z ( [ ( _ _ [ } O.O.} O...( _ +.+.[ ( [ O.O.` R ] O.O./ T ] O.7.[ ` 7.9._ ] ] ] ] [ ,.,.] [ r.r.} [ 5.7.,.7.7.5.,.} d.8.( } u._ / / T ~ ^ ' I l J P ~ ( Z g d J / 7.O.O.O.} O.} O.O.[ O.[ [ O._ O._ P [ 7.) ` j.` _ _ ] / _ O.] ` ] ` ` ' :.` ` / 7.7.` / ] ] ` ' ",
"` 8.r.+._ ' ' ] ] ] :.] _ } 8.7.( [ O.8.8.,.` 8.8.7.] _ 7.+.O.+.+.+.+.+.+.O.| O.+.8.7.+.7.8.8.8.O.[ O.O.+.O.` _ 7.u.[ / ` 7.r.7.` / 8.+.` ' ' ] ' ] ] :.] ] 8.f.O._ [ ,.,.,.:.] ] ] O.f. .` 7.f.O._ ` ` O.r.O./ [ #.+.#.+.O.O.+.+.+.+.+.+.+.+.+.8.O.O.+.8.7.+.+.#.8.[ P ' +.} / / ` O.} _ ` ( 8.} / / / ` ` ] [ ] ' [ 8.7.] / ' ] ` ] ' ' ' _ O.u.` [ 8.t.O.` ` f.+.[ [ P O.O._ _ +.8.+.+.O.} O.+._ _ O.O.} } O.+.O.+.O.{ ..+.` ` 7.f.8.] T 7.7.O.O.` 7.8.[ ,.] [ ,.,.[ ,.] 7.Y.Y.7.] ] ,.,.,.,.,.] _ +.t._ _ +.Y.+.[ ` 7.Y.8.[ /  .8.+.#.+.r.r.#.#.t.#.#.#.+.+.8.r.t.t.t.r.r.Y.Y._.u.` [ 7.t.O.] ] 7.8.8.7.) 7.u.[ :.:.:.,.:.,.,.] [ u.Q.7.[ [ ,.[ ,.,.,.[ [ #._.O._ 8.r.r.O.] [ Y.}.9.) O.f.t.8.t.t.r.t.t.8.f.f.8.+.+.8.t.8.8.8.t.8.8.#.#.t.[ ` 7.Y.}.[ ] [ u.d.8.7.[ f.8.,.:.:.,.,.,.,.,.:.7.Q.c.7.] ] ,.,.,.,.,.:.] 7.u.` ] 8.#.+._ / r.#.O._ ( 7.#.#.#.#.#.8.r.8.+.r.+.O.O.+.#.+.8.+.r.8.+.+.#.+.8._ _ +.#.+.} ` 8.d.O.} _ r.Y.O._ [ 3.[ [ [ [ [ 8.N._.r.,.:.,.[ ,.] ,.] [ 8.}.[ ,.d.f.7.] ] 8.+._ P P Z 9 b G P / P ( O.O.[ O.O.O.O.O.{ O.8.+.| [ O.O.7.] ` [ [ 7.] / 7.+.+.7.] j.9._ _ ] [ [ [ ,.[ [ 8.N.N.8.[  .7.7.7.5.5.[ O.Y.8./ _ +.O.[ ` ' 7.' ^ j d I ~ ~ P Z Z P ( ( O.{ O.O._ [ [ +.O.O.#.O.O.[ O.+.[ / O.+.O.` / _ +.O.,./ O.+.[ ` [ ` ` :.:.` / 7.+.8.O._ ` ' ' ' ",
"8.#.+.+.+._ / ` ' ` ' ' ` O.8.7./  .[ [ 7.7.7.f.[ 7.] ` +.+.O.+.+.O.+.8.O.O.O.7.8.+.+.O.7.8.O.O.} O.O.[ O.} R ] ] } 9.[ } f.O.[ / / 8.O.' ' ' ' ' ' ;.` ] 8.r.8.8.[ ` ] ,.:.:.:.:._ O.f.[ ` 7.7.O.7.O.O.+.} [ / _ +.+.O.O.O.O.O.+.#.+.+.+.O.+.+.+.O.O.O.7.7.+.O.8.8.' P ` _ _ } _ } O.( [ ( / +.} ^ E / E ` ` ` ] [ 8.+.+.+.' / ` ' ` ` ' ' ( 7.8.( _ 7.O.O.7.O.r.[ _ ) D O.[ _ O.O.O.+.+.} O.} O.O.O._ O.} O.O.O.O.O.O.O.{ O.` R 7.} 8.u.} 8.} _ O./ O.8.[ ] ,.] ] ,.] ' O.f.r.r.Y.8.] ] ,.:.:.] ] _ +.t._ ] 7.+.r.8.+.Y.O.O.} / | #.r.#.+.+.+.#.#.#.r.r.+.8.8.+.r.r.r.N.N.r.Y.r.8.8.` ,.9.} 7.7.7.f.O.O.7.( 7.d.[ ' ,.:.:.,.,.:.[ u.Y.f.Y.8.[ ] [ [ ] ,.] [ #.Y.O.( 7.+.#.8.7.d.Y.8.9.` O.f.r.t.t.r.t.8.r.f.f.8.+.+.+.+.8.8.#.#.8.r.#.+.8.8.[ ` 9.7.8.d.3.9.}.O.O.7.' f.8.,.:.,.,.:.,.:.:.,.c.f.t.f.7.' ] ,.:.,.,.' ) 7.u.` ] 8.} +.r.+.r.+._ _ ( O.+.+.#.+.#.+.8.+.r.8.+.O.O.O.+.+.+.+.+.+.8.+.+.+.8._ ` O.O.O.8.8.Y.O.O.} ( 8.N.O.' ] ] [ [ ] ] 8.Y.r.#.N.7.] ] ,.] ] ,.:.[ r.}.[ [ 7.7.O.u.d.r.[ ` Z P J 2 9 0 z ( ( [ [ [ O._ { O.} _ O.#.O.[ [ O.O.} +.[ ` 5.) ' 7.8.7.( _ 7.) 7.u._ ] ] ] ] ,.[ [ +.N.#.%.r.O.[ ,.7.,.,.,.] [ r.O.W ( [ _ ' 3.,.` / n 0 e k D A k k Z A ( O.} } | ( [ / ) O.O.O.O.O.O.} O.O. .R [ O.+.` ` } O.( ] T O.+.` ` ` ] ] ' ' ` [ +.+.O.+.O.` / ' ' ",
"r.+.O.+.+.O._ / / ` ` ` ` O.8.7.( 7.[ [ [ f.Y.+.) 7.[ ) 8.#.+.+.+.+.+.+.+.O.+.8.8.8.+.7.O.7.7.O.O.7.O.O.+.O.R ] ] ` _ 7.8.O.( [ ` ( +.+.` ' ' ' ' ] ' :.7.t.r.+.#.8.[ ' ] ,.:.,.,.] +._.[ ` 7.O._ 7.t.8.[ / [ ) ) +.O.O.+.+.O.O.O.+.+.#.#.+.+.+.+.+.+.+.+.+.8.O.+.+./ P ] ` / } r.O./ / O.( ( 8.O./ / / E / ` E ) 9.#.+.+.+.O.' ` / ' ` ' ` ( 7.9.) [ O.) [ r.r.+.` _ _ R [ } } +.O.+.O.+.O.O.[ O.+.O.O.O.+.#.O.+.O.O.O.+.O.+.` / 7.( ( d.d.7.` _ 7.( 7.r. .[ [ [ ] [ ] [ d.N.d.Y.N.Y.8.] ] ,.] ] ] _ +.t.) _ 7.[ [ t._.#.( O.O./ | #.r.r.+.O.O.8.#.#.r.r.8.r.r.8.#.r.r.t.Y.t.r.#.+.8._ [ 9._ _ 8.Y.7.` O.7.( 7.}.,.:.:.,.:.,.:.:.8.}.Y.Y.Y.f.7.[ ] [ ,.,.] [ #._.O.( 8.O.[ 8.XX|.O.7.9.] O.f.r.f.f.t.t.t.t.t.8.+.O.8.8.+.8.t.t.#.8.8.8.8.r.8. .) 7.O._ 7.Q.d.O._ 7.O._ d.8.,.:.:.,.:.:.:.,.d.Y.d.r.r.d.7.] ] ,.,.:.] ] 7.c.] [ 8._ } N.%.+.( ' [ ( O.O.+.r.#.#.#.+.#.r.r.+.O.+.O.+.+.+.O.8.+.r.8.+.#.u.) _ 7.[ ) 8.r.+.( O.O.( 8.t.O._ _ ] _ _ _ 7.Y.N.r.t.#.Z.7.[ ] ,.,.,.,.[ f.}.[ 7.7.[ O.Q.Q.7./ / K P P 8 2 0 Z ( [ _ O.@.O.} _ { O.O.O.O.O.O.O.+.+.O.8.[ ' 5.] ` 7.u.] R _ 7._ 7.c.[ ] ] ] ] [ [ 8.N.%.#.#.#.#.O.[ [ ,.,.,.] _ 8.O./ [ [ / P ` ' / V j j l Z Z d r j z / _ O.+.O.O.} +.[ [ O.#.+.+.+.O.O.+.+.O.` [ [ [ [ 8.O.[ ( ] R } +._ ` ) ) [ ` ' [ 8.+.+.+.+.+.O.` ` ' ",
"O.O.O.O.O.+.O._ ~ / / ' ` [ d.7./ 7.7._ ` 7.7._ ` 7.] ` 7.+.#.+.O.+.O.+.O.O.7.+.+.8.8.O.O.O.O.7.O.7.7.+.+.[ T ] ,./ T [ 7.` P [ ` / 8.+.' ' ;.:.;.` ] u.u.8.r.r.+.8.8.] / :.:.:.:.] 7.Y.[ / 7.[ R [ 8.O./ / [ ` ( O.O.+.O.+.#.O.O.O.+.+.+.+.+.+.+.O.7.+.O.+.7.O.+.[ P P ,.` P ( O.( P ` [ / ( 8.} T T T E T T ` 7.O.+.+.+.O.+.+.` / ` ` ` ` ` 7.9.( [ 7./ / +.8._ / [ / P [ O.O.O.8.[ _ O.O.} [ O.} +.O.} O.O.O.} } O.O.O.O.O./ / 7./ T ] O._ ` [ O.( 7.8.} ,.] [ ] ] [ d.d.r.m.Y.d.d.Q.7.' ] ' :.] ] 7.f.` _ 9.[ ` O.g.[ ` 7.O./ [ r.r.8.O.O.+.+.#.t.8.r.r.8.8.#.+.r.r.8.r.t.8.+.r.8.' [ j.] / } 7.` R O.7.( 8.f.[ :.:.:.,.:.] u.Q.d.Y.N.t.d.f.8._ ] ,.,.,.[ 8._.O.( 8.O._ ,.z.9.] 7.9.` [ d.8.r.f.f.t.t.8.8.8.8.g.+.#.+.+.+.8.#.+.8.r.8.#.t.[ ( 7.7./ ' u.7.` ` 7.[ ( d.8.:.:.:.:.:.' ,.z.z.d.r.t.8.r.d.} ' :.:.:.:.] u.d.] ] 9.] ( +.r._ / _ [ / [ +.O.+.#.#.+.#.+.8.8.+.O.O.+.+.O.+.O.O.8.8.8.8.+.7.( ( 7._ P _ 7.] / O.} ( 8.r.} ` ' ] ` _ O.d.r.r.#.r.8.d.d.O.' ,.,.,.,.[ d.c.[ 7.j.] ] 9.7._ / / J D / d & J / Q ( } O.O.+.O.{ O.O.{ O.O.} O.O.O.O.+.8._ / :.' / ' ,.` / [ ,.) 7.z.] ' ] ] ] ] 8.Y.r.#.#.+.+.+.8.} ] ,.:.,.] _ 7.7.~ _ [ P V U / J y n k d Z d 0 d k J ( _ [ +.} { +.#.+.+.+.O.O.O.O.+.O.O.+.[ / [ R R _ 7.[ P ` [ P ( +.) R ] ` ' ` [ 7.8.+.+.+.O.+.+.} / / ",
"+.+.O.O.O.O.+.O.` / / ' ` [ p.7.( 7.7.[ ] :.] ] ' ,.,.` 7.+.+.+.+.+.+.8.+.+.+.8.8.8.8.8.7.7.O.7.+.7.7.+.+._ R ,.7.` T ` :.` / 5.` / +.+.` ' ' ;.' ] 9.f.8.d.8.+.+.+.8.7.] ] :.:.:.[ 8.f.[ ` 9. .` ` ] ` / ] [ ` ( [ } +.+.+.#.#.#.+.+.+.O.+.+.+.+.O.+.+.+.+.7.+.+.[ R T 3._ P / ] R P ) [ / ( +.[ T T T E P / O.@.O.+.+.+.O.+.8.7.` ` ' ' ` ` 7.u.) [ 7.) ` ,.[ ( / [ ) R O.+.O.+.8._ ( +.+.+.[ O.O.8.+.+.[ [ } O.O.+.O.O.O.O.( ( 7.( R ` ` _ ` O.7.( 8.t.O.,.[ [ _ [ d.Y.d.d.d.d.f.d.Y.d.7.] ' ] ] _ 8.8.` ] 7.[ ` ,.7.] _ 9.7./ [ 8.#.#.+.O.O.#.r.r.f.t.t.r.#.8.8.r.8.#.r.Y.r.8._.u._ [ j.[ ` ] [ ` / [ ,.` 7.f.[ :.:.:.:.] 9.Q.Y.f.f.t.t.d.Y.Y.7.[ [ ,.,.[ 8.'.O.[ u.O.[ ,.5.,.] 7.l.] [ d.8.8.t.t.t.t.t.f.8._._.8.8.8.+.+.#.#.#.#.f.r.8.r.[ ) 7.7.) ' ,.,.` ] 7.[ ( r.8.] :.;.:.' ,.u.f.d.f.8.8.8.r.d.u.] ' :.,.:.] f.c.] [ 8.[ ' ] [ ' ` _ [ / [ +.O.+.#.+.#.#.+.r.r.+.+.+.+.+.O.#.+.O.+.f.+.#.+.+./ _ 7.[ P ` ] ` / O.[ ( +.r.[ ` ' ] ' } r.N.t.N.8.8.r.d.Y.d.7.[ ,.,.:.,.f.c.[ 7.9.[ ,.,.] ' ' / P / ( Z 0 l P ( O.+.+.+.+.O.O.#.O.O.O.O.O.+.O.O.O.+.7._ / ,.] ` ` ` ] ` [ 5.) 7.c.[ ' ] ' ' 7.Y.N.r.r.+.+.8.+.#.8.[ ] :.,.) _ 7.7./ ' _ K J T T V l n 0 d Z f d z P / ( _ O.O.O.O...O.O.+.+.+.+.#.+.+.O.+.#. .R ) ` ` ` [ / / ] [ T ( #.) ` ` ` ` ] 9.+.+.8.+.O.+.O.+.8.} / ",
"+.+._ ( _ +.} O.O.' / / ' } 8.7.( O.O._ ' :.' ] ' :.:./ 7.+.O.+.+.+.8.8.+.+.O.8.8.8.8.8.7.O.7.7.+.8.7.O.+.[ / [ ,.` E E ` ` R ,.` / +.O./ ' ;.` ] 7.u.8.r.8.[ ` O.+.+.8.7.] ` :.:.] 7.f.[ ` 9.,.E ` ` ` ` ` [ _ ( O.} } +.+.O.#.8.+.8.+.[ O.8.+.+.+.+.O.8.8.8.O.O.O./ T [ [ P E E R R / [ / / +.[ U T U L ` O.O.O.+.+._ _ O.O.O.8.7.' ` ' ' ` 7.8._ [ 7.] ` ' ` R ` ] ` / O.O.+.+.+.] ( } 8.O.} O.+.O.+.O._ _ ( O.O.} +.O.{ O./ ( 7./ E / / _ ` [ +.( 8.f.} 3.,.' [ Y.Y.r.t.f.7.[ 8.Y.i.d.d.7.' ' ' _ 7.8.` [ 7.[ ] :.,.,.[ 7.7./ [ +.#.r.+.+.+.8.8.r.f.f.r.r.+.8.8.r.r.8.r.8.r.8.Y.u._ [ 7.] ` ` ' ' / ] ,./ +.d.] ' :.:.:.9.Q.f.f.f.9.[ 7.f.f.Y.Y.7.[ ,.,.3.8._.+._ u.7.] :.:.:.:.3.z.,.[ 8.+.8.8.8.8.r.t.t.Y.t.f.f.8.+.f.8.O.O.8.8.8.t.#.+.[ ) 7.7.' ' ' ] ] ` 7.} ( r.O.' ;.;.` [ u.d.r.t.u.[ ) 7.f.8.d.8.,.;.:.:.] u.d.] [ 8.] ` ' ' ] / ` [ / [ { O.+.O.+.+.#.r.#.+.+.+.+.+.O.+.+.+.8.8.+.8.O.O.8.( _ 7.) E E ` ' / [ [ ( +.+._ ` ' ` [ 8.8.#.#.8.[ _ 8.d.r.Y.f.7.:.,.,.[ d.c.] 7.9.[ :.:.' ' ] T P ( ( ~ Z y & V [ O.#.@.O.+.O.O.+.+.O.O.O.O.+.+.O.} +.' T :.` E E ` ' ` [ j.` 7.d._ ' ' ` O.f.r.r.m.r._ ' O.+.+.#.+._ ` ] ] ` O.O./ / / J z J K j l j 0 x A Z x A ( ( ( _ | O.} O.[ } +.+.O.+.O.O.O.[ O.+.+.[ R ] ` ` / E P ` ` ' T ( +.( / ` E [ 7.+.+.8.+._ ` [ +.o.+.+.} ",
"O._ U U ~ [ O.O.O.O.( / / [ r.7.( O.O._ ' :.;.:.' ,.:.` 7.+.O.8.8.+.O.O.O.O.+.8.8.8.7.7.7.7.O.7.7.7.7.O.7.} ` 7.5.' E E ` ` / 5.' / 8.O.` ` ;.` 7.f.r.r.8.[ / E _ 8.8.+.8.7.] ] :.] 7._.[ ` 9.5.E ` ` ` ` / ,.] ` 7.+.O.O.+.+.+.+.8.8.+._ +.8.+.+.+.+.+.8.8.8.+.+.7.` ~ [ [ R E ` E ` / [ R ( r.[ L Y Y T | +.} +.O._ R ~ [ 7.O.+.8.7.' ' ' ` 7.8.( [ 7.[ ` ] E ` / [ [ ) O.+.O.+.O.} [ O.O.+.O.} O.8.+.O.} } [ O.O.O.+.O.O.+.( ( 7.( E / ` ) ` [ +.( r.f.O.[ ] [ d.Y.Y.Y.f.O.` / [ d.d.r.r.d.,.' ` ] 8.u.` [ 9.[ ] :.,.,.[ 9.9./ [ +.#.t.r.r.#.+.#.t.8.r.t.r.8.r.8.8.r.r.#.O.#.r.Y.d.) ,.7.] ` ` ` ' / ] ,.( 7.f.] ' :.;.9._.Y.Y.Y.9.] / ' 9.Y.m.N.Y.7.] ,.3.r.'.+.[ 8.7.] :.:.:.:.5.z.,. .f.8.8.r.t.t.8.f.Y._.f.f.g.8.r._.Y.8.+.8.t.8.8.#.t. .) 9.7.` ' ' ] ] ' 7.} ( t.+.` ;.` ' 7.f.r.r.u.[ ` ` ] d.r.r.f.8.] :.:.,.8.c.[ ,.u.] ` ' ' ] ` _ } / [ { O.+.+.#.+.#.+.+.+.+.8.8.+.8.O.O.8.d.8.8.#.#.+.d._ _ 7.] E E ' ] / [ } ( 8.8.' ` ' [ 8.t.+.r.r._ / / [ d.r.t._.d.3.:.,.} f.Q.[ 7.9.[ :.:.' ` ] E P _ ( ( / J 9 % l ` [ | O.#.+.+.O.O.O.O.O.O.+.7.O.O.8._ ` ,.` E ` ` / ` ,.9.] 7.f._ / ` } d.r.r.Y.r._ / / _ +.+.+.r.O.` ' ` ` O.} ~ ~ / K z J J j b I J / / ( / ( _ _ ( _ [ O.+.+.O.O.O.O.+.+.O.[ ( _ O.+.8.[ R ,.) ` E E T ` ' ] T [ +.[ / ` [ 7.+.+.+.8.] T T ` O.#.+.#.+.",
"' U U T T T [ +.O.+.O.` T _ 8.7.( O.O.` ' :.:.' ' ,.] ` 7.8.+.+.8.+.O.+.O.7.+.7.+.+.O.7.7.7.O.} 7.7.O.O.8.[ `  .,.` T ` ` E E 7.' / 8.O./ ` / ,.d.8.r.f.[ / / ' / [ 8.+.+.8.[ ' ` ] 7.f.3.' 7.[ E ` ' / ` ` ] ` ` 7.+.+.O.O.+.+.+.+.+.+.[ O.8.+.O.O.+.+.+.8.+.O.8.8.` P } _ P T ` E R ` ] P ) r.[ J G L ) [ _ +.O./ T T ~ ~ ] 8.+.8.8.[ / / ' O.7.( [ 7.` ` ` E ` / ] [ / 7.+.O.+.O.8.O.O.O.+.} } +.+.O.[ } O.} [ [ O.O.O...+.( ( 7./ E ` / ` ( [ O.( r.r.} ' _ d.Y.Y.N.Y.O.` ' ] ` [ d.r.+.r.8.] E ' 7.d._ [ 8.[ ` :.:.:.,.9.9./ [ 8.r.8.r.r.#.r.8.+.+.#.+.r.8.+.8.#.+.r.+.O.8.#.N.8.` ] 7.:.E ` ` ` / ] [ / 7.d.] ' ' 7.c.r.N._.7.' ;.' ` ' 8.Y.t.Y.f.7.] [ 8._.O.[ 8.O.` :.:.' ] 5.j.] O._.t.8.8.8.8.8.8.8.t.Y.r.+.8.r.8.f.+.+.#.#.+.+.#.#.O.) +.[ / ` :.` ` ` 7.[ ( r.O.' ^ ` 7.8.8.r.8.] E ` ' / [ f.r.8.r.8.[ ' ] 8.Q.,.[ z.] ` :.' ' ` _ [ Q } +...+.#.#.+.O.O.+.+.8.+.7.8.+.O.[ { 8.r.#.+.r.+.8._ ` 7.] E ` ` / ` [ [ ( r.8.( / [ 8.r.#.#.r._ / ` ' / ,.d.N.t.Y.8.[ ' ,.f.c.[ 7.8.[ ' :.' / ' / P [ O.( / [ I 6 j ` ( O.O.O.+.+.} [ O.O.O.O.O.O.7.O.8.' / :./ / ` E E E [ 7.` [ d._ / 3.d.r.r.N.d.[ ^ ' ` / ` O.8.+.+.[ / T ` O._ D ~ T G z G j j U ^ _ ( / ( ( ( ( _ _ _ ( [ +.O.} } [ O.O.+.+.+.O.O.O.O.+.[ R ] ) R P / T T ` ] P ( 8.) R _ +.+.O.#.+.] ~ ] / / / O.+.+.#.",
"T T T / T T / } O.+.#.O.` ( 8.7.( O.O.` ;.:.;.;.' 7.,._ 7.8.+.r.8.+.+.#.O.+.+.8.7.+.+.7.7.7.O.O.} O.O.+.8.[ `  .,.` E ` ` / E 7.` / 8.O./ ` ,.8.r.r.r.O.) ` ' ] ' ` } 8.+.+.8.[ ' ] 7.}.7.] 7.[ E ` ' ` E ` ,.` ` 7.+.+.+.O.O.+.+.+.8.+.O.+.8.8.8.8.8.8.r.+.| [ +.f._ P } [ T E ` E R R ] R ) t.O.P J ` O.O.O.[ ) / T / ` T ` } 8.+.t.8.[ / ( 7.8._ [ O.) ` ` ` E E 5.) R [ +.#.+.+.8.8.+.+.O.O.+.+.8.} } O.+.O.O._ _ O.#.O.+.( ( O.( / ' / ` / } O.) r.N.[ _ 8.Y.N.Y.Y.7.) ' ] ] ' ' 3.d.8.r.8.8.] ` 7.f._ [ 8.[ ' :.:.:.] 9.7.) O.t.t.t.r.r.r.r.#.+.+.+.+.8.8.+.+.+.#.t.r.r.8.8._.8.` ] 7.] E ` ;.` E [ ,.( 7.f.] ` 7.Y.N.t.Y.7.) ` ;.] ' ' ,.u.f.t._.f.7.[ +.}.+.[ 8.O.' :.:.:.:.5.9.] O._.N._.f.8.8.8.8.t.t.r.8.8.8.r.r.#.+.#.t.#.t.#.t.#.| ) +.[ ` ' :.` ` ) 7.[ ( t.7.` ' 3.u.+.8.8.] / ` ` ] ' ' O.f.8.r.t.u.[ _ 8.}.,.[ u.] ' :.' ' ` O.} / } +.+.#.O.+.O.O.+.8.7.8.+.8.8.8.+.+.+.8.+.r.8.r.r.d.) ) 7.] E ` ' ` / [ [ ( r.8.( _ +.N.#.#.r.O.` ' ] ] ' ' 7.d.r.Y.Y.7.] [ f.c.[ 7.7.[ ' :.;.` ` / /  .+.O.( [ P 8 l ] [ O.O.O.+.+.O.O.O.O.O.O.O.O.7.+.8._ / ] ` ` ` ` E ` [ 7.` 7.u.' [ d.r.8.r.d.[ / ' ] ] / / _ O.+.8.8.[ T / O.[ P / T J k b y n E E / _ } _ _ _ O.O._ _ [ O.O.O.[ [ O.+.+.+.+.+.8.+.O.O.9.[ R [ ) R E ` T R ) ] T [ #.( (  .+.O.+.+._ / ` / / ' R ` } +.+.",
"U T T T T / T / O.+.+.#.+.} 8.O.( O.O.` ' ;.>.' ' 7.,.' 7.+.+.+.+.+.O.+.+.O.+.8.+.+.O.O.+.7.7.O.[ [ O.O.+.} R [ [ / ` ` ;.E / 7.` / u.O./ [ 8.8.8.r.7.` / ` ` / ` ' / [ 8.+.+.d.} ' O.Q.3.` 3.[ E ;.` ' / ` ,./ / 7.+.8.8.+.+.O.+.+.O.O.+.O.+.8.r.8.8.+.8.+.O.[ O.8._ P [ [ R T ` ` P R ] P ( +.} / ` O.{ { [ T U T ~ P / ` / ~ } 8.+.r.8._ / O.7.( _ [ / E ` / ` / [ ( D _ O.O.+.+.+.+.+.O.O.O.+.r.7._ _ O.} O.} _ _ O.O.+.+.( / [ _ T ` ` / / O.} / r.#.} +.Y.m.N.N.8.' ] ] / / ' ' / 3.8.8.8.r.8._ O.d._ _ 7.[ ` ;.>.' ] 9.,.` 7.r.r.t.r.r.8.8.r.+.O.8.+.+.+.+.O.+.+.8.r.t.r.#.N.8./ ] 7.] ` ` ;.` E ,.,./ +.r.[ O.f.f.t._.u.] ` ] ;.` ` ;.' [ f.N.r.Y.Q.+.+._.O._ +. .` :.:.:.' ,.9._ [ d.t.Y.8.8.+.8.r.8.8.8.8.#.8.r.#.+.#.+.#.#.8.r.#.N.O.( +.[ / ;.;.:.` ` 7._ ( r.O.( 7.u.+.+.8.[ ` ` ` ` ` ' :.` 7.f.r.8.r.d.O.8.Q.[ _ 8._ ` ;.:.' / 7.} Q O.} O.O.+.O.} +.O.O.8.7.8.r.+.+.8.r.r.+.+.r.8.+.#.t.` (  .[ E ` ] ' / 5.[ ( 8.+.} +.r.#.#.r.O.` ' ' ' ` ` :./ 7.d.r.r.Y.7.[ f.c.] 7.7.] ' :.;.` ` ' R [ 8.+._ [ U 2 q ` | _ O.+.O.+.+.} _ } O.O.} O.O.} +._ T ] ` / ` ` T E [ 5./ [ 8.[ 8.d.8.8.d.[ / ] ] ' ' ' ` / ( } 7.O.8.[ _ O.' P P ~ J j j v G I E J ( O.( ( O.} } O.O.} O.O._ O.+.O.O.+.O.} O.O.O.O.O.O.` T [ / P T E E T ` ` P _ O.( ( O.} O.O.' / ' P ^ / T / / ~ } 7.",
"U T ` ` T / T / ' +.+.#.+.+.8.7./ O.7.[ ' ;.;.' ,.u.,.] 7.8.+.+.+.+.+.+.+.+.+.8.8.+.O.7.+.7.8.8.7.O.O.O.8.O./ [ 7.' ` ;.;.` ) 9.` ( 8.O.[ 8.r.8.r.7.` E ` / ] [ ` ` ` ` [ 8.8.8.8.} +.Y.3.` 7.7.E ` ;.` ` [ 3.` ) 8.+.+.8.8.#.O.+.+.O.+.+.+.8.8.8.+.8.+.+.8.8.+.+.+._ P } O.` R ` ` R ) ] R ( +._ _ O.O.O._ R J J T / ~ / T ` ` ` O.r.+.r.8.} +.7.( ) [ ) / ] ` ` ` O._ / [ O.[ +.+.+.+.O.+.#.+.8.8.[ ` [ +.O.O.O.} } O.+...#.( / O.[ / ` ] / ( 8.O./ +.#.+.N.N.N.N.#._ ] ` ( _ [ ` ' ' / [ 8.8.+.8.+.+.d._ [ 8.O.] ;.>.:.,.u.,.` 7.r.8.8.8.#.r.8.r.8.+.8.r.#.8.+.O.r.#.r.r.#.r.r.t.d.` _ 7.[ ` ` ;.` ` 7.,./ O.8.O.f.Y.t.N.8.[ ' ] ` ] ,.] ;.>.]  .d.Y.f.Y.t.r.Y.O.( 8.O._ :.:.:.] 7.9._ 7.f.#.+.8.8.8.r.r.8.r.8.8.8.g.8.8.8.t.+.#.#.+.+.#.N.+.) +.O.` ' ;.:.' [ 7._ ( r.O.O.r.8.8.8.} / ` ` / :.,.` ' :.` O.d.8.u.r.r.8.Q.[ [ d.O.' ;.:.] _ 8.[ / O.O._ O.#.+.O.#.+.+.8.+.8.+.+.8.+.8.+.+.+.r.8.#.#.f._ ( O. .` ` ] ' ` 7.[ ( +.+.+.N.r.r.r.+.' ' ' ` 7.9./ ;.:.` O.d.r.Y.d.O.d.f.[ 7.8.[ ' ,.:.' [ ,./ O.8.O...#./ 8 w ` [ _ O.+.+.#.+.O.[ [ } O.+.O.O._ +._ T ,.] / ` ` E ` 7.7./ [ d.8.d.d.r.8.[ ` ' ` ` ,.7.] / / / / [ O.O.+.+.O._ P T / J j v G G T E V ( O._ _ } O.O.O.+.} +.O._ O.+.O.7.| O.} O.O.O.O.O.O.( R [ ) R T ` E / _ _ P ( _ ( O.O.O.O._ / E E P [ [ / T / T / ] ",
"U T } O./ P ^ / R [ 8.8.+.+.8.7./ } 7.} / :.;.' 9.z.] ' 7.8.+.O.O.+.+.+.O.+.O.+.+.7.+.O.+.7.O.8.8.8.O.O.8.[ E [ 9.,.E ;.;./ [ z./ ` 7.+.8.8.8.t.7./ E ` T ` 8.+.` E ` ` R } u.8.8.8.O.8.[ / 3.9.] E ;./ ` 7.3./ ` 8.+.O.+.+.8.+.O.O.+.O.+.O.+.+.+.8.O.+.+.+.8.8.+.+.[ P _ 7._ P E E / 7.5.P ( +._ [ O.} _ / J G J J T _ ' ~ / ` ` ( O.r.r.+.O.O.} ( ( [ [ R ` ` R [ 7.( / [ O.O.} O.+.} O.O.O.+.O._ [ _ } O.O.} } O.O.O.O.O.+.' ( O.+.( / ` / O.r._ / O.#.#.#.#.N.+.' ' ] / _ 8.+._ / ' / T [ 8.8.+.#.r.r._ _ 8.7.' >.;.` 9.z.:./ O.8.+.+.+.8.8.8.+.8.8.+.#.8.+.+.8.8.8.#.+.r.8.+.t.d.` ] 8.7.` E ;./ _ d.[ ~ } 8.r.r.r.Y.8.[ :.:.' ` 7.f.7.' ;.>.' [ d.Y.f.t.t.t. ._ 8.8.[ ' :.' _ 8.9.' O.f.8.O.O.O.8.8.8.r.r.+.+.8.8.+.8.8.8.8.+.O.+.O.O.r.O.( +.8.[ ` ;.` ` 7.u.' ' 8.+.+.8.8.8.} ` ` ` ` ' 8.7.[ / ' ' / 7.d.r.8.8.8.d.[ _ d.7.) ' :.` O.d._ ~ O.8._ } O.+.+.O.+.8.O.8.O.+.+.8.+.O.O.+.O.+.8.8.+.d.] / O.7.] E ' / [ u.[ / O.#.+.#.r.r.O.` ' ] / ,.d.r.7.` ;.' ` 7.d.d.d.8.d.u.] 7.u.7.' :.;./ 7.7.R [ 8.8.O.O.] 8 9 / [ O.O.O.+.+.+.#.O._ ( [ +.O._ _ O.' ^ 3.7./ / ` T ] 7.[ / } Q.d.8.r.8.[ / ] ' / ] 8.8.[ / T / / T ' O.} } 8./ Z / T z j H n z E T Z T _ _ ( ( [ [ ( ) _ [ ( ( [ O.+.O.[ _ [ O.[ O.O.} O._ P [ [ T P ` T R [ _ P ' } _ _ O.O.' T / U I ' O.+.O.~ T / T / ",
"T _ ..O.} ` T ` ` ` } 8.+.r.t.7./ O.+.+.) ' ` [ 8.d.] ] 7.8.+.O.O.+.+.+.+.O.O.+.+.7.O.O.O.O.O.+.O.O.7.+.8.O./  .z.j.` -.;.' 9.c.` ` 8.8.8.t.t.9.) E ;.` ' 7.+.+.O.' / ` / ` 7.u.d.8.+.8.[ ` 7.d.,.` ;.` ] 8.7./ ] 8.+.+.+.+.+.+.O.+.+.+.+.O.+.+.+.8.+.+.+.+.8.8.#.8.[ T [ 8.O.R E E _ f.7.P _ r.+.O.O.O.( J J J J V / O.#.O.' ` ] ` _ } r.#.t.+.+.( _ O.+.) ` E / O.8.' ` O.} O.[ [ O.O.+.O.+.} } _ O.+.O.O.+.O.+.O.+.O.O.O.+.[ _ +.8.[ ` ` _ #.#._ / +.#.#.%.r.+._ ' ` ` ` 8.r.#.O.] / ` E ` [ u.r.r.#.f._ _ 8.u.[ ' ;.:.u.z.:./ [ +.+.+.+.8.8.8.+.8.8.+.+.+.+.8.8.8.+.+.8.r.r.+.t.f.` ] u.u.] ` ;.' O.Y.[ / O.N.t.N.Y.u.] ;.:.] ] 5.d.t.f.9.:.:.,.] 7.d.Y.Y.N.f.O._ r._.+.] :.' [ Y.u._ 7.f.d.8.} O.8.8.8.8.+.+.8.8.#.8.8.+.7.+.+.+.#.O.#.#.O./ +.f.7.` ;.;.] f.u.' _ g.#.#.r.8.7.' ;.` ' ' 7.8.#.7.,.^ ' ' ` 7.d.r.t.#.f.[ _ f.f.[ ] ' ] 8.f.[ / O.8.+.O.} 8.+.O.O.+.8.+.+.8.+.8.O.+.+.8.+.+.7.+.+.f.[ ` 7.u.,.E ` ` O.Y.[ / +.N.#.r.r.O.` ' :.] [ d.8.+.r.7.` ' ' ` 7.d.Y.d.Y.f.[ 7.f.u.[ :.:.] 9.9./ [ 8.r.+.O.O.z j ` O.O.O.+.+.8.#.#.+.[ ( [ O.O._ _ +.[ / 7.8._ E T / 7.u.[ / 7.|.t.r.8.[ ` ] ` ` ] 8.8.+.+.[ T T / T R _ } O.+./ J / J l G Y b G E E K / [ _ _ O.O.( / / ( O.` / ( +.O.O.[ [ } O.O.O.O.O.+.[ / O.[ ) P T P ( +.[ P _ +...O.O._ / T T I / O.O.O.O.O./ U / ` ",
"_ O.{ { O.} / / ` ` ` O.r.+.t.8./ [ +.+.[ / ` 8.+.8.] ] 7.+.O.O.O.} O.+.O.O.O.O.+.O.O.O.O.O.O.O.+.7.O.} 7.7./ [ 9.z.,.E E 5.z.z./ ` u.8.8.f.7.] E :.E E 7.#.O.O.+.O.` / ` E ` 7.d.+.O.8.3./ 7.Z.7.] E ] 7.r.7./ _ +.O.+.O.O.O.O.+.O.O.+.+.O.O.+.8.O.+.O.O.+.+.O.+.8.[ P _ 8.+._ R R 7.f. .P _ 8.+.+.O./ L I I n G P _ O...O.O.` / ` ` / O.r.#.Y.+./ ( +.O.O.R K _ 8.O.` P [ ( O.O._ _ O.O.} } ( [ O.+.} O.} O.+.O.} O.O.O.{ } ` / O.O.+.( ( +.+.#._ P 7.#.#.N.+.` ` ] / / 7.#.+.+.+.7./ ` ` / / 3.d.#.r.f.' _ 8.8.7.] ' u.8.9.;.P [ +.O.+.7.O.+.+.+.+.#.#.+.+.+.O.+.+.O.+.r.8.8.+.8.7.` ] u.d.7.' / 3.r.r.] T 7.t.r._.8.] ;.,.:.' 7.f.r.8.t.f.7.;.:.:.] 7.Y.t.r._.O.( 8.Y.r.O.` ` 8.Y.7.' } 8.+.d.7.[ } 7.7.O.O.+.8.+.+.8.7.O.O.O.8.+.+.7.+.+.[ / O.f.8.,.` ' 9.d.8.` _ f.+.r.t.7.` ` ;.` ' 7.r.+.+.+.8.] / ' ' ` 9.d.r.r.d.' _ r.r.d.[ ' 8.r.8.[ / 7.O.+.O.[ O.+.O.O.+.O.+.+.+.8.+.+.8.+.+.+.+.O.O.O.u.] ` O.8.8.) P ,.8.f.[ / 8.r.r.t.7.' ` :.' ] 8.r.+.+.+.r.,.` ' ' ` 9.Y.r.Y.z.] O.r.f.7.' ' 7.u.j.R _ 7.O.O.8.8.Z k _ _ _ O.O.O.O.O.O.O.O.O.O.O.} _ _ +.' T [ 8.O./ T [ 7.7.[ / 7.f.r.8.[ / ] ) R ' 7.8.O.O.+.} / U T T U T ' O.[ J z J z J J I b I ` E J / [ ( ( O.+.[ ( _ [ [ _ _ ) [ O.[ _ [ _ [ O.O.[ } } [ ~ _ O.O.T K ` O.} _ P [ O...O._ T T U I P } O...} O.O.[ P T ;.",
"} ..{ } ..O.} ) / ' ` [ 7.r.Y.7./  .O.+.+.[ O.#.+.u._ ] 7.O.+.+.O.O.O.+.+.+.O.+.O.+.+.O.O.+.O.O.7.7.O.[ O.7.` 5.9.u.u.,.:.u.f.8.` _ 9.8.d.8.] E ` ` ` 3.8.+.+.+.+.8.5.` E ` E ] 7.8.+.d.3./ 7.d.r.7.' 7.r.r.} / _ O.O.O.+.+.O.O.+.+.O.O.O.} } +.8.+.+.O.O.+.+.+.+.+.} P _ +.r.+.) | t.t.[ P [ 8.O.+.` J G n J L T P ( _ +...+._ ` / / ` ] O.N.Y.+.) ) O.+.#.( ( +.#.+.( T _ _ O.+._ ( _ } O.} _ O.O.+.O.O.[ [ +.+.O.+.O.{ _ O.' / O.O.#.O.} #.+.+.( T +.#.m.7.) / ` ) ` 3.r.#.+.+.+.+.7.' / ' ` ] O.+.t.d._ _ 8.r.8.7.9.u.#.8.' P  .+.+.8.8.8.O.O.8.8.+.8.+.8.+.+.+.+.O.8.r.8.8.O.+.7.` ] 8.t.t.7.} 8.#.r.] / 7.f.r.7.:.;.:.,.:.j.f.t.r.r.t.t.f.j.:.;.:.:.7.d.N.Y.O.( 8.t.N.d.[ O.f.Y.7.` 7.8.+.t.f.O.[ } O.O.8.8.8.#.r.8.8.7.O.7.8.+.8.+.O.+. ./ 7.8.t.d.,.7.Y.r.8.` _ 8.8.r.7.' ` ` ;.` 7.r.#.+.+.+.+.8.] / ' ' ] 7.8.r.d.] _ r.t.r.d.8.t.#.r.[ ( +.O.+.+.O.O.O.O.O.+.O.8.+.+.O.8.r.r.#.8.8.+.O.O._ 7.[ ` +.#.t.7.[ 8.t.Y.[ ( r.t.8.O.' ` ' ] ] 8.r.r.#.r.+.+.u.] / ' ` ] 9.r._.u.[ O.t.N.d.[ [ 8.t.7.T _ +.O.( ( 7.j 0 ( { _ _ [ [ _ } O.O.O.O.+.+.O.[ [ +._ T [ 8.+._ [ 8.+.+.[ / O.Y.8.[ / ` ` / ] 7.+.+.+.O.[ O.[ T I U U U ^ [ I d j J T R J G I ' ,.` L ) O.) ( _ [ } O.+._ O.O.| ) [ O.} [ O._ [ [ _ ( O.O.[ R [ O.+._ / O.+.O._ P _ O.[ ) / P E L U } O.} O.O.O.O.O.[ T T ",
"} _ { } _ O.O.O./ ` ' / ] 7.r.7.P [ O.+.O.+.+.O.O.8._ ` O.+.O.+.+.O.O.O.+.+.+.O.O.+.O.+.O.O.O.8.7.O.[ O.O.,.E ,.7.9.u.9.8.8.u.9.T _ O.+.8.] T E E / ,.8.O.O.O.+.O.O.7.[ E E ` E ` 7.7.7.,./ } r.8.8.7.8.#.+.[ T ` O.O.O.O.O.+.+.O.O.O.O.O.[ O.O.O.+.+.} [ [ 7.+.O.+.[ P ' +.+.8.+.+.#.8._ P _ +.O.` L G v j J / ( Z J P _ { { +.[ / / / / ` 7.+.O./ ( O.O.+.O.+.#...+.~ P _ } } O.O.( / [ ( } O.} _ O.+.O.[ [ [ O.O.O.[ { _ O._ P [ O.O.+.+.#.O.+./ T } 8.8.` E ' / ` } r.+.+.+.+.+.O.8.7.` ' ' ` ` [ +.d.` _ 8.r.+.r.u.8.+.7./ P [ O.#.+.8.+._ _ O.8.+.+.8.+.8.+.O.O.+.+.8.r.+.O.O.u.` ` 7.g.t.r.r.8.#.r.' / 7.r.7.] ;.>.:.] 9.f.t.8.8.r.r.8.8.p.7.' :.] ' 7.r.r.[ ( +.t.t.N.r.8.r.r.7.` [ 8.#.#.r.r.O.} 8.+.+.+.+.#.8.r.+.7.8.+.+.8.O.O.+.8.7.R  .u.8.t.d.d.r.r.7./ _ 7.8.7.' E ;.` ' 7.d.+.+.+.#.O.O.8.7.' ` ;.' ] 7.8.8.' ' r.r.8.t.r.#.+.t.[ ( O.O.O.O.O.O.O.+.O.O.+.+.+.O.O.8.+.8.#.+.O.O.O.O.O.7.] / O.#.#.r.8.t.#.Y.[ ( +.r.O.` E ` E ' 9.r.8.8.#.#.+.+.8.u.' ` ' ` ] 7.f.8._ O.8.r.f.8.8.+.8.7.P ( 8.+.( P P 0 & Z / ( _ _ _ O.[ [ O._ O.8.O._ O.O.O.` P [ 8.O.O.O.O.O.+._ P  .f. ./ / ' R ` O.+.O.O.} _ ' ( [ / I n J U J z n n j T ] P G I ,.5.` ' L / [ _ ( / ( O.( O.O.} O.[ ( _ _ [ } _ _ [ _ [ ( _ O._ D _ _ O.} } O.O.O._ Z ` [ ( U U U I P _ } O.{ O.O.O.{ ..O._ ~ ",
"{ } _ O.} O.O.O.} ' ' ' ` [ +.7./ [ +.+.O.+.+.O.O.g._ ` 7.+.+.8.8.+.O.+.O.O.+.+.+.7.O.+.+.O.8.8.+.O.O.7.8.7./ [ 9.7.7.d.8.8.8.O.R _ O.+.[ E E E / ,.8.+.+.O.O.O.O.O.7.7.] ` E ;.E ] O.8.] / } r.+.+.8.+.+.+.[ / ] +.O.O.O.O.O.#.+.O.O.+.O.O.O.O.+.O.} _ } O.7.+.+.+._ P _ #.+.+.t.+.#.#.[ R [ 8.O.E T I n I T / D Z P P / ( O.O.#.[ ` ` ` R ( O.+.( ( +.+.O.#.+.#...+./ T O.O.} O.O.} _ } } O.O.O.( } +.O.O.+._ O.O.} _ O.O.O._ ( O.#.O.#.#.+.O.+._ R O.#. .E ` ' / 3.+.#.+.+.+.+.+.8.+.8.7.' ` ' E ` +.f.` _ 8.r.8.r.r.8.+.7.' T [ +.+.8.+.+.[ _ [ O.+.+.+.+.8.+.O.O.+.+.r.8.+.+.#.f.] ) 9.t.#.t.t.r.#.8.] / 7.f. .;.;.:.] 7.r.#.t.8.r.t.8.8.8.8.p.7.' ] ' ] 8.f.[ ( 8.t.t.r.t.r.#.t.7.` 7.8.#.r.r.t.+.+.+.+.#.+.8.#.#.+.8.8.8.+.7.O.O.O.r.8. .`  .f.8.8.Y.r.t.8.7.` _ 7.7.[ ` ;.' ' 7.8.8.+.8.+.+.+.8.+.8.7.' ` :.` [ 7.z.] _ 8.r.r.t.#.#.#.r.[ _ 8.+.{ +.O.O.O.#.+.+.+.+.+.O.+.#.+.8.+.+.O.O.7.8.+.f.[ / +.#.#.r.t.t.#._.[ ( 8.g.[ ` E E ` 7.r.r.8.8.#.#.+.8.8.8.8.' / ` / [ 8.8._ O.8.t.r.t.r.#.t.8./ _ 8.8.O._ ( k j g d A } O.{ O.O.} O.O.O.O.} } +.+.+._ T O.8.O.O.O.O.O.7.[ P 7.p.` ~ ' / ` 7.+.+.+.+.} ( ( _ _ [ ` J n b j j ` E 0 L ` P K ` O.| _ ] P ` +.O.( ( _ O.[ [ O.} O.O.[ ( _ } O._ ( [ 7.O._ [ O._ P _ [ O.} O.O.O.O.( Z ` [ / U T U T _ O.{ { O.O.O.O.O.O.O.O.} ",
"{ { } } } } _ } +.} ` ` E ` 8.7.P O.O.O.O.O.} O.O.8.` ` 7.O.+.+.O.O.O.O.O.O.} +.+.O.O.O.O.+.7.7.O.O.7.O.7.7.R [ 7.7.+.7.8.8.O.} T / 7.O.` E E T ] 8.O.O.O.+.O.} O.O.} O.7.] E ;.;.E [ u.] / } +.+.+.+.+.O.O.[ ^ [ +.O.#.+.O...O.#.#.+.O.O.O.O.O.O.[ _ [ +.O.O.O.O.O.[ K _ +.O.+.+.+.+.+.[ P [ 8._ ` L J / ` Z K P P ( D P D _ } O.+.[ T ` R / [ 7.( ( O.O.+.O.O.O.+.O./ ~ O.} O.O.} O.} ( O.O.} } _ } _ +.O.O.} [ _ [ [ O.O.O./ ( +.O.#.+.O.O.O.8.[ P O.7.` ` / / O.#.+.+.+.+.O.+.+.+.O.O.#.7./ ` ` / O.9.` ) 7.+.#.8.8.8.O.7.] P [ +.O.O.O.O.O.O.[ [ O.+.O.+.O.8.+.O.O.+.r.8.+.O.8.d.` [ 8.+.#.r.r.r.+.r.[ / 7.d.] :.:.` ,.8.#.#.8.t.r.8.9.8.8.7.8.u.[ ` ' ` O.d.[ / 8.r.+.r.+.#.#.r.7./ 7.8.+.r.r.+.#.+.} } O.+.+.+.+.O.+.8.+.+.+.[ O.r.#.+.[ / 7.d.r.r.r.r.#.+.9.~ ` 8.O.' ' ` ' 9.r.+.+.+.8.O.+.+.8.+.+.8.7.` ;.;.' 7.z.' ' 8.#.r.r.+.#.+.r.} ( 8.O.} O.O.O.} { +.#.O.+.O.+.+.+.+.+.O.O.O.7.O.+.+.d.] ( O.#.#.8.#.r.#.t.[ / 8.8._ ` E / 7.t.+.+.#.r.+.+.+.8.8.+.#.8./ / / ( 8.d._  .8.r.r.t.8.#.#.7.P _ 8.+.O.O._ f z z $ d [ } _ } O.O.[ O.} [ _ O.7.O.+.[ / 3.8.+.O.} } } O._ / 7.9.` T / ' 7.8.7.O.O.O.[ ` / / ~ ( ] T n c j I ] ^ d k ` P ~ _ _ ( O.` J / O.} } } ( [ [ _ _ O.[ O.[ [ } +.[ ( ( O.O.O.} O.[ ` P [ _ _ } } { O.{ ( Z ' ` T U L P [ { _ _ O.{ O.} ..O.O.} O.O.",
"_ O.O.O._ } _ } O.8.` ` E _ 8.7.R O.+.O.+.O.O.O.O.8.) ) +.+.O.O.O.O.O.+.O.O.O.+.+.+.+.O.O.8.7.O.O.8.+.O.+.} / ,.7.7.7.7.7.7.8.7./ ` 7.O.` E T ` 7.+.O.O.7.+.O.O.O.7.7.+.7.7.:.;.>.` [ u.] / O.+.+.+.O.+.O.+.7./ ,.7.+.+.+.#.O.O.+.#.+.O.O.O.+.O.O.[ O.+.+.+.O.O.+.8.[ P _ +.+.#.+.+.+.#. .T [ 8._ / L T O.[ Z G / / ( ( / R ( _ O.#.+._ / / / O.@.( ( O.+.o.O.O.O...O._ ' O.} O.O.O.+.O.O._ [ _ O.+.{ } +.O.O.} [ _ O.O.O.{ +.( ( 8.O.#.+.O.O.O.g.[ R 7.9.` ` / [ #.#.+.+.+.+.+.#.+.8.O.O.+.8.,.] ` / O.g./ _ 8.+.#.r.+.8.+.8.[ T [ +..._ ..O.O.+.O.O.[ O.+.+.O.+.8.+.O.+.8.#.+.+.+.d.` [ u.#.t.t.8.8.#.f.[ / 7.8.[ ] ' ,.8.#.#.#.#.g.8.#.@.8.8.8.g.f.9.] ' ` O.r.[ / 8.#.+.#.+.+.#.t.7.` 7.8.+.t.r.8.#.8.7.[ [ +.8.+.+.+.7.+.#.O.[ O.8.r.#.+. .` 7.d.#.r.8.8.r.r.9./ ' 8.O.' ` ' 9.p.8.+.8.8.8.+.O.+.r.8.8.#.8.,.:.;.] 8.c.[ [ r.#.r.r.+.+.+.t.O.( 7.+.O.} O.+.O.O.O.O.+.+.+.#.+.+.+.+.O.O.O.8.+.O.+.d.[ ( +.#.#.8.#.t.#.f.} ( 8.t. .` ` 7.r.#.#.#.#.#.+.#.+.8.8.8.+.t.7.` / ` 7.f.[ O.g.#.r.t.#.#.N.8./ [ 8.+.} _ [ Z z J 0 * / } ..{ _ } O.O.O.[ [ O.7.O.8.3.' O.8.O.O.O.O.O.8.[ / 7.9.R U ] 7.8.+.7.8.O.[ _ _ ` R / / J z L T n Z ` ' Z z _ ( / [ _ ( O.] P / } _ O.+.} O.( ( | O._ ) [ O.( +.[ ( O.8.O.O.O.O.O._ P O._ _ O.{ { O.O._ P [ _ R U R ( O..._ _ O.O.....#.{ +.+.O.O.",
"{ O.O.} [ _ _ } } O.} ` U ` 7.O.P [ +.O.} O.O.O.O.8.` ` 7.O.O.[ } O.} O.O.+.O.O.+.7.O.O.7.7.O.O.O.O.O.+.O.[ / ] 7.O.O.8.7.O.8.7./ ` 7. .` U T 7.O.O.O.O.O.O.O.} [ O.7.O.O.7.7.] ;.;._ 7.] T 3.8.O.O.7.O.O.+.[ ^ _ 8.O.+.+.+.+.O.{ O.+.O.O.O.O.O.} [ O.+.O.O.8.} O.8.[ D ( +.+.O.+.} +.8.[ T _ 8._ J U ] } [ J k P / D ( / D / _ O.O.+.O.` U / O.O./ ( +.+.O.O.{ { { O.' ~ } O._ O.O.O.O.} ( ( _ +.} O.} } O.+._ ( _ +.O.....O.( / +.#.+.+.} #.O.+.[ T 7.9.` T ` 8.+.+.+.+.O.+.#.+.+.+.+.+.O.+.8.[ E ` O.8./ ` +.r.+.8.+.O.+.8.' P _ O.....O.{ O.O.O.O.[ [ O.+.+.+.+.+.O.O.O.8.8.+.+.u.( _ d.r.#.8.+.+.r.d.[ / 7.8.[ ` ] 8.#.+.#.#.+.#.8.#.8.7.7.t.r.8.8.7.' / O.8.[ ~ O.#.+.+.+.O.#.t.7./ 7.8.8.8.8.8.+.8.8.O.O.+.+.+.8.+.O.+.+.O.O.+.8.+.+.+._ ` 7.Z.8.+.8.O.r.r.7./ ' 9. .` E 5.u.+.7.8.8.7.8.O.+.O.7.8.r.+.+.9.7.` ] u.c.] [ r.#.#.#.+.+.+.r.[ ( O.O.O.8.O.O.O.} _ O.O.+.+.+.+.+.O.O.O.+.+.O.O.+.O.8._ / +.#.+.r.8.#.#.f.[ / 8.g.[ R ] 8.#.+.#.#.+.+.8.+.+.+.+.#.+.O.8.[ / / 7.8.( } t.#.+.r.r.+.t.8.~ ( #.O._ _ O.P d Z Z d Z _ _ _ _ _ O.O.} [ O.O.O.+.8.[ / 7.+.} O.} } O.7._ P 7.7.K E 7.7.O.O.7.+.} _ ' ' / T J G k P 5.[ J z / _ Z J _ ( ( ( / ( _ / J / _ / ( O.+.[ / / [ O.( ( ( ( ( _ ( } O.+.} O.[ [ O.' P _ O._ [ } _ _ O._ P _ [ P P ( [ _ _ } _ _ O.#.O.O.+.O.O.O.O.",
"} O.{ O.} _ [ O.} O.+.[ R ( +.O.P [ O.O.O.+.O.O.+.8.( ` O.O.O.O.O.O.O.O.+.8.O.O.O.+.+.8.7.O.} +.+.O.+.+.O.[ / [ 7.8.O.8.7.O.8.7./ ` 7.O.R P ] 7.O.O.O.O.O.7.7.O.[ _ [ O.O.7.7.7.,.` ] u.,./ 7.8.O.O.O.O.+.+.[ / ] 7.+.+.+.+.#.O..._ O.+.O.O.O.O.O.O.O.O.+.+.+.O.+.+.[ P ( +.+.+.+.O.+.8.[ P [ 8.` P ` +.O.} / z K / P ( / P / [ O.O.+.#.O./ / O.+.( ( +.+...O.} [ _ 8.( P [ O.} O.O.O.O.O.[ _ } +.} +.O.O.O.O.[ [ O.+...O...O.( ( +.#.+.O.+.#.+.O.[ R 8.8.( / O.#.+.+.#.+.+.+.#.#.#.8.+.#.+.+.r.u.` R O.g.` / O.#.+.r.+.+.O.8./ P [ O.O.O.O...O.O.O._ _ O.} O.+.+.+.8.+.O.+.+.8.#.#.d.` _ d.t.8.8.8.8.d.f.[ / 7.u.` ] 9.8.+.#.#.#.8.8.8.t.t.8.t.t.t.8.r.8.7._ O.8.[ P } +.O.+.+.O.+.t.7.` 7.u.8.8.8.8.#.8.r.#.+.+.#.+.r.+.+.O.O.+.8.+.+.#.+.O.[ ` 7.d.r.+.8.+.8.r.7./ ] u.[ ` _ u.8.9.7.+.7.O.+.+.+.O.+.8.8.+.8.8.u.,.[ p.Q.7.[ t.t.#.8.+.#.+.t.[ ( 7.+.7.+.+.8.#.+.[ } O.#.O.+.#.#.O.O.O.r.+.+.O.+.O.8._ ( O.#.#.r.8.8.r.f.[ ` 8.r.( ) +.#.#.#.+.#.+.8.8.8.+.+.+.8.+.+.#.7.] / O.p._ [ 8.r.#.t.r.#.t.7./ ( O.O._ O.O.` V J ~ A P ( ( _ _ } } O.O.O.O.O.+.+.8.,.` } +.O.O.O.O.O.+._ / O.7./ ,.7.+.O.O.} _ [ _ ( ( / T k z ] } ( _ / P / ` P P ( ( _ ( ( [ ( R J / ( / / [ _ ( ( ( [ O.} O.( _ _ ( _ +.O.O.O.O.[ O.O._ P _ [ _ [ O._ _ O._ P [ _ P R | | _ ..O.( ( _ O._ [ _ _ } +.O.",
"} { } O.{ } } } } } O.O.[ _ O.[ P [ [ _ O.O.} +.O.O.E ` O.O.} O.O.O.O.O.O.+.+.+.O.O.+.8.O.O.} +.O.+.O.O.8.[ / ] 3.7.8.7.O.8.7.[ ~ ( +.O./ _ 7.O.} O.} } O.O.O.O.[ O.O.O.O.[ O.7.7.' [ 8.,.` 7.O.} O.} O.7.} [ / ` 7.+.O.+.+.O.+.O.} O.{ O.O.} } O.O.O.} O.+.O.O.O.+._ A ' } O.8.O.O.8.7./ P ' 8._ ' } O.} { [ J z P / P P D / ( ..X.X.o.+.} ( { +.( ( } O.O.} _ O._ } P P _ _ } O.O.O.} +._ ' [ } O.} O.#.O.[ ( } +.O.O...{ +.( ( +.O.+.+.O.#.+._ _ P +.#.O.} +.O.O.+.+.+.+.#.+.+.#.#.+.O.#.+.+.r.7.( O.8.( / O.+.r.+.+.+.} _ / P ( +.O.O.+.O._ O.[ _ _ _ O.7.O.O.+.+.8.#.O.+.+.+.#.u.` ` u.8.8.8.+.r.d.u.] / 7.8.[ 7.t.+.+.#.#.8.8.r.r.8.r.t.r.8.8.8.+.8.8.7.O.8._ P _ [ } +.O.O.8.+.7./ 7.9.+.8.8.8.8.8.+.+.O.O.+.#.+.8.+.O.O.+.8.+.8.+.+.O.[ ` 7.8.+.8.O.r.8.O.O./ ` 8.O.[ 8.8.9.#.8.O.O.O.+.O.+.+.+.O.+.+.+.+.8.8.8.8.Q.,.[ r.#.#.+.O.#.#.+.) ( 7.+.O.7.+.+.+.+.O.O.O.O.+.O.+.+.O.} +.+.+.+.O.} O.8._ ` O.O.#.#.+.r.8.7.] / 8.#.O.+.+.+.+.+.+.+.+.+.+.#.+.+.+.+.+.O.O.7.O.[ 7.8._ [ O.+.#.#.r.8.O.[ / ( O.O.O._ _ [ Z l Z Z D ( ( _ } _ [ _ } } O.7.O.O.7.[ / _ O.O.O.O.8.O.[ _ R ] 7.,.,.[ _ O.[ _ _ ( ( ~ P U Z J ' [ ( / ` / / / T K P P / ( ( _ _ T P J P _ ) D D ( _ / [ ` [ O.[ O.O._ [ [ } O.O._ [ 7.[ [ ( P ` / _ } [ _ { _ ` D _ ( ( ( [ ( _ _ O._ _ _ _ { O.( _ O.} +.",
"O.O.O.O.} O.} } O.O.[ } O.} O.[ S ] / ) O.O.} +._ ] E ) +.O.O.+.O.O.+.O.+.+.O.O.O.+.O.O.O.O.+.+.+.+.+.+.+.[ ` ,.] O.8.8.7.8._ ' / ' O.O.+.8.+.O.O.O.O.O.7.O.} [ +.8.7.O.O.O.O.7.7.7.O.u.,.` 3._ [ O.O.8.O.' [ ` ` 7.+.+.O.#.O.O.+.+.O.O.O.O...O.+.+.O.O.O.O.+.+.O.+._ P ' _ } 8.+.+.8._ / / ' 8.O.O.O.O.O.O.O./ z K / Z Z S ( / _ O.....+.#.{ ..#.( / ) _ +.O.O.O.( ( P T } _ { +.O.O.O.8.O.[ O.} +.O.O.O.} _ } +.+.O._ _ ..O.( / O.) O.#.#.r.O.[ [ R +.+.+.o.O.O...+.+.+.#.#.+.+.O.O.O.+.+.+.+.+.8.+.+.8.( ( O._ +.t.#.O.( _ / P _ +.O.+.+.O.O.+.O.O.[ _ O.+.O.7.+.+.8.+.+.#.+.O.#.p.` ] 7.} +.f.8.r.8.7.] ` 7.d.8.8.8.8.#.#.@.8.t.N.t.r.t.t.r.8.8.+.+.#.8.#.#.8.) P [ ( ( +.O.7.O.} [ ' 7.7.+.+.8.t.t.+.+.O.O.+.+.#.8.9.8.+.O.O.+.8.8.+.+.O.[ ] 7.O.O.8.8.8.7.( 7./ ` 8.O.#.8.8.#.#.8.+.O.O.+.O.+.8.O.+.8.8.8.+.8.8.r.r.}.,.[ r._ +.#.+.#.+.} ( _ 7.+.+.+.7.O.O.+.+.+.O.+.+.+.O.O.O.+.O.+.+.+.O.O.O.r.] ' [ _ #.r.+.Y.O.O.,.` 8.r.#.#.+.+.+.#.+.+.+.#.+.+.O.#.+.+.+.+.+.O.8.8.r.8._ [ [ +.#.+.r.+.[ O./ ) +.+.O.} _ _ P l y z P _ _ _ _ _ } O._ O.8.8.O.O.7.[ ` ] _ O.8.7.7.( _ 3./ ] u.[ ] _ _ _ } } ( / / P U N Z ] [ P / / ( ( _ _ P Z T / D / O.[ / P P P ~ _ ( D P ` _ _ } ( _ ( _ [ O.O.O._ } +.O.[ [ [ [ [ ` P ` / ( O.O.[ _ ( ( D [ { O._ _ _ O._ { O.O.{ O.O..._ } O.O.O.",
"} O.O.} } _ } } } [ _ } } [ O.[ Z ` ] D [ +.+._ / 7.` ` O.O.O.O.O.7.O.O.O.O.O.+.O.O.O.O.O.+.8.+.+.8.8.+.O.[ R 5.[ ( O.8.7._ ( 7./ / O.+.+.8.O.O.} } O.7.7.O.} O.O.O.7.8.O.O.O.O.7.7.7.u.] / [ [ / _ 8.7./ ( 3./ ` 7.O.+.+.+.O.O.O.+.+.+.O.{ +.+.+.O.O.O.} O.+.O.O.O.( K [ [ ( } r.7.) / 7.^ / 8.} O.O.} O.} } [ J z P Z z Z / / ( _ _ { O.+.O.O.O./ ` O.( ( t.+._ ( [ T K _ ( [ O.O.O.O.O.+.O.} 8.+.} [ } _ } O.O.O.O._ _ _ } ( P [ _ ) #.t.+.( +.[ P +.+.O.#.O.O.O.O.+.#.+.+.+.+.O.+.+.O.O.+.+.#.+.+.O.+./ / 7.[ ( #.t._ / } ` Z _ [ O.O.O.+.O.O.+.} [ O.} O.+.+.O.} } +.+.+.#.+.+.8./ ` 9._ _ d.Y.7._ 7.,./ 8.t.#.8.7.+.+.+.8.8.r.Y.N.t.r.8.8.#.+.+.#.+.+.+.+.+.( A [ _ P [ r.O.` [ ,./ [ 8.+.#.8.8.8.+.O.+.7.O.+.+.+.O.+.+.O.O.8.+.+.+.[ } [ ` 7.7./ 7.d.O.( [ 8.T / 8.O.#.8.#.8.+.8.+.+.O.O.O.+.+.8.+.+.+.8.8.8.+.8.r.z.[ ` 8.[ ( #.#.O.( [ ' / 7.O.+.O.O.+.O.+.+.O.+.O.O.+.O.+.O.O.O.O.+.+.O.+.O.8._ / 7.( ( r.N.7.` u.3./ 8.8.+.+.+.+.+.+.+.#.+.+.+.#.+.+.8.8.+.+.O.O.+.+.r.8.( [ O._ O.N.f.( } O./ / O.O.O.O._ ( / y 6 l / ( ( ( _ O.O.O._ _ O.7.O.O.7.' / 5._ ( O.} ( / O.,.T ] 8.O.' _ [ _ [ _ ( / P L G k / _ / P P ( _ P ( _ Z Z ` ` D P [ _ D ~ ` Z ~ _ / P P T ( ( ( [ ( / _ O.[ } O.} } [ O.} _ ( ) [ ` P _ _ / ( +.[ R ( ` Z ( O...O.O._ { ...._ O.O.O._ _ _ O._ O.O.",
"O.O.O.} [ [ } O.[ O.[ O.} } O.[ Z ) O.P / O.7./ [ u./ / O.+.O.[ [ [ O.+.O.O.O.+.O.O.7.+.+.7.7.8.8.7.O.[ O. .R 7.9./ / ,.,.( [ d.( ~ O.+.O.+.[ _ ( [ [ } O.[ } O.O.O.O.O.+.+.O.7.8.7.u.u.] R O.u.` / ,._ / } 8./ ) 7.O.+.+.+.+.O.O.O.+.#.+.O.+.+.+.O.+.O.O.O.+.O.+.O./ D O.8./ ` [ ` / 7.u.P ( 7.[ O.O.O.O.O.O.O./ k V Z Z P / / ( ( _ ..O.O.O.+.O.P ( p. .( O.[ [ ( 8./ K _ [ ( [ O.8.O.8.O._ ' O.+.} _ } O.+.O.O.O.O.O.{ _ O._ P 7.O.( [ [ ( } r.[ D +.+.O.#.+.O.O.+.+.#.+.O.O.+.+.+.+.O.+.8.+.@.+.O.O.@.( ( +.7.( [ O./ _ 8.' P ) [ _ _ [ O.O.O.O.O.[ O.O.+.+.8.O.} [ +.+.O.+.+.+.8./ ` u.O.` 7.d._ _ d.[ ` 7.t.#.t.8.+.O.+.+.t.8.r.N.N.t.r.r.#.+.#.+.+.+.+.O.+.( P } [ ~ ( 8.[ ( 8.9./ } 8.O.8.r.8.8.#.+.+.#.#.+.+.+.+.8.O.8.+.+.+.+.O.O.O.[ ` 7.z.` ] 9._ ( d.8./ ` 8.O.+.8.#.8.8.#.8.8.+.+.+.#.#.r.#.t.#.8.#.8.8.8.8.f.[ ) 8.8.( O.[ ( ( 8.[ / O.7.O.+.+.8.+.+.+.O.O.+.O.+.+.+.O.O.O.@.O.+.+.+.O.8._ ( r.8.' O.7.) } |.O.( 8.#.#.+.+.#.#.O.#.8.+.+.+.#.+.9.+.+.O.O.| +.+.+.t.8.( O.8.} _ 7.[ ( +.+./ ( O.O.O.O.( ( ) l 2 G [ ( ( _ O.+.O._ _ [ O.O.O.O.7.` ` 7.O.( ( / ( [ 8.O.P _ 8.O.[ [ [ [ _ ( ( / n d k ' O.( P / / ( ) R ( ( P J ` [ ( P ( / ~ _ [ K / _ / P / ' ( / _ ( _ ` [ O.O.+.+.} O.[ O.[ _ ( _ O._ P } O./ / [ / ~ O.[ P _ O.O.O.O._ O.O.....O.O._ ( _ O.X.O.O.O.",
"O.O.} O._ O.} [ } [ O.} } } { [ Z / [ } ( ) R _ +.7.` / O.O.} [ ( [ O.O.O.+.O.O.O.O.O.7.7.7.7.8.7.O.[ O.7.[ R [ 8.7.) ` ` [ 7.7./ / } O.} [ _ [ [ [ O.O.[ O.} [ O.O.} O.+.O.+.O.7.O.O.7.` T [ 8.O./ P ` } O.O.` ( O.O.O.+.+.O.O._ O.+.O.+.O.O.O.O.O.O.O.O.O.O.+.O.} / J } r.} ` R / 7.7.[ T / 7.O.} O.O.O.O.} } ] z j U P A ~ ( _ _ O.{ O.O.O...O.P / 7.+._ / / O._ O._ Z _ _ ( [ } +.+.+.} _ / [ } _ } O.O.O.O.O.O.+.{ O.O.O.( / O.+.+._ / O.O.+.[ D O.+.+.O.+.O.O.O.+.+.+.+.O.+.+.O.+.#.+.#.O.O.O.+.O.+.` / O.+.O._ ( _ } } ` D _ O.( [ [ [ O.O.} } [ [ O.+.O.O.O.O.} } O.+.+.O.O.+./ / 7.8.O.[ ] [ 8.8.[ ` 7.t.#.8.8.8.+.O.+.8.8.#.#.#.r.r.+.+.+.+.+.O.+.O...O.( P _ } _ / ` ( O.8.,./ [ 8.+.+.8.t.+.+.#.O.+.+.#.+.+.+.+.#.O.O.+.+.O.} } O.[ E [ d.7.] ' ` 8.7.7.` / d.O.O.+.8.8.+.#.+.7.+.+.+.#.+.+.8.+.8.+.O.8.8.+.+.u.] ` 8.r.+._ P [ O.+.[ / O.O.[ O.O.+.+.O.O.+.} O.+.+.O.O.O.+.O.+.+.O.O.O.O.8.` ( +.8.7.[ / 3.r.r.[ / 7.#.+.8.+.+.+.8.+.8.+.#.+.+.+.+.O.O.[ O.O.O.+.+.+.7.( _ +.r.} ` ( 7.O.[ ( ( O.O.[ [ _ ( ( I 8 z ( ( ( _ } } _ ( _ O.} [ O.O.O.` ` } } O.( ~ [ O.O.} P ( 7.} O.} _ ( _ ( ~ J z J ] O.[ ( R P ( T P P P ` T Z / [ ( _ P J ` } ' U / _ ( _ O._ ( ( ( / _ ( ( } +.O.O.O.O.[ _ ] [ [ [ _ ] P ( } _ ~ / P _ _ _ T ( [ { _ _ ( ( } ..{ ..( ( ( } _ O.O.O.[ ",
"O.O.O.O.} O.} O.[ _ [ _ O.O.O.O.P ` ( { O.[ ` O.} [ ` / O.O.O.O.} O.O.O.+.+.+.+.O.+.8.+.7.8.8.7.O.[ } +.8.O./  .7.+.7.[ _ 8.O.[ / / O.O.} } [ O.O.} O.O.O.+.O.[ | O.O.+.+.8.+.O.O.O.O.7.] / ] O.+.} ) 7.+.} O.` ) 7.O.O.O.+.O.[ _ O.+.+.O.O.O.O.O.O.O.O.+.O.+.O.[ [ ) P [ +.O.[ _ [ 7.[ ] T ( 8.O.O.O.O.[ O.O.O.O.J j U ( / ( ( _ O.O.O.O.O.O...+./ ) 7.[ ( O.} | ( O.[ P _ } O.} [ O.+.} [ } [ O.' _ +.+._ O.} O.O.+.O.O.O.+.[ / O.O.+.+.O.8.+.O.( D O.+.O.+.+.+.....+.#.#.o.+.o.o.#.O.+.O.O.O.O.+.#.+.8._ ( O.O.O.+.O.r.} _ ` P _ O.} O.[ } O.O.} O.} 3.7.7.8.r.+.8.+.+.+.+.+.O.O.+./ ' 7.+.8.7.[ u.r.O.7.` 7.Y.8.8.r.f.8.#.+.8.r.#.+.r.t.#.+.O.+.+.+.+.+.O.O.+.( / _ _ .._ ( O.8.O.[ ` } r.+.+.7.+.+.#.#.#.+.#.#.O.O.+.O.O.O.O.+.+.+.O.O.O.[ ` [ 7.+.7.[ 7.8.} O.` ( f.+.+.+.+.8.#.#.+.+.8.8.+.+.+.#.+.+.8.+.#.8.+.8.+.u.] ) 7.O.O.+.[ O.O.O.} / } O.+.O.O.+.+.+.+.+.O.+.O.+.+.O.+.+.O.O.O.O.} +.O.8._ ` +.O.O.7.O.d.8.O.] / 7.#.+.8.+.+.+.+.+.r.r.#.+.+.+.8.+.O.O.8.+.+.8.+.8.+.( [ O.t.r.} 7.N.O._ _ ( O.O.| ( _ ` ( T j K [ ( ( | } ( _ O.O.O.O.O.O.O.O._ ' [ ( } } _ O.} } [ R ` 7.O.O.} } _ ( / P P _ +.7.[ [ _ ( ( _ / P P / [ ` J R ( ( [ ` / O.[ ` P ' } _ ..O.} O.( ( ( [ _ ` ( [ _ [ _ _ ( _ [ 7.} O.} [ P _ [ O._ ( [ +.( ` / ( _ _ ( ( _ _ ( O.{ } _ ( _ _ _ _ O..._ ",
"} O.{ } O.} O.} _ _ ( [ [ _ O.O.P ( _ / _ 7.7.| / [ ` T [ O.} O.O.O.} O.O.+.8.7._ _ 8.8.+.8.8.7.O.} 7.O.8.O./  .7.( } 7.O.O.( _ / ~ O.} } O.O.} } } } O.O.O.O.O.[ O.O.O.+.8.O.O.} O.O.7.] T [ [ _ O.8.O.( _ } ~ ' 8.} O.O.O.O.} } } O.O._ ( _ O.O.O.+.O.O.O.O.} [ [ ` P _ [ ( O.8.} ` ` ] P ` d.} O.O.[ [ O.O.O.O.( k V ( ( ( ( _ _ O.+.+.O...O.O./ ` 7.( ( 8.+.) / [ ( D _ O.O.+.O.O.[ O._ _ O.O.` ~ [ } } [ [ O.{ O.+.....+.( / O.( ( #.#.O.( [ ( D O.+.O.+.+.O...{ ..+.+.+.+.+.#.+...O.O.+.O.+.+.+.+.8.' / O.[ [ +.+.+.( ( _ ~ _ [ } O.} } [ O.O._ } 7.' / 3.8.+.8.+.+.O.O.O.O.O.O.` ' 7.[ [ 8.8.9.[ [ 7.` 7.f.#.t.r.8.r.r.+.#.#.+.#.8.r.+.O.O.O.+.+.+.+.O.O.+.( / _ ( ( } O.O.| _ 3.` [ 8.+.+.O.O.+.+.+.O.#.#.[ ( _ +.O.O.+.O.O.O.+.O...+.[ / ,.O.( 7.8.7.[ ` 7.( / d.+.+.+.O.+.+.+.+.+.+.O.O.+.+.+.+.+.+.8.8.7.7.7.8.8.] ` 7._ ( +.+.{ ( _ [ P } 8.O.+.O.O.O.+.O.O.+.+._ _ O.+.O.O.O.O.} O.O.{ O.+.` / O.[ ( 7.d.d._ [ [ / 7.#.+.+.+.+.O.+.#.+.8.+.+.#.+.+.+.8.+.O.O.8.8.+.8.8.( } [ [ O.8.r.O.( [ [ ( O.+.O.[ _ / P / y 6 T _ ( _ _ _ _ O.O.} O.O._ [ O.` ' 7./ / } } ` T ( [ R / 7.7.[ _ [ _ T x T O.O.O.} O._ / ( _ ( _ _ ( ( _ ` P T ( D / } } ' / ' T / [ _ _ _ O._ ( ' / ( ] / P / _ _ / ( _ } } } [ [ +.[ P ' ( [ _ } } [ P ' P / } _ { O._ _ _ _ } O._ { _ _ _ O._ _ [ ",
"} O.O.} } } O.} O._ [ O.[ } +.O.P _ _ R / +.+._ / [ ) R [ O.} O.O.O.O.+.+.+.9.[ ` ' [ 8.8.8.8.8.O.7.8.O.8.O./  .7./ ` 7.8.[ R [ ' / O.O.} O.O.+.O.[ } +.+.O.O.O.O.O.+.O.8.+.O.O.O.7.+.7.] R ,.[ R _ r.O./ _ 7./ ' 8.O.O.+.O.O.+.O.O.+.[ ( / ` [ +.+.+.+.O.O.O.O.+.7.) D [ _ P } d._ T ` [ R ` d.O.O.+.O.O.O.+.O.O.O.T Z ( ( ( ( [ ( _ O.O.O.} O.O./ ) 7./ / +.+.) / _ _ D O.#.O.#.+.O.O.+._ [ ` ` / / E ] } _ } O.O.O.O...O.O.( / +.( R O.#.| ( O.[ D O.+.+.#.+.#.+.....+.+.#.+.#.#.O.{ +.+.#.+.#.+.+.+.8.) / O._ ( +.t.} / _ } ( [ O.O.O.O.} [ O.O.} 7.3.` E ' 7.8.O.[ } O.+.+.+.+.O.` ] 9._ ` u.u.,.`  .7.( 7.Y.t.t.r.f.t.#.+.O.+.r.#.#.#.O.O.+.O.O.+.+.+.O.O.+.( / [ / / [ 8.O.( _ 7.` [ r.+.+.O.O.O.O.+.+.#.O.( ` ` [ +.#.#.+.O.+.8.+.O.#. ./ ,.7./ [ u.7.) ` 7._ ( f.#.r.+.+.8.+.+.+.+.O.[ O.8.+.#.+.+.+.8.8.u.7.7.8.u.] ` O.) / O.#._ / ( [ / O.8.+.8.O.O.O.+.O.8.+.[ ' ] ] +.O.O.+.O.O.#.O.O.O.+.( ( O.[ / [ 8.7.` [ [ / 8.r.+.#.r.8.+.+.+.#.#.r.#.#.+.+.8.#.+.+.+.8.8.8.8.+.( O.} ( _ 8.O._ ( } [ ( +.8.+.O.[ ( / ) y . p 5.( ( ( } O.O.O.O.O.O..._ O.( _ 7.( / ` _ / J / O./ / 7.O.} } _ U z J _ O._ _ } _ / / ( [ _ ( [ [ _ ( ) P ` ) D P [ O./ T ] T ` } _ _ [ [ _ [ _ / _ ) ` T / 7.O.( _ _ O.} } [ [ [ _ / _ / ( _ +._ P T ] P / } { ..O.O.O._ _ _ { { ..{ _ O.O.{ O._ ",
"} } O._ _ } _ O.} } } [ O.O.} _ D ` _ / P ] [ / / [ ` T [ } } [ [ O.} O.+.8.[ ' ] :.' 7.8.8.8.8.8.O.+.+.O.[ / [ 7./ E ] 3.` P ,.' ~ O.+._ } } O.O.[ _ O.+.O.[ [ } O.+.+.+.+.O.O.8.O.+.8.] T ,.[ R / [ _ T ] } / ` 7.O.O.O.+.O.O.O.O.} / / ` / ` O.8.O.+.+.+.+.+.#.8.( S ) ) P ` [ ` T ` ] T / 8.O.+.} O.+.O.O.O.O.O.[ D P ( ( ( _ ( ( ( [ [ O.[ [ / ) [ / R ] [ / ( _ ( / } O.+.O.O.+.O.O.+.[ ^ T / / T / ` O.} } O.{ _ ..{ +._ / O.( R ` [ ( / } [ D } +.#.+.o.+.+.O.....+.+.O.+.+.O.O.+.+.O.O.+.8.8.O.+.` ( [ _ E _ 7._ / } } / [ O.} [ } O.[ } [ O.O.' E ` ` ' [ } _ _ } 8.+.O.+.8./ ` 7._ / 3.7.] ` ,.O.( O.Y.r.8.r.r.r.#.+.O.+.+.#.+.O.O.+.O.O.O.O.O.O.O.O.O.( / [ / P ` [ _ / ] 7.` [ r.O.+.+.O.+.O.O.#.O.( ` ` ` ` O.#.+.+.#.+.O.O.O.+.} / ,.5./ ` ,.[ ` ' 7.' ( Y.r.+.8.7.+.+.+.O.+.O.[ O.8.+.+.+.8.+.+.8.u.d.u.7.9.] ` [ ( T ` [ / / _ _ / O.+.+.O.O.O.O.O.+.8.[ / ' ' ' [ +.O.O.+.O.O.#.#.O.O./ ( } [ / ` 7.] `  .[ / O.+.#.#.+.r.8.#.#.t.#.#.+.+.#.8.+.+.+.+.+.+.r.8.+.O.( [ O.` ` ] ] ` ( } ] _ O.+.+.+.O.[ ( / I o ; T / P T _ O.} O.+.O.[ _ O.O./ ' O._ / P E T J / [ T T O.} } } T g z ] [ ( ( ( ` P P / ( / ( _ ( ( ( } _ P / ] P J T ` P R ' P / [ ( _ _ ( } ( _ [ _ / E T T ' [ } ( ' } } O.[ ( [ ( T ] / T / [ / P / ] P / _ O._ { O.{ O.{ _ { { _ { ..{ O...{ ( ",
"} O.O._ } } } } } O.} } [ _ O._ D _ _ / P / / / / [ _ T [ [ } O.O.O.O.O.+.[ ' ] ] :.:.[ 7.8.8.8.+.+.+.+.+.O./  .7.` / ` ] ` / 7.' ~ O.+.} +.O.O.O.[ [ O.O.[ [ O.[ [ O.8.8.+.O.+.8.7.+.8.] R ,.,./ / ' ' / ] 3./ ' 8.O.} O.+.O.} O.+._ ~ ` ) ' / _ 7.+.+.+.+.#.+.+.+.` P ) _ P P ` / / ` ] R ` 8.O.O.O.O.O.O.+.+.+.O.+.( D [ [ ( ( ( ( [ [ } O.O.[ / ) ,.` R ` ` ( ( _ _ / O.+.O.} O.+.O.+.#._ / ` T / T ` ` [ O.} } } O.O...+.[ ( +._ R ` ( / / } [ ~ } O.X.O.#.+.+.o.+.+.+.+.X.O.#.+.O.O.+.O.+.7.8.+.O.8.' ` 7.[ / ` ] ' ` 7.3./ [ +.O.[ O.+.} _ } O._ ` ` ' ` ' ] 7.O.+.8.8.#.O.+.8.` ` 7.] / ] ] ] ' [ 7._ O.t.#.t.f.8.8.#.8.+.+.+.#.+.O.+.+.+.+.O.{ { +.#.+.O.( R [ ) T R ` / ` ] 7.` [ r.+.+.#.8.+.O.#.+.[ ` _ ) ` ` ) } #.#.+.+.O.} +.+.O./ 5.7.` ` :.` ` ` 7._ ( Y.r.r.t.r.8.+.+.O.+.+.} +.7.+.#.+.7.+.8.7.8.u.7.8.9.] ) } ` R / / / / [ _ / O.+.+.O.+.+.+.+.8.} ` ' ' ] ' ] } +.O.+.+.+.+.#.O.+.( ` O.[ / ` ] ] `  .[ / +.r.#.#.#.+.#.t.r.#.+.+.+.+.+.8.8.+.+.r.8.+.+.O.+.+.( O.O._ ` ] ] ' ( } [ _ +.#.+.+.+.O.[ ( _ n ; w P J K / _ O.+.O.} [ [ O.O.' _ O._ T U T P T / ' T ~ O.O.[ ' P J ' O._ _ _ ( / J P [ ( / ` ( _ ( ( [ _ P / [ R K P E T / ` P ( _ ( _ _ } O._ O.O.) T ` E E T ' _ _ _ [ _ } _ _ O._ T [ ` R E ' / / ` ] T ( } ..{ O.O.O._ { { { _ _ _ ..{ ..O...( ",
"_ O.{ _ _ } } _ } } } } _ _ } ( D _ _ P L P U / ~ ] _ P _ O.} O.O.} +.7.] ' ' ] ' :.:.] ` 7.8.+.O.+.O.O.8.O./ [ ,.` / ` / / / ,.' / O.O.O.+.+.O.[ [ [ } [ 7.[ [ [ [ _ O.8.+.+.O.7.8.O.7.' E ,.] E E E E / ` 3./ ` 7.} } O.O.O.+.O.( / ` ` / ` ] ` _ 7.+.O.O.O.+.O.O.` P _ _ U T T T E T ' / / 7.[ } O.} O.O.+.O.O.O.O._ P T [ ( ( ( ( _ } [ } O.[ T ` ,./ T R T / / ' [ / } O.{ O.[ } +.#._ _ ` ` / T / ' ` ( [ O.{ O.} O.+.O.[ ) O.( R / T / P ( [ D [ O...+.+.+.+.+.+.+.+.O.X.+.#.#.O.+.O.+.+.+.+.+.+.8.' / 7._ / ` ` ] ` [ 3./ [ O.} O.O.O.O.O.} ' / ' ` ` ' ' / ] 7.8.+.+.+.O.+.7.` ` 7.' / ` ` ' ' ] 7._ O.r.#.8.8.8.+.8.r.+.+.+.+.+.+.O.+.+.#.+.} O.+.+.O.+./ R [ ` P T T E ` ' ,.` [ 8.#.#.8.+.#.#.#.[ _ _ _ ` ] ' ` ` O.+.O.} [ [ O.#.O./ ,.3.` ` ` ` ` ` 7._ / d.+.r.8.r.#.O.O.+.+.O.+.O.+.+.8.+.+.+.8.O.O.O.8.7.7.` ] 7./ R T T / T ` [ / } +.O.+.O.O.+.r.[ ' ] ] ` ' ] ] ` [ +.+.O.+.O.O.O.+.( / O.) / ` / ] ` ] [ / O.+.+.#.+.+.#.r.#.O.O.+.+.O.O.8.+.+.+.8.+.+.O.O.+.O.( [ O.` / ' / ` ` [ [ ( O.#.+.+.+.} O.[ [ U : ; n U I U / ( } [ ( _ [ _ } ' ' [ / ~ U J U J T [ E T 3.O._ / _ [ [ _ [ [ ( / R U T / ` / T / _ _ _ ( _ R ( _ P K L U R P / T / _ ( ( [ } _ O.7._ R ` ` T T E / / [ } [ _ _ ( [ } _ T ' / ` ^ E T ` / ] ~ / O._ O.O.{ { _ { _ { _ _ _ _ _ { { _ ( ",
"} } O._ ( } } } } [ O.} } } } _ P _ ` K L E P E R ` ` T [ +.O.+.+.+.7.[ ' :.] ] ] :.] :.' ] O.8.+.O.O.+.8.O./  . .` / ` ` / R 5.` / O.+.O.O.O.O.O.O.} O.O.O.O.O.O.O.[ O.O.8.8.O.7.+.O.8.] / ,.` E E E E / ' 3.` _ 7.} O.O.} +.+.[ / ` _ ` ` ` ] ] _ [ +.+.} O.+.+.+._ P _ _ P L T E E E ) R ( 7.[ O.+.O.O.O.O.O.O.+.O.O.( k Z / ( ( } [ O.O._ O.O./ ] [ T P T P / / ( [ / _ { ..O.[ O.O.[ ( ' _ ) / / ` ] ` _ ( O.+.+.O.+.+.+._ ( O.( R / R R P _ [ D [ O.O.+.O.o.+.+.o.#.+.O.O.#.+.#.#.+.O.#.+.#.+.+.+.r.] ` O._ ` ' ` ] ` ] 3./ O.O.O.+.O.O.+.+._ ` ' ` ` ` ' ' ' ' [ 8.8.#.O.O.#.8.` _ 7.' E ` ` ' ` [ 7.) O.f.+.+.+.+.#.8.#.+.#.+.+.#.+.+.+.+.#.+.O.#.#.O.O.O.( / [ / P T T E ` ] ,.` [ r.#.#.r.#.t.#.O.] ] ] [ ] ] ` ' ] ] } 7.O.+.O.O.#.O./ 7.7.` E ` ` ` ` 7.` / r.#.#.r.#.r.O.+.+.#.+.+.+.7.+.+.+.r.8.7.O.+.+.8.+.7.` [ 7./ / R T / T _ [ / O.O.+.+.+.+.8.O.] [ [ _ ' ' ' ] ] _ [ +.+.+.O.+.O.+.) (  .) R ` ` ] ` ] [ / O.+.O.#.+.r.+.#.#.O.+.8.+.+.+.O.+.8.+.8.+.+.O.+.8.O.( [  ./ / ' ` ` ( [ [ _ +.#.O.@.+.O.O.O./ n < : b E P P T / [ } [ _ ( _ O.' ` _ ~ / U I I J T T n j n J ' [ } } O.} [ _ ( [ U J P T T P ~ _ } [ [ _ _ / _ ) P P P P T U / P / O._ ( _ _ O.O._ / / ` ` T T T ' ' _ _ 7.O._ _ O.O.[ / [ ` / / E T ` ` ,.T ` } O.} O.[ _ } O._ { { O._ [ _ { ( ( _ ",
"} } } [ _ _ } } _ } _ } } _ } ( P ) T J U T T T P ` / T [ O.+.O.+.8.[ ' ] ] ] ] ] :.;.:.:.' ` 7.+.O.O.O.+.O./ [ [ / / ` ` E T ,./ P 7.O.[ [ } O.O.O.O.O.O.O.O.O.[ O.7.O.O.O.O.8.O.O.+.7.' E ] ' T E ` T T ] 3./ _ 7.} } O.+.+._ / ` ` ` ` / / ' ] ] _ [ 7.+.O.O.+.+.` P _ _ P P E T T E ] P / 7.O.O.O.O.[ [ } O.+.O.O.O._ Z Z ( _ ( _ _ } O.O.} [ T ` ) P U T U P T ( _ P _ O.{ } O.+._ / ` _ ` ` / / ` ` ] _ ` _ O.r.+.O.+.+._ ( O./ T / R R P ( ( D [ +.O.O.+.O.+.+.+.#.+.+.+.O.#.+.+.+.#.r.+.+.+.#.+.8.] ` [ ` / ] ' ` E :.] / [ O.+.O.O.8.+.] ` ' ` / ` ' ` ' ' ' / ] 7.#.O.O.#.#.( ` 7.` E ` ;.` ` [ [ ( O.8.+.+.O.O.8.+.+.+.+.+.+.+.8.+.O.O.O.O.+.O.#.+.O.O.( R ] / U T E / / ] ,./ _ 8.+.+.r.t.8.[ _ [ [ ] [ [ ] ] ] ] ` ] 7.8.8.+.+.+.[ ` ,.,.E E ;.;.E ` 7./ / d.#.+.+.+.8.+.+.O.+.+.O.O.+.+.O.O.#.+.O.O.8.+.O.+.7./ _ 7./ / / T T / _ _ ( O.+.7.O.+.r.} ' _ [ ' ] _ ` ` ] ] ] ` [ +.+.O.+.+.O._ ( [ ` T ` ' ` / ] [ R } +.O.+.8.+.8.#.+.+.+.O.+.+.O.O.+.#.8.+.O.+.8.O.8.8./ [ [ / / ' ' / ` 3.] _ 8.8.+.+.+.8.O./ J b c e G U U T U P / _ O.} _ _ O.` T ' T U I J n G n 9 9 j J ^ [ } _ _ [ } _ ( ( ( / P / ' ~ ( [ _ _ ( } } ( P / / K P T P K P / P / } ( ( ( [  ./ ~ / ` / E T L T ` ' ] ` [ } } ( _ O.] T [ ` T T ` T T ' :.T ` [ } } _ _ _ { } _ _ } { } [ ( ( ( ( _ ",
"} } } O.} _ ( _ } } [ } } { O.( S ) / P P T T E T ` ` / O.+.+.+.8.[ ` ' ] [ ] :.] :.:.,.,.:.' ] 7.8.O.O.#.O./ [ [ ` E ` ` E E 7./ / 7.8.O.O.O.8.+.+.+.O.7.7.[ [ [ O.+.7.O.O.} O.O.7.+.8.` R ] ` E E E E E ] 7.` _ 8.O.O.+.O.) / ` _ ) / / / ] ] ] [ ,.] [ O.8.8.8.8._ P _ _ P P / E P R ] / / 7.+.+.+.O.} O.O.+.#.+.+.O.O.( ( [ _ ( _ _ [ O.O.O.[ P T ` P T E P P P ` _ D [ +.} +.+.[ / ` ` _ ` ` / / ' ] ' ] ' _ _ 7.t.+.+.+._ ( [ / R / T R R ( ( D O.+.+.O.+.+.+.#.+.+.#.#.O.+.+.+.+.r.#.#.+.O.+.r.+.8._ ` 7.` / :.' ;.E ,.[ / O.#.+.O.8.+._ ` ] ] ` ` ` ] ' ' ] ] ` ` ] 7.8.+.+.#.( _ 7.] ` ;.:.;.` ,.,.) 7.8.8.8.+.8.8.8.+.+.+.+.+.+.#.+.+.O.O.O.+.O.+.O.O.+./ / [ ` U T ` / E ] 5.` [ 8.#.#.t.7.[ ' ] [ [ ] ] ] ] ,.] ] ] ] ] O.d.r.+.#. .` 7.] E ` ;.;.E ] 7.` / d.r.+.+.+.r.r.+.+.+.+.+.O.+.O.O.O.O.O.+.+.#.+.+.+.8.` _ O./ ` ` / R / [ [ ( O.8.8.8.8.} ( ' _ _ ] ' ` ' ` ] ] [ ] ] [ 8.+.#.+.#._ )  .` R ` ' ` E ] [ / } #.#.+.+.+.+.+.+.#.+.+.O.O.O.+.+.7.9.+.+.8.8.7.r.7.` [ [ ` ` ' ] ` ` 7.] _ 8.8.#.7.8.7./ P U U J k l G L I T R T ` [ O.O.} O./ P _ / I J I G y 9 e J ' [ [ } } } [ [ [ _ [ [ _ [ _ [ _ ( _ } [ } _ _ _ ( P / / P P R U K T ` R ( } ( _ } [ ` R / / ` / ` T U E ` ' [ ] _ _ O.} } +.] / [ ` T ` ;.T T / ,./ [ [ ( ( ( _ O._ } } _ _ O._ ( ( ( ( } _ ",
"_ _ { } _ ( ( _ { } _ _ ( _ _ / Z ` ' U K T ^ P / [ ` ~ } O.+.8.[ / ' ] ] ] :.:.:.:.,.,.:.:.:.' ` 7.8.+.+.O./ _ 7.' T ;.` T / 9./ T 9.O.} O.O.O.+.7.O.+.7.7.[ _ [ } O.+.O.O.[ [ 7.O.O.8.` T [ ` E E E E T :.7./ ) 7.O.+.O.( / ` ' ` ` ` ` ` ] ] ] ] [ ,.] ) 7.u.8.7.) P _ _ P P E E P R [ T / O.[ O.O.O.O.} O.+.O.+.O.O.O._ / / ( _ ( ( } } O.O._ U / ` P L T U L K ' ' D ( O.O.8._ ` ` _ ` ` ] ` ` _ ` ' ' ] ] _ ` _ 8.8.O.7._ / [ / P T R P R [ ( D O.O.O.O.O.#.+.O...O.+.+.+.O.O.O.+.+.+.+.O.O.8.+.+.8.` ( 7.` ` ` :.` E 7.[ ~ O.+.O.r.O._ _ ] ] ' ' ' ` ' ] ] ' ' ] ` / ] 9.8.+.8.` ` 7.] ` ;.:.' ` 5.[ / O.d.+.8.r.+.O.+.8.8.+.+.+.8.+.+.O.O.O.O.O.O.O.O.+.O.( ~ [ ` T T ` ` R ] 7.` ] 8.+.t.8._ ` ] ] ] ] [ ] :.,.] ,.] ] ] ] _ 7.d.+.8.O./ [ ,./ T ;.;.T ] 7./ ` d.+.8.+.+.+.8.8.+.+.+.O.O.O.O.O.O.O.O.O.+.+.+.+.+.7.` ( [ / / ` / R / O.} / O.8.8.r.} ` ' _ ` ` ' ` / ' ] ] ] ] [ ] ` [ 8.+.#.#._ ( } ) R / ' ` R [ [ P } +.O.+.O.O.O.O.+.+.+.O.} O.O.O.O.+.O.O.+.O.+.+.8.7./ [ 7./ ^ ` ' / ' 7._ _ 7.t.8.u.7.` T ` ` T I n 7 6 n K J U T T / _ O.} } ~ K / T I n n c 0 n U / _ } } _ _ O.O.} ( ( [ _ / ( _ ( / ( / ( ( [ _ ( ( ( P P P P U P P Z / ] P / O.[ } O.` T E ` / / / ` T E T E ' ] [ _ ( [ O.} O.` T [ ` T ` ` T U ' ] T ' } ( ( _ _ { O.O._ [ _ _ _ _ ( _ _ [ [ ",
"_ [ ( ( ( ( _ } _ { } _ _ { } ' Z _ [ ~ P T / P ' 7.] / } 8.7.[ ` ' ' _ ] ] ] ,.:.:.,.,.:.:.:.] ` ] 7.O.8.7./ [ 9.] E ` ;.T [ z./ / 7.8.O.7.O.O.+.O.7.7.7.7. ._ O.O.O.O.O.O.O.O.7.O.O.8.` / 3.] E E E E / 3.8.` ( +.+.O._ / ` _ _ ' ) _ ] ] ] ] [ ] ,.,.[ [ [ [ O.O._ / [ [ R P E E R ) ,.T / O.[ _ [ O.+.O.O.+.+.O.O.O.O.O.` V / _ ( _ } _ O.O._ T ` [ / K T P L P _ [ S ( +.} [ ` _ _ _ ` ` ' ] ] [ ' ] ] ] ] ] ] ] [ O.+.8.[ / O.[ P T T P / O.( D O.O.O.+.O.+.O.O.} #.+.#.#.+.O.+.O.+.+.+.O.8.r.+.+.8._ ` 7.) ` ;.;.` ) u.3./ O.+.#.O._ ` ] [ ] ] ] ] ` ' ] [ ] ] ) ] ' ` ] O.r.d._ _ 9.,.` ;.:.] ] 7.O.` 7.f.8.8.8.8.#.8.8.+.+.+.+.+.+.+.O.O.O.O.+.O.O.O.O.+.` / 7.[ E E ` ` ` 7.7.' [ 8.8.7.[ ] ] [ [ ] ] ] [ ,.,.[ ,.:.] ] ] ] ] O.8.t.7./ 7.7.` T ;.` / 5.9./ ' f.+.#.O.O.+.+.8.+.+.+.O.O.+.O.+.O.+.O.+.+.#.#.+.+.7.` ( 7.) R ' ` / _ 7.} ( O.8.8.[ _ ] _ _ ` ` ` ` ` ' ' [ ] ] ] ] ] [ [ +.#.#._ ( O.[ R / ' ` / 5. ./ O.+.#.r.#.+.O.+.+.+.+.O.O.+.O.O.O.O.[ } +.+.+.+.8.8./ [ 9.' / ' ' / [ 7._ _ 8.t.8.7.] ' ' ' ` T T Y 1 = b T K P E T T / ` _ O.` ^ ' / U M a y I ] T T } } O._ _  ._ ' ( [ _ / / ( _ _ ( ( / / ( _ ( ( [ _ / ( / P P P P P _ 7.P / O.O._ ` / ` ` ` / ` ` ` ` ' E ` ] ] ] ] ] _ [ O.O.' / 7._ / ` ;.T T 3.,.T [ O._ O.O._ { O.O.O.O._ _ _ _ _ O.[ O.O.",
"} } _ _ ( _ _ _ _ _ _ _ _ ( } _ Z ' } _ P T U / } 7.` ~ 7.7._ / E ] ' ] ] ] :.:.,.] ] :.,.:.] ' ' ' ` [ 7.7./ ] 9.7.` ` E ' 7.z./ / 7.7.O.O.} } } O.O.O.7.O.} O.O.O.O.} [ } 7.7.} O.O.7.] P 7.8.` T E P ` 8.8./ ` O.O._ / ` _ ` ) _ _ ` ] ] ] ] ] ] ] ] ,.[ ] ` _ 7.[ P _ 7.` K E E R 5.[ P / 7.[ _ O.[ } O.O.{ O.} O.} O.+.[ J l T _ ( [ } _ } [ P / 7.) J P I K _ [ _ S ' _ ( ` ` ] ` _ ' ` ` _ ] ' [ [ _ ] ' ] ] ] ] [ 7.7.[ R O.O.R P P P ( } ( D O.+.O.O.O.O.O.+.+.O.+.r.#.O.O.O.+.+.O.O.O.8.r.#.O.7.] / 7. .E ` ;./ O.f.[ T } 8.+.) ` ] ] ] [ [ ] ] ` ` ` ] ] ] ` ' ' ' ' _ 7.u.] ` 9.7.` ] :.' O.u.[ ` 7.r.8.8.+.8.8.r.7.+.O.+.+.O.O.O.O.O.O.O.O.O.O.| O.7.` T 7.7.` T ` E ] u.7./ [ d.7.O.] ,.,.] ] ] ] ] [ [ ] ,.[ ] ,.] ] ] ' ' +.d.7.` [ 8.[ E ` ` ` 7.9./ / d.+.+.+.O.+.O.+.+.+.+.+.} O.O.{ O.O.+.O.O.+.+.+.O.8.' ( 7.[ R ` ` / O.+.} / O.O.[ _ _ [ _ _ _ ' ` ] ` ` ' ] ] ] ] ] :.:.] [ O.8._ ( O.7./ E ' E ] 7.[ T O.#.#.r.t.#.+.O.+.+.O.+.+.+.O.+.O.[ [ O.O.+.O.O.8.8./ _ 8.7./ ` ` ` O.7.` _ u.7.[ ] ] ] ' ` ` ` T U w X q U J K T T U T T / 7./ ~ [ ` U m i n ' [ U U O._ ( [ ( / ( / P _ ` P ( _ ( ( _ ( / ( / / ( _ ( ( ~ ( [ P D R J R } [ P / [ ` ` / ` ] ` ` ` ' ` ' ] ` ' / ] ] ` ] ] ' ' } O._ / } O._ T E T ] 3.,.T _ O.....O.O...{ ..O.O.O..._ } _ _ O.+.[ ",
"} O.} { _ } { _ _ _ ( } { _ O._ Z ' } O.~ P P [ +.O.` / 7.] T ` ' ] ' ] ] ,.:.:.] :.:.,.,.,.] ] ' ' ` ) O.7.` [ 7.d.} / / 7.8.8./ ` 9.+.O.[ _ [ O.O.O.O.7.O.[ O.O.O.O.O.O.O.O.7.O.O.O.u.] T O.d.} / T T [ f.8./ ` 7.[ ` ) _ ] ` _ _ _ ) ] ] [ ] ) ] ,.,.,.] ] ` _ 9.7.R [ u. .P E E ` 7.[ S R 7.[ O.O.[ [ ( _ O.O.} O.} +.O.8.] k J [ ( _ _ _ O.O.T / 7.[ R L L / O.O.` P _ _ ( ` ` _ ` ` ` ) _ [ ] _ ' ] [ ] ] ] ] [ ] [ O.u.O./ O.+.[ P K / O.O.( P O.+.O.O.} O.+.r.O.O.+.r.#.O.O.+.O.O.O.} +.9.7.+.+.8.) R 7.9.` ` ` ] 8.f.[ R O.8.[ ` ] ] ] ] [ [ [ ] ` ` ` ` ` ' ' ' ' ' ] ` O.d.[ ' 9.c.[ ' ] 5.t.t.[ ` 7.8.+.8.8.8.8.+.+.O.O.8.+.O.O.} O.O.O.O.O.+.+.O.O.7.' T 7.d.[ E E ' 7.d.7./ [ 7.| [ ,.[ ,.,.[ [ ,.[ ,.,.,.] ,.,.,.:.,.,.:.] O.d.9.` ,.d.7.` ` / O.d.7./ ' d.+.+.8.8.8.+.+.+.O.#.8.O.O.O.O.O.O.+.+.O.+.+.O.O.8.] ( +.+._ R R ( +.+.} ( O.} _ [ _ [ ] _ ] _ _ ] _ ] ' ] ` ] ] ,.] ,.] _ O.p.[ ( O.f.[ E ` ` 7.u.[ T O.t.+.8.+.O.+.+.+.+.O.+.+.#.+.+.O.[ O.+.O.+.+.+.8.8.` ] 8.u.] T ` 7.+.O.( _ d.[ ` ,.,.] ] ] ' ' E T G 2 - p T P I U T / T / [ ' / O.] n e G ` ' [ T T } } [ [ / ~ ( / ~ _ ` / ( _ ( ( ( ( ) ( ( / ( _ [ _ Q _ O.( P U P ( 7._ P ~ _ ( ` _ ` ) ) ] ' ` ` ] [ ] ` ` / ` ] ] ] _ ` [ O.[ / O.8.O./ T E 7.7.[ P _ O.O.{ { { { { O.} O...{ O.O.[ _ _ } O.",
"} O.} _ ( _ ( _ ( _ ( ( _ } } ' x ' } } _ ~ ' O.O.O./ T 7.[ / ' ' ' ' ] ] :.:.:.] ] :.,.] ] ' ' ' ' ' ` 7.9.` [ 7.8.8.] [ 8.+.9./ / 7.O.[ O.[ [ [ } O.O.7.O.( [ 7.+.O.O.O.O.} [ } 7.O.8.:.P } d.8.] P ` 7.+.O./ _ d.[ ` ` ] _ ) ] ` _ _ _ ] [ ] ] ] ] ,.:.] ' ` _ 7.,.R _ 8.7.[ R ` 7.O.[ K P } } } O.O.( ( [ [ } [ } O.O.O.+.O.U J _ ( / ( [ [ } / T [ _ ` L / [ _ [ / D } _ / ` ` / ` ` ` ] [ ] ] ` ` ] [ ] ] [ ] ] ] [ [ 9.} R [ O.O./ P } } } / P O.O.+.+.[ [ +.+.O.+.O.+.O.#.O.O.} [ } O.+.+.O.O.O.+.` P O.8.7.5.] 8.+.r.[ P O.O._ _ ` ] ] ] ] ] ] ] ` ` ` ] ' ' ' ` ` ' ' _ O.u.] / 9.c.9.[ ] d.t.#.[ / 7.8.O.+.+.+.+.+.O.O.7.+.O.+.} _ [ O.[  .+.O.+.+.O.7./ P 7.d.7.] ` 7.8.8.,.R ] 7.[ [ ,.[ [ ,.,.,.,.[ 5.,.[ [ ,.,.,.,.,.,.,.] [ r.9./ [ r.8.O.' [ r.+.7.P ` d.O.+.+.+.+.+.+.O.+.+.+.O.{ O.O.} O.O.+.O.O.} O.+.7.] / +.+.+.( ( +.O.+.} / O.7.[ ] _ ' ] _ ` ] _ _ ] ] ] ) ` ' ] ] ] :.:.` O.u.] ` O.#.8._ R ,.7.7.[ P } +.+.O.O.O.O.+.+.+.+.O.O.#.+.+.O.+.O.O.O.+.7.+.+.7./ ' 7.r.7.] 3.+.+.7./ _ 8.[ ] [ [ ' ' ' ` ` T U I v < : y I I I U T T T ' ' ^ ' T G I :.] / ] T J [ } ( ( ( ~ D / _ / / ( / ( ( ( ( ( ( ( ( ( / ( [ ( D / O.[ ( P / O.} _ A / 7._ / ) ` ` ] :.' ` ` [ ] ] / / ` ' ` ' ` ' ( _ +.[ ~ } 8.O._ ' [ O.} [ P [ O...O.O._ _ _ ..O.{ { O.{ O.O._ ( _ } ",
"} } [ ( ( _ _ _ ( _ ( ( / ( { _ Z _ } O.{ [ } O...+.` T 7.7.` ' ' ' ' ] ' ] :.:.] :.:.] ] ' ] ] ' ' ` _ 7.9.` [ 7.+.#.8.7.8.O.8.` ` 7.O.O.8.O.O.[ O.O.O.+.O.( ( O.+.O.+.O.O.[ [  .7.7.8.:.P [ 8.8.7.[ O.+.+.O./ _ f.O.' ' ) ) _ ] ' ] _ _ _ ] [ [ ] :.,.] ' ' ` _ 7.7.R _ O.8.8.} [ O.O.[ P R O.O.[ O.O._ _ O.[ O.} } } O.O.O.+.` K ] ( / _ O.} } / T ] [ ) ` ] [ ( ( P P O._ / ` ` ` _ ' ] [ [ [ _ ` _ [ _ ,.[ [ [ ] [ [ 7.u.7./ _ O.O.} { O.{ } / P O.+.O.[ _ _ O.+.O.#.O.O.O.O.O.O.O.} O.8.+.+.O.O.O.+.` P O.8.r.8.7.+.O.t._ P [ O._ ] _ ] ] [ ] [ ] ] ] ' ] ] ' ' ' ` ' ' ] [ 7.d.] ` 7.f.t.r.8.r.#.#.[ / O.8.+.+.8.+.+.+.+.#.+.+.+.+.O.[ _ _ O.+.7.O.O.[ O.7.' P [ 8.8.O.} 8.#.8.[ T ] u. ._ ,.[ ,.,.,.,.[ 7.7.3.,.[ ,.[ ,.3.3.,.:.] [ d.u.` [ 8.+.#.8.8.#.+.7.P / 8.O.+.+.+.+.O.O.O.+.O.+.O.O.O.O.O.O.O.+.+.+.O.O.O.7.] / +.+.+.O...o.+.+._ ( +.8.[ ] ] _ ] _ _ ] _ [ _ ] ] ] ] ] ' ] ] ] ' ) O.f.] ` O.#.r.7._ 9.#.+._ P O.+.O.O.O.+.O.+.+.+.+.+.O.O.#.+.+.+.+.O.+.8.O.[ O.7./ ] 7.+.+.+.8.O.+.8./ _ 8.O.] :.' ] ` ` ` E T E T L v q 1 0 I U I I U / ,.T b I / ] 3.[ _ ' ] U J ] } [ [ [ ( P ` ( D P ` ( / _ ( ( ( ( ( ( _ ( / ( _ P / [ { } _ [ O.{ _ P _ 8._ ` ` ` ] ' ' ` ` ] ,.] ] ' ` ' ] ' ' ] ] ` [ O.O./ [ O.O.O.7.O.O._ [ P [ } _ ..O...O._ | [ { { O.O.O.O..._ } [ ",
"} } ( ( ( ' _ ( ( ( _ ' ~ / { _ Z ( } } { } { { ..+./ R 7.O._ ' ` ' ' ' ' ' ' ] ,.,.' ' ` ;.;.' ' ' ` ` 7.9./ _ 7.+.O.8.8.O.} 7.R / O.+.O.O.+.O.| [ } O.O.O.[ _ [ O.O.O.O.[ ) _ 7.7.O.8.' P [ 8.+.8.7.O.O.+.} P _ 8.O._ ` ` ` _ ] ] ` ` ) ] [ [ ] ] ] ' ] ] :.` ` 7.7.P _ O.O.O.8.O.} O.,.Z ~ O.[ O.} [ } [ [ O.+.O.[ ( [ O.O.O.T z ` ( ( ( } 7.} P P [ _ ( _ ' ( ( / Z J [ ( / / / ` ' _ [ [ ] ] ] [ [ ] ] ] [ [ ] ] ] _ O.z.,.P _ O.{ O.} { _ } P P O.O.} [ ( O.O.O.O.O.O.#.+.+.} +.+.#.+.+.O.O.O.O.[ O.` P O.#.+.+.+.O.O.r._ K ' O._ ` ] ] ' ] [ ] ] ] ] ] ' ' ] ] ' ' ' ' :.] 7.d.] / ,.8.#.r.r.8.+.#._ / O.8.+.+.O.+.O.O.+.+.+.+.O._ O.O._ _ +.8.O.O.[ [ O.3.' U [ +.+.+.+.+.#.8.[ T [ u.O.] ] ] ,.,.[ [ ,.[ ,.7.[ [ [ ,.,.:.:.] ] ] [ 8.9./ [ 8.+.+.r.O.O.#.7.P T 8.O.O.+.+.+.O.O.O.O.+.+.[ _ [ +.O.O.+.+.+.7.O.O.O.7.' / O.+.O.+.....X.+._ ( +.7.[ ] ] ] ] ] _ ] _ [ [ [ ` ] ] ' ] ] ' ' ' ` O.d.] / } +.O.+.O.+.+.+.( P } O.[ O.O.} +.+.O.+.8.+.} O.+.+.+.+.+.8.O.O.[ [ } 7./ ` 7.#.+.+.+.O.+.O./ _ 8.} ] :.] ' ` ` T T T ` ` U I B m q 0 G U T U I T G j ^ 3.} } } [ ` ' T J ' _ O.O.' ( / / P Z P ( / / / ( ( ( ( ( ( ' / P ~ ` P P ( _ { O.} _ _ _ J ' 7._ ` E / ` ` / / ' ' ] [ ] ' ' ` ` ] ] ` ' ` ( O.} ~ _ } O.} 8.O.O.} [ P _ O._ _ [ O.O.} _ ( } _ ....O.O.O.{ _ O.",
"[ [ _ _ ( ( _ ( ( _ [ [ _ _ { _ Z ( } { { { { { X.+.` / 7.7.' ' ' ' ' ' ' ' ' :.,.] ` ` ' :.:.;.' ` ` ` 7.7./ ) 7.+.O.O.7.O.O.8./ / O.+.O.+.8.+.O.[ O.+.O.O.O.[ [ O.O.O.O.[ _ _ 7.7.O.8.` P O.8.7.7.7.O.O.+.} ~ _ 8.| ' ` _ ] ) ] _ ` ` ' [ [ ] ] ] ] ' ] ] :.` ) 8.7.P _ 7.O.O.8.O.O.O. .P / 7.O.O.[ [ O.O.} O.O.[ ( [ O.[ +.O.Z d / _ _ ( [ O.[ / P ] _ ( [ _ ( ( / Z S [ ( P T / ) ` [ ] ] ] ] [ } [ [ [ [ ] ] ] [ ] _ [ 7.` K } O.{ } _ { { O./ P O.O.[ O.[ O.O.O.O.+.O.+.+.8.+.+.O.#.+.#.+.O.O.O.[ 7.` / O.8.+.+.+.+.+.r._ P [ 7._ ' ' ' ' ] ] ] ] ] ] ] ] ] ] ] ] ' ' ] ] ] 7.d.] / 7.r.+.+.#.#.#.r._ / O.8.+.+.O.O.O.+.O.O.+.O.O.O.O.O.O.O.O.+.+.O.O.O.9.7.` T O.#.+.+.+.+.#.#.[ R 7.d.O.] :.:.,.] [ [ ,.[ ,.,.,.,.,.[ ,.] ] ] :.] [ t.u./ [ d.8.+.8.O.O.#.8.R / u.+.O.+.O.O.+.O.O.+.+.+.O.[ } +.O.O.+.+.O.|  .+.O.7.] / O.+.O.+...X.X.+.( ( +.7.[ ' ] [ [ [ ] ] ] ] [ ] ] ] ] ] ' ' ' :.' ` O.u.) R O.+.O.#.+.+.+.+.[ T [ O.O.O.O.} O.+.+.+.#.+.O.O.O.#.+.+.7.+.O.[ [ O.O.7./ ) 7.r.+.+.+.O.+.O./ [ r.O.] ] ] ' ` T U E ' :.' ` T J U G 7 q v c e 9 n U I ] 7.[ [ 7.[ ( ' / U [ _ / P J T ( _ P D ( ( / ( R / / _ _ _ ( ( ( ( _ _ P / O._ ( O.{ _ { [ P ' O._ / / ` ` ` ` ` ] ` ] [ ] ] ] ` ] ` ` ` ' ` [ +.[ R ( O.O.O.O.+.O.O.} P _ O..._ O.( [ [ _ [ O.{ { O.O.{ O.O...O.",
"( } ( _ ( ( ( ( ( _ ( } _ _ } ( Z ' { _ { { _ { ..O.` T 7.O.( ` ' ' ' ' ` ` ' ] ] ` ` ;.;.:.:.' ` ` ` ` O.7.R ) 7.O.} O.} } +.7.R / 7.O.O.+.+.+.O.O.O.O.+.O.[ [ O.O.O.O.[ _ [ O.O.O.O.7./ U 7.7.7.8.O.O.} O.} P _ r.[ ` ` ' ] ` ` ` ` ` ] ] ] [ ] ' ' ] ] ' ' ' ( 8.7.P ' O.} } O.O.O.8.[ P / 7.| _ _ [ [ [ [ [ ( ( ( _ [ } } O.T z / ( ( _ _ ' _ P P ] ( _ _ ( / / / Z Z _ / D T T / ` / ' ` ' [ [ [ } [ [ [ _ ] ] ] ] _ [ 7.U P O.{ O.{ ( _ { O./ P O.O.[ O.O.O.} +.O.+.+.O.O.8.+.O.+.+.+.@.O.+.[ O.O.} ` ~ 7.+.+.#.O.O.+.8._ P [ 7.` ` ` ' ' ` ` ] ] ] ] ] ] ] ' ' ' ' ' ' ] [ O.u.' / 7.8.+.+.O.+.#.r._ / } 8.O.+.O.} O.O.O.O.O.O.O.} O.O.O.O.O.O.O.O.7.O.O.8.` T 7.+.O.+.+.O.#.8.[ T [ f.[ ` :.] :.] ] ] ,.,.[ [ ,.,.,.,.] ] ] ] ' ] [ r.9./ 3.Z.+.+.O.O.8.+.+./ ` 8.O.+.O.O.O.O.O.+.+.O.+.O.O.[ O.O.+.O.+.} O.[ O.| 7.' / O.O.+.....+...+.( / 7.8.] ] ] ] ] ] ] ] ] [ ] ] ] ] ' ] ` ' ' ' ' ( [ u./ T [ +.O.O.O.#.O.8.O.P } O.O.O.[ O.[ O.O.O.+.+._ O.+.O.+.+.O.+.O.O.O.} 7.7.R ] 8.+.+.+.+.O.+.7./ ' d.O.` ' ' ' ' T U ` :.' ' ' T U Y a , 3 c y 6 y T T P ] ] [ [ ] [ _ ] P P ,.` P J J J P ( / ~ P / ( ( / P P ` _ ( ( _ } O._ ( P ~ _ ( _ _ ( _ } _ P ( O./ / / ` ` / ' ` ' ] ] _ ] ] ] ] ` / ` ` ] ` ( O.( D [ O.O.O.O.} O.O._ P _ [ } O.} ( ( ( O.} } { } } { } _ { O._ ",
"' } _ _ _ ( / _ _ ( ( ( _ _ } ( Z ( } { { { _ O.+.7.` R 7.O.( ` ` ' ' ' ` ` ' ] ' ' ' :.:.:.;.` / ' ` ` 7.7.T ' 7.O.O.O.} } 8.7.R / O.O.O.+.O.+.+.+.O.O.7.O.[ [ O.O.O.O.} [ O.+.O.7.O.7./ P 7.7.7.8.O.O.O.8.7.P ' 8.[ ` ` ] ] _ ) ' _ ] _ ] ,.[ ] ' ' ] ] ' ' ' _ r.7.P _ +.O.} O.O.O.8.7.P / O.[ _ [ } } [ O._ / ( O.} O._ O.O._ P ( _ ( [ [ ( _ P P [ _ _ ' ( ( / ` Z Z _ / ~ / T / / / ` ' ] [ [ [ [ ,.[ _ _ [ ] ] ] _ O.9.T P } O.O.} ( ( } O.( P 7.+.O.O.| O.O.+.O.O.O.O.O.O._ _ 8.8.+.+.@.+.O.O.} O.` / 7.O.+.#.O.8.+.8.[ T 7.r.[ ` ' [ ] ] ` ' ' ] ] :.:.' ' ` / ] ] ' ] [ O.d.] / 7.r.+.+.O.7.r.r._ / } 8.+.8.7.O.O.+.+.+.O.+.O._ O.O.O.+.+.[ [ O.7.O.O.7.) T 7.#.+.+.+.+.#.8.,.T [ u.[ ] ] ] ] ] ] ,.,.,.,.,.,.,.,.:.] [ ,.] :.] [ f.9./ 7.Q.#.+.O.7.+.O.7./ ] d.O.+.O.+.O.O.8.+.+.+.O.O.+.} O.O.+.+.O.O.+.O.[  .7.] / +.+.+.O.....X.#.( ( 8.8.] :.' ] ' ` ' ] ] [ ] [ ] ] ] ' ] [ ] ] ' ` O.u.` / 7.8.O.O.O.+.O.8.O.P [ } O.O.O.} ( ( ( O.+.+.{ O.+.+.+.O.} O.7.8.O.O.+.7./ ] 8.+.+.+.O.O.+.7./ _ 8.[ ` ` ` ] ' E E :.] ' ' ' E U a , = 3 n U n J ' P P [ [ [ [ ] ] [ 3.^ T :./ T ' ] U J / / / / ( / ) ( / / / / ( [ O.' ( / / T / [ _ ( ( ( { } O.~ ( } / / ` ` ` ` ) ` ] _ ] _ _ _ [ ) ` / ` ] ] ` ( O.( P } O.{ O.} O.+.} _ P ( O.O.} O.[ ( ( +.O.O.O.{ _ O.{ O.{ O.[ ",
"_ _ _ _ ( ( ( ( _ / / _ } _ _ ( Z / { { { _ _ ..+.O./ R 7.[ / ` / ` ' ` ` ` ` ] ' ' ' ' ;.;.` ` ` ` ` ` 7.7.T ` 7.O.O.} } +.7.[ E T [ +.O.O.O.O.+.+.+.+.O.O.[ _ O.+.O.O.[ O.O.+.7.7.7.7.' U } 7.O.O.} O.+.r.7.T / 7.[ ` ' ` ` ] _ ` ] _ ] ] ] ] ] ' ' ' ' ' ` / _ 8.} P _ 8.} } O.O.8.O.] P / O.[ O.O._ [ } } [ ( ` _ } [ } } [ [ P P [ _ _ _ [ ' P D _ } _ / / ( / / Z Z ( / / / / / T / / ] _ [ ] [ [ [ ] [ [ ] [ [ ' _ } 9.T P _ } O.} _ [ _ } / / O.O.O.| _ O.O.O.O.+.O.} +.+.[ O.7.+.+.+.O.+.+.O.} O.( R O.+.O.+.+.+.+.+.[ T O.8.[ ] ] ] ] ] ] ] ' ] ] ] :.] ' ' ' ' ' ] ' _ O.u.' / 7.r.+.O.O.8.#.+._ / [ O.+.7.7.7.O.O.+.+.+.O.O.O.[ O.O.O.+.} [ [ O.O.O.O.` T [ +.+.+.O.+.#.7.[ T ] 8.[ ] :.] ] ] :.] :.,.,.,.,.,.,.:.,.,.,.,.,._ [ r.7./ [ d.+.+.8.O.8.O.} R / f.O.O.+.O.O.+.+.+.+.O.O.O.O.O.} [ +.O.O.O.O.O.O.O.7.] / +.+.O.O...+.X.+._ ( 8.7.,.' ' ' ` ] ' ] ] ] ] ] ] ] ] ] ] ] [ ] ` ` } u.] ~ 7.+.O.O.} +.+.O.` D _ O.O.} O.} _ _ _ O.+.O.} O.O.+.O.} } 8.+.O.+.+.O.7./ ] 7.+.} O.O.O.#.O.~ ` O.[ / ` ' ` ' ' ;.' ' ] ' ` ` M 1 < 3 < w J U U / U I ` [ [ ' ] ,.,.,.T T ] E J T ` / P J T / / ( ( / ( _ / / ( ( _ _ / D ( ) K T [ _ ( ( _ O.} _ ~ / 7.[ / / / ` ` ` ` _ [ _ ' _ ] _ ] ) ` ] _ ' _ ( O._ P _ O.O.{ O._ O.O.' K ' [ } _ } [ [ [ _ O.O._ } { } O.O.[ _ [ ",
"_ _ [ ( ( _ ( ( _ ( ( } } { _ ( Z / _ { { { { ..+.} / / 7.O.' ] ` ' ' ` ` ' ` ' ] ] ' ` ' / ` ' ' ` ` ' O.7.R ` [ O.O.O.O.8.[ ` / / } +.O.O.O.O.O.O.7.+.+.O.( ( [ O.O.[ O.+.O.O.7.7.7.8.' T [ O.O.7.O.O.8.7.[ / ) 7.] ` ` / ` ` ] ] ] ` ] ] ] ` ' ] ' ` ` ` ' / _ +.O.P _ O.O.+.O.O.8.} / P ( O.O.7.O.} O.O.} O.O.( [ / / [ } [ } P Z ` } _ O._ [ P P ` _ _ ( / ( / D P Z ( ( P / / T / T / ] ' ] [ [ [ [ [ 3.[ [ [ [ _ ( } 8./ P _ _ } +.} O.O.( / / O.O.O.( _ | O.+.O.+.O.O.+.7.} +.+.O.O.+.O.8.+.+.O.+.` ~ _ +.O.+.+.+.7.[ [ / } +._ ` ' ] ] ] ] ] ] ' ] ] ] ' ] :.] ' ] ] ' _ O.u.' ` 7.+.+.+.+.r.+.O.[ ' [ O.+.O.+.8.O.O.O.+.8.+.O.[ | +.O.O.7.+.O.[ O.O.O.7.] / [ O.O.+.O.+.t.7.] / [ r.O.' :.] ] ] :.,.,.,.,.,.,.:.] ,.,.,.3.3.,._ [ 8.9./ [ O.O.8.8.+.8.O._ / ` 8.O.+.+.+.+.+.+.O.O.+.+.O.O.+.O.} +.+.7.O. .7.7.O.7.] ` O.O.O.+.O.+.+.O.} ` 8.7.[ ' ' ' ' ] ] [ ] ] [ ] ] [ ] ,.] ] [ ] ' _ } d.[ ( O.O.+.+.O.+.+._ / P } +.O.O.O.} [ O.O.+.O.O.} +.+.8.O.O.O.+.+.+.+.+.8.7./ ` O.+.} +.O.O.+.[ T ` 8.} / ' ' ' ' ' ' ' ' ' ` ` T v w a a > 1 v T T ` T J T ] ,.,.,.j.] T U T [ ` J I T / I J E ` R ` ( / ( _ _ ( ( _ / R / ( [ ( P R _ ( [ } } O._ ( / ( r.+.( / / _ ` ] ] ] ] [ _ [ ] _ ) ] _ [ _ ] _ _ O.[ ~ ( { { { O.} } [ ( P _ _ O._ _ [ O._ O._ _ _ O.O.O.} _ ( _ _ ",
"[ [ ( ( ( ' _ [ ( _ _ } _ } } ( Z / ( / _ { { +.( _ ` T 7.7.] ' ' ' ` ` ` ` ` ' ' ' ` ` / ` ' ' ' ;.` / O.7.T ] ] ( } O.O.O./ ] ' T } +.O.+.O.O.[ | O.O.+.O._ ( ( [ [ } O.O.O.7.7.7.7.8.' T [ _ _ 7.+.7.[ ( } / ` 7._ ` E ` ` / ) ] _ ] ] ' ' ' ' ' ' ' / / ' ` ( +.} P ( _ / } +.O._ / ` ~ / O.O.} O.O.} _ [ [ [ [ _ S S _ } [ _ ( Z z ( } } [ _ P P / P ~ _ ~ ~ Z D P Z ( / P T U / T / / ` ] ] ] [ [ ,.[ [ [ } _ _ ' _ } 9.R P [ / ( O.O.O.( / ` P O.O.[ [ [ O.} O.O.O.O.O.O.O.O.} +.+.O.O.O.O.+.8.+.O./ ~ ( ( +.+.O.8._ _ [ P [ +.) ` ' ] ` ] ] ] ] ] ] ] ] ] ' :.] ] ' ' ' ` O.u.` / 7.[ [ +.+.7.( [ } / } +.O.+.+.+.+.O.O.O.+.+.[ [ [ O.+.+.+.+.O.| O.| O.7.` T 7.[ ( O.+.8.7.[ ,./ [ d.} ' ' ] ] ] ] ] ] ,.,.:.,.] :.:.,.,.,.,.,._ [ 8.7./ [ _ ( 7.8.8.O.) O./ / u.O.+.+.+.9.+.O.O.O.O.O.O.O.} O.O.O.8.7.O.[ O.O.O.7.` / O.) ( O.+.+./ _ _ / O.7.] ' ' ] ] ' ] ] ] ] ] [ ] ] [ ] [ [ ] ] ] _ } u.] / 7.[ _ +.O.O._ ( ' P } O.O.O.} O.} O.O.+.O.O.O.+.r.8.O.+.O.O.O.8.7.O.8.7.T ` _ _ O.O.} +.( ` T ' O.[ ` ` ' ' ` ' ' ' / / ` T G n n v m 7 1 v P P / P n L U ' ,.,.' T P T T ' ` P n I U I U P / ) / / ( / ( ( / ( ( / / ( _ ( ( P P ( P ( } { ( W ' ~ ( r.O._ T / / ` ] ] ] ] ,.[ [ ] ) ` ] _ _ _ _ / [ O.( / ( ( { O.{ O.[ / ` A ( } _ _ } [ } O.O._ ( _ O._ O._ [ ( _ [ ",
"_ } ( } ( _ _ _ _ _ } } } } } ( Z ( _ D ( ..O.( R ] ` / 7.7.) E ` ` ` ' / E ` ' ` E ` ` ` ` ` ` ` ` E R O.7.P [ ,.R ) 7.7.` / 7.` P O.8.O.O.O.O.[ O.} O.O.O.} _ [ } O.+.+.O.O.7.7.7.7.u.] / 7.` T O.r.O.R ` 7.( ' 7._ / / ` ` ` ` ` ] ] ` ' ' ' ' ` ' ` ` ` ' ` _ 8.[ Z ' [ P / +.} / ( 7./ / O.O.O.O.} [ [ [ _ O._ [ D S _ O._ _ [ / z Z ( [ _ / P / ` Z Z ( / D x _ / Z ( / P T T / T ` / ' ' ] ` ] ] ] ] :.[ [ _ ' ' _ } 9.R P 3.( R _ O.O.P ] ,.R O.O.O.+.O.+.O.O.[ O.[ O.O.O.} O.+.+.O.O.O.O.8.8.+.O./ / _ / O.+.+.@./ [ O.R [ 7._ ` ` ` ` ] ] ] ] ] ] ' ' ] ] ' ] ] ] ] ' ) O.u.` / 8.[ / O.t.[ R O.O./ } O.O.8.+.7.9.+.O.+.O.O.O.} [ O.+.+.O.O.O.O.O. .O.O.` R 7.[ P [ t.+.( _ j.R [ f.O.` ] ] ' ] :.] :.:.] ' ] ] ,.:.,.3.,.:.] _ [ 8.7./ 7.7./ _ 8.7._ ( u./ / t.O.+.8.+.@.O.O.O.+.[ | [ } [ O.[ O.O. .[ O.7.O.+.7./ ( 7._ / +.#.[ P } [ / +.7.] ] ' ] ] ] ] ] ] ] ] ,.] ] ] ] [ [ ] ] ] ) O.f._ / 7. .P O.+.O.R [ } ~ } O.O.} O.+.O.O.O.+.+.+.[ O.O.O.O.7.O.O.O.8.7.+.u.7.P ] _ ( O.+.O._ ( ] / _ +.} ` ` ' ' ` ] ' ` ` ` T U J I G l c q q G U P R K J U J E ,.[ / U ` ' U ` [ / T T U E R P ( ( ( ( ( / ( ( D / _ ( ( ( ( ( _ P / ( S / O._ D / [ P ( r.} ( / / / ' ] ' [ ] ] ] ] ] ] ] ] ` ) _ _ ( [ O.( / _ ( ) [ O.O.) / [ D ( } _ { O.{ O.O.O.} _ [ O._ } O.O.} [ ( ",
"/ ' _ ( _ ( ( ( ( _ _ } } { [ / Z / } ( D [ O.Q ( O./ P 7.O./ R T ` / / / ` ` ` / T T T ` E T ` E T T ( O.O.T _ 9.` R ,.] / [ 7.` P } +.O.O.[ O.O.} O.+.} [ [ O.O.} O.O.O.O.O.O.O.7.7.7.' R 7.7.~ ` 7.` / } } / _ 7.) / ` ` ' ' ` ' ' ` ` ` / / ` ` ` ` ` / / / _ 7.( Z _ O.' P ` / / O.} P / O.[ [ [ _ [ [ [ _ _ | _ T P ' [ _ [ ( ' / U k Z P T Z P _ P P P Z / / ' / Z ' ( P T T T ` / / ' ` / [ 7.] ` ` ] ` _ ` _ ` _ O.9./ P } _ / / _ / / 7._ P } O.O.O.O.O.O.O.[ [ } O.O.O.[ O.O.O.O.O.O.O.8.O._ } / P O._ R O.8._ ( 7.[ P [ 7._ ` ` ) ` ' ] ] ] ] ` ] ] ` ' ] ' ' ] ] ' ` O.8.` / 7.7.R ` ,./ _ +._ / } 8.+.+.8.7.+.+.+.+.O.O.O._ { O.O.O.O.O.O.O.| [ [ [ / P O.7./ / 7.[ ( 7.[ R [ 8.[ ` ' ` ' ' ] ] :.` ] 7.,.' :.,.,.] [ ] ' ` [ r.7./ } u._ R 5.[ / 7.7./ / 8.O.+.+.+.+.O.O.O.O.O.O.[ O.O.} O.+.} [ [ 7.7.O.O.7./ / O.7._ / ] ( [ O._ / O.7.] ' ] ] ] ] ] :.' ' [ 7.[ ` ' [ ] ] ] ] ' ` 7.u._ / O.7.( ` O.( / 8.' P } O.[ O.} O.O.O.O.O.O.O.[ [ _ O.O.O.7.O.O.7.O.O.O.} P ` 7.( ( 7._ / [ 7./ ( +.} ( ` ` ` ' ' ' ' / / T L J n n n e 7 y I J Z R Z J ' / K / ' P P ] ` J ~ _ ( ( ~ ~ P / ( ( / ( _ _ _ _ / Q ( _ _ ( / ( _ ( Z / } D D _ / P ' _ P ( 8._ / / / ' ' ` ' ] ] ] [ _ ` ] ] _ ] _ ` ] _ ( O.( D _ O.) / O._ P O.[ Z ( { { _ O.O.O...O.O.O.} } O.O.{ O.} } } ",
"/ ` ( ( ( ( / ( _ } _ } } { _ / Z / O.O.D ( ) ( O.O./ R O.O./ E E ` / / / / T / ,.,.T U T T T T T E T ' +.O.P ] 7. .` E E  .O.O.` P } +.O.O.} O.+.7.+.O.} [ } O.} } O.7.7.O.O.} O.7.7.7.] / 7.u.} ` R ` O.O.} / _ +._ ` ` ` ] ' ` ' ` / } 8.[ R / ` ` ` ` ` / / _ O.( P _ O.O.( P / O.O.[ P / O. .[ [ [ _ O.O._ _ O.[ P R | _ _ [ ' _ [ ' j 0 L ` Z P _ / ( P Z _ ( / T Z _ ( P E T E ` / ' ' / ,.8.8.7.) / ] ` ) ` _ ` _ O.8./ P [ } _ ( T ( } 8._ R O.+.O.O.O.O.O.O.[ [ } O.[ O.O.O.O.O.O.+.O.O.O.O._ O./ P O.8.( ) ] _ } 8.[ T [ 7._ ` / ) ` ' ` ] ' ` [ 8.7.' ' ] ] ] ' ] ] ) O.8.` / 7.8._ / / [ #.+.` ` 7.8.+.7.8.7.+.+.8.+.+.O.} O.O.O.O.O.} O.O.[ O.| [ [ ` ~ [ 7.[ _ _ _ +.8.] E [ r.[ ` ] ' ] ' ] ] ' ' 9.Q.u.[ ] ,.,.] ] ] ] ` O.r.7./ 7.u.+._ ' ` O.8.7./ / d.+.+.+.+.O.O.+.O.+.+.O.O.+.O.+.+.+.O.} O.+.O.+.O.7./ ` O.#.+.` / O.+.O._ ` O.8.[ ' ] ] ] ] ] ,.' _ +.8.O._ ` [ ] ] ] ] ' ) O.u.' / [ #.+._ E ` O.+./ P } } | O.O.O.+.+.} O.} O.O.O.} O.O.O.7.+.O.} O.+.+.7.T ` 8.O./ / ` O.O.O./ ( +.[ ( ` ` ] ' ' ] ] / ` ` T I n G G e 6 b T Z J / J J 3.[ P / / T / [ / J P ' _ _ ( ( ~ / / / ( ( ( [ [ { ( ( ( _ ( _ ( ( ..( Z / O._ / P P ( } _ P ( +.[ ( / ` ] ` ' ] ] ) 7.d.O.` ] ] ] ] ] ` ] _ _ +.( D _ +.O./ ` R [ +.[ S ( O..._ O.O.O.O.+.O.O.} O.O.O.O.+.} } O.",
"/ ( / ( / / / ' _ _ _ [ _ _ _ ( Z ( _ _ _ / ( O.O.[ / P O.O./ T E E E ` E T / ,.O.7.[ T K T T U T ` T ( +.O.P ) [ [ ) ) ] O.[ } ` P O.O.} O.} } O.+.O.[ [ O.} _ _ [ [ } } } } O.7.7.7.9.' / 3.7.O.[ ) [ } _ [ / _ 7._ R / ' ` ] ) / / } +.+.+._ T E ` / / / / R ( O.( D ' } [ ( ( [ O.( _ P / O.[ [ [ _ [ [ } _ _ [ _ R ( [ ( _ } [ [ ( / g 0 / / V ( / Z / ( / ( D P R Z ( ( P P / / / ' ` / [ 8.7.O.O.[ ( ` ` ) ` ` ` ) O.8./ P [ ( [ [ / } _ } _ P [ O.O.+.} O.O.} [ O.[ O.O.} O.O.} O.O.O.O.+. .[ [ O.R T _ #.+.` ' O.O. .] P [ 7._ / / ` ` ` ' ` ` } 8.r.8.O.` ' ] ' ' ] ' ` O.u.` ` [ +.O._ [ r.O.[ ] / O.8.+.8.7.O.O.O.+.+.O.O.O._ O.O.[ [ O.} O.O.O.[ O.+.` R  .| [ +._ [ t.O.] ` ] t.[ ` ' ] ' ] ] ` ' 9.f.r.d.8._ ` ,.] ] ] ] _ } t.7./ ,.8.+.O.[ [ 8.O.O./ ( 8.O.+.O.O.+.O.O.O.+.O.+.O.O.O.+.+.O.O.O.O.O.O.O.+.O./ ` [ _ O.} [ +.} _ [ ( O.u.] ' ] ] ] ] ] ' _ 8.+.+.+.O._ ' ] ] ' ' ' ` } 8.' / } } +.O./ O.O.[ / P _ O.[ O.O.+.O.O.O.O.O.O.[ O.7.O.O.7.O.O.} O.7.O.8.7.T / _ O._ / _ +.[ ` P ( O.} ( ` ] ' ' ] ' ` _ O.O.' U J n v w 9 v I J K T J N ` } _ T T ` _ ' U z U ` ( ( ( / ( ( ~ ~ / ( D D ( ( ( ( ( ( ( _ ( ( ( / Z T ( ( ( / T _ _ ' P ( O.( ( ` ` ` ' ] ` ` [ 8.#.+.} ` ' [ ] ] ] ' ' } +._ D _ [ O._ T _ +.( ` J ( O.{ O.} O.O.O.+.O.} } O.{ _ { O.O.O.[ ",
"/ _ / ( ` / ( _ _ _ } [ _ _ } _ P [ ( / ( _ } O.( [ ` / 7.7./ E E T E ` T E ,.7. .[ O.] T U U T T T T ( +.O.P ` ] ` [ 7.7._ / [ ` R O.O.O.O.} O.O.[ [ [ [ O.O.[ } } _ [ [ [ O.8.8.O.7.7.] / 7.[ ) O.8.7.` / ] ( _ 8._ / / ` ' ) ` / [ +.+.O.+.8.) / ` ` ` / / R ( O.( D ` ( / ( +.O.( P ` R R O.[ O.[ _ } [ [ [ [ [ [ ( [ [ _ _ [ _ _ ( ` z y T / Z ( ( V P [ [ ) Z P R Z _ ( P U E / / ' E ] 7.8.O.O.O.+. .` ` _ ` ` ) _ O.8./ R [ ( ( +.} } / _ ( R O.} O.+.} | _ O.{ O.} O.O.O.} O.+.+.O.O.+.+.} _ O.7./ / [ | O.O.7.7.( [ [ T [ 8._ / / ` / ` ` ` } r.8.8.8.8.[ ] ] ] ] ' ' _ O.d._ ) ,.[ } +.8.O.` ] 3./ } 8.+.7.7.7.7.O.O.O.O.O.O._ | O.O.O.O.} O.+.O.O.O.7.] / 7.| ( O.O.O.+.] ] ' [ t.[ ` ' ' ' ] ' ` 7.d.d.d.r.r.O._ ] ] ] ] ] _ O.f.7./ ,.O.[ 7.r.+.O._ O.( ` 8.O.+.O.O.O.O.O.O.+.O.O.O.O.O.+.O.O.O.O.O.+.O.+.O.7./ ' [ / ] +.+.+.) ` O.( O.d.] ' ] :.] [ ' _ +.#.+.+.+.+.+.] ' ] ' ] ' ` O.d._ ( O.( ( O.O.8._ _ ` K [ O.[ O. .O.O.O.O.+.O.[ [ _ [ 7.O.+.O.O.O.7.7.O.8.8./ ` ' _ [ O.O._ / ` E ' +.O.` ` ] ] ' ' ` ] 7.8.O.} / U V n t t G I J K / T G T [ _ ` ] [ ` ` U J E _ / _ _ ( ( ( ( / / ( D P / ( ( ( ( ( ( ( ( ( / / P ~ / D ( O.} _ ` _ P _ 8.' / ` ` ` ' ] ` ] 8.+.+.o.+._ _ [ ] ] ] ] ` } 8.[ T ) ) O.[ [ +.[ ~ / P [ { _ _ _ O.+.O.O.} ( _ O.{ O._ O.+.+.} ",
"/ ` ( ` / ( ' _ _ _ _ [ _ _ } [ D _ [ D D } O.) / [ ` / +.O./ T T E T P E ,.[ [ [ } [ [ ] T K T T U U / O.[ K ` ] P / 7.7.R P ,.` P [ +.} O.O.O.O.O.} } [ [ } O.[ } O.[ _ [ 7.7.8.8.7.7.' / 7.] P _ u.7.P ` [ / ( +._ / E ` ` E / [ +.O.O.O.O.O.+.[ / / ` / E R _ O.( P ( / Z / O.[ P R _ P P O.O._ [ _ _ [ [ [ O._ [ } [ [ [ ( ( ' _ / / I 0 J U z / T V J ` ` K K T P S _ ( P T T / ` / ) 7.O.O.O.O.} O.O.} ` ) ] ] ` _ O.9./ P [ / P O.O./ P ` ` P _ O.O.O.O.[ ( _ O.{ O.+.+.+.O.O.+.O.O.7.O.O.} O.O.+./ T [ _ / [ f.[ R [ ,.T [ +.) E T / / / ` 7.8.+.+.8.+.8.8.[ ` ' ] ] ' ] +.8.' ] 7.` / +.7.' P ,.[ T [ 7.O.O.O.O.O.O.[ [ O.+.O.O.[ } O.} O.+.+.O.+.+.O.O._ / 7.[ R ) +.O.) ` ,./ [ r._ / ' ` ' ` ` 7.z.8.8.r.r.+.r.O._ ] ] ] ] ` O.f.7./ ,.[ / _ r.+./ ` O.( ( 8.O.O.O.O.+.O.} O.O.+.O.} O.O.O.O.O.O.O.O.+.7.O.} 7./ ' ,.R E O.+._ / _ O.( O.r.[ ' ] ] ] ` _ 8.+.+.O.+.O.+.8.O.' ' ' ] ` ` O.8._ ( O./ P O.+._ T ] ` K ] [ [ [ [ [ _ O.O.O.O.7.O.O.O.O.O.O.O.O.O.} 7.+.8.7./ ` ] / ( O.O./ T ] T / +.O./ ' ` ` ` / [ 8.8.+.} _ ' ` K l e e G K Z Z ` T n J P / ` ] ] P R / I ^ _ ( ( ( ( ( [ ( ~ / ( ( ( ( ( ( ( ) ( ( ( ) ( ( / Z T / Z P [ O.~ T ] T [ i.` / / ` ` ` ` ] 7.+.+.O.O.O.} _ _ [ ] ` ' ` [ 8._ R ) / ) ( O.+./ / _ P ( } _ ( [ [ O.O.O.( _ _ O.O.O.[ _ O.O.O.",
"/ ` ( ( ( _ ( _ _ } _ _ } O.O.} D [ _ P P ( [ P / O.` ( +.+.( T T E U T ] O.[ [ } } _ [ O.' U U T T L / O.[ K ) [ R R ] ] R R 5.) P [ +.O.O.O.O.O.+.O.} [ [ } O.O.O.O.[ _ O.O.} 7.8.7.9.] / 7.[ T / ,.` T ] O./ ( 7.[ ` E ` E T _ 8.#.O.O.+.+.O.+.7.] / / / E R [ O.( P _ / Z P _ / P / [ T R O.O.O.7._ _ _ } } O.} } } O.( ( / ( [ [ ( ( P l n k z ( P J J U K K P R P P ( [ R T T / ` / O.8.O.+.O.} O.O.O.8.[ ` ] ] ` _ O.u./ / O./ P _ _ P P ) ) P _ O._ } O.( ( } O.+.O.8.O.} [ O.+.8.+.+.O.[ O.7.O.7./ / [ ] P ` 7.) E  .} R [ +.) E T / E / O.d.8.8.7.8.8.8.u.8.] ` ' ] ' ] +.u._ ] 7.` / [ :.E T 5.,.^ ,.7.O.O.O.7.+.O.} O.O.+.#.O.O.O.O.+.+.+.+.+.+.+.O.} ) / 7.[ P / O._ R ` ,./ [ r.[ ` ' / ` ` ,.d.d.8.8.r.r.+.r.m.O._ ] ] ] ` O.Y.7.` 5.[ R ` 7.[ P ) 7.` ` u.7.O.+.O.O.O.O.O.+.O.O.O.O.O.} O.+.O.O.+.O.O.O.+.7./ _ 7./ E ] [ / / [ } ( O.d.[ ' ] [ ' ` 7.#.+.+.X.+.+.+.+.8.} ' ' ] ' ` O.8._ ( O.( T [ [ / T ] ` P ] [ [ _ _ [ [ O.O.O.+.+.+.8.8.+.O.8.+.+.O.O.7.7.8.O.R ) ] / T ] ] T / ] E ( #.O./ ` ' / / [ 8.r.+.O.[ ( _ _ / G w q v J Z S / U G J J T ` / P Z / ` P ` [ } } [ } _ } [ / / ( [ _ ( ( / ( ( ( _ _ ( ( _ ( J P / J J / ' U T ] T 3.d._ / / / ` / [ +.8.+.+.O.O.O.8.} ( _ ' ` ' ` O.8.( T ] ` ) P ` _ / ( _ J ( O._ _ } } O.O.O.} } _ O.O.O.} _ _ O.O.",
"' ' / ( ( _ _ _ _ ( ( _ } } O.} D _ _ P P R / P / [ ` / +.+./ E T U P ] } [ [ [ } } [ [ [ } ' L I U I / O.[ P ` ] E T E E E / [ ] P _ O.O.O.O.O.O.O.O.O.[ ( _ [ O.O.[ [ [ } O.O.[ [ 7.7.' / ,.] E T / / ~ ] [ ( ( +._ / ` E T ) 7.+.+.+.+.O.+.+.O.O.O./ P T E P ( O./ D ' / P P T P P / _ / R O.O.8.O. ._ ( } } O.} } O.[ _ ( ( [ _ _ ( / T z j n l R P Z L J J K J P E D _ [ R T / / T [ +.O.+.+.[ / _ O.O.+.+.[ / ] ] [ +.7./ / [ ( T / R P / ( _ P ( { O.+.O.[ ( ( _ +.O.O.| O.O.O.O.+.+.O.} [ 7.7.+.8./ / [ ` T / :.` / [ 3.P [ +.( T T E E } 8.8.r.8.[ _ 7.d.8.8.7._ / ] :.] +.r._ ] 5.] ` ' ` E E ] [ / ,.+.} O.O.O.O.+.O.[ O.+.+.+.O.O.O.+.+.+.O.O.+. .[ O.) / O.[ T T ` ` P ` :./ [ 8._ / ` E E ,.8.8.8.d.8.O.8.r.r.r.r.O.` ` ] ` } Y.7.` ,.[ ` ` ' ` E ] [ ` R 7.O.7.O.O.O.O.+.O.O.O.O.O.O.O.O.O.} O.+.O.O.[ O.O.7./ ` ,./ / ` ` / / ] 3.( O.d._ ' ,.' ' 7.#.+.+.#.O.} +.r.+.r.8.} ` ' ] ` O.8.( ' [ ` / ` / T / ` ` U ,.O._ [ _ _ [ O.O.+.O.O.+.+.+.7.O.O.7.O.O.7.7.O.O.} R ` ] / U E P T / ` T ( +.[ ` ' ` / [ 8.+.+.+.[ ` ' _ ( ( J q 7 l J Z J T J n I L I E T I J / T I ] } ( _ O.O.O.} ( / ( ( ( _ [ ( / / / ( ( _ _ _ ( ( Z P ~ Z K U ^ P T ;.T ] z._ / ` / / _ 7.+.+.+.O._ _ O.O.7.[ / ` ` ' / [ 8.( T ] ` ` U T T / / ` P / } O.O.O.} O.O.+.} [ _ O._ } } O._ _ [ ",
"' ' ( ( ( _ _ _ ' ( / _ } [ +.} D _ _ P P R T / / [ ` / +.+./ T T U ] O.} [ } _ / _ O.[ _ } 3.^ I U I / +.[ P ] [ / E E E E R ,.[ R _ O.[ } O.+.O.O.+.+.[ ( ( O.O.[ [ } [ 7.7.O.[ ] 5.7.' ' 7.] R E E / / ` } ( ( 8.[ ` ` E / O.#.+.+.#.O.( ( O.O.O.+.[ T P E P ( O./ D _ / P U P P R / ) / / O.[ [ } O.[ _ [ [ O.O.[ O.[ [ [ [ O._ _ ( ( P J n z V R K Z K J J P J P R P O.[ R T ` E ` +.O.O.+.[ T U / O.+.O.+.+._ ` ] [ +.8.( / [ / T R T R T ( [ P ( O.{ O.O.O.( ( O.[ } { O.r.+.+.O.+.+.O.} } 7.O.+.7./ ( [ ` / / ' ` ` [ 3.R [ +.` T E T _ r.8.8.f.7.` E ] 8.8.8.r.7.` ` :.] +.t._ ] 5.) ` ` E E E ] ] / [ O.| O.O.O.+.+.O.O.O.O.+.+.+.+.8.+.+.+.O.+.7.| [ O._ ` O.[ T T / / R ` ] E [ r.[ / ` E ] 8.8.8.d.u.5.` ] u.r.r.t.t.+.` ' ' O.Y.7.( 7.,.` ` ` E E ` [ ] P [ O.O.O.+.+.O.O.O.[ O.+.O.O.+.+.O.O.O.+.+.7.O.+.O.7./ ` 3.` / ` / / / [ 7.( O.u.] ' :._ O.r.+.#.#.+.( / _ 8.8.8.8.8._ ' ] ` O.r.( _ } ` / ` / R / ' ` P 3.+.O.+.[ [ [ O.O.O.O.+.O.#.+.+.O.} O.7.8.7.O.[ O.O./ ' ] E P T U T R ` T / +.O.` ' ' _ +.+.+.8.O./ P ] _ / _ R 0 y I K J Z / P J T P L T T I L / T I ` _ ( ( } O.[ } ( ( ( ( ( [ _ / / / ( ( ( [ [ _ ( ( P P P Z J U T T ^ ] P ] z.] / / / ` O.+.O.+.+.[ / ` O.+.O.8._ ` ` ` ` [ 8.( R ,.` R P P T / / ` P / } O.O.} _ _ _ O.[ _ } ..{ O.O.O.[ _ [ ",
"_ _ ( _ ( ' ' ' ( / ' _ } } } _ P [ ( P P / T T T ] / P O.| / T T ] } } } O.' T L P ` [ [ [ [ 5.T I I / O._ P ) [ R P E E R R ] ] P _  .( _ O.O.O.O.O.O.[ _ _ _ [ O.} _ O.O.O.7.[ ] [ 5.` / 7.' P E / / / ` [ / ( 8.[ ` T ` } +.O.+.+.[ / P T ' O.O.} O._ P L P / { / D _ / J P P P P R ` P P O._ ( [ [ O.[ [ [ } [ _ [ } _ ( [ [ } [ ( ( T P n y J ` Z k J L J J K P P P [ _ R T T / } O.O.+._ P U T P ( O.+.O.+.O._ P / | 8./ / [ / P / U R P ( _ D ( } ( ( _ } ( ( _ _ _ O.+.+.+.+.O.+.O.O.} _ } O.O.+./ / [ ` T / / ` ` ] [ P _ O.` U T ] 7.8.+.d.7.` / ` ^ ] 8.8.8.8.} ` / ] +.r._ ` ,.) E ` ` E P ] ] T ] O.[ O.7.7.O.[ } O.O.O.+.O.+.+.+.7.+.O.+.7.O. .O.O.) ` O.] P E / T / ` ] T _ 8.[ / ^ ] 7.7.8.8.u.,.` ;.' ] u.t.r.r.r.O./ / O.N.7.` 7.[ ` E ` E E / ,.` K [ O._ O.O.O.O.O._ O.[ O.O.+.O.O.O.O.} O.O.8.8.O.O.7.T ` 3./ / ` T T / ] } / O.8.) ' ] 7.8.#.#.r.O./ T / ^ [ 8.8.+.8.7.] / ' O.r.( ( O.( T ` E ` E ` ` K ] O.O.} O.O.[ [ O.O.O.O.+.O.+.+.O.| [ O.7.7.[ [ O.[ / ` ] T P T T U T ' T / +.[ / / _ +.+.O.+.7.] U J L ` ' ( T j j T P Z P / P J U U L I L L I T T J ^ _ _ _ ' _ _ ( ' ( ( ( _ ( ( ( ( ) ' ( ( ( ( ( ( ( K P T Z J U U T T ` P ` 8._ / ~ ` O.O.O.O.+.[ / / / ` 7.O.O.8.[ / / / } O.' / ] ` P U T P T / ` J / _ _ _ } [ [ _ _ _ [ _ ..O.O.O.O._ _ [ ",
"_ _ ( ( _ _ _ ' ' _ ' _ [ { } _ P [ _ P P / ^ T R ] / T O._ R ^ ` O.O.} O._ P I U Y U ,.O.O.[ O.[ ^ J / +.[ T ) [ R L E E E R ] ` P _ O._ [ [ O.+.O.O.O.[ } } [ O.O.O.} O.O.O.O.[ [ [ 5.` / ,.` P ` ` E E ` ] / [ +._ E / [ +.+.+.+.[ ~ U R T P [ O.} O.O./ K K / } ( D ( / J K P K K R ` P / O.[ [ O.[ O.O.O.} } [ [ [ O._ _ ' _ O.} ) / / / V y j J z z J L J J K P R R [ _ T T / [ O.O.O.} T U P E T T _ O.O.O.O.O.` P [ d.( / [ / P E T R P ( / S ( _ ( _ _ +._ _ [ O._ +.O.+.+.+.O.+.O.O.O.[ [ +.O.7./ ( [ ` T / / / ` ,.3./ [ 7./ P ' 7.8.+.r.7.' T ` ' ` ` [ 8.8.8.8.[ / ) 7.f._ ` ,.` E ` ` E E ] ] R ] +.O.O.O.[ [ O.O.O.O.O.O.O.O.+.8.8.+.O.O. .[ [ +.O.` ` 7.) P E / T E ' ] T _ +._ / ' 7.8.7.8.8.[ ` ;.:.' ` ,.r.t.r.r.r.} R _ _.7.( 7.[ ` E E ` E E [ / Z } +.O.O.O.+.+.O.O.+.O.+.O.+.O.O.O.+.O.O.[ O.O.O.+.u.~ ( 3./ / ` T T E ] [ ( O.7./ ` 7.u.8.+.r.7.( T / ` ^ ` 7.r.+.8.8.7.' ( O.t._ ( O.( / / / ` R ` ` P ) | O.O.O.O.[ [ O.O.O.+.O.O.O.+.+.+.} O.O.O.[ O.7.3.E ` ] T U E T U E ] T ` +._ / ` O.#.O.+.7.[ T I J n T T P P n n P P A / ( P U P L J G L L J T U J / _ } } _ _ _ _ [ [ ( ( [ ( _ _ _ _ ( [ _ ( / / _ ( Z P P Z J U U L T ' T ` 7.` T / } +.O.O.O.O./ ^ ' ` T ' 7.O.O.+.} ( ( O.7.` / ] / P P E U P / ` J / ( ( O.+.O.+.} [ O.O._ O.O.O.[ [ [ } ( ",
"/ ' _ _ [ } ( ( _ [ _ [ ( _ O.( P _ ` T T T / P P _ T P O.( P ` } } } O._ T P T U U U P [ O.[ [ O.,.P / +._ T ) _ T P T E E P ] ` P _ O.O.O.O.O.O.O.} O.} [ [ [ _ [ } O.O.O.[ } O.[ [ 7./ T ] E T E ` / R ` ] / _ O.R P ] +.O.+.+.[ R T ^ T T P P _ O._ _ [ ` Z / O./ D / / J J L L K P ` P P O.O.O.[ [ O.7.O._ _ _ } _ [ [ ( / _ [ ( ( ( / K J y 8 j l V J J K K Z / ` D [ ( K R [ O.} O.} T U T T P T T R ' } O.O.+.7._ } 8.( / _ / P T R T P ` R S ( } { O._ { O.O.{ } O.O.O.+.O.O.O.O.O.+.O.O.7.O.O.+./ / [ ` T E / / E 7.O.R } O./ ` 7.8.+.8.7.' E ` ` ` ` E E [ 8.+.O.8.[ ` +.d.' ` [ ` E E ` E E ] ] T ] O.O.[ [ [ O.O.O.O.O.O.} O.O.O.+.+.+.O.[ ( [ O.O.O.' / [ ` T T ` E T ] ;.P _ O./ ( 7.7.7.7.7.[ / ` :.` ' ` ` [ 8.r.+.#.8.} { N.O.( O.[ ` E ` E E R ) R S } O.O.O.O.O.O.O.O.+.+.+.O.O.O.7.O.O.O.O.O.O.} O.O.7.R / [ / T ^ T T T ] [ / O.O.` 7.u.8.+.8.7./ ^ / ^ / / ` ` 7.r.#.+.8.7.( O.t._ ( } ` T ` / / R ` ` J ` [ ( [ } [ [ [ } O.O.O.O.O.O.O.O.+.O.O.} O.O.[ +.7.T ` ` T T T T P R :./ ( O._ / [ +.+.O.+.] ` T T J n N J n k n I P P D P ( ~ U T J G J I I L T U J ` _ ( [ [ _ / _ [ ( ( _ [ [ _ _ ( _ [ _ _ [ ( / ( / Z J P J J J U I U ' P ` 7./ / } O.O.O.+.} / ` ` T ` / T ` +.O...+.[ / [ O./ R ` T T L E T U / / J / _ ..O.+.+.O._ } } O.O.{ _ { _ _ ( _ [ ",
"/ _ _ } _ _ _ _ _ [ } [ _ _ } ( D _ _ T T T / T / [ / P O.( / O.O.} O._ T U P R U T T U E [ } } } O._ ( +._ T _ [ R P T E E R [ ` R [ O.O.O.O.O.O.} } O.} [ [ _ _ _ [ O.} [ [ } O.[ [ 7.T T ] ` E E / / R ` [ / _ } / ` O.+.O.+.[ / T / / U U P K P _ } _ } } ` ( } ( D ( ( K L L L K T ` P / O.O.O.O.O.O.O._ ( _ _ [ [ O.[ _ ( _ _ ( / _ / P K j 8 l J Z J J K K S _ ) D O.( / [ O.O.} } / U U T T T U T P E ' O.O.+.+.+.O.7.( / _ / P T / R P ) / P ( ......{ O.O.O...O.O.O.+.+.O.O.O.O.O.8.O.O.+.O.+.O./ /  .) E E ` / ` 7.O./ O.+.| +.8.8.8.7.] T ` / ` ` ` E T / [ 8.+.8.8.} +.u.` ` O.) E E E E / ,.:./ [ } [ O.O.7.+.O.O.+.+.} O.O.O.O.O.+.7.O.O.[ O.+.O.+.] / [ ) T T E E / [ :.T _ [ ( O.8.O.7.7.[ ` ` ' ` ' ' ' ` ` [ 7.8.+.#.+.+.#.+.( O.} ` E ` ` / ` [ R P O...O.O...{ +.+.O.+.O.O.O.} 7.8.O.O.O.O.8.8.O.O.O.O.T / } / T ` E T E ,.[ / O.O.O.7.u.8.8.8.` T / / / / / / ` _ O.#.+.8.d.+.O.r._ ( O._ R ` E E R ] ] U ] O._ O.[ _ [ O._ O.+.O.O.O.} +.O.[ } } } 7.O.[ 7.7./ ' ] / T T T T / ,./ ( +.[ _ 7.+.O.+. .` E E T T J J L l w c T T P R / _ P U T J I L I I L T U U ] [ ( [ [ / D / [ [ _ _ _ _ ( _ ( _ [ _ O.O._ ( / / Z P / J J I U L T ' P ` 7./ _ O.O.O.O.} / ` ' / ` ` ' / E [ O.+.} +._ _ +.( R ) R E Y T T P ` / J _ _ O.O.O.O._ _ O.} O.O._ ( } } _ ( [ [ ",
"/ ] ' ( ( ' ' _ [ _ _ } [ _ } ( P _ _ / P T T P ( [ T P [ _ [ } [ O._ T U T U P ' ` T T U / _ O.[ } } _ O.) P _ [ ` P E E P ( 7.` R O.O.[ O.O.O.} } { } } [ ( ( ( [ [ [ _ [ [ _ } [ _ [ T P 3.] P E E T / [ [ / ( O.[ O.O.O.+.[ / T / T T ] / J J P P ' } _ } O.} } ( D ( _ P J P J L ) ` K / O.[ O.O.O.O.[ _ _ [ ' ( _ } [ _ _ } _ ( P / ( P P l 6 j T x z K Z S P ] ` D O.[ } O.O.O.} / U U U U ( [ / J U T T _ O.7.O.+.+.O./ / [ _ P T R D / [ / P [ _ ( ..{ O._ ( ..O.} O.O.+.+.+.} O.} O.O.O.} } } O.T ( O._ E E ` T _ 8.} / O.#.#.8.+.8.7.] E ` ` T ] ,./ T E T T [ 8.7.7.O.+.7.` ( 7.] R E E E ] 7.' / [ +.} O.O.O.O.O.O.O.O.O.O.} O.O.O.+.O.} [ O.7.O.+.8.] T [ [ P T E T ( O.:.P _ O.O.+.+.+.7.] / ` ;.` ] 9.[ / ' ' / ] 8.#.+.+.o.#.O.( O.7.] E ` ` R _ } P P +.....O.[ [ O.O.+.O.} O.[ O.O.8.8.O.O.+.+.7.+.+.O.[ T / O._ T ` T P ` 7.[ / O.8.8.8.8.8.8.' T E / T [ O./ / ` ` ` 8.r.r.r.r.+.#.( ( O.[ / ` ` E E 7.] U ] O.O.[ ( O.[ [ _ O.O.O.[ O.O.O.O.O.[ [ } } O.O.+.7.R ' } ` U T T P ) ,./ _ +.O.O.#.+.7.[ ` ` T T ] ' J J U b 7 w I / / / ( [ P J T J J I I J J T T U [ _ _ [ ( / P ( _ ( ( ( / ( ( ( ( ( ' _ [ [ O._ / P Z ~ ' K J U I L ` ' U / O.} O.} ..O.( / ` ;.T [ O.` / :./ / ] 8.+.O.O.} } / T ] ` P Y Y I R [ / Z _ O._ O._ _ } } } O.+._ ( ( O._ [ ( ( _ ",
"' [ ( P / _ ' _ [ _ } } [ _ } _ P [ } ` P E T P } 7./ P O.O...O.} _ T U U T P ` O.[ T U T P U ] O.O.} _ O._ R [ O.] R E E T [ 7.` / O.O.O.O.[ [ [ O.[ [ O.} ( ( _ } } _ } O.[ _ O.[ ( [ E T 7.[ E E E T / O.O./ ( #.O.O.O.+.[ / P / / T ] +.[ P Z U K P [ [ } O.{ } ( D ( [ / J T K R O._ K / +.O.O.O.} O.[ } [ O._ ( ( [ } _ ( _ ( / ( ' / P Z l 6 9 / P Z K V Z ( [ R P O._ O.O.O.O.' U L T I T } O._ / I T T / _ 7.+.+.O.+./ ( O.7./ R R D _ +./ D } _ _ .._ _ ( ( O.O.{ O.O.+.+.O.O.O.} [ O.O.O.O._ O./ ( O.7.` E ` T [ d.,./ +.g.#.8.+.7.] E T ` E ' 7.8.} / T ^ T R } 8.8.+.+.7.( ) 7.[ E E E E O.8.` / O.8.O.O.O.} O.O.O.O.O.+.O.[ O.O.O.O.[ [ O.O.7.O.+.7.] / 3.[ R T E T [ 7.] T [ #.+.+.+.+.[ E E ` ` ' 7.8.7.] ` ' ` / ] 7.8.+.#.#.[ ( 7.8.7./ ` ` / O.8.P P +...{ O.O.O.( O.O.[ O.+.} O. .O.7.O.+.+.O.O.7.+.O.[ T ( +.O.T T E T } 8.[ R 8.8.8.8.8.8._ T T / T ] +.+.} ( / ' / _ +.t.#.N.#.#._ ( O.+.` ` ' E ) u._ U [ O.} _ ( } _ ....O.} O.O.O.O.O.O.O.} O.[ [ O.O.7.7.R ' 8.[ T E T T [ 7./ ' +.8.#.#.8.[ E -.E T ` 7.[ T G n b 7 7 n ` _ / )  .P J ` R J I Y J K ` / T _ [ [ [ ( ( _ [ ( ( / / ( ( _ _ ( ( _ } [ } O._ ( ~ Z / _ R J U I U ] ' U ` +.O.O.O.O.( T T ` ` / 8.#.O./ ' ' E / _ 8.+.O.+.O./ / } [ / U Y J _ O.` K _ _ O.[ _ } O.} O.O.O._ _ _ O.} [ ( ( _ ",
"' [ ` / ' _ ( ( _ _ _ [ _ } } _ P _ O.} / P U ( } O./ P } O...O.' T U T U U ` O._ [ ] T U T U P ] O.O.} } _ T _ [  .` E T / O.7./ R [ O.O.O.( ( _ [ [ } } [ _ _ ( ( [ } } } [ } [ ( _ O.' T } +._ E T P ( O.O./ ) O.O.O.+.[ R P T T T _ O.[ _ _ P J T K P _ } O._ _ _ P ( } ( K I T [ [ _ P / O.O.[ [ [ [ [ } _ [ [ _ / ( _ ( / / ~ ( / / / P k l q 1 n T P J z J _ [ T Z } [ { O.O._ P U L I T [ _ _ { } T T T / R [ 8.+.+.7./ ` 7.7.[ / P / } O./ P _ _ ( ( ( [ ( ( [ { O.O.+.+.O.O.O.O.} [ ( O.7.O._ O./ / O.7.] E T ' 7.d.[ / 7.8.+.8.8.[ E E ^ T ' 7.+.O.+.[ T T ^ P T O.d.O.O.7.` ` O.7.) E E [ O.O.` T } O.O.O.[ O.O.O.O.O.+.+.+.} } +.O.[ [ [ O.O.O.+.O.O.] E [ 7.) P T ` O.O.[ P [ #.O.+.+._ E E ` E ' 7.#.+.8.8.] / ' ` E ] u.r.+.#.O./ O.8.7.[ / E _ 8.8.P P O.{ ..O.O.} ( _ } O.O.O.O.[ O.O.O.O.O.+.O.7.O.O.} } T / +.O.] P U ] +.+.[ P 8.8.8.t.8.[ T E ^ T _ +.+.O.+.O./ ' ` / ( 8.Y.#.+.t._ ( +.8._ ` E ` } 8._ U [ O.( ( _ _ { O.O._ _ O.O._ O.+.O.O.} } O.O.[ [ +.7.T ` 7.7./ T T ] O.7./ ' 8.r.r.8._ / E T T E [ } [ ` J v c q 1 n T / _ _ [ P P [ ( K I L I P [ ` P ` _ ( ( _ _ ( _ _ ( ( ( ( ( / ( _ ( _ _ } O._ ( ( / Z P _ ` P I I / ] ' J ( +.{ O.+.' P P ` U / 7.+...O.} ` ^ / T / [ 8.+.O.+.' T } } _ U I / } } ` J ' ( _ [ O.} O.{ O._ } } } _ _ O.O.( ( ) ",
"_ [ ' ' [ _ ( [ _ } _ { _ _ } _ P _ } O._ T P O.O.O./ P [ O.} ( T U L P U / O.O._ _ } ] P T T K T ' 7.O.O.[ / ]  .+.[ / P [ +.7.R P [ O.O.[ _ ( ( _ [ O.[ ( _ O._ ( _ } } } O.} [ ( _ +.] T } #.O.` P / O.O.[ / ( #.o.O.[ R P T T T _ O..._ _ _ ( P P P J T _ } } [ [ P ( O.O./ K ( O._ _ P ` O.[ ( ( _ O.} } [ [ O.[ ( _ _ / / _ ( [ / / ( R V G e 1 w / / P P / [ [ P Z } O.{ O.[ / U E I T _ O.( ( ( { [ / U ` E ` [ 7.+.u.` ` O.O.8._ ~ } O.O./ P ( ( ( ( ( O._ ( ( O...O.O.O.O.O.} O.O.} _ [ O.+.} O.` / O.8.7.:.` 7.#.8.[ / O.t.#.#.[ E T / ^ ' O.+.O.O.O.+.' U T T U ` 7.O.+.7./ ` 7.9.O.) [ +.O.O.` T [ O.O.| [ O.O.O.+.+.#.7.O.[ O.O.| O.O.[ [ O.O.| _ O.] T [ 8. .R T [ O.O.[ T [ #.+.O.[ E E ` ` / 7.8.+.+.+.#.7.` ` ` / / ] 8.#.r.O./ O.8.#.7.` ` +.N.O.D R +.......O.O.[ ( O.+.O.O.O.O.O.O.O.+.O.O.+.+.O.O.O.O.R / O.O.O.` / 7.+.+._ P +.8.8.8.[ / / / ~ ' +.+.O.+.+.#.O.` ` ` R _ 8.N.#.t._ ( +.r.+.[ E _ +.8.' U ] [ ( ( ( O.O.O.[ ( ( O.O.[ [ } O.O.[ } O.} [ [ O.7.R ` 7.8.[ T ' 7.O.7./ ( 8.r.8.[ E T E E T ] 7.O.[ ( J G k t w G T P ( ( } T P } [ ( P J K ( O./ P ( ( ( / ( _ _ [ [ ( ( [ ( / / ( ( _ [ [ [ [ ( / ( ( Z P _ ( T J T [ _ ' J / O.O.O.[ T T T T T [ #.+.O.O.O.[ / ` T E / [ O.O.+._ T [ O.} ~ T [ O._ ' P _ _ ( [ +.O.O.O._ [ } { O._ ( } O.O.O.( ",
"_ _ / ( ( _ ( ( ( } } [ _ _ } _ P _ { O.} ( ( O.O.} T T [ O.` U P P K K ` O.O._ { { _ } ] T T T K T [ 7.8.] T ] } O.O._ ] O.+.O.P P [ [ _ [ [ ( _ _ [ O._ ( _ [ } _ ( ( } } _ [ _ [ [ O.] P _ +.O._ ` _ O.O._ P ( +.O._ T T T U T _ O.{ _ _ _ / _ [ P K U J P ' O.[ ) P / ( O.[ ( ( _ _ ` Z / } ( ( ( _ O.} [ _ _ [ [ ( ( _ / / ' _ ( _ _ / / J z j 1 6 T ( _ ( | _ [ P J [ } } [ / T T U P _ _ ( ( ( / _ O._ T E ` ` /  .+.7.( / O.O.O.} _ O.{ O.P Z ( ) ( _ [ [ { _ ( _ [ O.[ } } O.} } } O.} [ [ O.O.O./ R O.+.#.8.7.+.+.8.[ R } #.+.[ T T T T _ 8.O.O.O.O.} _ } _ U U T U / [ O.7.R / O.+.O.O.O.O.O.O./ T [ O.[ [ O.O.O.O.O.+.+.O.[ _ | O.O.+.+.O.[ [ O.| [ [ ` P _ +.O.( _ O.O.O.] P _ +.+._ E E / / / O.8.O.O.+.+.O.+.7.` ^ ` E T ' 8.8.[ / O.8.+.r.O.O.r.+.O.S / O...O.[ O.O.O.[ O.O.O.O.O.O.O.O.O.O.O.O.O.O.[ O.O.O./ / O.O.O.O.O.+.O.+._ P 7.8.7.] / / / / _ +.O.O.O.+.O.O.#.O./ ` E R ` 8.+.8.( ( +.+.#.+._ O.O.+./ P ' ` ( ( ' _ _ ( ( _ [ [ [ _ ( } } O.O.[ [ [ [ O.[ 7.T / O.#.O.' } +.+.O./ / O.8.[ / E E T Y ` [ [ [ ( / P K J 0 0 n J P J P _ P Z ~ _ _ / P / O.} D D ( / Q / / ( [ [ ( / ( ( ( ( / / / ` [ _ ( / / ( / ( P P ( ( ( / ( [ _ ` J / O.O._ T U E U T ,.8.O.O.O...{ O.[ T T ` T / _ O.O.` P [ } } ' ' } _ { ' J [ _ ( [ } O.O.} [ } O._ O.[ ( ( O.O.O._ ",
"/ ( ' / / _ ( _ _ _ [ _ _ } [ [ P [ } { O.} [ { _ [ T R O.[ T U P P P ( O.O._ [ _ { [ O.O.] U T T P / } 8.] T ] O.O.} } 7.O.+.[ K E _ [ _ O.[ [ | [ [ _ ( [ [ _ O.} ( ( _ [ [ _ _ O.} O.] P ( O.{ O.} } _ _ _ P ) O.) T U T P P ' O..._ _ _ ( ( _ _ _ P K J P R O.} ` T ~ ( _ _ [ ( ( ( ` J ` O._ ( } O.} O.O.( [ } _ ( ( _ ( R ( / ' [ _ / P U V j 9 9 T { _ ( | ( [ / P [ } _ / P / T U ] [ _ ( ( ( ( [ [ } ' R R ` E ` } 7./ / O.O.{ +.O.O.{ O.P P _ ( ( O.[ [ O.O.( ( / ( } O.} O.O.O.} O.} O. .} O.[ / R O.8.+.8.8.+.O.8.[ R O.+.[ / T E T ` O.+.O.O.O.O.} _ } O.' U U Y L ` | O./ R O.+.O.+.O.[ +.+./ T } O.[ } O.O.O.O.} O.+.O.} [ [ O.+.O.+.+.O.[ } O.[ ( ` U ) +.O.O.O.O.O.O._ P _ +.[ / E / ` / [ 8.+.O.+.+.+.O.+.8.7.` ` ' E E  .8.[ / 7.8.8.+.r.8.#.+.O.D _ O.O.O.O.O.O.O.+.O.O.O.+.[ O.O.O.O.7.O.O.[ [ } +.O.O./ / O.O.O.+.O.O.O.+._ P 8.7.] ` / ` ~ ' +.+.O.O.O.+.O.+.+.8.} / E E R [ +.8.( ( +.O.+.#.O.+.O.+.( T ] ( ( _ ( ' _ _ ' [ [ _ [ [ [ O.O.} [ _ ' } 7.O.O.7.R / O.+.+.O.8.+.+.+./ ( O.+.` E / E T E [ [ _ _ ( ` ( P U y y G V J Z P _ P z P / ( ( / ( _ ( Z K ( / Q / / ( ( ( D D / ( ( ) / / ( [ ) / P ( / / ( ` P P ( ( ( _ _ _ _ ` K ` O._ T U T E T ,.7.O.O.O.O.O.{ +.7.' T ` ` T / O.O.( P _ [ O.} } [ ( O._ P _ _ | _ [ [ O.} O.} O._ } } _ ( O.+.O.[ ",
"~ ' ( ` / ( ( [ _ _ ( _ _ _ } [ P _ { { { { _ _ _ [ T T 7.` L T U P ) O.{ _ _ _ ( _ [ _ [ O./ U / T U _ O.' U ] [ } [ } } O.} _ K T [ [ [ _ [ O.O.[ ( ( _ _ [ _ _ [ _ ( ( ( [ ( _ } _ O._ P ( O.{ } } _ ( _ ( P ( O.T U T L U _ } } { { _ ( _ _ ( ( ( _ P Z P P ( } / P / / ( ( ( / ( ' / Z / 7.[ [ O.[ O.O.O._ _ ' ` P ( ` ~ / ( ~ / _ ~ P / P J j d k P ( _ ( _ ( } ` K } [ / P T T U ' ] _ ' _ ( ( ( _ ( [ [ ) P / E R [ 7.R R [ } } O.O.} { O.~ P ( ( ) [ O.O._ _ _ [ / ) [ } } } } } _ [ } +.O.[ ( [ / R O.+.+.8.7.O.O.8.[ P } O./ / ^ U / O.O.O.O.O.O.} } } _ _ O.] I U T T [ +./ / O.O.O.O.} } O.O./ T } O.[ [ } O.O.O.[ } } O.} _ [ } O.O.O.} } O.} [ _ _ / P ) O.O.O.O.[ _ O._ P _ +./ T ` / E ] 7.O.O.O.O.O.+.8.+.+.7.,.` ` ;./ _ 8.O./ 7.8.+.+.8.+.#.+.O.P _ +.{ O.+.O.O.O.+.+.O.[ O.[ O.[ O.O.O.O.O._ [ 7.O.O.O.T R O.O.O.O.O.O.} +._ P 8.O.T ` / T ` +.O.O.O.+.O.+.+.+.+.+.8.O.T E / / O.+.( / O.+.O.+.+.+.O.+.` T ] [ _ _ _ _ ( _ _ _ _ [ ( _ } } O.O._ _ [ 7.O.O.O.7.T ` +.O.+.+.8.+.O.O./ ' 7.[ / ` U U ` [ [ ` ` / / ~ / / z r n J k z J Z ( / J P P Q / / / W D Z P / ( / / / ( ( D / / / ( / ( ( ( _ _ / P P / / ~ / ' P P ( ( ( _ _ ( ( ) J ` 7./ U T U T ] 7.O.} O.O.{ O.} O.O.7.' T T ` T _ O.( P [ _ } } } _ } { _ P ' [ [ [ [ ( _ } O.} } } { _ } _ [ O._ _ ",
"/ _ ( _ ' ( _ O._ ( ( } [ [ O.[ P _ _ ..{ { _ _ _ [ R / j.) L T P ( O..._ ( ( ( ( [ [ [ [ O.} / T T T / O.] U ] [ [ O.} O.O.} [ P R [ [ [ [ [ +.} _ ( _ [ [ [ ( ( _ [ _ ( ( ( ( } [ _ O._ P _ +.O.[ O.( ( O._ P [ 7.E T E U ( +.O.[ _ { ( _ } ( _ ( ( } ( K P P / [ ` P ` / ( _ ( ( _ ( T Z P _ _ O.O.[ O.O.[ ( ( ' _ P ` / P ) _ / / ( T P ` T U l n / L k ~ _ ( _ } ` K } _ P T T I ` [ _ _ _ [ _ ( _ _ ( [ } } / E / / [ 8./ / [ O.O.} } _ { O./ P ( _ ( ( [ _ _ _ O.O.} [ _ [ O.O.[ [ ( [ O.+.O.O._ [ / / O.+.8.8.+.+.+.f.[ R O.O./ ` T T } +.O.O.O.+.O.} [ O.} _ [ O./ U T T _ 7./ ` O.O.O.+.[ O.O.7./ / } O.O.[ O.+.O.O.O.O.[ O.O.[ [ [ O.+.O.} | } O._ ( [ ` T _ O.O.} [ [ O.O.[ P [ 7.R T ` E ] 7.O.O.O.+.O.O.7.8.8.+.+.8.,.E ' ` ` 8.7.` 7.8.+.r.+.+.#.+.7./ _ +.O.O.O.O.O.+.8.O.[ [ [ O.O.O.O.O.O.O.O.} O.+.O.+.7.T T O.+.O.O.O.O.O.8._ P u.[ E ` E ` O.#.O.O.O.O.O.+.+.#.+.+.+.8.] E ` / [ 7.' / } O...o.+.O...#.) T [ O.[ } O.} ( ( [ _ [ _ ( [ [ [ O.+.} [ O.7.O.O.O.O./ _ +.O.+.+.+.+.O.+./ _ 8.] T / / ' } O.[ ' / R / T ~ T r g / T V z J J ( ` P T / ( / / ( / P P P P ( ( ( Q ( ( / ( ( ( ( ( ( _ _ ' ( ( / / / / ( ( _ ~ P ( ( ( ( ( ( _ ] K ` 7./ T T T ' 7.+.O.O.} } O.O.O.O.O.+.} ] T ` E ` +.[ P } _ _ } _ _ O.{ [ T ' } _ O.} _ _ [ O.} } } O.{ O.} } [ _ _ ",
"/ ( ( _ ( _ _ } } } [ [ O.O.O.[ P _ _ { { _ ( _ ..[ T / 7.] L I / O._ _ _ _ ( [ [ _ _ } [ [ O.[ U U U / O.[ U ' } } [ O.} _ O.3.P P [ [ _ _ O.O.[ ( ( _ O.O.( ( ( _ _ [ [ ( / ( [ } } } ` T [ O._ O._ ( _ _ ` P _ O.` T T ) O.O.O.} } _ [ [ _ O.( ( _ _ _ / J P / _ / P / ` ( ( ( ( ' P U J P / ( _ [ } [ O.[ / ( [ _ ` / T / / ( ( ` T / T P / P n z ' T w y / _ ' [ ` J [ / P T I T ] [ ( [ _ _ ' _ ( ( _ } _ { [ / T / _ 7.( ` O.{ ..} ( _ _ } / S _ _ ( ( ) _ { .._ [ O..._ [ [ O._ ' _ O.O.O.O.O.[ [ / R O.+.O.8.O.+.8.8.[ / O.O./ T T _ O.O.O.O.O.O.O.O.[ _ _ _ ( _ [ T U T _ 7.E ` 7.+.O.O.} [ +.O./ / } +.O.O.O.O.O.O.O.O.O.[ } O.} _ O.} } O.[ [ _ ( _ [ ` T [ O._ [ _ ( O.O._ P [ 7./ T E ] O.O.O.O.O.} +.7.+.7.7.O.+.+.7.] T E ` 8.7.` 7.r.+.+.8.8.+.#.O.R ` O.O.O.O.O.+.O.+.[ [ _ [ [ O.O.[ O.7.O.O.} O.O.8.O.7.T / 7.O.O.+.} } O.+._ P 7._ / T E O.+.O.O.O.O.O.+.+.O.+.+.+.+.+.7.' E ` ( O.( ( O.O.O.O.+.O...+.` T ] _ } O.O.O.[ } _ [ _ ' ( } [ _ [ O.O.O.[ O.O.} [ [ / ` +.+.O.+.+.O.#.O./ ' 8.] T ` [ 7.O.[ [ ] R P P U U 0 9 J / ~ P z z J ` T J / ) / ( ( / / / P Z ( ( ( / D F / ( ( ( ( ( ( _ ( ( ( ( ( _ ( / ~ ( _ ' P ~ ( ( _ _ / ( [ ' U ` O.` U Y ` O.} } } O.{ } { } O.O.} O.+.O.^ T T ` O._ P [ } _ _ [ [ { O.[ T [ _ } [ } [ } _ } O.O.[ { { O.} [ ( [ _ ",
"( / ( ( ( } _ } } O.} } O.[ O.[ P _ O._ .._ _ { O.[ T ` 9.) P / [ | ( _ _ [ [ } } _ _ [ [ } O.O.` U U ` +.,.P ' 7.} [ O.O._ O.7.P P [ [ _ O.} [ [ _ ( [ } ( / ( _ _ _ _ } _ ( _ [ } _ [ / R O.O._ O.[ _ { } _ T _ O.R U ` +.O.} O.O.[ ( ( / ( ( ( _ _ _ O._ P J R _ / P ` _ ( / ( [ ' P P R T _ ( / [ [ [ O._ / ( / ' / J / ) ~ ` _ _ / ` / P ` / G J ` ' n 0 G ' / _ / J [ / K I T [ [ [ _ [ [ _ _ [ ( _ } } _ { O.[ T R _ 7./ _ +.} { _ [ } ( } R P [ [ _ ( _ O.{ { _ _ _ _ _ O.[ O.[ _ O.+.O.O.O.[ } 7./ T O.8.O.8.7.+.8.8. ./ O.7./ U ` +.+.O.O.O.} } [ _ _ _ _ [ _ _ } ' U L _ 7./ ` 7.+.O.O.O.[ +.O./ R O.+.O.+.O.O.O.+.+.O.O.O.O.O.} O.{ [ O.O.[ ( ( _ O.[ / T [ O.[ _ _ [ O.O._ T  .7./ P ` O.+.[ O.O.O.O.+.O.8.7.O.7.7.O.8.7.` U ' 8.9.` 3.r.8.8.r.8.+.+.O.R ` O.O.O.+.O.O.[ [ O.O.[ O.[ O.O.O.O.O.} [ O.7.O.7.O.[ E ` +.O.O.O.} O.+.8._ P 8._ T / [ +.+.O.+.+.O.+.O.+.O.O.+.+.O.+.#.7./ / [ 7.( ( O.+.O.O.+.O...+.` T ' ( } O.} O.O._ ` _ ( ' _ O.} ( ( _ O.O.O.O.} ( [ O./ ` +.+.O.+.+.O.#.7./ _ 8.` T ,.7.O.O.[ } _ / T J z y 1 y ( ~ / / J z J ` / Z / ( / / ( / ( ( P Z / ( Q ( / D / ( ( ( _ ( / / P / ( ( ( _ [ ( ( ( ( _ P ~ _ _ ( ( ( ( _ ] L ` 7./ U T ] O.[ } } _ _ O.[ ( [ [ [ } O.O.[ / U ` 7.] P [ O._ _ O.[ } +.[ P 3.} O.} } } [ [ O.} O.[ } O.} _ ( _ } _ ",
"/ ( ( ' ( _ _ } _ } } } [ [ } ] P _ [ _ _ _ _ O.O.[ T ` 7.` ( O.} _ _ _ _ _ [ [ _ O.{ _ O.O.} O.O./ K ` O.,.P ` [ } } } } O.[ ] U T _ _ ( [ } O.[ _ _ [ _ / / _ _ _ _ _ _ [ } O.[ ( ( [ / P [ O.{ _ _ } O.[ ' P _ O.R T [ O.{ { _ ( ( _ ( / / / ( ( [ [ [ O.` J R _ / J / _ ( / ( ( / K T K P [ ( / ( _ [ [ [ ( / ~ ` D P / ( / ' ( _ _ ` P / [ ' J J T ` ^ I j K ( _ U J ] T Z I [ O._ _ _ _ _ [ [ _ _ } } _ _ { { } ( R _ +./ ( O.{ _ } _ O.[ _ / P [ _ _ O.[ } O.{ O.{ ( _ _ _ } } [ O.O.O.O.O.[ } [ O./ T O.O.O.7.O.8.8.O.O./ } 7./ ~ } +.O.+.O.} [ [ [ [ _ _ _ _ _ _ [ O./ K ` 7./ / O.O.O.O.[ } O.[ / / } +.O.+.+.O.O.O.+.+.O.O.O.} O.} [ [ O.O.[ ( _ [ [ O./ P _ _ } _ _ { O.O.` P [ O./ ( O.} } } } } } O.O.O.O.O.O.O.+.O.O.8.3./ _ 8.7.` [ 7.+.8.8.8.8.O.[ R / } [ O.O.+.+.} O.| O.O.[ } O.O.+.O.[ [ O.[ O.7.} [ [ E ` +.O.O.} } O.+.+._ P 7.] T ] 8.#.O.+.+.+.+.+.O.+.O.O.O.O.+.+.O.8.] / [ +._ ( O.O.O.O.O.O.O.O.` T ` [ [ } } [ _ _ / / / _ [ } O.[ ( _ [ | O.} _ ( [ [ / _ O.O.O.+.O.+.+.7./ ' 8.[ ] O.7.} } O._ ` / J x k 2 q K ~ P ~ P P J Z ' T z K / / P D / ( ( D Z P / ( ( / / W / ( ( ( ( P D / ` ' ( ( ( ( ( _ ( ( ` P P ( ( ( ( / _ _ ` J / 7.) R _ O.[ O.{ _ ( ( _ ( _ ( ( ( [ _ } O.' U ( 7._ P _ _ } _ [ { O.} ` U [ { O.} [ _ } } O.} _ _ } } } ( ( ( [ [ ",
"/ ( ( ( ( _ _ [ ( [ } } [ [ [ ` P _ ( ( _ _ { O.[ ` T ` O.[ } O.} _ ..{ _ [ O.[ [ _ _ O.} O.O.O.O.[ T ` O.,.T / ' O.} } } 7./ / U T _ [ ( _ } O.[ [ [ _ ( / ( [ [ ( _ _ _ O.O.} _ ( ( [ / P ( | _ O.O.O.O.( ( / _ O._ _ O.[ _ { ( ( _ } [ ( / ( ( ( [ } } O._ ( _ _ / Z P / ( ( ( ( P S ` J K / / ( ( ( [ ( } [ [ ( _ / / R / ) _ ( ( ( ' ( _ [ ` J U T J J U v J / / U L ] ~ P ` O.O.[ [ _ _ [ O.} [ ( _ ( ( _ O._ O.[ ( _ +./ / _ ( { O.} O.( ( / P  ._ _ O.O.O.O.O.{ } _ O._ _ [ _ { +.O.O.O.O.[ O.[ O.` / [ [ O.7.+.8.O.[ O.R [ 7.[ } } O.O.+.O.O.O.} O.O.[ O.[ _ [ ( _ O.[ ( _ 7./ ` [ | +.O.} O.[ ( / / } O.O.+.+.+.O.[ [ O.O.O.O.O.O.[ O.O.O.O.[ [ O._ [ O./ T ) ( } [ } O.O._ ` T _ O.| } O.} [ O.O.} O.[ O.O.} O.O.} O.O.+.+.7.} O.+.7.` ,.[ O.r.8.8.O._ [ E / _ [ | O.+.7.+.7.| O.O.[ O.O.} 7.O.[ [ O.[ O.7.[ [ 7.E ` O.[ O.O.O.+.+._ [ R 7.} _ 8.O.+.O.O.O.O.+.+.+.O.O.O.O.+.+.+.O.+.O.} ..+.( ( } { O.O.O.O.O._ / T [ O.[ [ _ _ ( [ _ ( ( [ [ } O.} [ O._ [  .[ ( [ [ [ / ] _ +.+.+.+.#.+.} / ' 8.8.7.7.O.O.7.O._ ` / J J l 0 J / P P P P P T ~ ( T Z K R / Q / ( ( P Z Z R ( ( ( ( ( Q / ( ( ( ( / P _ _ ( _ ( / / ) ( ( ( ( P ~ ( ( _ ( ( _ ( P K ` +.O._ [ } [ O.} _ [ _ ( ( [ ( ( _ O._ } O.[ ( [ 8._ P ( ( O.} } } O._ / P [ _ O.} [ [ O.O.O.[ ( _ O.} +.} } ( [ } ",
"/ ( ( ( ( _ ( _ _ [ [ [ [ _ [ / J ] / D _ O.O.( / ] T ` [ _ O._ _ { _ _ { [ } O.( _ [ O.O.O.[ [ ( _ _ ( O._ P / ` _ [ 7.7.( ~ ' L U ] [ _ _ ( [ O.} [ [ ) ( ( _ ( ( ( ( _ O._ ( ( _ ( _ R P _ ( ( O.O._ / / _ / / [ _ O._ ( _ ( ( [ _ _ _ ( ( ( ( ( ( [ [ ( _ _ [ _ P Z T / P / ( / Z P / J J / / / ) ( _ ( _ ( [ _ / / ( P ( ( _ ( / ( [ } _ ' / Z T T l j n v n U ` J J [ _ ( } [ [ O.} _ _ [ [ O.[ ( ( _ [ _ _ _ O.} _ { O.P T ' Q ( +.O.[ D / R K [ O._ [ [ O.[ [ [ O.} _ _ _ ( _ O.O.O.O.} } O.{ O.O./ ~ O.) _ 8.8.O./  .O.R _ O.O.O.} O.} O.O.+.+.O.O.O.} [ } } ( _ _ { } _ { O.T / _ ) _ +.+.[ / ` / R O.+.O.O.+.+.O.} _ } O.O.} O.O.O.O.O.O._ _ O.O.} ..[ P P _ ( ( O.O._ ( ( ` T _ O.{ } _ { { [ O.+.O.O.} } } [ [ } O.O.+.O.O.O.} +.7./ [ [ ( 7.r.8.` ` ,.U / } [ [ O.[ +.8.O.O.[ [ O.[ [ O.O.[ [  . .O.O.[ O. .,.E ` 7./ } +.O. ./ [ _ P O.O.O.+.O.O.{ O.O.+.O.+.O.O.O.O.O.O.O.O.O.O.O.O.O.O./ / } ( ( +.+.O.( ' ' T [ O.O.[ ` ' [ } } [ ( ( [ O._ } O.} [ O._ _ _ ( [ [ / ] _ _ O.r.8.O.( O.` / 8.8.7.7.O.7.O.[ _ ` P U v 8 G ` P T P S P P / / ( / Z P R D / _ ) D Z Z J / ( / ) ( ( ( ( / ( ( ( ~ ` ( ( ( ( ( ( ( / / _ _ / K ~ ( W ( _ ( ( P U J ` O._ [ ( _ _ _ } { _ } _ ( _ ( _ _ _ } } [ } } { O._ P _ / ( [ O.[ ( / ' P ' [ _ } } } } O.O._ _ _ [ O.O.O.} _ } [ ",
"( ( ( O.} ( ( _ } } [ [ } _ [ ` J ] ` D / O.[ D ( 7./ ` [ _ _ _ _ _ ( [ { _ [ [ _ | [ [ _ _ ( ( ( [ [ ( [ _ P ` ' / / ,.] P [ ,.U U ] [ _ ( ( [ O.[ [ [ ( _ ( ( ( _ ( ( } [ ( / ( [ ( ( R P [ ( R _ O./ D ( } ~ / [ _ [ _ [ ( ( } O.[ ( _ [ [ ( _ ( ( ( [ ( ) / [ ( P Z / ` Z S / P P / / Z K _ ) / ) ` ( [ [ ( ( ( / ( ( / ( ( ( ( _ _ [ ( [ ' / Z T E G n n n n J ' J J [ ( ( O.[ [ } } } O.[ } O.[ ( } } O.( _ [ } } _ O.} P P O.) D [ [ / P  ./ Z [ | O.O.O.[ ( ( [ O.} _ ( ( _ O.{ O.O.O.{ } O.O.O.} / / 7._ R  .7.) ( 7.[ P _ +.O.O.} } } O.O.O.O.O.O.+.O._ [ [ ( O.{ _ _ ( O.O.P T 7.) R [ O.( ~ [ ` T } +.O.+.+.O.+.O.} O.O.O.O.[ O.O.O._ _ _ _ [ O.O.O.[ P P O.( / [ O.( D [ _ T [ O._ O._ O.O._ O.O.+.O.O.O.O.[ O.8.8.O.O.O.7.O.| 7.7./ [ 9./ ] u. ./ 7.7.T / 7.O.[ O.O.O.+.O.O.[ [ O.} [ O.O.[ O.O.[ O.O.O.7.O.,.E ` 7./ / 7.O./ / 7._ P 7.7.O.} O.O.O.O.O.+.O.O.O.+.O.O.O.O.O.O.O.O.O.O...O./ ~ O._ / [ O._ P O.} T [ O.| ( _ [ _ } } O._ ( [ } _ } O.} O.O._ ( [ [ [ [ / [ O.` _ O.O.( _ 8.` / 7.7.O.8.O.+.O.[ [ _ I j 7 y / ( P T P Z D / / P ( ( Z T / S K T T Z P / Z / ( / ) ( ( ( ( ( ( ( ( / / ( ( ( ( _ _ ( _ ' _ _ / J / ( D R _ ( P P ' J / O._ _ ( [ O._ [ [ } O.[ ( _ [ { _ O.O.} _ [ } _ +.' P O.( / ( [ ( / _  .U / } ( } O.O.} O.} } } _ _ O.O.[ _ [ O.[ ",
"( ( [ O.} ( ( _ } } O.} _ _ [ ` Z _ _ ( ~ ( R / O.7./ / } ..{ O.{ { _ _ _ { _ [ ( [ } [ ( ( ( _ [ } [ _ ( ` K ` ,.] P U U ] 3.[ U T ,.[ _ [ _ [ [ [ ( ( _ [ ( ( ( ( ( ( _ _ ( ( ) ( ( [ / D [ O.( / / R ( _ [ P / O._ ( _ [ _ ( ( [ [ ( ( ( ( ( ( ( ( _ [ _ ( / / / P z T _ P z J P / / R Z P _ ( ) ( ( _ _ _ ( ( ~ ( / / ( ( ( ( _ } ' ' / _ ' / J U T P / ] T J n U n l ^ / / ` _ [ _ } O.O.O.O.} } [ [ { O.} [ ( _ ( _ } } P P O.[ R R P ( [ O.( S [ O.O.O.O._ ( ( [ [ _ _ ( ( [ O.O.O.O.} { O.O.O.} [ R / O.+.) ) ) ( } 7.] R [ O.O.O.} O.O.O.O.{ _ O.O.O.O._ ( [ } O.{ { ( ( O.[ P T 7.[ R / / ( _ O.` P _ O.+.+.+.O.O.O.O.{ } O.O...O.O._ _ _ } _ ( [ O.{ } / D [ [ ( ( _ / _ } ` T _ O._ } O.} O.O.[ [ [ [ O.O.O.O.8.8.+.O.} O.O.O.O.+.7./ [ d.O.) ] ` _ 8.[ R ' 7.} O.O.O.O.O.O.} O.[ [ [ O.O.O.} O.} [ [ O.O.O.O.5.T ` 7. ./ _ / / } O._ P 7.8.+.O.O.+.O.O.O.O.O.O.O.O.+.O...O.O.O...O.O...{ O./ ~ O.O.( ( ( ( ( #.[ T [ O.( [ [ [ _ [ O.} [ _ _ _ _ [ [ O.[ [ ( [ } [ O.[ P _ 7.O.( ` ( _ 7.9.` ` 7.7.O.O.O.O.7.7./ J c 2 9 T / ~ T K K T T ~ / P ( / z P ` P z J I Z ( / Z R ( ( ( ( Q Q ( _ _ ( ( ( ( ( _ ( _ _ ( _ [ _ ( / / Z T ] / D R T P ( _ Z T [ | [ O.[ [ [ ( ( [ } [ [ _ _ { O.O._ _ _ } _ { +.) P } } ( P ` P ( _ [ T / _ ( [ O.O.O.{ } _ } _ ( } } _ ( [ } } ",
"_ ( _ } _ ( ( [ _ } [ _ ( ( [ ` Z ` _ } ( ( / O.O.O./ / O.O...O.O.O.O._ ( _ _ } ( _ O.[ ( ( O.O.O.[ [ [ ( ` K ` 7.7.` P / 7.[ ' T T ,._ _ O.O.O.O._ ( [ } [ _ _ _ ( _ _ ( _ [ [ _ ( ( O.( P [ +._ ~ P ) O._ ( P ( +.[ [ } [ _ / / ) | ( / ( ( ( ( / ( O.O.( ) / P / R V P [ ( Z K ` _ P ~ J ~ ( ( ( ( ( _ ( _ ( ( ( _ / / ( ( _ } [ _ ( ` _ _ _ ] J P P P [ O.[ / J G j e z R / / ` [ _ | [ [ [ [ [ O.[ } } } } _ ( ' _ O.{ } R R [ } [ / T  .O.+.[ S [ +.O.O.O.} _ ( [ } _ _ ( _ } } O.O.} } O.O.[ ( [ O./ R [ #.+.) ` O.7.[ ] / [ 7.O.O.} +.O.O.+._ _ O.+.O.O._ ( O.O.} _ _ _ _ O._ P T O.+._ / / | O.} ' / _ +.O.O.O.} } } [ } { } O.O.+.O._ O.O.[ [ _ [ ( [ O./ P [ O._ / / [ +.} ( T _ O.O.{ O.O.+.+.O.( ( _ O.O.O.+.8.O.} } O.O.+.O.O.+.O./ [ u.8.O.' _ u.O.[ / ] 7.[ O.O.O.O.O.O.O.+.} _ [ O.} [ O.O.[ O.O.7.O.O.O.5./ `  .+.[ ` R O.O.O.` R 9.8.r.8.+.8.O.O.O.O.+.+.O.+.O..._ O....._ _ O.{ { O./ ~ { X.{ _ ( +.} O._ T [ [ _ O.} [ [ [ [ [ _ [ _ O._ [ O. .[ ( _ +.O.[ O.[ / _ +.#.} ' _ 8.+.3./ / 7.8.O.O.O.7.:.U k j q 6 U [ / T K J T ( / ~ / / ( R z Z ` / Z J U ( _ / P / ( ( / ( ( ( ( ( ( ( ( ( _ / ( [ _ ( _ _ _ ( / ( ~ J P _ [ ( / T _ O.( Z ~ [ } +.+.O.O.[ _ ( ( _ } [ { _ O._ _ _ ( _ } { O.O._ P [ O.[ ( / ( +._ ' T / } [ ( } } O.{ O._ O._ _ [ [ ( } _ O.} ",
"_ ( / _ _ ( ( _ _ _ ( ( ' _ } ` Z ` ' ( _ O.[ [ _  .R / O.O.{ O.O.O.O.O._ _ } [ _ [ O.[ _ O.} ....O.} ( ( ` P ` ] _ [ [ ,.[ / ' / T ] [ [ } O.+.O.[ [ _ } O._ ( [ [ ) ( ( _ O.O._ ( ( } ` P _ O._ ( ( [ [ ( ( P ` O.[ O.O._ ( / ( [ _ ( ( ( ( ( ( / [ [ | [ ( / ( / T V P ( / / _ _ ~ D ~ J ~ _ / / / ( _ _ _ ( ( / ( ( / / ( _ [ _ / / ] _ _ _ ` K T U D [ [ _  .U b j n n G J ` ` ` _ [ _ [ ( [ [ [ } O.[ [ ( _ ( _ } } } [ R P [ ) ( } [ O._ O.[ S [ O.+.+.O.O.[ [ [ [ _ [ _ _ _ O.} O.O.O.} [ ( _ } [ E E [ [ } O.O.8.O.] ,./ [ 7.} O.O.} O.O.O.O.} } O.+.} ( ( } +.O._ _ } _ { O.P ^ [ } } [ _ +...( _ / [ O.[ [ [ } } } [ } O.} } O.O.} } } O.O.[ _ _ ( [ O./ P [ _ _ _ ( _ O.{ ` T _ O.[ O.O.O.O.O.O.[ [ _ [ [ O.O.O.} } O.O.O.O.O.O.+. ./ ,.[ O.8.7.7.7.` [ / ` 7.[ [ O.} 7.O.O.O.O.O.[ [ } O.} [ O.O.7.O.O.O.O.[ 5./ ' 5.[ O.[ [ +.} [ ` R 9.8.+.8.+.8.O.O.O.O.O.O.+.+.[ _ _ O.O._ _ _ _ { { O./ ~ _ ( { O.+.+._ } ` T ] [ [ } O.7.O.[ [ _ ( _ _ [ [ [ [ [ ( _ [ } O.O.O.O./ _ [ O.O.O.O.+.O._ ^ / 7.7.7.O.7.' j w a w 7 I [ _ ` P Z P ~ / / ( / P ( R z V P / ` R / / _ / Z / ( R ~ W ( ( ( Q / / ( R R / ( ( ( ( ( ( ( / ( _ ` J U ( ( _ [ _ } [ / J / _ _ +.O.+.} [ O._ ( _ O.O.} } } _ _ ( _ ( _ O.} O._ P [ _ _ _ _ _ O.( ` T / O.[ { [ ( { O.} } _ [ [ _ _ ( [ [ } } ",
"_ P J ~ _ _ ( _ _ ( ( ( [ [ [ ` Z ] ` D / +.O.( / [ / ( O.O...O.O.O.O..._ _ O.[ ( O.O.[ O.O.[ [ | O.[ / ) ` P ) ) / ] 9.7.` K ` / P ] 7.[ [ O.O.O.O.O._ O.O./ T _ _ ( ( _ _ _ _ _ [ _ } ( P _ ( ( O.O._ / / ' P ` 7.} [ [ _ ( ( [ } _ ( ( ( ( ( ( [ O.[ | [ ( ( _ ( / Z T T Z ~ [ ~ Z P / Z ~ _ / P ( ` _ [ ( / ( ( ( P P ( _ ( [ ( ( ` } _ ( [ / J / T K ( } _ _ U n v U / J n L / ] _ [ O.[ [ +.} } } } O.[ ( [ } +.} } _ [ R R [ / R 7.7.[ R [ [ R ]  .O.O.[ O.O.O.[ _ [ [ / P ( O.} O.[ _ ( _ _ O.} [ R / ] / / +.8.7.` ' [ / } 7.} } } O.O.O.O.O.} } O.O.} [ [ _ O.{ _ O.O._ ..+.~ ( } ( ( +.+.} / ( [ / } O.[ [ [ O.O.O.O.} O.+.( _ O.O.} [ O.O.O._ ( [ O.O./ P [ ( Q O.O.( ( ( _ T ] [ ( _ [ O.O.} } O.+.} [ [ O.O.O.O.O.O.O.O.O.O.O.O.O.( 7.' / 7.u.7.[ / 7./ ` 8.O.O.O.O.O.O.+.O.O.+.7.` _ O.} [ O.O.O.[ [ [ O. .5./ ] 5./ _ +.O.O.( ` ) R 7.7.7.8.+.8.+...O.+.O.O.O.O._ [ O.+.O.} _ _ _ ..{ O.( / _ Q / #.+._ R [ _ T 3.7.[ } O.O.O.O._ _ [ [ / / [ _ ( [ ( } [ [ O...O.O./ _ _ ( _ 8.O.} ( ' / ` 7.7.O.O.8.` 9 i p 6 k [ _ ` R Z J / P P ( ( ( ~ / T J G Z P ` _ ` P ( P Z ) ( / / / / Q ( ( ( ( / P K ` _ ( _ ( ( ( / ( _ _ [ T / _ D P [ O.' ~ / P ( [ _ [ [ } [ } O.[ ( _ O.[ ( } } [ ( [ } ( { O.( [ _ P [ ( / ( +.} _ P ] ~ ` } _ O.} _ O._ O.O._ } _ / [ _ _ [ { } ",
"/ P J P / _ _ { _ _ ( } } [ } / Z ' ` P P _ ] P T ] / / O.O.....O...{ .._ _ } [ ( _ [ } } O.[ } [ ( ( ( ( ` K ` ` P E ,.,.T J ` E P [ } _ [ [ [ [ [ _ O.[ / P U T ( ( ( ( ( ( ( [ O.O.O./ P ] / P _ O./ D / ' P ~ } [ _ ` _ _ [ [ _ [ ( ( _ [ ( _ } } O.[ ( _ ( ( O.( Z T T z J / P Z P / Z ~ } ( _ ' ` _ ' ' ( ( _ / Z J ( _ _ _ ' _ ' _ [ [ [ ( Z / ` Z T _ ` T J J n z / ` K G J ] _ [ [ O.O.O.O._ _ { O.[ [ } O.O.O._ _ [ T R [ / P ` [ / P ) [ P _ [ ) ( [ } } } _ } _ / T T / _ O._ ( ( ( O.} } O.O.R / ] R U ] 7.` P ' ,./ } 7.} } } O.O.O.O.O.O.O.O.} [ [ [ _ ( [ } O.O.O.{ O./ ( O./ P [ O.( P _ [ / } +.[ O.O.O.O.O.} O.O.[ / / } +.} _ } O._ [ } O.O.+./ D [ ( D ) O.( P / _ T ' } ( ( [ O.O.{ O.} O.+.O._ } O.O.O.O.} O.+.7.} } O.[ / 7.] P ' 7.,./ / 7./ ` 8.+.7.7.O.O.O.O.O.7.} ` T / `  .O.O.} [ [ [ [ 7.7.,./ ) 5.T R [  .` R ` ` R 7.+.+.+.+.+.O.O.O.O.O.O.O.O.} +.O.O.O.O._ } } { ..O./ / [ ~ P [ } ` T [ ] / 7.+.O.O.} O.} } _ _ O._ P P ` [ _ _ _ [ [ [ [ _ O.} / ] _ T /  .7.[ / ` / / 7.8.7.} O._ c q 6 l / ( ` R Z J T T P P T / ` / ~ P J L K Z P E P K P J Z / _ _ ( ( ( ( ( / _ ( P P T / _ [ _ ( ( / ( ( ( _ _ / / _ P J / _ P S / D / } [ ( _ [ } [ } } ( _ O.( / [ O._ _ [ } { _ ( ( _ [ P _ ( P T [ [ / T [ ~ / } _ _ O.} [ _ } _ O._ R K / [ _ ( _ _ ",
"P K U P P ` [ { _ [ [ O._ [ } / Z ' / P K T / P R ] R R O.O...O.{ { { O.} ( _ _ / [ [ O.} O.} _ ) ( ( _ [ ` K ` ` U I U E U L :.E U ] [ [ _ _ } [ ( [ | ( U P E P / [ [ ( ( ( [ [ [ _ [ / ~ [ / K T ` P P / ) P P [ [ ( _ [ } } [ [ [ ( ( ( _ _ } [ O.[ _ _ [ ( ( O./ Z T R V J R U J P / J T ( / ` ` ' _ ( ( _ _ ~ T P K U _ } _ _ [ _ _ [ [ _ ' P ` / K P / T K J T J n n / ( U V T ] } [ O.O.O.O.( _ O.} O.O.O.} } [ _ } } R R 5./ P T / P P [ _ P [ [ ( ( [ O.} _ } } ( T T / T ` [ } _ _ [ O.O.[ O.7./ / ] ` P ` ] R U :.[ ~ [ O.O.O.O.O.O.{ ..+.O.O.O.} [ O.O.[ _ } O.[ O.O.{ O./ ` O./ T / ` / T [ [ / } O.[ O.O.O.O.} } O.[ / T T / _ } O.} } { O.+.O.O.O.( P [ ( D R _ / P ( ` P ' O.( _ O.[ } { O.} O.O.[ ( _ O.O.O.+.O.O.8.7.} { +.} / 7.] T E :.] / ` 7./ / 7.+.O.O.O.O.O.O.O.O.` T T T U [ O.O.O.[ O.7.7.7.7.,./ ] 5.R E ' ] / R ] ` R O.8.O.O.+.+.+.+.O.O.O.O.O.+.O.+.O.O.O.O.} } O.{ { +.( / } / P ` _ ` / [ _ ` O.O.O.[ [ O.[ _ [ } [ ` T T / [ [ [ _ ( [ } _ _ O.} / ] ] / T ] [ ` / ] / ~ } 8.O.O.O./ a q g ( ( ~ / P Z / ` P K P P T ` / / P G L P J L I J J P P Z P _ ( / D Q ( ( ( ( / D / / P ( } _ / / / ( / ( [ ' P / _ R J T / J P / S / } _ [ _ [ O.[ [ O.[ ( O._ ( [ O.{ } { } [ _ ( [ } ] P _ ` T P / ` ~ / [ T / } _ _ O.O.[ _ _ _ O.( P L P _ _ ( _ _ ",
"U U U U K R ' } _ _ _ [ } _ } ` J ' / K P P P P T ` T / [ } } O._ { { O.} _ ( _ _ _ _ O.O.O.} [ ( [ _ ( _ _ P / ` I J Y I U U ` ` I ' [ _ [ [ [ [ [ [ / P P T E T P / [ [ [ [ [ [ ( ( [ / ~ ] ` L U P P P / ' P P _ _ _ _ _ _ [ [ [ _ _ ( ( ( } } } _ ( _ _ [ _ ( ( R Z T T Z J T T P P T J J / P P ` / ( ( _ / T U T U U J R _ [ _ [ _ [ ' ( [ _ P ` ) P U P P P J T / J k Z ~ ' P J ] [ [ [ } } ( ( ( [ } O.} } _ _ _ } [ [ R R ,.R K P U T P _ [ R _ O.} O.[ } } } } _ T T T / / ` ( [ O.} _ [ O.O.O.7./ / ] / T E E T T ' :.~ _ } } } O.O._ _ _ O.O.O.O.O.} O.} O.} [ O.} O.O.} O.` ( [ ` T E T / / _ [ / } O.} O.O.O.} } } _ / T T E T ^ _ O.{ { O.+.+.O...O./ P _ / P T T / / / ` T ` } [ _ } } } _ [ } } [ [ _ } [ O.O.O.O.8.+.O.} O.+.} ( } ] T E ` / / / ,./ / 7.} } O.O.O.} O.O.` / ` T T T / [ +.O.O.O.O.+.O.O.5.R ] 5./ E ` / / / ` ] / O.7.O.O.O.O.O.+.O.O.O.+.O.O.+.O.O.O.O.} } O.} O.{ O.( ~ } / P / / ` / _ [ ( O.O._ [ O.} [ } } [ ( / T / T T [ O.( ( _ } [ _ O.O./ ` ' / ^ ` ` ` / / T T ] } ' [ O.N 2 y / / / ( P Z P / / Z Z P P T T P / P z I P J J J J Z / R S ( ( D D D Q Q ( ( / J P / / U P ( _ ( ( / / / ( _ ( K T ` P K P U J T / Z P _ _ ( O.[ O._ _ O.( ( [ [ _ _ _ { O.} { ( _ _ _ } ' T ] / P T ^ T / / ] / / [ _ } } O.[ ( _ [ / P E U K T [ _ _ _ ",
"T T U T U P / [ } [ ( _ } _ } _ K ] / K P P U R T ` E R [ } _ O...O.{ { O.{ _ O.O._ _ O.O.O.O.O.} O.[ ( _ [ P / / I I L I U U ' / J ] O._ O.O.[ [ O.( P U E T T / T P ` [ ( ) ) ( ( _ O.( ~ ] ` U U U T T ~ ' ~ / [ _ [ } _ _ _ [ _ _ [ ( / ( _ _ _ ( _ [ _ _ ( / / R J / T K J P T P J T J K / P P / / ` / R J J U T L P U U T _ [ [ ' _ ( ( } _ P / ] P P P U R P T / P J J k T / ^ _ [ [ [ [ [ ( ( ( ( } O.[ ( _ } _ O.} [ R / ] P L U U R P ` [ R [ | ( ( _ _ [ O.` ^ T / / ^ ` ` / ) [ O.[ [ [ O.O.O./ ` [ / T T T E T ' :./ _ } [ [ } O.} O._ } O.O.O.+.O.} O.O.O.} O._ _ O.O.O.` ` [ / T E T / / _ _ / [ +.O.} O.O.} O.[ / T ` E E ` ^ / _ O.O.O.O.O.O.{ O./ / } / P T T / / ~ ` / ` O.O.[ [ O.} _ _ _ _ } O.O.O.[ [ } O.O.+.O.[ } O.O.[ ( O.' T E E E / / [ / R O.[ O.O.} O.O.O._ ` ' ' T T / ^ / [ O.O.[ | O. .O.7./ _ 5./ E E E ` R ` [ / 7.O.+.+.O.+.O.+.O.O.O.O.O.O.O.+.O.O.} } O.O.} O.} +.( / [ / T ^ / ' / ] [ ( +.+.} +.O.} O.+._ ( / ` T / T P / [ _ _ ( } O._ } [ / ] ` ` / / T ` / ^ T ~ / ( / ( _ 0 # Z ( W / _ P Z / ` P Z J P / P P P / K J J L G V L J J T R / ( ( / / ( ( ( ( / D J P ~ ~ U J T ( _ _ ( ( / / ( / K T T J K U U J T ( D P _ [ [ O.O.[ _ O.O._ ( _ O.O._ _ ( _ } _ ( O._ _ O.` T ] T U T T T ` / ] / ` } O._ } O.[ ( _ / U U R P L K ) _ _ _ ",
"P U U U P ^ T ` } } ( _ _ _ } ' P ] T J K P L P T ' / R O.O._ _ { ..{ ..{ { { { _ [ _ _ } O._ } } } [ ( [ ' J R T I I I U L U ' P J / _ [ [ [ O.[ _ R T T P T E ^ T U U ( ( ( / ( _ [ } ( ~ [ ` K P U U U / ` P / } _ _ [ [ _ ( ( _ _ _ _ ( ( ( ( / ( ( ( [ _ P R ( / Z / T J J L J J K T Z J ' ( / T ` ` P J J K L U U L U T U / ( _ _ ( ( _ _ ` P / ` S P T K U P ~ T Z / / J z z ^ _ _ _ [ ( ( _ ( ( ( _ [ ( _ _ } } _ O.O.T R ` P K P U P P ` ` P [ [ ( ( ( [ _ ' T ^ ^ / E E / / / / / [ | | _ [ O.7./ / ] / U T T T T ' ' ~ _ O._ [ _ [ O.+.+.O.{ O.O.O.O.O.O.O.O.O.} [ _ [ O.O./ / ] / T E E T T _ _ / } O.} O.} O.O.[ / T E T T T ^ ` T / [ +.O.{ _ _ O.} ~ / } / D T T T T / ` T _ +.} O.{ _ { _ _ _ { } O.} O.O.[ _ [ } } _ } _ } +.[ / [ ' T T E T E / ] T T O.[ [ O.} O.+.[ ` ` ` / / / E ' / / _ O.O.O.[ O.O.[ / _ [ R T ` E E E ) ] R O.7.O.+.+.+.O.O.O.O.O._ { O.O.O.O.O.[ _ [ } O.{ { +.( / [ / T ` / ` E ] _ ( } O.+.O.O.+.O.} ( / ` / T T T / T ( } } _ { } } _ _ ~ ] _ T / / T T ~ / U J ~ / P / z @ 9 P D P / / / / P P P Z P P P / P D ~ P J I J V J J K J K P P / ( ( ) / / ( / D D T ~ P T P T T / ( _ _ ( / / / / J P T J K T U J P ` P P [ [ } } } O.} { O.O._ } } ..} } ( _ ( ( _ } _ _ } ` P ` T T P T U T / ] / / O.O._ } _ [ [ / P T P U K U K P ( } _ ",
"T U U T T / T / ( [ } _ ( [ O.' P ] T K L P L U P ' E / [ [ _ _ _ O.{ { { { _ _ _ _ ( _ _ ( ( { _ ( _ [ } ` J T T L I U Y I L ` U J / _ _ [ [ O._ / T / T U T / T T P U T ) ( _ [ _ [ O./ ~ [ ` K P U L L / ' P / O.[ _ [ } _ _ _ [ [ ( [ [ _ ( ( / / ~ / ( / / ( _ ` Z T T J P L J J K T Z P ` ( / ' _ / J I L P I U P K U T ` / T ) _ _ _ _ _ ( P T / S K P J J K / T Z / _ _ U e j ^ _ _ [ ( _ ( ( ( [ ( _ ( } _ _ _ _ O.7.P J / P J T U K P ` / P _ [ _ ( _ [ / T E / T / T / T ` ` / T `  .O._ [ O.+./ / ] E U E T T P ] ' T [ O.} O.[ [ } O.+.} _ +.O.O.O.[ _ [ O.O.} O.O.[ } O./ / _ / T E E T P ` _ / } O.} O.} O. ./ T E / T T T T ` ` / / _ O.{ _ _ O.} / ~ _ / P T T T T / ` T _ O.} O.} _ _ O.} _ O.{ { } O.} [ _ _ [ } _ } _ _ +.[ / [ ' T T E T P E ] P / O.} [ } O.+.[ ` ` ] ` / T T ` ' ` / R [ +.O.[ O.O.[ R _ [ T T ` E T R _ ] R O.O.O.+.O.O.O.{ O.+.O._ _ } O.O.} [ _ _ _ } } } { +.( ~ _ / T ' / / / ] [ ( } +.O.O.+.8.} ( / ` ` T T T T ` / ` ( } ..{ { _ _ [ T ] ] T E ` P U T T I J / P 0 0 6 @ g T A D P ~ _ [ ~ ~ / P Z P P / / A P T J I J J J G L J K P Z P ( _ ( / P P P K P / / P T T R / R P ( ( ( / ~ ( / J U T J U E U J K T J T [ _ [ [ } +.} _ _ O.O.O.{ O.{ } } O._ ( ( _ O._ } / U ` T E U E P P E ] T / | { _ } } O.` P U E T P U P U P T _ _ ",
"T T P T T T / / ~ ` [ [ _ _ O.' J ' T K U U U L P ' P T [ _ ( _ ( _ { } { _ _ _ _ ( _ } ( ( ( _ _ _ _ _ } _ Z P / I I U Y I L ` L J ] [ ( [ [ _ / / E / E T U P P T T U U P ) } [ _ _ [ / P ' / P U L L J / _ P / [ } } _ _ _ _ [ [ _ [ _ ( ( ( ( _ ' ( ( / / P ( [ T Z T P J L I J G J / Z A / ( _ [ / P P U L T P U K P U T ` ` / / ( } } _ _ ( K P R P J K K J J ` P Z ` _ [ [ U 9 w ` ( ( / ` / _ ( ( ( ( ( [ _ _ ( [ } [ P K / K L U U J K ` / K _ } O.+.[ ` / / ` ` T T T / T ` / ` E R ` O.} O.O.O./ / ] T U T E T T ] ' / [ O.O.O.O.O.} } O.[ [ O.O.O.O.O.[ [ _ _ } } O.O.} } / ( [ / T E T T U ` _ / } +.[ } O.[ / T T / / T T T E ` ` / ^ / ` _ } _ { } / P / P U T T T P / ] T / } [ O.O.[ _ } } { _ _ } O.{ _ [ [ [ _ [ } } [ O.O._ / [ ' T T T E P R :.T ` O.[ O.O.O. .` ' ' ' ' ` T T ` ' / ` R / [ 7.+.O.| O.R ( [ T T E E T T [ ] P [ O.O.O.[ [ ( } O.+.+.O._ } O.O.} } _ [ _ [ [ O.{ O./ ~ _ / ^ ` ` ` T [ [ / O.O.O.+.8.O._ ` / ` / / T T / ` ` ` / ( } .._ _ _ _ T ` ` T T T U U J Y n j J g @ # 8 s J K A P P ~ _ ' ~ ~ ( ( P J U T T P / P J L J z J I J K K J V P _ ( _ _ R P P T T P / / / P / T T / P / ( ( / / / K P P J U T T I J U J T } [ _ [ } O.O._ _ [ _ [ O.} { } } } } _ ( _ } _ } ~ P ` T P T T T U / ' P ( [ ( _ O.O.] P U E T P R T P U P L P / ",
"/ / T T R T R / / / / ] ,.[ } / J ] R U U L U U R ' P P } _ _ } _ ( _ } { { _ } _ _ } O._ [ ( _ [ } _ ( O._ Z / ` L U I Y I U ' J T ,.[ _ } _ R T / / T / U L L U T U L J K R ' } } _ _ / P ' / P L L L K / ] P ~ ] [ } [ _ [ _ [ [ _ [ _ ( ( / ( } } [ _ ( ( / ( ' T J ~ K J I I J J U ` A D ( _ ( / P P P T L P R T P P P / / ` ( / / [ } { } ( K P R P J L J K P ` T Z _ [ _ _ [ I 2 j ~ / P P P / ( [ ( ( ( _ } } [ } O.[ U T ` K L K U K P ' / K _ +.O.} ` / / ' / ' / T T T / ' ` ` E R R [ 8.+.O.O./ / [ R U T E T T :.] / [ O.O.O.O.+.} } [ } } O.O.O.O.+.O.} _ _ _ } O.[ O.O./ ( 7.` T ^ T E T ] ' / } +.} O.O./ T ` / / / ` T P / / / / / / T ( } [ { _ / ~ / P T T T T P ] ,.I / O.} O.+.O._ ( } { _ O.O.} } _ } O.} _ [ } } } } O._ / [ ' T E T E P / ,.T ' O._ +.+.[ _ _ ] ' ` ' ' / / ` ' ` ` / E R  .7.+.O.O./ ( O./ T T E E R [ ] P [ 7. .[ O.[ [ O.O.O.O.+.O.O.O.O.O.O.} O.{ [ } } } O./ / _ / / / ` ` / 7.O.( O.+.+.+.} ' ` ' ( ( ` ` T T ` ) ` ` / ( ( } { { _ ( T / R P T T U U J G q + 2 s g U Z z J Z P / T ~ ' ' / K / [ / J J I P / ( T J U U V I I J J L J J T _ _ _ _ / P T / T P T / / / / R R T P P / ( _ ( / P ~ T K U T T L I T P ~ _ [ } O.} O.} } } O.( ( ( _ } } { { O.} ( _ _ { } R P [ / T T T E T ' ] P ` [ _ O.+.[ P L P / E P P P L T T L L P ",
"T T / R T / T / / / ~ / ] ] [ / J ' ] P L T I P [ ,.P ~ [ _ _ } } } ( _ { { O.} _ _ _ } { _ ( ( _ _ _ _ O._ S / _ T J U U J / :.J P ,.O.O.[ T U E E T T T P U P T E L I U P P T _ } ( [ ~ P ] ` P L U J P [ ' P / _ ( ( [ _ ( _ [ _ [ _ _ ( / / ( _ [ } ( / ( / ~ ( T Z / R J J I G J ` ` Z P _ _ R P P T K P P P P R / T T ` / / T / / / _ } } / K T ) S J U J Z / ' T D _ _ _ _ ' ' N e / _ / R P ~ ( ( ( ( / _ _ O.7.O.[ [ P T ] T J L U K / [ / K _ O.} ( / ' / ` ' ' ' ` T T ` ' ' / T / E / 7.7.} O./ / [ ) P T T U / ,.' ~ } O.} O.O.O.O.O._ [ O.O.} O.O.O.O.O.} _ ( [ } [ O.O./ ( 7.] T E ` T / [ _ / [ O.O.O.` ^ / ` ` ` ` ` ` E T / E E / / / E ` [ } _ / / [ ( P P T P / 7.] I / O.O.} +.O._ ( _ _ ..{ O.} [ } } } } } [ _ } } { O._ / [ ] E T E T T _ ,.U ' O.O.O.[ ` ' ] ] ' ' ` ' ' ` / ' ` ' ` ` ` ` [ +.O.O./ ( 7._ T / E T ` 7._ R O.O.} } [ [ O.O.O.O.{ O.O.O.O.O.} O.O.O.O.O.} _ _ O./ ~ _ ( T ` ` E _ 8.O.( O.8.+.[ _ ' ` ' ` ( _ ` / ` ` ` ` ` ` / P ( } } } ( P ` R J U T I J I v < o 2 k / O./ z z K P ~ ~ / ` ' T J P / ( / J n J U _ ` J J P G G I J J L U J P ` _ ` ~ P ~ / T T T U P T / / / / P U L P ` ( _ / J / ` P L T U I T / P ~ _ _ O.O.O._ { } } O.} ( ( _ } } { } _ } _ _ _ } } R P } ` T T E U / [ ] P ( O.+.O.] R P T E U E P K L L L P T U L ",
"T / T / T T / ` / / / T E ` [ ` J ] [ / K U I / O.O.P / } } _ [ } { _ { { _ } _ ( _ _ } _ ( ( _ ( [ [ } } _ P / O.` I U U J ] ,.K P [ O.[ E U T T U P T P E T E ^ U U U E / P P ` ( _ } / P [ } P J I Z / O.( A / [ ( ( [ _ _ _ [ _ _ | ( / / / ( / _ _ ( ( ( / ( [ E V ' ] K J I G K [ ` J T _ P K K P P P P P R P R R / / / / R T / / T ( _ { ( P ` _ R Z I J D ( [ P P _ ( _ _ ( ( ] T P _ O._ / / ( ( ( / ( [ _ O.O.O.[ [ P R 5.] J L U J ' O./ U ] [ ( / / ' / ` ' ' ' ` T ' T ` ` / E ` ` E ' _ } 7./ / O. .P T T L ' u.] ~ } O.} O.O.O.O.O.{ O.O.O.O.O.O.O.O.+.O._ ( _ [ O.O.O.( ( +.7./ E ` T _ 7._ / } O.[ ` / ' ' / ` ' ' ` ` E / / T ` ` / / T T ' [ } / / 7.[ / P T U [ f.' L ] 7.O.O.O.} } _ ( } O.} O.O.[ { O._ } } [ _ _ [ } O._ P [ 7.' Y E T T O.7.U ` +.O.[ ` ] ] ' ' ' ` ` ] ] ] ` ' ] ] / ` ` ` ` [ O.O./ ( 7.O./ E E T [ 7.' / 7.O.O.+.} O.+.O.O.{ _ O.} _ { O.} O.O.} O.O.} } _ O./ ~ O.[ T ` ` E } r.} ( 7.7.[ _ ' ] ` ` ' _ ` ' ` ` / ` ` ` / / / / ( } O._ P ] / J J U I J J n 6 9 c e d Z z k J T T P / _ ` / P P J J / _ ~ J V V / / V L E J n G G V / / J T ) ( / P T / / T T / T J P T ` / / P J I L T ' [ ` J / [ P J T I K ] ] K / _ ( [ [ O._ } O._ { O._ _ } _ } } { _ } _ } } } [ / / 7.} ' U E U _ 7.] P _ +.| ) R P ` T E T T T P L E L P T T P ",
"P T T T T T / / / / / E T / } ` K ' } _ K J U [ O.O.K T O.[ _ ( ( _ _ _ _ { _ ( ( ( } _ ( ( ( _ _ _ ( ( } ' P / } } T I J T } [ K T [ _ / U U T P P T T E T T T T U P T / R T T P T ( } / P _ O.( J Z P _ { ( A / [ ( ( ( _ } [ _ ( _ [ ( / ~ / ( ( ( ( ( ( / ( [ [ T G / } / J G G ~ [ / J P ( P J U J K P E P P P T T R / / U P T R T R P / _ ' P / [ ) P J Z ( _ [ P P [ _ ( ( ' ( ( _ J 9 z _ _ ( / ( / / ( _ _ [ _ _ [ [ T P 7.[ R I J T } } ` P ] _ / / / ` ` ' ` ' ' ` / ` / / / / ` ` ` ` T / } 7./ / O.O.` P L / } 8.[ / [ O.} O.O.O.} } } O.} O.} } O.O.O.O.} _ ' [ } } O.O./ / O.+.' / E ` O.+._ / [ } ` / ' ' ' ' ` ` ` ` T E / E / ` ` ` T T T R _ } ( / O.7._ T U ` 7.8.' I ,.7.} O.{ } O.} [ [ } O.O.O.[ _ O.} } } [ ( [ _ O.O._ P [ 7.[ E T T ' +.} P ` +.O._ ` ] ] ` ` ' ` ) ' ` ` ' ] ' ` / E / ` ` _ O.O./ / +.+.[ R P ( O.+.( / +.O.O.+.+.+.} O.{ [ { O._ ( _ O.O.} { } { } } } O.O./ P O.O.( E T ) +.#.} / O.} ` ` ] ] ` ' ' ' ' ' ` ` ` ' ` ` / / / E T ( O._ P ] ] U G I U J J J 0 j J 0 2 9 j Z T / P T ` _ / P P P I J Z P ' ` U V J J z J / P G k z P ' / J / ) R P T / / / / / / T U K T ` / T P T U L J / [ ` J / O.` P I I / [ ( J / [ ( ( _ [ } } } } _ _ [ _ } { [ [ } [ _ } O.} _ [ ( / O.8.[ U U ` } O._ P [ O.( T E E E / E T E U T E R E / T P T ",
"T ~ T P P / / / / / T T T ( _ ' P / _ } / P / O.{ [ K ~ } ( ( ( ( [ _ ( ( _ ( _ ( _ _ _ ( _ ( ( [ ( / ( } ' P ( [ O._ L J _ O._ P T ] _ T T T P T / T E E T T T P U U / / T T T U P ( } / J / } _ ( / _ { { ( A / [ [ ( / / ( _ _ [ [ _ ( ~ / ( / _ ( ( ( ( ' / ( _ / G T [ _ T J U [ ( / J D _ / J P J J J L L P R P P R R P T T T / T E P D ( _ S / O.[ ( T P ( { [ P D [ [ _ [ _ _ ( _ / e 2 l Z ( ( ( / ( / _ _ [ ( _ [ } T P } } [ P J ] } [ ` P [ [ / / ` ` ` ` ' ` ` ] ` ` ' / E ' ` ` ` ` E ' [ 7.` / O.O.O.] ` O.+.+.[ / [ O.O.O.} O.[ _ [ _ } +.} } [ O.O.} _ [ } O.O.} O.O./ ( O.+.O._ ` O.+.O._ / [ O.` ' ' ` ` ' ' / ` ' / E E ` ' ` ` E T T T E _ } ` / } +.O.[ ` [ 8.+.` L :.O.} O.} O.O.O.O.[ [ O.+.} ( [ O.} O.[ } } [ [ O.O._ P [ } O.[ / / O.+.} P ` +.O._ ] ] ) ) ] ` ] ) ` ` ` ] ] ` / / / ` ] ` ) O.O./ / O.O.O._ ( O.+.O.( / O.O.[ [ O.O.O.O._ } _ _ _ _ } } { } { _ { O._ [ [ O.( P O.+.O./ R O.+.+._ D +.O.` ] ' ] ' ' ` ' _ ] ` ` ' ' ' ' ` ' / / T / [ [ T ` 7.` I Y T J P T d k J j y n J T T / ~ / / T P P P T T P J J T / T U U J k J / / P J T _ _ T J / ` T U T / T ` ` / T / P U / / / T R ` / E U P ' _ J ~ } } ` L P } [ T J / [ _ _ [ _ } O.[ _ _ _ } _ _ } } _ _ _ } O.} _ _ } _ P [ +.O._ ` 7.O.} ` P [ O.( E ` E P E / E / U T / E T T P T T ",
"T ~ T U P U T / T / T T T / _ _ P ` ( [ [ ' _ _ _ _ Z / [ ( ( ( ( _ _ _ ( ( _ _ _ _ _ _ ( ( ( } [ ( / ( _ ' P / [ } [ / ' [ } _ J T [ ) T T T E / / E R T E T T U P / ~ / E T P U U / [ / J / _ _ _ [ ( _ { / Z / [ ( ( / W / / _ } _ / P ~ / / ( ( ( ( _ _ ( P D / T z P ( ( ( / ` [ ( / J P [ ( P L L J V J K R T P K T R / R / T T E T U R ( _ S P _ _ _ _ ( _ _ [ S P _ [ [ } _ _ ` _ ` ' I n 8 j Z / / / / ` ' _ ( [ [ [ T P _ O.} ] ` [ _ [ / P [ _ ( / E ` / ' ` ' ' ' ' ' ` ` / ' ' ] ` ` / ` [ 8.` R [ O.} O.O.O.O.+.` T 3.O.O.O._ _ _ _ ( ( _ O.O.} _ [ [ } _ } } O.O.O.O.O./ / O.+.+.O.O.+.O.O.( / } 7.] ' ' ' ` ` ` ' ' ' ' ` ` ` ` ' / E E T T / _ O.( ~ [ O.O.O.} [ O.7.` I ] O.{ } O.O.O.O.O.O.[ ( [ [ _ [ O.} [ [ } } O.[ } O._ P [ } O.O.} } +.O.} P ` +.O.' ] ] ] _ ] ) ] ` ` ` ] ` ] ` ` ` ] ' ' ' ) O.O.T R O.O.O.+.O.+...O./ T O.[ [ [ _ [ O.} } { _ _ _ O._ _ _ { _ { { } _ ( ( } ` P } O.+.O.[ +.+.+.( / u.7.' ] ' ' ] ' ` ` ] ] ` ` / ` ' ' ` ` / / E P _ O.T / [ ] / E T T / U d g z z J / P K K K T / T P P T P U P P P T P P P P / T z J P ~ / ( ' ( ( J J ` / P T / / / / / / ^ ^ T T / / / / T ~ / ` P P ( ) P T _ _ _ / ` O.( T J ` _ ( [ _ [ } } { _ [ _ _ _ _ _ } _ _ _ } } _ ( } } _ P [ O.+.O.O.O.} } ` J _ [ ' ` / T P L T / E T P U E U P P T T ",
"T T T T P T T / T T T / T / [ _ D / ( _ _ { { _ { [ J T } [ ( _ _ ( } _ ( _ ( ( _ ( [ _ ( _ _ } _ ( ( [ _ ( P R _ _ _ [ } [ O._ J / O.( R T T / / T E T T T / R U U / / / T P T U U ( [ ~ J R _ ( ( _ ( ( ../ Z / ( / ( _ ) ( ( [ _ ( P P / ( / ( / ( [ _ / P P P ( T z U ( ( ( [ ( ( ) / K T _ ( K J L K J J L ` P K P P / ` / ` T T R T T / _ [ P P _ ( ( [ _ ( _ [ P P ( ( ( _ ` ` _ [ ( ( ( / G 9 2 z D P / _ ` [ O.O.[ [ T P [ ( [ } _ [ ( _ / / 7.[ / / T E / ` ` ] ' ' ` ' ` ' ` ' ' ' ` ' ` / [ 7.` T _ O.[ O.O.[ [ O./ T ,.O.} [ _ O._ _ _ _ ' [ } [ _ [ _ O.} } } } O.O.O.O./ / O.+.O.+.+.O.O.O.( / O.O.] ` ' ' ' ` ` ` ' ' ' ] ' ` ` ` / ` ` E E / _ O.' P ( O.O.} O.} O.7.' I ] O.{ } O.O.O.O.O.O.[ ( _ } O._ O.O._ [ } } +.} } O.` P _ O.O.} O.O.O.+.} P ] 8.[ ` ` ] ] ] ] ) ` ` ` ' ] ' ) ` ] ` ] ` ] ' ) [ [ P R O.+.} O.......+./ P [ [ O.O._ [ [ O.O.( _ O.[ O.} } _ _ { O.{ } } _ ( } _ P } +...+.+.+.O.+.[ / d.7._ ` ] _ ` ] ' ] ] ] ` / / ] ' ' ' / / ` E P [ ] P T ' [ _ ' / / ( I d x J K U J J z z z J T ~ T P / T K P P / _ / / P P ` / J J P / / ( ( ( T Z J ] ` K T E / ` / T / T T T / / / / E ~ / T T P P / _ P P } ( _ [ _ [ ( / K ` _ ( ( _ } [ _ { _ [ _ ( _ } _ _ _ } _ } } ( ( O.} ` P [ } +.} O.O._ O.` Z _ _ _ ` ` T P U E T / / U J L T / P T T ",
"P T P T T / T / T T T T T / _ ( D ` ( _ _ _ _ _ _ _ J ^ [ _ ( ( ( [ _ _ ( ( ( ( ( ( ( ( ( _ _ _ ( _ _ _ [ ` P / ' _ ( [ } [ } ` J / } _ T T E R / / T P P T / E T P T / T T T T T P ( [ T J / ( ( _ ( ( ( _ ~ Z ~ ( ( ( _ ( _ _ _ ( / P / / / _ _ _ _ _ ( P P / / / U n U ( / / _ _ ( / ` K P [ ( Z K L P J J P R R P P T T / ` ` ` R P E / R _ } P P ( ( ( _ ( _ _ [ P T [ _ ( ` ` [ [ [ _ ) P / ( N y j z / / _ _ [ O.O.O.O.P U _ _ ( [ _ _ ( _ / / 8.} / / T E T / ' ' ' ' / ` ' ' ' ' ' ` / ` ` ` [ 7./ T [ [ } } _ [ ( [ / T ,.} [ } } } } } } [ _ _ _ _ _ ( [ } } O.} } } } O.O.P / O.O.O.O.O.O.{ O.' / O.O.` ` ` ' ' ' ` / E ` ' ' ' ` ` / ` ` / ` ` / _ } / P ( [ _ } [ [ O.O.` U [ O.O.O.O.O.O.O.O.O.O.[ } O.} O.+.} _ [ } O.O.O.O.} ( D [ } O.O.O.O.+.O.[ T ' 8._ / ) ) ] ] ] ` ` / ' ] _ _ _ ` ` ) ) ` ' ` ` [ [ P / O.O.O...{ ....O./ P [ O.} O.[ [ [ O.[ _ _ [ [ } O.O.( ( _ { { O.{ } _ [ _ P O.+...O.O.O.O.#.[ / u.8._ ] ' ] ) ] [ ,.] ] / / ` ' ` ] ' / / T P P ( _ Z P ] [ _ ] ` P ( T k U U z n k l n n G V J T T P P T T P P T / ( _ / T / U V P / / ~ ~ ( / P G K ] ` U L P T E / / T T T T E / ` E / / ~ ~ T T / ' _ P P [ ( _ O._ ( _ ) P ` [ ) / ( } { _ } O.[ ( ( _ _ _ _ _ { } } _ _ [ O.O._ P [ O.O.O.} [ } [ / J ' [ ( ` ` R T P T T / T T L U P E T E T ",
"P P P T T T U U T ~ P T T / } ( D _ _ ( _ _ _ } { _ J / [ _ ( ( ( } _ [ ( ( _ _ ( ( ( _ _ ( ( / ( [ } ( [ ` K R ( [ _ _ } } } ` P ` O._ ~ / T E / / T U U / / T T U T T T / T T T T ( O.T J ` ( _ _ ( _ _ _ / Z / [ ( ( ( ( ( ( ( ( / / ` / / / / ( ( ~ P ~ / / / ~ U J ^ ( Q ( ( _ ( ( _ Z Z _ ( P P J P P P P R T P P R T / / ` / T T / / / [ [ P / _ [ _ ( _ [ _ [ P T } [ _ _ _ 7.[ [ [ [ / / P Z R J d / ( ' [ O.[ [ +.O.U P [ | ( _ _ ( _ [ T U 3._ ` / ` ` / ` ` ' _ ` ` ' ` ' / / / ` ` / ` ] [ 8.( ~ } [ O.} [ } _ 7.' U [ } _ O.O.} } [ _ [ } [ _ O.[ ( [ } } O.} } [ [ O.O.P / O.O.O.O.O.} } O.` P O.[ E ` ` ' ' ` ` T T ` ` ` ` / / ` ` ' ' ' ` / ( } / P [ [ _ O.[ } +.O.` T [ O.O.O.O.O.O.O.O.O.+.} O.+.[ O.+.[ _ [ [ } O.O.} O.` P } } { O.} O.+.O.[ T ' +._ ' ] ` ) _ _ ` / ` ] ` ] _ _ ` ` ) ) ` ` ` / [ O.P ` +.O.O.O.{ O...O.' T O.+.[ } O.[ [ } _ } _ _ O.} } } _ { _ { O.{ { O.} [ ( / +.X.O.O.O.+.O.+._ R 8.+.' ] ' ] ` ` ` ' ] ' / ' ` ' ` ' ` / R P P P / [ P U [ _ _ [ ] P ( ` j k k l j n n J U U J V J J P P P P Z Z Z P T ~ J Z U I V R ( ~ / / / ~ T L J ' _ U I T T T / / ^ T T / / / / / / P / / R ` _ _ _ P / [ _ _ [ _ ( [ [ P ( O._ ( ( _ } { O.} _ ( _ ( _ { _ ( } } [ _ _ O.[ +.[ P [ O.} O.} } O.[ ` Z _ } / / ` / ` T T / T T / T T U P / E T ",
"P P T T U P P P P T P T P / } _ D ` } _ _ _ _ _ { _ J ~ } _ ( ( ( ( _ [ _ [ ( ( / ( ( ( _ _ / ( ( _ _ ( _ / J R _ _ _ [ [ [ O.' K ` O.[ / / / / / T T P T T ~ T T T T T T T / / T T ( O.P J ' [ ( _ ( _ _ { ( K R _ ( _ ( ( / / ( ( ( ( ( ( ~ P / / / ~ ~ / / T / ` T x T ( / / ( / ( ( ( K S _ _ P K P K K P P T P P K T / / / / T R T T / / [ _ A ` O._ _ [ _ [ O.[ P T [ [ [ [ _ [ [ O.] ) R / U k g T y 9 U _ _ [ [ [ O.[ K P [ [ [ _ _ ( _ [ T Z ` ` / ` ` ] ] _ ` ' ` ' ' ' ` ` / / / ' ' ' ' _ O.8.` ~ } O.} } [ [ O.7.` U ' } [ } O.O._ ( _ [ [ [ [ } O.O.[ } } } _ [ O.O.} } T / O.O.} O.[ } O.O.` R [ [ R ` ' ` ' ' ` ` E ` ` ` ' ` ` ` ` ' :.' / R _ } / P [ O.} } O.[ O.7.' T [ +.O.O.O.O.O.O.O.O.O.O.O.O.[ [ O.} [ [ } [ } } } O._ P [ } { O.O.O.O.O.[ ~ ( +.{ ` ] _ _ _ ] ` ` ` _ ] ] ) ` ` _ ` ` _ ` ` ` O.O.P ( O.O.O.O.......O.( T O.O.O.O.O.O._ ( _ O._ } } } _ _ } O._ { _ { { } { } ( P O.+...O.O.O.+.O.` P +.+.( ' ] ' ' ` / ` ' ' ' ` / ' ' ` / / T T U K ( [ T T ] [ _ [ ] P ` J 0 v k G n k J U P P P Z Z Z P P P K J x Z T T Z Z Z P I G T ` / ( ( ~ P ` T Z ( ( P / / / T T U T ^ / ` / / / / / / / ~ / / ( [ [ P / } _ _ ( ( ( ( ] P ( O.[ _ ( ( _ } } _ _ ( _ ( _ } ' / _ _ [ ( _ } } O._ / [ O.O.} } O.O.O._ A _ } ( / E E T T P P T T T T T U T T T T ",
"P T P T P P P T P P T P P ( } _ D / _ _ ( _ _ _ } _ J T [ ( ( [ ( ( [ _ ( ( / ( ( ( ( ( _ [ _ _ ( ( _ [ [ / J / [ _ _ } [ [ O.] J P O.O./ / ` / R R T E T P T R T T T T T T E ^ T T ( O.T J ` _ ( ( [ ( ( [ / U / ( ( ( ( / / ( ( ( ( ( ( ( D / _ / / ( ( / / / / ( T Z U ( / / ( / ) ( ` T S / P Z J P P K P K T T T K P T R ` T T / R T / / ( ( D ' +._ _ O._ _ O.[ P R [ [ [ } [ _ [ } _ / R ( ` I 9 J G - q E ~ ( _ } _ [ U / [ [ } [ ( [ ( ` T J ` ) / ` ` ` ` / ` ' ` ] ] ] ' / E / ` ' ' ] ' ) | 7.` / } O.[ } [ [ O.7./ P ] } [ } } [ ( ( } O.[ [ [ _ O.O._ _ } } _ O.O.O.O.} T / O.O.} } } } } O.` P [ O.` ` ' ` ' ' ' ' ` / / ' ' ` ' ' ' ' ` E T / _ } / P [ O...} O.[ O.O.` P [ O.O.O.O.O.+.O.+.O.O.O.O.O._ ( } O.} [ O.[ [ [ O.} _ P _ O.{ { O.} O.+.[ ~ ( #.{ ( ` ] ] _ _ ] ] ' ` ] _ ` ` ] ' ` ] ) ` / ) O.O.T / O.O.O.O.O.....O.( P O.O.+.O.[ [ ( ( _ } } O.} [ _ O._ O.{ ( ( _ } _ { O.( P [ +...O.....#.[ / P +.+.( ` ' ' ' ] ' ` / ' ] ` ` ' ' / R / P R U P ) _ ~ P _ O._ ] ) / / e 0 U J z n z P / D P P Z Z P P P T / P Z T ` / J J T / I G U ( ( / ( / P ' T Z ( / R ` ~ R T P U U ^ ' ` / / / / / / / T R R / } [ T / [ _ _ ( ( _ ( ` K ' O._ [ ( ( ( ( ( _ _ ( _ _ _ } _ ( ( _ } ( } _ O.} ( / [ +.O.} O.O.O.+._ P ' } _ T T L K U P U R U P R T P T U T T ",
"P T T P P U U T ~ T P ~ ~ ( } ( D / / _ _ _ ( } _ ` U ~ _ ( ( _ ( ( ( [ ( P / _ ( ( ( ( _ _ _ [ ( _ _ _ [ / J E _ [ _ _ ( [ [ ` Z P O.[ R P T E R T E E T T P T E T T / T T T T E T ( O.T J T / ( ( ( ( ) / / P T ) ( / / / ( ( ( ( / / _ ( / ( _ ( / / ( ( ( _ ( / U J P P D / / ( ( R T J Z ( S Z U K P P P P P U T T T P T R R T T / / / P ( _ P / } [ _ _ _ } [ ` U T [ _ [ } [ [ [ _ ( ` / ( ( ` L Z J e 1 y I ) ` _ ( ] J / _ ( ( _ _ [ ' / T J [ _ / / ` ` T / / / ' ' ] ] ` E E ' / ` ' ] ' ` [ +.` ~ } [ [ [ [ O.[ [ / T [ [ [ O.} [ _ O.O.} } O._ ( ( _ _ _ ( } O.O.O.O.+.O.T ~ O.O.} } } O.[ _ / P [ O.` ` ` ] ' ' ` ` ` ` / / / ` / / ` / T T T T ( } / P ( _ _ { _ [ O._ / U _ O.O.O.O.O.+.+.O.O.O.} O.O._ ( [ [ [ } } } } [ } } ` P _ [ } O.O.} +.[ / / / +._ ( ` ` ) ` ) ) ] _ ) ` ] ` ` ] ] ] ' ` ` ` `  .7.P / O.O.O.O.O.O.} [ ( T [ O.[ [ _ [ [ [ ( ( } O.} [ _ _ _ _ ( ( ( _ [ { { } _ T ` O.O.O.O.O.O.` ` P +.+._ ` ' ' ' ' ] ] ` ` ` ' ' ' ` / T T T U T ~ ( _ P P ` _ _ ] / P T 0 j T A k k K P P P P P A D P P ~ P P P / / / P P P T / U J U / / ~ ( ( / / P Z / ( D T T P T T U U U / / T ~ / / ^ T T T T / ` [ [ ~ / _ ( _ _ ( [ _ T J ` O._ _ _ _ ( / ( ( _ [ [ ( ( O.O.} [ ( _ } } [ _ [ ` T [ [ O.} O.O.O._ ' P ' O.( / P J L L P P U U T T E T E U P P ",
"K P P P P T U U T ~ P / ~ ( } ( D ( D Q _ ( ( _ ~ ` T T _ _ ( ( _ ( ( [ ( ~ ( _ ( ( ( _ ( ( _ _ _ } _ ( [ ' U T ( O.[ _ _ O._ P J / O._ / P P / R R / T / / U U E T E T T P P E T T ) [ T U U S / ( ( ( / D T P P ' ( ( ( ( ( ( ( ( / / ( _ ( ( _ ( / / / ( ( ( / P K J T D D ( / / / Z J P P [ R J P J K P T P L K U T T P R P / E T R / / D ( _ P / ( ( _ _ [ O.( / P T [ [ [ [ [ O.[ _ ( [ _ / ( ) ) T P P n c 0 v j J _ ] J T ' D P _ _ _ ( ( / P ,.[ / / ` / / ` R / ` ] ` ' / / ` ` / / ` ` ` ` [ O./ ~ [ ) [ } _ O.) ' ' T [ 7.[ } O.O.O.O.O.O.} } _ ( ( _ [ _ _ } O.O.O.O.+.O.T / [ ( ( } } } / / / P } O.` ` ` / ` ' ` ` ` ` / / / / / / / / T T T T ) O.P Z / Q Q _ _ _ ( / / T _ O.O.} O.} } O.O.O.} } } } [ [ | _ [ } O.} O.[ _ O.` P ] ( _ O.} } +./ ~ ` / +._ ( ` ` ` ` _ ) ) _ ] ` ` ` ] ' ] ] ` ` ` ` /  .5.P / [ _ O.O.} O.( ( _ R _ } [ [ O.O.} O._ ( ( [ } } _ ( ( ( ( [ } { _ O.{ } ` ~ / _ O.O.{ +.( / ' P +.+._ ` ` ' ` ` ' ' ` ` / ' ' ' / / T P P U K D / ) P P T / ' ` / P P z J P Z Z J P P P P P D P P P P P P P P D D D D / / K / T J I J P ( ( ( P P R D ( ( D T T P ~ / T U L T / T / / / / T U T / / ` [ [ / / ` / [ O.{ ( / U U ` [ _ _ [ } } _ _ ( _ } [ ( _ O.O._ ( ' _ _ } O._ O._ R ] / O.O.O.} ( D / ~ _ O./ T U U U L T P U T P P P T P P U U ",
"Z Z Z P P P U P P ~ ~ ~ / ( } ( Z / / D / _ _ D D _ P P _ _ ( ( ( ( ( _ ( ( _ ( ( _ _ ' ( ( ( _ _ [ [ _ [ ' K / / / ( [ _ _ P T U / O.[ R T T R / / E / / E U U U T T T T T T T E T ( [ T U / P D ) [ ) K K ~ K P / _ [ [ [ _ _ ( ( ( / ` / / _ _ ( / / / / / / ~ P U J P P Z P / P Z V P T D ( T J L J K U T T P J J U P T T P R T R P T T P ( _ T ~ T P ` O._ _ W ] P P [ [ [ [ [ O.[ _ ( _ _ _ / / / / P P T T e q 2 n ` ` G U / D Z / [ / P ( ` P [ [ / / / ` / ` / ` ` ` / / / ` T / / / E E E ` [ O.~ ~ [ / / O.O.[ P [ ' T [ 7.O.O.O.O.O.O.[ O.[ ( ( [ [ [ _ } [ [ [ O.+.O.} [ P / [ P D [ O.( Z / / D [ } / ` ` E ` ` ` ` E ` T T ^ / / E / / / T T P ( } P Z / / D / O._ D / ' P ( O.O.O.} _ _ { O.O.O.} } _ } } } O.[ _ } } O.[ } } ` P ] / / _ O.O._ P ' / / +._ / / ` ` ` ` ' ' ) ) / / ` ] ' ' ` ` / ` ` `  .[ P / [ ( _ O...[ D _ _ P [ O.[ O.O.O.} } O.[ ( ( [ } [ [ ( _ _ { } O.} _ { O.( T _ ( ( O.} [ / [ ' P O.+.( ' ' ` ` ' / ' ' ` / ` ` ` / R T T P K J V P / P U P P P / / Z P J J P Z P P P P / / P P P P P P D P P D Z Z D ~ P P P / J n L J J / ` P Z T / D _ _ R P P ~ ~ / / T U T T R T / / / / ~ ^ / / ` 3.,./ ' ] R / O.O./ P ` T ( } [ _ [ _ } } [ ( ( _ _ _ } } ( ( _ _ } ( O.[ O.O.( R ,.( ( O.+._ D P / D ( O./ P U U P U U P T U P J J J K J U P ",
"z Z P P P P T P P ~ ~ ~ ~ ( } ( Z P _ P Z ( ( Z / [ P P _ ( ( _ ( _ [ [ _ ( ( _ ( ( ( / / ( ` [ _ _ [ [ [ ' U ] T K T ] ` P P ' T P O._ / ` E E / / E / ` T T T Y U T T T T T T E P / [ P Z ' ) L R ) L Z / ` Z T / / ( _ ( ( [ ( ( ( / / P P ( [ / / ( ( / / ( ( ~ U N ~ ( Z Z P K Z Z ` P D ( ~ J L K U J P E T J J T T U T R R P T U U U R ( [ P / ] P T  ._ P / 7.P K _ [ [ O.[ _ ( ( [ ( ( ( ( ` / / P P P T I G v U U / J U K R Z T R Z Z ] ` P [ [ ( R / ` / / ` ` / / ` ` / T E ` E ` T ` T ` [ O.T ~ 7.[ K ] O.T / 7.` T ,.O.O.O.[  .[ O.[ [ _ _ _ } } } [ } [ } [ O.O.} [ _ U T O.` Z / _ P D _ T Z [ [ / E ^ ' ' ` ` ` T U ^ ` / / / / / / ` T T / ( [ D z ( ( D D [ / Z [ ] P _ O.} O.O.} } } O.} } } [ _ _ } O.O.| ( ( } O.[ O.} ` P ] 7./ T [ _ / ~ ,.T P +._ / / ` ` / ` ` ] ` / / ` ` ' ' / ` ` / ] ` ` [ [ P / O.( P O.O./ P +.( P [ } O.+.} } O.{ } [ _ _ _ O.} } _ _ { { } O.} { { O./ T 7.( P _ [ / ( 7.` D O.+.( ` ' ` ` ' ' ' ` / ` _ / E / R T T K J G J T / U K T U J / T h T P Z P A / P P P P P D Z Z P ~ D P P D D Z S / / P P P T J G T T Z K P Z Z ' / D _ _ P P T T T T / / T P / / T E / ^ / / T / / ] [ ,.~ ` 7./ P ` ` P ( 7.P / } _ _ ( _ } _ } _ ( ( [ ( _ [ _ } +.} } [ } _ O.O.( D 7. ./ [  .R P _ ` Z ( O./ T T U T P U U P J T / P J P J P T ",
"Z ~ ' ~ A P P ~ T ~ ~ ~ P / [ / V P ( _ D U K P _ [ P P ' ( ( _ [ [ } O._ ( ( ( / ~ ~ ( ` _ _ _ _ [ [ ( [ ` P / ' ` U T L P ` ] U P [ ( / / ` ` R E E E T P ] ] T U T T T T E E T P ( [ P Z ` ] ` P Z Z / ` / P / / P P ( ( ) ( ( ( / / / P P / _ ( ( ( ( ( ( / / ` P Z T ( A Z J V Z ( _ Z Z ( R J K P P K L U U K T _ / P U E E T T T T U T [ [ Z / O._ / / P P [ [ T P ] [ [ } [ _ R / _ _ / ( ` _ / P P / P U U E U I I n c U ~ P P T Z z P [ / S [ } / T E ` / / / ` T ` } [ / T ^ ` T E E T E E _ O.~ / O.+.` / ` / } 7.` T ,.O.[ } } [ _ [ [ [ [ [ _ _ [ O.} _ _ } } O. .( [ [ U T [ } / P P / _ _ T P _ [ R ` ` ' ' ' ` ;.T T ] 7.` T ^ / / R E ~ T P ( [ K z / ( / D P S / 7.` P _ O.} O.O.O.} } } } } } [ ( _ } } } [ ( ( [ } O.[ O.) P _ O.[ T / R ` ] ` R D O._ / / / ` / ` ` ` T ` O.[ / ` / ` / ` ` ` ` ` [ O.P / } O./ / / ~ _ O.( P _ O.O.+.O.O._ { } } _ } _ } O.} _ [ _ { O.O.} O.O.O./ P O.O./ / T / 8.O.` P O.O.( / / ' ` ' ` ' ` ( } O.` P U E P L J J G J / ` J J ` / K / J d ~ Z Z / D ~ / / / D D P P D Z A P P P P D D D ~ / / R D ~ K J T ` / J Z P / ` T Z ` ( D T T T T / T T U T ' ` / T T / / / / / / ` [ [ T ` [ ] / P U _ } _ P / } ( ( ( _ _ [ [ _ ( ( ` ( ` ( } } O.O.O._ _ [ [ O.( D O.7.[ T ` / [ _ / Z ( O./ P T T P U T L J P / ' / K J U T U ",
"/ _ _ _ ~ P K ~ T T ~ T T / _ / Z P ~ { _ P P [ } ` P P ' _ ( _ _ ( ( ( ( _ ( / P T / _ _ _ _ _ _ } _ ( _ / P / _ O.R I T [ [ / J P ( ( / / ` ` E E ` T T ] [ O._ / U U T T T E T P / [ T J / _ _ ( P / ] P P T / ' / P ( ( ( / ( / / ( ` / / T ( ( ( / ( _ _ / / _ T V P ~ / / Z Z / / P Z Z ( R Z I I L L U I U T ' [ _ / U I E T P E / U / [ ` Z ~ [ [ _ / P [ } ^ T P [ } _ [ [ O.( / / ( ( [ ( ` P P P / P P U T U U Y q : v :.~ P P J ( ( ' P Z [ [ / / R R / ` T T / _ O.O.' T U ` T E ` T T R _ O./ / _ O.} ] ` 7.O.' ' R [ O.[ } } [ _ ( [ O.[ [ [ _ [ [ _ O.} [ O.O.[ ( _ [ U T _ ( ( / ~ [ _ / / P _ [ / ` ;.;.;.;.;.T T ] O.+.} / P T / T T / T P ( [ P Z / Q ( ( D / O._ R T _ +.O.} O.O.O.} } O.} _ ( ( ' _ } } _ [ [ ( [ } } +.] P _ [ +._ P / 7._ R / D O._ R / / E / ` / T / } +.O.] / T ' / ` ` / ' / [ O.P / _ O.O.( R } O.( / P _ O.} O.O._ [ } } O._ _ } _ [ _ [ O._ _ O.O.O.} O.O./ T _ } } _ P O.+./ ` P O.O.` / / ` / ` ' / ` } O.O.[ P J L L L J L J V R / x J ' ] ~ I y z / Z Z ( / ~ / P D P D ( ( ~ A D P D P P D / W D / ( / D / T J U _ } / P ( / ~ P Z / ( P P T T T R T U U ` [ _ / T T / T / / / E / [ [ R ` _ _ ,.` ' 7.' T K / } ( ( _ ( _ } _ / ( / P P / ( { _ _ { } [ _ [ _ [ / P [ O.7.( _ [ +.( T P ( O./ P ~ ~ T U P J K ' ( / ' / J L T T ",
"' _ ! _ ( ~ K P T T T P T / _ / Z R ~ Q _ ( ( [ ( ` U P ` _ ' ( ( ( ( ( ( _ ( / P / ' ' _ _ _ _ _ _ ( ( _ T T ] ~ ' _ ~ '  .( / U P [ _ R / / / ` / E E ' 7.[ _ [ _ T U U T E T T P / [ R J ` ` ( _ [ [ R Z T T P _ ( / / ( ( ( ( / ( / ( ` ( ( ( / ( / / ( ` ' ' / U z P P D _ / / / Z J Z Z ( / J G G J J L J P ` _ ( _ _ U J L I U U T T T _ / Z / _ / _ O.} O./ ^ T P } [ _ [ [ O._ ( P / ' [ ` / / / T / / / U T T U U m : 3 b G U ~ ~ [ ( R K Z _ [ ( T P E / / T T ' O.[ } } / U U T / T T T R [ O./ / _ ( _ 7.7.7./ ` ' T ]  .O.} O.O._ _ [ } } [ [ _ _ _ _ { } O.O.O._ ( _ } P T _ / / _ O._ D ~ / P } } / ` ` ;.` ` E T :.7.O.{ O.} ~ P P P T U T P ( } P Z ( Q W ( _ } _ ( / T _ +.O.O.O.O.} } } } _ ( _ ' _ ( [ [ [ [ } _ _ ( } 7.` P ] ] _ [ _ O.8.( T R D O.( / / E / R / P E [ O.} O.O.] / E / ' ` / / / [ 5.U / _ ( O.O.O.+.( ( ` P [ O.O.} [ } } O.{ { { _ _ _ ( _ [ } _ [ [ [ [ [ _ O./ T _ ( _ +.} O./ / ' P O.O./ / E / / / / ' [ O.} } } ` I J J L I I I Z P / Z Z ~ [ ` k d ' ( Z S ~ / ( P P Z P / ~ / ( / ~ D D A D P / Q / / / ( / / T J P / ' _ ' / Z P T Z P ( P U T T T P P T _ [ _ ( ( ` / T / / / / T / [ ,.E ' ` P [ 7.3.` P T J T [ _ } _ [ [ _ ( ( ( ' ~ ~ ( ( ( _ _ _ _ [ } ( _ [ R P  .( [ [ +.O._ P / K ( O./ P T T / T K P ` ( ( / ( ( P S U ` ",
"( _ ( _ ( ( ~ D P T U R U / [ ( Z / P D P _ _ ( D / P P ` ( ( ( ( [ ( _ ( ( [ ( ~ ( _ ( _ _ _ _ _ _ ( _ _ T ' ] P P _ [ ' / P / R P [ ( T / / E / ` E ] 7.[ _ _ ( ' ` T L T T E T P `  .R J ` ` T / [ ` K Z / T P ( / P P ( ( ( ( ( _ ( ( ( ( ( ( / ( ( ( / ` ` / P J V T K V / [ / K z J J Z ( ( J n n G J L J / _ ( ( _ ( ' U J L T L Y P T [ ( Z ` _ P / 7.7._ P ` / P [ _ [ O.[ [ _ ( R / ` / P / / _ ~ / ( ( T T T U T T c i q ; 7 P / ( P J K K _ [ / P U / T T T _ [ [ _ _ { [ / U T / T E T E [  .R / ] R T ,.7.) P ' ] T _ [ O.O.O.O.[ O._ [ O.O.[ ( ( _ _ _ } O.} [ _ [ _ [ P T _ R P _ } / Z / ` D } } / ` ` ` ` E T ,.8.O.O.O...O.[ / K P T U T P ( O.R Z ( ( D / O._ / / ` R _ +.O.} O.} } O.} } [ ( ( ( / / / ( [ [ [ O.[ ( ( [ ` P ,.` P ` 7.O._ P ` E D O.( / E E ` T T R ,.O.O.} O.} O.] / / ` / ` T ` [ 5.U / ] P ( +.O._ P / _ P _ [ O._ [ O.} } } _ { O.( ( _ } _ [ [ _ ( ( ( O.[ [ R R [ / P O.O._ P / ` D O.O.( ' T T / / / ,.O.} } } _ [ / K G J L J J J T ` J J U / ~ J T [ Z Z P D ( ( / / D D / D / / ~ ~ P A Z P D D / ( / / ( / / U L E P / _ / P Z / / Z / ( P T U T T P T _ O.[ ( ( _ [ ` ^ / / / T E / [ ,.T ` ` K / 7.] K K / J U _ _ } [ _ [ ( ( ( [ ( _ ( _ / ( _ _ ( _ _ } ( ( [ / T [ / / ( O._ / P / Z _ O./ P T P / T P ( [ ( ( ( ( ( _ P P / ",
"_ ( ( ( ( _ ( / P P T ~ T / _ ( Z / P S Z / ) P P ` P P ` ( / ( ( ` _ ( ( ( ( ( / ( ( _ ( ( _ _ _ _ _ ( _ / ' ] L J / ] / P K ' T P } [ / E R R T E ` [ } [ [ _ ( ( _ ` P L T T E T `  .T J ` / K U ` R J J / P P ` / / / / / ( _ _ _ _ _ ( ( ( ( ( / ( ( ( ` T P P J V T U V J / P V V U Z Z ( ( J I J G G I T ' / _ _ ( ( [ ` T L U T U L / _ _ P ` _ / P ' [ / ~ ' / P [ [ [ [ _ ( ( ( / / ) R Z / _ ( ( ' ( ' / T L T P E I I I < o n P Z k U L J _ [ / P U T P R ) [ [ _ _ _ ( [ [ ` U P E / T R _ O.T / ] R L ` ] / P ] ] P _  ._ [ } O.} } } } } O.[ ( ( _ _ [ [ } _ [ _ _ _ [ P T _ R P T / P P ` / D { } / ` ` ` E T :.8.8.O.O.O.} } O.} / U T E T R ( O.( D ( / D P / ( P / ` T _ O.O.} } } } } } } _ / / ` / / ( ( ( _ [ [ [ _ ( ( ` P [ ` P T :.] T P _ / D O.[ R E E E U T [ 7.} } } } [ O.O._ R / ` ' ` /  .5.L E ] U U ] [ R T ` ` P ] [ [ [ [ [ O.O.} } _ } _ _ [ _ _ _ _ [ ( _ _ _ _ } R T [ R P ` [ / T / ` D O.} / ` / / T / [ 7.} [ _ { _ ' [ ` P J J J G J / / J I L J z J ` U g J S Z ( _ ( ) R ~ R / ( / D P / P D D D / / ( / / / / / K T / P T / U K P / / Z P ' T T P P P R ] } _ ( _ _ _ _ _ ( / T T T T ` } [ T ` ` L P ' / K P R J Z _ ( / _ _ _ ( _ ( _ ( ( ( ( ( Q ( _ _ _ ( _ _ | [ P R ` R P P / P P T T Z ( } / P / U T P ( _ ( ( ( ( _ ( _ _ P P ",
"_ _ / ( ( ( _ ( / P T T / / [ ( Z / P D J U T K P ` P P ` ) / ( ( / _ ( ( ( ( ( ( ( ( _ ( ( ( _ _ [ _ ( _ ( / ` U U U T T P P ' T P O.[ T P P R P R [ [ _ [ [ _ ( ( ( ' ( T L U ;./ _ [ T I ` E J J L L J P / P P ' ( ( _ ( / / ( ' _ ( ( ( / ( ( ( ( / / _ ` T P ~ K z T U z V J J Z J P Z Z ( ( Z I J G G U ` ( / _ ( ( / ( [ ] T U U T L R [ _ T ` _ / T T T T ~ ' / P [ } _ _ _ ( ( _ ( / _ ` T ` ` ~ ' _ / _ _ T I U E E n n =.b q v v e j / P Z _ [ P P P P U ( [ [ _ | ( ( ( _ O.[ / P T E E / [ O.P / ] E U T E E P ] :.P [ [ ) ' [ +.O._ } O.} [ [ { ( ( [ [ _ ( ( [ [ ( _ O.T T ' T P U U T P / / D _ } / / ` T T ' 8.8.+.8.+.O.O.O.O.O.[ / P T T T ( } / / ( / D K P P P / ` T ` [ ( [ } O.O.} O.} _ ( _ } } [ O.} [ _ [ _ [ } } _ ` T [ _ U U T / T ~ [ / / +.[ R E T P P [ +.O.} O.[ } } } } O.` E / ` ` /  .[ K E ] P L E E P T ] ' P _ [ _ [ } [ [ O.} _ _ [ ( _ ( [ _ _ { [ } O._ ( [ } / / ] R P / / T T / / D } O.( / ` / E ] 7.O.} } _ ( ' ' ' ' ` K J J G J ` / J I P z 0 j J z j P S C / _ ( ~ / ( P R ( P D / / / P D P / P P / / P / / P U ` / P K J I P ~ / Z P _ T U T P U _ O.[ _ _ ( _ _ ( _ [ / P U T L / [ ] T ' / P U T T P U T J Z / / / ( } _ ( [ ( ( ( / ( _ _ Q ( { _ _ ( ( ..O.[ S P R P R J P P Z / T Z ( [ P P T U Z ~ _ ( ( ( ( / _ ( ( [ ( ( ",
"' / P ~ _ ( ( _ _ / U U U / [ ( Z / P Z K P K K K / P P ` ' ' ( ( ( ( ( ( _ ( ( ( ( [ _ [ [ ( _ [ [ _ / _ ( T ` T U U T U U T ' T ~ 7._ T T U L P ] _ [ [ ( P P ( _ ( ( ' ` P L U T ( [ T I ` E G I I L K P / P P _ ( ( ( _ ( / / / ` / / ( ( ( / ( ( / ( ` ' ^ P T J z P J V J J J J J U J S ( ( P J n G K ` / ( _ ` T / ' ( ( _ ` T L U P R [ _ ~ _ ` / T T K / T / / P [ [ _ _ ( ( ( ( ( ( / _ ( ` ` P / _ ' _ _ R J U / E n n U n c M v 0 e U P U _ ( D P L P / [ _ ( } [ R P ( _ ( [ [ / U T E / _ O./ / [ E P E T E T ] :.T _ O._ [ [ O.O.O.[ } [ [ [ } [ [ _ [ _ ( ( [ [ [ _ } P T ` T U P U T P / / D _ } / / T Y ` 9.8.8.8.8.} ( } +.} } O.[ R U T R ( } / / ( D Z P P K P E ' R ( [ ( } O.O.O.} } _ } } O.} } O.} O.} _ _ _ _ [ } O./ P [ ` T T T T T T ] ` ( +.( R T U P _ 7.O.O.O.[ / ( } } _ O.O.` P ` ` ` [ [ J / ' P Y T T T P ` ' T ) [ _ [ [ } [ [ _ { } [ ( ( ( [ } O.[ O.O.O.} [ _ [ / ( _ P T / T ^ T T ` D } O.( ` / T ` 7.O.} O.O.` P / [ ' / / T J J J J / / V J U G e j n l j P S Z D ( / D P P P / / / ~ / P P P P P P D P P ~ / / / P U / E U J I I Z R ` Z ~ _ P L J U / [ _ _ [ ` T / _ ( ( _ ( P P U U P ' ` U ' / U T T U U P U Z J _ ( / _ _ } O.[ _ _ / ( / ( ( ( ( _ _ { ( ( _ _ [ Z T / P T P K Z Z T T Z ( ( P U J Z / _ ( ( ( / P Z ~ [ _ ( [ { ",
"/ I J P ( _ / ( ( _ ~ I J / _ ) Z R P Z J J J L K T P P ` _ ( ( ( ` / ) ( _ ( ( / _ _ } [ _ } [ _ ( / ( [ ` T ' T U T U I U T ` T / 7._ ~ T U U ` [ ' _ _ U N x P ' ' ' / ( ` P I L / [ E I ` T G I J L K J T P D _ [ ( ( ( ( ( ( / / ( ( ( _ / R T / ( ' ( ] / Z K I Z U J J J J J J G I U A _ R Z n n I / ` / ` / I G K ' [ / ' _ ` L I L / [ ` P ] / P T U U / U / ` P [ _ [ ( ( ( ( ( ( ( / ( ( ( _ P P _ _ _ ( T J E R E G n U n j n G c 8 c v j ~ [ F J I / [ O.( _ _ ( P J T [ ' _ [ _ / U Y / _ O./ R ] T T E T T T ' :.P _ O.O.O.} [ } O._ [ } O.[ _ } } _ | _ [ [ [ [ } } [ P T ` U U T U U P / / D _ [ T T U T ,.u.7.8.8.[ T U ( O.O.} O.O._ T T T ( O.Q D ( D Z P U K P T ` R ( O.O.O.O.} } } { { } { { _ } } [ [ O._ ( ( [ _ O.O./ P 7./ U T U T E T ] _ ( +.[ T T P ) +.O.O.O.[ / J P ( } } } } [ / E T ` [ [ I / :.Y Y Y Y T L E ' P _ _ [ | _ [ [ _ [ O._ O.( ( _ } [ ( ( } } [ O.} _ [ / / _ T P E P T P T ` D O.O./ / T / O.+.} O.O._ T I P ` ' [ / ` L n J Z R / V J I G j v c c j K D Z D P D P D P / ( ~ ~ P / / / P D P P D / / P / R T U T / U J Z L I Z T / Z / _ P I J T [ _ ( _ ' P J K / ( ( ( _ ( P K K P _ _ P ] / L P L I L J J Z P O._ / ( ( _ } _ ( ( ( ( ~ ( ( Q ( _ _ ( ( _ ( _ _ Z T ` P U P J Z K K U Z ( ( P J Z D O._ ( / ( P Z Z J ( [ _ } { ",
"K I J I P ( _ ( ( _ ( T J / [ ( Z / P Z J J J K K E K P ` ( ( ( ` ` ( ( ( _ ( ( ( _ ( [ _ _ [ [ / / / ' [ ` P / E U U U L I U ' T / O.[ P U T ` _ ( _ _ U I J J J K ` ' / / ' / L J / [ / I ` T G I L L K K T P P ` _ [ ( / / ( ) ( / / ( ` ' ` / P / ` ' _ ] / Z J I x U K n J I J n G L J P [ P k z L / ( ( ( / J J J J I ' [ _ ( _ T I J T [ ( Z ' ` P T T P E T / / Z _ ( ( _ ( ( ( ( ( ( ( / / ' ( / T ` ' [ T U U E R ` n n Y v v n J n e b e < 0 G Z Z T _ [ [ ( [ / U J J K ` } [ _ O.[ ` L T _ O./ R ] R T E E E P ' ] P _ O.O.O.} } } O.[ [ } O.[ ( _ O.} [ [ O.[ [ [ _ _ _ P T / U L U P U P / / D _ [ P U T ,.8.7.8.8.O./ U T U ` O.O.} } O.` P P _ | P D / D K L P P K T ` T _ 7.+.O.} { _ _ } } [ [ } } } [ [ [ [ _ ( ( [ [ _ } ( P [ / U U T T P T ] ` ( +.( P T ] 7.O.O.O.[ E I U U K ` O.} [ O.[ ` T `  .[ J / :.L I Y Y Y L E ` P ` [ [ O.O.O.O.} ( [ O.[ _ _ _ } _ ( ( ( [ } [ } } [ / / ` T U T T T P T / D O.O./ / / } O.O.O.7.] P I T U K / [ [ _ T J z Z R / z J Y v a e c j g U Z Z P D Z D / ( ( / P / / / ( ( ~ P P D P / ( ( / / T J T ` K J J I J Z P / D / [ P J U ' [ ( _ ' U J L P P / ` ( ( [ ) R J P ] ] ~ ] / J L L L J J J V T [ ( ( / / _ ( ( / ( _ ( D ( / ( ( _ ( ( / ( _ _ _ P T / P U J K J Z P U Z / _ P Z ~ } [ ( ( / P J J U J P ( [ } [ ",
"J U U I J T ( ( ( ( ( ` P ~ [ ( S / P Z J L J J K / K P ` ( ( _ ( _ ( / ( ( / ) ( ( ( ( ( _ _ _ / ' ' ( [ _ P / / U L U U I U ' P ~ } ( P T ` _ ( ( _ T I I I I J G K / / / ~ ` / T ( [ / L ` T J L L L L P / P R ( ( ( ( ( ( / ( ' ` / / ` ' _ ` / ( / _ _ ` / P T U z P P n J J J z z L Z D _ D z P ( ( / ( ` J G I I J k U ` _ / / ' E J P _ ( D ' / K T / U T T / T Z [ _ ( [ ' ( ( ( ( [ ' ' / ( / ` / / / / P T ' P / ` G k U n l I n n n U I w q 2 1 j ' | ( _ _ / L J U P J U [ } _ [ O.[ / P _ O./ P ` / P E E E L ] ' P [ O.} O.O.O.[ [ } O.[ O.O.( ( O.} _ [ [ } O._ ( _ _ K T / U U U U U P / / D [ _ P / [ 7.7.O.8.O./ T T T T T ] O.} { O.[ / P _ } R D R P U L P P K R ` P _ +.O.O.O._ _ _ O.[ [ [ O.[ ) ( [ [ [ _ _ ) [ [ _ } ` P ] E U T T T T R ] / / +.( R ` O.O.[ O.[ / U T U U L U / O.[ } O.[ ` ` [ [ U / ' J I Y I Y Y T / P ` [ _ O.+.+.[ _ ( _ [ _ [ } [ _ _ } _ } _ O._ [ O.O./ P / P P E T T P E / D O.} / / } 8.O.O.O.] T U U T I U I T _ ' ` T V Z R ` Z V T y w w b v z T Z Z ~ D D T / ( ~ D / ( / P / ~ / ( / / / / ( _ ( ( T J U / J J U I I J U ` P ( [ P U ` _ ( ( ( T I I L T P P / [ ( ( [ ( R / ' ] ~ ' E J L P I I L K Z / _ / ( / / _ ( / ( [ _ _ / / ( ( / ( _ ( / ( _ _ [ P T / P P Z U Z Z P T Z / _ D D ( { ( ( ( P J J U Z P Z P ( _ [ ",
"I P T U I J U ( ( / ( ' T / [ / S / P Z J I L J P / P U ` ( ( _ _ _ ( ( / ( ( ( ( _ _ ( ( [ [ _ ( _ _ ( [ ` P ` R L U U U L P ' T ~ _ / P ` ' ( ( ' T I I L I J J J n J / / ~ / ` ( ( [ / L / T I L U L L T ` P / _ / P ( _ _ / / _ ' / / ' _ ' _ ` ' ( _ ( ' / / ' T z J J J J J J z n U Z Z ( P P ` / / / / L G G J J J J I J P P / _ ] T P ( ( P ' / K U T T E P ' ~ D ] _ _ [ _ ( ( _ _ [ _ [ ( / / _ / ` T T U / ' ~ / E G n I n n I U J n T U n U b + < J _ ( ( T K J J T T U P / [ [ _ _ } _ / ( } / P / T T T E T L ,.] P [ O.[ } O.O._ _ [ O.O.O.[ ( _ O.} _ _ _ [ [ _ ( _ [ P U / U U U T U K / / D _ _ ( O.7.O.O.+.7.` P T ~ T T T ^ [ O.} } } [ / ( O.R D / P U U P P K / ` P ( O.O.O.} { { } O.O.} _ [ _ ( ( [ [ _ [ [ [ [ [ _ [ / P _ T U T T T P T ] / ( O.) ( O.} O.O.O.` U T T T U L U U ( [ O.[ O.[ ' [ [ U / ` I I Y Y U I E ' P ] [ ( [ O.O.[ _ ( _ [ } } } _ [ ( } } { } } } O.} O.( P / T U T T P P ` ` D O.} ( } O.O.O.O.] T L T ` U J I I J J ~ ' _ T A / ` Z J L y 7 a m j J P Z D P R / ~ P D D / / ( / P Z P P ~ / / ( ( ( ( ( ( / K J T K J K L U J R ' P ( [ / / _ ( ( ( T L L U J U P T P ( ( ( ( ( ( ( [ ] ~ ' E J U P U J J U J ~ _ ( / ( [ [ ( ( / ( O.[ / ~ ( / ( _ _ _ / ( ( _ O.P P ( K J K K J Z P T Z ( ( Q ( ( Q _ ( P J J K P Z K K Z J / ) ",
"J J / P I Y J R / ( ( / / / _ / Z ( / Z J I U K P / K R ] ( ( _ ' ( ' ( / ` ( ( ( _ ( _ ( _ ( _ _ ' _ [ _ / P ` / U U U U K / ] T / _ / / ( ( ( ( T I Y I J T T J J J n J ( / / ) / ( [ E L ' / L L U T P / ' P / [ / ( ( / _ ( ( ' ` / / _ _ ( _ ` ( _ ( ( _ / / _ P z J P V J I n n I T z Z ( / ( ` ~ ( R K G J n z U J J I J J K / ~ _ _ ~ ( _ P ( ' P U T T / P [ / P [ [ ( _ ' _ ( [ ' _ _ _ ( R P ` ` ` / ` T ` / ( P T G L U J G J Y I J T I n ' ] j < < G D D V I I J P ` ` T I / [ [ ( [ O.( ( O./ T ` T T T E E P 5.,.P _ O.O.O.} [ _ _ [ [ O.O._ _ O.O.} _ ( [ [ _ _ _ [ [ P P ] T U U T U P ] / P [ } } 7.O.O.+.O./ T T P / ] T ^ ^ / [ O.} } O._ _ O./ P _ P P P T U P ` ` P ' O.O.} } } } } [ [ [ ( _ O.( ( [ ( ( _ _ _ _ _ [ [ / P ] T U T U E P / ,./ ( O.( [ O.[ } [ ` T T T T [ ` P U U K ( O.} O.} _ [ [ P / ' L I I Y Y I ' ] P [ O.( ( | O.O.+.} [ O.O.[ _ _ _ _ [ _ _ { [ } O.{ O.( P _ / P T / U T [ / D O.} } 8.O.O.[ ` P T T P / / I n J K z P P ( [ / / / V P U 0 q m c d J P Z P ~ R P S Z Z P ( / / ( D Z T T P P P T / / / ( ( _ U J T U J I T U J / ] P ( _ / _ _ _ ( P J T I P / / K T U P ( _ ( [ ( ( O._ P ` ' L U T U J J T P P [ ( P ( ' _ ( _ / ( } [ / P / ( ( _ ( ( ( _ ( _ O.P P ) S J K I J Z P / S / ( / / ( ( ( T I J T A P ~ P Z J J P P ",
"J ~ _ / K I L U P ( ( ( ( / ( / Z / ` P J I I K / ` Z / [ _ / / ( ` ' ( ' ( _ ( / / ( ( ( / / ( ( ( ( ( ( / P ` ) U Y T U U ` [ U / [ ( ( ( _ ' U I U I G P _ _ U J J n z P _ ( ( ( ( [ / L ] [ P L T U T _ ' P / _ ( [ _ ( / ( ( ` / / ` _ _ _ ( ( ( / ( ) ' ( / ` T k P R G n I n G T E V Z _ / ~ / ( / Z G G J Z U ` ~ z J U J J T / _ ( ( _ _ P ` ' P U ^ U T ( [ / K 3.[ ( / T ` ( _ _ ' ( _ ` ( T T / ` ` _ ` ` ` / P E G K T K G U J G U ` I J / ( ~ J 5 6 0 V n n G U T ] ] ` U U / [ } [ [ _ ( } / ~ [ ` K T T P ` 9.] P _ O.} O.[ _ _ [ _ [ } O._ [ O.O.} [ [ [ [ [ [ [ [ [ U P ,.' U U U I T ,.^ P [ O.[ O.O.O. ./ U T P ~ } +.' P ` / T ' O.O.} } O.O./ ~ _ ( P U T K R ] / P _ O._ [ _ ( ( ( ( ( ( ( [ O._ _ _ ( ( ( ( ( _ _ _ [ / P [ ] P T T T P _ [ / ( O.[ } O.} O.` T T T P ] } [ ( U K U P _ O.O.} _ O.[ P ` [ E I Y Y L T [ _ P } O.[ O.} O.{ O.} O.} } _ _ _ _ [ _ _ _ _ ( [ } } O./ P } _ P T T T / ,.` D O.+.O.+.+.O./ P I E T U ~ [ ~ J k J J J U / _ ( ( / Z A T y w m c l P P Z / ( P K K P T T ~ / ( / P P P P R P P P P / _ _ ( ' ^ J R / J I T U K ` _ P ( ( ( } } _ U J L L J ~ [ ( P P U U T _ O.O._ ( _ ( D ` [ R U T U J R / K T _ / / P P / / / ( _ _ ( P ~ / ( _ _ ( ( ( ( ( _ _ P P _ P J K L Z D ( / D ( _ / ( _ ( / J K L P P ( _ / Z Z K Z K ",
"` { _ _ / I I I J J / [ ( ( ( / Z / _ / Z I J J ( ] Z ~ [ ( / P ( _ / ( _ ' _ ( / ( ( ( ( / / ( ( / ( ( ( ( K ` [ T L T L T [ [ P T [ ( ( [ _ T J U I G T _ ( ( ` P G J z V / _ ( ( ( ( R U ] 7./ U P L / O._ A P _ ( ( _ / P / ( ( ~ / _ ( _ ( ( ( ( / ( ( ' / / ` P z / ` K n J G J ' T V D _ / / ` / J V G G n T _ / ( P J J J J J E ` / ( ( / Z / [ / J T U T } } T J 3.( _ / T ` ' ` _ _ ' _ / _ / T R / / T T T / P / / J J ` P n I n J / ] J J ' ` / _ P w + 6 e N J ` / / ] ' ` U J ` [ } _ } ( [ / ~ } [ P T T L [ u.' P _ O._ _ ( ( ( [ _ _ [ _ _ O.} [ } O._ [ [ [ [ _ [ } P P 3.7.T U Y U _ 3.T P } +.[ [ O.} / U T P ~ } O...O./ T ` P U _ } [ _ O.[ P D [ [ R U T K ( } / P _ [ ( ( ( ( ( ( ( ( _ ( } } ( ( [ [ _ ( ( ( _ ( ( [ / P [ 7.R U T L / O.[ P ( +.| _ } [ / U T U U _ O._ _ } ' K U U P [ O.O._ [ [ P ` O.] I U I I _ O.( D 7.[ _ O._ _ _ [ [ O._ _ ( [ ' _ _ { _ } ( ( ( _ } O./ D } O./ U T P [ [ / D O.#.O.O.7.] L L U U U _ _ ( / T n k J n U ` / ( ( ( Z Z E j 9 m y z / P Z / ( P K / / / P D / ( / ~ P P P ( / P P / ` ' / D / / P ` ] P J L U / _ ` P ( ( ( } ' P J I L J ~ _ ( _ ) P I U P R [ O.[ _ { _ P ` 7._ U T L P [ ] J T ( / ( ( P / P / / ( ( / P / P / ( ( ( ( / ( ( _ ( P D [ ( P J L Z / [ ( Z ( _ Q _ _ / J J U J A ( _ _ [ / Z Z J J ",
"( _ / ( ( / J J J J J / _ ( ( / Z ~ _ ' P G J T _ _ Z T ] / P ~ / ( ( ( ' _ / / / ( ( ' ( ( ( ( ( ( ( ( ( / J ( O.` L L P ` [ ] J T _ ( [ _ T I I I I T ' _ ( / ( ` J n G G J ` [ ( ( ( R U [ 7.[ P K R [ O._ P P ` _ ( / / ~ / / / / ( _ ( ( ( _ _ ( ( ` / ` / / ) T x T _ / J G J T ) T z P _ ( _ ( J n J J G I / ( ~ / ( U n J J J L E ` / ( R V T [ _ P I K ' O.} T Z ] ( ( _ / / ( _ ' _ _ _ / ( ( ` / / P P P T P P / / J J ` R J n G P ` ) J J ] ) T T J j : X < I _ ( ( ` ` ] ' T I L / [ } _ _ [ / P [ O.` T Y E O.7.' K _ } ( ( ( ( ( _ _ _ [ [ } O.} | [ [ [ [ _ _ _ ( ( [ P U 7.7.` I I ` [ [ T P } O.} +.} / U P T T _ O.{ { ..} ^ U T U U ` O._ _ [ D D [ O.' P I T _ [ / P ] _ ( ( ( _ [ } } } } _ { [ _ ( [ } [ ( ( [ _ ( ( _ ` P [ 7.) P U R [ O.[ P ( +.| O.[ / U L T U ` O.O._ _ _ } / U U P T } +.[ _ [ P ` O.[ ~ K I / } O.( J 3.[ ( _ _ _ [ [ [ [ _ _ _ _ _ _ ( [ _ [ _ _ ( ( _ } / D } O.( P K / [ O.T D } +.O.7.' T L P U U ` O.( / P T U n l n J U / ( ( ( Z z T n 0 j l P ' ~ z L P K P / / / D Q / / / / ~ / ( / / / ( ( ` P S P T T P ` [ ` K L / _ [ / J ( [ _ ' T I I J J T ( ( / _ _ / K I L P P _ _ _ _ [ P ( O.[ ` T L ` } _ P P ( / ( ( / / ( ( ~ ~ ~ ~ P / D P D / / ( ( ( ( ( _ P D [ } ( K P / _ _ ( D ( _ _ _ / Z J I I K / _ _ ( _ [ R V J I ",
"~ / ~ / ( ( U Z n L J J ( / _ T Z R / _ / J P _ _ ` Z P ` ( ~ / ~ / ( ( ( ( / _ ( / _ _ / ( ( / ( ( ( ( _ / J R [ _ T L / _ _ ` J K / _ _ R I U U J T ] ` / / / ( _ T J n G G L _ ( / _ E U ]  .[ ` / } +.} / J P ` ` / / ( ( ~ T ~ / / ' _ ( ( _ _ ( ` _ / P / ( ( / x P _ / T J J ` / T z P [ _ ` J z J G G J / T P / ~ / / I J G L I Y T D ( / z P _ } ` U T 7.} [ P Z ] _ ( } ` / / _ ( _ _ _ / / ( ` / / T / / ` U P T U J J ( ` P J J ) / ` J J ' ` K n j 0 7 , = q I _ [ [ / ` ` ` L J I ` [ ( _ _ T P _ O.[ / P ,.7.7.' J ` [ _ ( _ } [ ( _ ( [ O.} [ O.O._ [ O.} _ ) ( ( ( [ P P [ +.[ E / [ [ _ T K _ O.O.O.` U U T P ` O...{ { { O.' U P T U P ] ( ( _ P P [ O.O./ U ` O._ T K ' _ / ( } O._ _ } } { ..{ _ } _ [ [ _ _ _ ' [ ( ( _ ` P _ O.O./ T [ +.[ _ P / O.[ [ / I T L U ` O.[ [ } } ( } 7.T K T U ` O.[ _  .P / O.} _ ~ ~ } { [ / J [ O.( _ _ } _ } [ _ ( _ ( _ _ [ ( [ _ _ _ ( ( ( ( } ~ D [ O._ ( P [ [ [ T Z [ O.O.] T U T L U ) _ ( P P J P U J l g n z U ( D / J g U T g e J ( ( / z z k k U ~ P ~ / / / / / ~ P P / / ~ ( / / ~ P P / / U J / [ ) P / [ _ [ / J / [ ( T L Y L J P ( ( Q ( _ ( ( R L L P K P ' } _ [ R ( O.O.[ / T } _ ` K P ( ( ~ / ( / P P D D D ~ D P Z Z P / / / ( ( / ( ( / Z ( } } ( ' _ ..( ( Z / ( ( / P J P J J T ( ( _ _ _ _ ( J G G ",
"P ~ ~ ( / / / P J J J J K / ( T V E / _ _ / / _ _ ` V T ` ( ( ` / / / ( ( ( ( _ ( ( ( ( ( ( ( ( ( ( ( ( ( ` G P ( _ ( ` _ ( _ / J U / / T I I I I T ` ) ( / / ( ( / ` T z G I J P / ( ) R L ` _ [ } O.O.} _ / Z P ] ` / / / / / / P R ( _ ( _ ( ( ( _ _ _ / P / ) ` T V P ( ( ( ~ / ( ( P l U [ ) J n G J z J E ' / ~ / ( P / / J G L I I J P ( / V I / } [ ' _ O.} [ K J ,.[ _ [ _ ` / ` _ _ _ [ / / / / / T R ` T / T P P T J J _ _ ( R T ( ( ` J L ' R G j y l y e w 1 < j U _ [ ' / ` T U I U T ' ( _ P P _ O.} [ ] 7.+.7.` J / [ _ _ _ [ O.O.[ [ [ O.O.O.O.O.O.O.O.} ( ( ( _ [ [ U P [ O.| [ [ [ [ [ U J _ O.[ / P U U P / } O.{ { { { _ [ ` U T E U / _ [ _ P P [ } O._ ' _ } _ T J ` ( / ( _ } _ ( _ _ { _ } [ _ _ [ ( _ ( _ _ _ ( ( [ ) P ) O.O.[ [ O.O.[ _ J T O.[ / U U T U / [ O._ _ _ [ _ } O._ U U T P ` O._ [ P ` } ..{ } _ O.{ } ~ J ,.} _ [ ( [ [ } [ [ [ _ ( [ } [ [ [ _ _ ( ( ( ( ( _ R D ( .._ [ _ [ _ [ P Z _ O.` T U T L U / [ / P P P P P J J J g d l N L P / J g J ` P Z T ( ( ' z k k d J / P P / / / / / P D P P / ( ( / P P / / / ` T J R [ ( / _ O.[ ) R J / _ / T U U I R _ ( ( / ( _ ( _ _ E J L L K R _ } [ P ( [ ..} [ _ [ _ ` Z P ( / / ( ( / Z x Z P P ~ P Z Z P ~ / ~ / / ( ( ( _ R Z ' _ } { } _ ( _ / Z / _ Q A P J L I T ( _ Q ( _ _ ( ( / J G ",
"/ / / ( ~ / / / J J I J J T / T V T ` ( ( ( ' ( ( ( V / / ( _ ' ( ( / ( ( _ ( ( ( ( ( ( ( / ( _ ( ( _ ( ( ` V K / ( ( ( _ / ` / n T ` T J I U J P ) ) / / / P / ( / ) ` J G L I J R ( ( P L ` _ ) ( _ ( ( [ / Z / ' ( ( / P / ( / P / _ ( ( _ _ / / ` _ ( P P ( ) ( T z Z / ( / _ / / ) L l U ` K G G n G G T ` ( / / ~ ( ~ / ( / J J L J J T / R G I ~ ( / ( _ _ [ [ P T 7._ _ _ _ [ _ _ ( _ ( _ ( / T ) P J L E T T U Z P / G z ` ( ( ` T / ( / J U ' P z n v G l G U n 2 : = w U [ ] / T T I I I E ( _ T P _ O.[ O.O.O.O.7.` I / _ _ _ ( ( [ O.} } } [ O.| [ O.O.O.} [ _ ' [ [ ( [ U L [ O._ [ [ _ [ [ P P _ } ( L U T P P _ O.{ O...{ _ _ [ [ / U T U U ` [ _ P P [ O._ [ _ _ [ [ T J ` ( ( / / ( { _ ( _ { ( _ ( ( ( _ ( ` / _ [ ( / ( [ ` P / [ [ O.O.[ [ [ _ J ~ } ( U U U U / [ [ ( _ [ ( _ } } _ O./ L T T T [ } ] P / } .._ { _ _ { O.T J [ [ ( _ ( _ } [ } O.[ [ [ _ _ O.O.( ( _ ( ( ( [ ( ( P Z ( O.( _ [ _ _ [ P D [ O.E I T T J ` _ / R T P R K J J P P G y d l k J T d 0 J / P ~ ` / ( ` k J J g G U P D P D / / ~ / ~ / ~ / ( ( / P / ( ( T ` T G T _ ( ( ( [ _ ( R J ` _ T T T T T _ O._ ( ( / ( _ ( _ ` R J L P K ) } _ / / O._ _ [ ( ( [ / Z T / / ( ( ( ( P Z Z P Z D D Z Z ( ( / ~ ( / ( ( _ ( T Z _ ( _ _ } ( ( _ / Z ( _ ~ J T P J P _ ( ( ( ( ( ( / ( ( / P ",
"~ ( ( / / / / / P P J J J U / T V T ( ( / ( / ( ( ` Z T ` ( ( _ [ [ _ ( ( ( _ _ ( ( _ _ / / ( ( _ [ ( ( ( / V K / ( ( / / / ` T J T ` T I I I P ` ) ( ( / / / / ( ( ( ( / P J L L K / ) L L ` _ ) ( ( / ( [ / Z / _ ( ( ( / / / / / ( ( ( ( ( _ ( / / / / / ( _ ( ( T z K / / / ` / / ` P l P ~ J J I n J / ` / _ _ ( / ( ( / ( ( P J J I J P ( / Z U ~ P ~ ( _ [ ( ] P T 7._ _ [ _ [ [ [ ( _ ( _ _ ( R ` P K J P ` T J Z K T J l P ( / / R ( / / J P ' U z I G z J ~ ~ ~ U y - = 2 J / [ [ ` U I G I ( [ / K '  ._ [ } O.[ 7.' I ^ _ [ [ _ ( ( ( } O.[ [ [ _ _ [ [ O.O.[ _ [ [ [ [ [ U U [ | ( _ [ [ [ [ T P } [ T P T U P ( } { { } O.{ _ _ [ [ [ / T T P R [ [ P P [ [ _ ( _ _ [ [ / K ( ( ( ( ( ( ( _ _ _ _ _ ( ) _ _ ) ( ( ( ' ( / / ( _ ` K ` [ [ [ O.[ [ _ _ P / } / U T U R [ } _ _ ( [ _ [ } } _ [ [ T U T Y ` O.[ U / [ _ _ _ ( _ _ [ / J [ [ _ _ ( ( [ } O.} O.O.[ _ _ O.O.[ ( ( ( _ _ _ _ [ P D ( _ _ ( ( ( _ [ T P O.[ P U U L ` [ ` ~ P T T P P P J J K J n e j l z I 2 2 U / D / ( / / ( z J T z n K P D D / ( ( / / ( / / ( ( ( R / / ~ / / ( T J R _ _ ( ( ( ( [ ` P ` _ T T U R [ [ _ _ ( ( ( ( ( ( ( _ ) P K P P / _ ( ~ ( O.[ _ _ ( ( _ / Z T [ ( / ( / ( ( ' / P Z P Z D / ( / ( / / / / P / / / Z ( _ ( ( ( ( ( ( / Z ( _ ~ P P J P / _ ( ( ( ( ( ( ( ( ( ( ` ",
"~ ( / / / ( ~ ~ / / Z I L P / P V ` ( / ( / / _ ( ` J U ` / / ( ( _ _ ( ( _ _ _ ( ( _ _ ( ( / ( _ _ ( / ( / V R ) / ( / T ( ` T J T / P I n L ) _ ( / ( / ( ( / ( ( / / ( ) P L P K / _ K P ] ` _ ( / ( _ _ / Z / [ _ ( _ / P / / / ( ( ( ( ( ( _ _ ( ( ( ( [ ( ( ( T z U ( P / ( / / ( E k J / J n G G T ( ) / ` ( ( / ( ( ~ ~ ( ( P z L I D ( / z T / P / _ ` [ ( _ P T 7.[ _ [ ) _ ( ( ( ( ( [ _ / / ( / P K / / ` P P J L J k P ) R T / ( / ` J U ] P n J J J / ( ~ / / P x v d e 9 v I ` ' U n J R ] / S ` [ [ [ [  .[ 7.' I / [ ( O.O.[ ( ( [ [ [ O.[ [ _ ( [ [ [ ( _ [ [ [ [ [ P T O._ _ [ _  .[ [ / P } _ P / T P ( .._ _ { ( ( _ _ } } _ | | / U T T _ [ R P [ _ _ ( ( [ O._ ` A ( ( ( } } _ ( ( O._ { } [ [ [ [ [ ( ` ( ( / / ( _ ( ` K )  ._ [ [ [ [ [ [ P / } ~ U U U _ } [ [ [ _ [ } O._ } _ _ O.[ T T T R  . .K ` [ _ { _ _ O._ [ / Z [ ( } O._ ( _ O.} O.O.O._ ( [ } } } ( ( _ { _ _ _ O.~ D _ ( _ _ ( _ ( [ / D O._ U T Y T _ ( / ` T / P K J J Z Z J T J j y l n n @ 8 L P / ( ~ ( ( / Z Z T z J / P P / ) ` P P ( ( P / ( ( / R / ~ T / / ( U I ] [ / ( ( ( ) [ ` T ' _ T U U / _ ( / ( Q ( [ ( ( ( ( ' _ ) P K P P _ _ D ( [ _ _ ( ( [ ( ` Z / O.( / D / ( ( [ _ ( ( ( D ~ _ / / / P / / / D D ` ` Z ( [ / ( / ( _ ( / A _ ( / P P Z / _ / / ( ( _ ( / / / / ( / ",
"/ / / ( ~ / ~ / / / T J n U ( T z / ` / / / / ( _ ` Z U ` / / ( ( ( / / / ' _ ' ` ' ' _ ( ` / ` ` / / ( ' / V P ) ( ( / / / ( T J T _ P G J / _ ( ( ( ( ( ( ( ( ( / / / ( ) ` T J K / [ P L ] [ _ ( ( ( ( [ ( Z / [ [ _ ' ( / / / / / ) _ ( ( ( ( ( ( ( _ ( ( ( [ ( T Z P ( / / / / / _ ` z P ` K k z P ( / ( ( ( ( / / ( ( / P ( ( ( P J J P ( R z T ) ( ( _ ` _ _ ` P T [ _ _ _ ) ( / ( / / ( _ [ ) P ( / R T / ~ ` / P P T J G ` ( / / P ( _ _ P T _ J n J I ( / ( / ' T / Z P / J 0 9 + 1 a U L J K ] ` Z ` } [ [ _ [ O.7.' J `  .[ O.O.O.[ [ ( [ O.O.[ [ [ [ [ _ ( ) _ _ } | [ [ U T 7.[ [ [ [ [ | [ / P [ [ P U P ( _ _ _ _ ( ( ( ( _ _ _ [ _ O._ / P P _ O.R P [ } _ ( _ [ | [ / P ) ( ( _ _ _ ( ( _ { { _ O.[ [ [ [ [ } ( ( ( _ ( _ _ / K ] +.O.[ O._ [ O.[ P / O./ J U ] O.} } [ [ _ [ _ } [ [ _ _ _ O.] R L / | [ L ` O.[ _ _ } } { O./ J [ [ _ O.} _ _ } O.O.[ _ _ [ } O.{ O._ O._ _ _ O._ _ / P [ _ ( ( ( ( ( [ / D [ _ K J T _ / ~ ( ( ( / P P V z z P P P P G d y J v 8 G P D P / / ( ( / Z J / Z J P P P ` / K J T ` ( / P / ( / / / / / T P _ T I ] } ( ( ( ( ( O._ T ] ] U I E ` ( ( ( ( / ( ( ( ( ( [ _ / ( / P Z P _ _ D ( } _ ( ( ( ( [ / Z ( [ ( / ( / ( ( ( ( [ _ ( / / ( ( T J P ( ( / P / ` ` P ' ( ( ( / ( ( ( / Z ( _ P P ~ / ( ( / / / _ _ ( / / / / / / ",
"P P P ~ / ~ P / ~ / ` U k P _ T V T ` ( ~ ( / ( _ / z T / R P / ( ( / ( / / _ ( / _ ' ' ( ` / ` ( / / ` ' / Z U ` ( / ( ( / / T n P ) P Z / _ ( ) ( ( / / ( / ( / / / ( / ( _ ` K K _ [ P K ] [ ( ( ( / ( [ / A P / ( ( ( _ ` ~ / / / ( ( / / ( ( ( ( ( ( ( _ ( ( ( P Z / / / P ~ / ( / / J P / Z z J / / D / / / _ ( ~ ( ( ) P P / / ( P z Z / / V P _ ( / ) _ _ _ ` U P ] ( ( ` _ ( ( _ / / ` ` [ / P / / ` T / T T P Z ~ / J J ` ( / / T / _ _ J T ` Z z U ~ _ / / ( ` / / P P P Z D P g 1   2 T / P ) / J / } } [ _ [ O.7.' J ` O.O._ } O.[ [ [ [ [ O.[ [ [ [ [ [ _ _ _ _ _ ( _ [ P T 7.O.[ [ | [ [ [ P D [ [ P J / O._ ( _ _ ( _ _ ( ( ( ( _ _ _ } [ P P [ O./ R [ } _ _ [ [ | [ / D ( [ _ ( _ _ _ ( ( O.{ [ O.[ } [ _ [ ( ( ( [ [ ( ( [ ` K _ O.O.[ [ [ O.} [ P / O.( P ` +.O._ } _ ( [ O._ [ } } _ } _ [ O.` U / [ _ K / O.O._ } _ { { [ T Z [ O._ [ [ } _ [ _ _ ( ( _ +.} O._ O.} [ _ _ [ _ ( ( P P [ _ ( ( ( ( ( [ / D _ ( P J ` ( P P ~ ( ( U J Z Z L P ( ~ D P J g r I y 2 I P D P ( ( / / / z P / Z Z J P / ` R K / ` / / R P / / / P P / / P P _ T J ` } _ ( ' [ _ [ ` T [ _ J K ` _ / ( _ _ ( ( ( ( ( [ ( ( P / ) / S F ( _ P ~ _ ( ( [ ( ( [ T Z ( _ / _ } ` / ) ( / ( ) P / ( / ( P P S / / / / _ / / D ( ( ( / _ / ( ( ~ Z ( ( D P _ { _ Q ( / ( _ ( ( Q / ( / / ( ",
"P D D ~ / / ~ / / ( ' / P / _ / z / ` / / ( / ( ( / Z P / / P / ( ' ( _ / / / ` / ` _ _ ( _ _ _ / / ` / ( / Z K / / ( ( ( ( ~ T J U / P P ( [ ( ( ( ( / / ( / / / _ _ ' ( ( ) ` ` ` ( | R U _ _ ( ( ( ( ( ( / D P ( R / _ _ ' ` / / ( ( / / / ( ) ( ( Q ( _ [ ( ( ( P Z / / / ~ R / ( ( / V K / P D / / / ~ / R ( ( ( / ( [ ( / P P / ( / J V P ( J R ` ( ( _ _ [ ` / U J _ / / ` ' ` ( ` ( ( / ` ` / / / / / / ( T J V J P / U J / ` / T T ) ` ` Z P ` T P ` ' ( ( ' ` / / T / / U P D W ( U 1 . : n E ,.' J ` [ } O.} O.[ O./ J ` [ [ [ [ [ [ O.[ [ [ _ [ | [ _ } } [ [ [ [ _ ( _ [ T T [ [ [ O.[ O.[ ) P P [ O./ ( O._ ( _ _ _ _ _ _ _ _ ( ( _ _ _ } O._ ( } O./ / O.} [ _ [ } O.[ / P ) _ _ _ ( ( _ ( ( _ O.O.[ [ } [ [ ( / ( [ [ [ ( ( ( ` P ` [ [ O.} } O.[ _ T / O._ ( [ O.O.O.[ ( _ } } _ [ ( [ } } _ _ [ [ ` ` _ [ K / [ [ _ } [ O._ [ ~ Z [ } [ [ _ [ [ [ ( ( ) ( [ O.O.O._ _ _ [ } [ ( ( ( [ P P [ _ ( ( ( ( ( [ T S _ ( ~ ' _ / D R P P R P Z Z T ] ( ( / / P P z z I 9 @ 0 z D / ( ( ( R R Z P ( P P / / ) ` R R ` / / / P R / ~ / R P / / / / ( T J / _ ( ( ( [ [ ` T T [ [ R / _ ( ( ( ( _ _ ` ( ( [ [ ( / R / ( ) / / ( _ D D / ( _ _ ( _ ( P Z / _ ( [ [ _ _ / ( _ _ ( R / ( ( ( / / D T / ( / ( ( T Z / ( ( ( ( ( ( / T Z / ( D / [ _ _ _ _ ( ( / ( / / ( ( ( ( ( ",
"P P / / P / ~ ~ / / ~ ~ / / ' T k T T P / ( ( _ D T J U / ( ~ / / [ ( _ _ / ( _ / / _ _ ( _ ] ` P / ( / ( / J J K / ( / ' ) P U J U / ( / P / ( ( ( ( ( / / / ( ( ( ( / / ( ( ( [ _ ( [ R P ` / ( ( ( ( ( P T P ~ ) / / ( ' _ _ ( / / ( ( ( _ ( ( ( / / ( ( [ ( / ( R Z P / ~ / / P / _ T l J ' P P ( P ~ ~ / / ( ( ` P P ` / ( P T / P ( / D / / J T P R ] ) _ [ P K U Z ` ` / ( ( ' ( / ` ` / ( / ( / ( / / ( ( P Z z P P / U J U P P / T ` / P Z P ' _ ( ` ` ` ( ' ` ~ T / ~ ` ~ ( P / P D J 0 o : 7 G T K [ O._ } } [ [ O./ J ` ] [ } _ [ } _ _ } [ _ _ [ _ [ [ _ [ } _ _ ( _ _ [ T E ) ( _ O.[ O.( / / P _ O._ } O.( ( _ _ _ _ ( ( _ _ _ _ ( ( _ _ _ } } } O./ / [ _ _ } } O.O.( / P ( ( ( _ ( ( _ ( ( _ O.} } [ _ _ [ ( / _ [ ( _ _ ( _ ` P ) ` ( [ O.} O._ _ / / O.} [ _ _ O.} ( ( } _ [ _ _ ( [ } ( ( _ ( O.[ ( _ ) K R R / [ _ { O.( ( T Z _ [ } } _ [ [ | ( ( ( ( [ [ O.| _ ( ( [ [ [ ( ( ( _ T P _ / ( ( ( ( ( / P Z / ( / _ ~ P Z J K Z P P Z J T / ~ D / / D P Z P n 6 y y 0 P / / [ / S R Z Z ~ P ~ ( R P U P / P ( ( P / / / T / T P P / ( / / T I T / / ( ( ' / T L T [ _ [ [ ' ( ( _ ( _ ' ( / ( _ ( _ _ ( ( / _ _ ( ( _ Z P P D ( _ ( ( D U J T _ [ ( _ _ ( ( ` ( [ _ ( / ( ( ( ( P K P ` _ / ( _ P Z P ~ _ ( ( ( / D T Z ~ ( ( ( ( Q Q ( _ ( ( / Q / ( / ( ( ( ( ",
"~ / ~ / / / / / P ~ D P P P ` U k T T S Z ` ' / D / J P ' ( / / / ( _ [ _ _ ( _ ` / / ' _ ` / / / / / / ( T J U P P / / ' / P / J J ` _ ( P D / _ ( ( ( ( ( ( ( / / P P ( ` ( _ [ _ ( [ P U ' R P _ _ / D P / P / ] ` ` ` ' [ [ ) / ( ( ( ( ( _ _ ( ( / ( ( / / ( _ T Z T S D ) ( / ` T J z P / / / / / / / / / ( _ ` P P R / / / / ( ( ) ( ( ( / Z T L J `  .[ ` V P U Z ' ` / / / / / ( ( ` / / / ( ( ( ( ( ( / K J J K P / I U I Z R ` / ` P U P P _ _ / / / ` ' ` / / / / / / / / / ` P P S P I e O ; 2 y L [ O.O.[ _ [ O./ J ' [ _ [ _ _ [ O.7.] ( _ _ _ _ [ [ _ [ _ _ _ ( _ [ [ T / ] / / [ +.[ / ) ' P _ +.{ _ _ ( ( _ _ _ [ ( ( ( _ _ _ [ [ [ _ _ } [ } O./ / [ ( ( } 7.O.) ( ` P ( _ ( ( _ [ [ _ [ _ _ } O.[ [ [ [ _ _ ' ( ( _ ( [ } _ P ` ` R ) +.+.[ ( [ / / O.[ [ _ ( _ ( _ _ [ [ _ ( _ ( _ _ ( / ( [ _ _ _ _ ) K / ` R ( O.O.( R ( P Z ) _ } O.[ [ ( [ O.[ ) ( [ } } _ ( _ ( [ _ ( _ ( ( _ P P ` D D [ _ ( P P J Z / ( / ~ P P P P J K P U Z K P P D P T ~ P P D T 0 0 T L j z P ( ( Z Z R J P P Z P P P P U R R R ` ( / / / ( / R P P P P ( ( / T J / / P ( [ ' P ~ T U _ [ _ [ _ ( ( _ [ [ _ _ ( _ ( ) ( _ ( ( _ ( _ ( _ ( Z P ` D D _ ( W ~ / J T [ [ _ _ ( ( _ _ ( [ [ ( / ( _ ( D P P R ~ _ ( ( ( P D / D ( _ ( P Z P / Z / _ ( ( ( Q ( Q ( Q ( Q / / / / / / / ( ",
"D / P ~ / / D D ~ ~ P / P P T J l T ' P z P T P / [ J K _ ( ( ( / / ( _ ( _ ` ( _ ' ' _ _ ) / ' ` / / / ` T V E / J J / / P P ' J J ` ( ( ) / / ( ( ( ( ( ( / / / ( / ( ` / ` ` ) [ ( ) P J ] ) Z P ) P Z / ` Z / [ ` ` ) ` _ _ / ( ( / ( ( ( ( ) ( ) P / / D D ( _ P V T Z V ` ` ` U J U z P / ~ ~ ~ / ( / ( / ( _ ` / / / ` ~ / / / ) / P ( ( T z U ` G J ,.] K J ] J Z _ / / / R R T / / P P T / ( / / ( ) R P K T I Z / ` J J T G J / / P V ` P Z _ / ( ` T / / / / ' / ~ / ~ / ` / / P T R / / / I t ; 1 < w J ' } O.( _ T I ] O.[ _ _ [ [ 7.T 0 G [ [ [ [ ] _ [ ' ( / ( _ _ [ O.T / 7.[ R / _ / / } _ P _ O._ _ _ ( ( _ { _ [ ( ( ( _ ( ( [ [ ( ( _ [ _ _ } / R 7.) P ` 7.[ P _ ] P / _ ( ( ( ( ( [ [ _ [ [ [ [ } _ _ [ _ ( ( _ _ _ [ } ) P ( [ T P  .O./ ( O./ / O._ [ | ( ( ( [ ( _ O.( ( [ ( ( [ ( / ( _ ( [ | ( _ S / 7./ P [ ) R /  .T V ) _ _ _ _ ( _ [ [ } _ _ _ [ [ ( _ [ ( ( ( [ ( ( [ [ P Z ` / Z / ( P V / U Z / / ~ P P ~ / / U T / K Z Z / T P ( P P / Z P z 8 z D ` L k Z ) T Z P / Z P P Z P T T / R E P T ` ( / P ( ) / P P R P D / / / P J ` ] P P ` / P _ ` I ` [ ( [ [ ( / _ [ [ [ _ / / [ ( / ' ( ( [ _ ( _ _ / x T [ P D T P / ( ` J T [ _ _ / ( [ _ _ ( ( _ / R ) / P Z Z P / D ( ( / / P K ( D P ( / D P / ` Z P _ Q _ _ ( _ _ ( ( / Q ( / / ( / / ( ( ",
"P ~ P ~ P P D D / P / / P P P J k T ` ` P J z / _ [ J P ' ( ( _ ' ( / ( ' _ ` ( ( _ [ [ ' _ _ _ ` ` ` ` ` U Z T / T J U U U / ' J I ` ( ( ) _ ( / ( ( ( ( / / / ( ( ( ( ( ( ( / ` [ ( ( T J ` [ P P T J P _ ( D ` ] ' _ _ _ ` ( ( ( ( ( ( ( ( ( ( ( ( / / P / / ( _ R z P T z Z ` P Z T ' Z Z ( / ~ / ~ / ( ( ( _ ( ( _ ' ( ( ( ( / / / / ~ / ( P z U ] E J P L P ` _ P Z ` / / / R T P P P J Z P T / P P P / K J P T U D ( ` Z J ' E z T P Z J ] Z Z ` ( ( _ / / P / / ` / / ~ ~ ( ' / P P / / ` P / _ ` j y 9 1 ; 8 k / _ } / J E ` / [ [ 7.` I y < w G l z T ] / / R P / ' [ [ } O.P / O.O.` / P ` [ [ ` P _ O._ _ _ ( ( ( _ [ _ ( ( ( _ _ _ ( ( ( ( _ _ _ [ [ / R 7.O./ R ] / ( 7.] P ( [ ( ( ( ( ( _ _ [ [ ( [ [ [ _ [ ( ( _ [ [ } _ ( ( ` P ( O.) P E ` / [ [ / / O._ | [ ( ( ( [ ( [ [ _ ( [ _ _ ( _ ( ( ( _ _ _ ( [ K / +.[ / R P / [ O./ V ) _ ( ) ( ( _ | ( } [ _ [ O.[ [ _ [ [ ( ( [ _ ( [ [ K Z [ [ P T J Z K ' P Z / ( ~ / P P P / ` / / P Z K T T / ( / / D D J 8 0 E S P / P V P P K / ( Z P P P P T R R R / T ~ [ [ R R / / P P P P P / / P ( T J / [ / J J U T _ ` J / [ ( [ [ _ _ ( ( [ [ / / ( ( ( ( ` ) _ ( _ _ ( ( ` z T _ ( ~ P P _ _ / K / [ ` / ` ' _ [ _ ( ( ( ( ( / P P P P P P P / / / ( P A ( P Z V U P ( ( ( Z P ( Q ( ( ( ( ( _ ( / Q Q ( ( ( ( ( ( ( ",
"D P P ~ D D A P ~ ~ ~ P P D P U k U ~ / / U z / ( / J J ` ( ( ' _ ( / ( ( ' ( _ ( ' ' _ ( _ _ ' ` ] ] / ~ T J U / _ K J I ` / ^ J I ` ( / ( ) ( / / ( ( ( / / ( ( / ( ( / ( / ( _ ) ( ) T J / [ _ / J P ( ( ~ D / ] ` ' _ _ / ( ) / ( ( ( ( ( / / / / ( / / / W W ( T h P _ P Z K K / / / Z K / D ~ / / / / ` _ ( / ( ( ( / / ( ` P D R ` / R / P Z U ` ] R J J _ ( / P z ( ( / / R P P P P T K P K P P / P P Z P K U U P / E z z T ` K I n K / / Z Z ( _ / ` ] ` T T R / ` / T / / / R P / ) / ( / ( ( _ J Z ) U 9 1 O 2 Z [ I 9 q 9 e G T T v y U U e 6 O o 8 I K P S Z / [ [ _ O.O./ / [ } _ [ _ [ [ ' / P _ O.[ _ _ [ _ ( ( [ ( _ _ ( ( _ _ ( ( ( _ ( _ [ _ [ / T [ +.O./ P / O.} ` T ( [ _ O.[ _ _ ( [ [ _ ( _ _ _ ( ( ( _ [ } [ [ ( / ( ) U / O.O._ T T O.} ' ` / O.} _ [ [ ( ( ( [ _ _ } ( ( _ ( ( _ ( ( ( [ [ ( ( [ P / O.[ _ ( T ( _ [ / Z ) _ _ ) ) [ _ [ [ _ ( ( [ | _ _ ( ( _ _ ) ) [ ( ( ) S P _ ( ( ( J P ' / A Z ( / ~ / P P K T / / P P Z P P / / T / T Z P j # n ) D Z / / V V T _ ~ P P P P P P P R U R ) ( P ` ) R ( / P / / / P / / P P ( ~ I T ` ] T U ` / / / I ^ _ ( _ [ _ } _ ( ( _ / / ( R ( _ / P / ` _ ' ( ( T Z / ' ~ / _ ( _ ( P J ( [ ( ' _ ` ' [ ` _ _ / ( / / / ( ( / D P / / D / ( P Z P ( P z P ` ( P ~ D D ( ( Q ( ( Q Q ( ( ( W W ( ( ( _ ( ( ( ",
"~ ~ D D P P A D P / / ~ P A P P k U T Z P ` / / A / U J ` ( ( ' ` ( / ( ( ( _ [ / / ' _ _ _ ` ' [ ] ` R ~ E I P T ` ` U T ] P T I P ` ( ( ( ( ( ( / R ( ( / / ( ( ( / ( ( ( ( _ _ ` / _ / K ` ) ( ' / _ ( P ~ P / _ ( ` _ ` ' ( ( ( ( ( / P / ( / / / / ( / / / ( ( ~ z Z ( ( / P T [ ( T Z P / D P / ( / R / / / ( ( / ( ( ( / _ / P P ` ( / / / Z T ` / / ` / ` D / P z ( ( / / P P T / ~ / P T Z V P ( P P P P P P P P ~ T z G J T ( T J ` ( T Z Z ` ' _ ] ` ` ` ` T T _ / P / / ( ~ / / ` ( ( _ _ ) [ U Z ( ( Z n v 6 # 0 8 8 9 0 9 0 y y 0 n ' [ T I j 8 8 l z z Z P _ [ [ [ O.O./ ( 5.( ( +.8.O.( ( / P _ O._ _ _ [ [ _ ( ( _ _ _ _ _ _ _ ( ' _ _ _ [ ( [ [ / / _ [ O._ / _ O._ ' T ( } _ [ O.O.[ _ [ _ _ _ ( ( _ _ ( _ _ _ [ _ ( / ( _ ] P / [ O.O.[ [ +.( _ ` / O._ _ _ _ _ ( ( _ _ [ } ( _ [ _ _ _ _ ( _ [ [ ) ( [ P / [ / ( O.O.[ / ) R D [ _ ( ( ( [ [ [ _ ( ( [ ( ( ( _ ( ( ( ) ) ( ( ( ( ) P P ( ( / ( _ [ / / Z Z / / ~ ~ P ~ P P K T P / T P ~ ' ( / P P A K 8 8 T ) P P P / / / _ [ P ~ P P / P P / / R / ` R P T T T ( ` ( ( ( ( ( ( / / / ( / U E / / _ } [ / / / U / _ ( _ ' [ } } _ ) ( ) / / ( ( ` P P ~ ` ) ( ( ( / Z / _ D P O.O._ P T K ` [ ( _ _ _ _ _ ' _ _ _ _ / / ( ( / / P P P / D D ( P z P / ( / ` / Q D / S D ( ( ( ( ( Q Q Q _ _ Q W D Q Q ( ( ( ( ",
"/ P Z A ~ P A Z Z K P A K P Z J k P P z Z _ ' D Z ` U U ` ( ( / ~ ( / / ( _ _ / T T ] _ ( _ ' ` _ ` ~ / ( T U E U T ` ] ] / Z / I U ` ( ( ( / / ( ~ P _ ( ( / / ( ( P / ( ( ( / / / / ) T J ` / D ( [ _ P Z T K P ( / / T / ' / / ( _ P Z Z P ( / / / Q / / / / / / P z J P P _ ( / / P T Z K ( / ~ / / ( P D P ` / ( / / _ / P ' _ ' P / ( P / / Z U / z P } ( P z P J z / ~ ~ D D P P / P P / T J k V T / R J P T / P S / ~ z J J V P ` ' ` P P Z J / / ( ( / / ` ` / / ' / P T / _ / / R P / ) ( [ ( _ T P _ / Z ~ O.` 6 @ 9 z P T K Z z G l g Z / _ [ R J I L k 0 z } O.} } O.O.O./ ` 5./ P O.8._ R ( ( P ` } _ [ _ _ [ [ ' ( ( _ _ [ _ _ _ _ _ _ _ } [ _ [ [ R R ) R ( [ O.7.( / ] P / O._ ( [ [ _ _ _ ( [ [ / U ` O.( _ _ ' ( ` ( ` } _ ` P / ` P ( +.O.( P [ / P O._ [ [ _ O.( ( ( _ ( | ( ( _ [ ( [ _ [ _ ( ( ) ( [ P / [ S D [ O._ P R / D _ ( ( ( ( ( [ | _ ( ( _ R P ( [ ( ( ( ( ( ( ( ( _ O.R D ( ( P / _ [ A P A Z ~ / W ~ P ~ P Z P / P ~ / P / ~ / / K T D k # j ` R ~ / Z K ` O.] P D ( J P / P P P P R T P P / / T K J ` _ / / ( ( / / ` / ( / U E T P _ 3.' D / ' P T [ ( _ ) _ ' _ _ ( ( ` P ~ _ ( P J T ` R ` / / ' ` Z / _ D J ( O./ Z T U / [ _ ( _ _ _ _ _ ( ( } ' J Z ( ( / / D D P ( D D / P Z P Z ( ( _ / Z D ( Z / ( ( ( Q Q ( Q Q ( ( W D W ! W Q ( ( Q ",
"/ D h Z P D A D Z Z z Z J J J J g P P z z / ~ Z J ` U P ` ( / / / ( / / ( _ / U U T ` [ _ _ _ ( / / ~ / _ / J T T P P ` / P Z / I P ' ( ( ( / ( _ / / ( _ ( / ( ( ~ P ~ _ _ / P T ` ` ` T J ` R Z / _ P Z K R K P ` / P T P / / ( _ ( Z z Z Z P ( ( Q Q W ( ( / D / T V K P Z / _ T J K T Z P ( / / ( ( / / / P ~ / ( / ` / P P ( _ _ ( / ~ / / P Z P P z Z ' / Z z A Z Z P D Z D D P J D D / P S z z z J / / P P P / P P / / V J U Z V / ' Z k U A P ` ` T T / ` ` ` ( _ / / T / / ( _ _ ( ( ( [ _ _ ( [ T P [ R K / ` P r z J Z P / P / / R P J K ` ( T G z J I J d 0 / +.#.+.} O.O./ `  .( P _ [ / P ` ` P ( [ [ [ [ [ [ [ _ ( ( [ _ ( ( _ _ _ [ ( _ [ [ [ _ _ / / ) P P ` 7.[ T / ] P / } _ _ [ [ [ _ ( [ [ T U Y T _ [ _ _ ( ( ( _ [ _ } _ P ` ` Z P _ _ D P [ / P } _ _ _ _ ..[ _ ( _ ( | ( ( ( [ ( ( ( _ ( ( / _ ( [ P / [ P K / ) R S R R D ( [ _ ( ( ( [ [ ( [ ( ~ P T ~ ( [ _ ( ( ( ( _ { O.O./ P ) / K P [ / Z ~ D Z / Q D / ~ P P P T / ( / / / / T Z T P T P 9 @ J _ P P / J Z J ` / J P ` K P / R P Z Z P T P T ` / P J J K / ( ( ( P / ( _ ( ( / I T T P / / P P / ` T / [ _ _ [ _ ` ( ( ( ) ( R P ( ( P T ` ` / ` / ( ( ` P ( ( P K / ` D P ` T / } [ _ _ ' _ _ _ ( _ [ P z G U / ( / P S P / Q D P P Z T D D ~ _ P Z D ( D ~ ( ( Q Q Q ( Q ( Q W W Q Q ! ! ( ( ( ( ",
"~ D Z Z A A A D P J Z J Z Z J J d J Z V z K J Z J / U J ' ( ~ / / / / ' ' / U T T U T _ _ _ ` ( / ( ` / ( ~ J E E U J T T U Z / J J ' / / ( / ( ( ( / / ( ( ) ( / / / / ( ( P / ' / / ( P J E P J P T K Z P / Z P ' / / / ~ / ( _ ( P z Z Z Z Z / ( Q / / ~ / D D / P z J P g J ` U z K U Z P ~ P ~ / ( / ( ( / ~ / / P P T J T _ / ' _ ' ~ / / P Z P P z z J Z z x P Z h P A Z P A Z D / / / J V z J k G P R / P A ~ / / P R Z Z T J z P P l l L J J ] ` ~ ` / ` / / ' _ T ~ / ( P / ` _ ( _ _ _ _ / ( [ P P _ P J T E V z T K z P / P / R / / / ` _ / I n n n n L U 0 0 k T ` } +.7./ / [ ) P / ` P K ` ` D ( } _ _ } [ _ [ _ ( _ _ ( ( ' [ [ _ [ _ _ _ } _ ( _ P R _ P P T ` / P / ' U / [ _ [ _ [ [ _ _ _ ` L U U U U _ [ _ _ _ _ [ _ ( [ ` P / ` P L E / S T [ T P } ( _ ( _ ..O.} ( _ [ [ ) ( ( [ ( ( ) ( ) [ _ ( ( _ P P [ P K P P S S / T S ( ( _ ( ( [ ( [ _ [ ~ K U T U / _ _ ( ( ( ( _ [ _ [ ` R ( ( K Z / A Z / Z Z / Q D ~ ~ / ~ / ~ ~ / / P / ~ U J T P K I < 2 T / / D P P Z z I J P U / J Z T / D Z K / T P / / J J U U J R ) / / P P ( _ / ( / J T T U / T J P / / T ` [ ( ( _ _ [ _ ` ( / / ( P P / ( _ / / / / ` ` / T P / ~ K P P R P R ' T / [ _ _ ( ' _ ` ( _ [ T n n G G T ( / P P S ~ / D ( P Z / / D P P Z Z P ~ Z P ( Q Q Q W Q Q ( W D Q _ Q Q ! ( Q ( / ",
"D P Z P Z P A D A K P P Z Z P J h P J z G V z J J T L U ' ( ( ` / / ' _ ` P U T U U U ^ _ [ ` ` / ` ( ( ( / P R / U L U T P Z / J J / / / ( ( ( ( ( / ( ( ( ( ( ( _ ( ) ( / / ` _ ( ( _ U J E P K T K J K P / P P ` ` ' ( / ( _ _ T J J J Z U P S ~ ( / / ~ P D D P P V J L l z P J V I L Z Z ~ D D / / / / ( ( ( ( / D P ~ / / _ ' ' ( _ ' ` ( R z K K Z z z g z z A Z Z P D D / P P / ( / J G J V G z I J P ~ ( / / ( / / T Z J P K V I J z l J Z Z ` ` / ' ` ` / ` ' / P ` / ( / / P / ( _ ( ( / ( ( _ R P ) P J L J K J P L V P ( / / ( / / ) _ ` J I I I G J J P T n 2 + < j [ 7.` ` ] ` T ` ` U P ` ` D / [ _ _ [ _ [ [ _ _ _ _ _ ' } [ [ } [ [ [ [ [ ( ( _ / P _ P P T P T / / ' P R [ [ [ [ _ _ [ [ ` T T T T U I U _ [ _ _ [ [ [ _ ( ` P ` ` P U T R P P _ T D } ( _ [ _ O.O.[ _ } [ [ ( _ ( _ [ _ ( ( _ [ ( ) _ [ P R [ R L L J L L / / D ( ( ( ) ( _ ( [ [ / U U U T T T P _ _ ( ( _ ( [ ) ( / R ` ` K J U Z Z T J Z ~ / / ~ ~ ( _ ( / / / ~ P / / ~ U P T U 9 + n ` / ( D Z / P G G J T K R J Z T P D P T T P / / T J J I L L P / ) / P / ( ( ( ( / J T T T T U U K T ` P ~ _ ( ( ' _ [ [ _ ( / / ( ( / ( _ _ ( / / / / ( ) / Z T T K P T T / R ` / / [ ( / ( _ _ ( _ _ ` I n G G G K P / / / D R D D / D Z R R P K J J K Z P P D ~ Q / ( W / ( ( D Q Q ! Q Q Q Q Q Q Q ",
"P P Z Z D D A A Z A D P D Z K Z d P Z l z z z J Z U I U / / ( ( / ( ' ` P T T U U U U L T ` _ _ ` / ` ( ( / P / R L P I U P J / J Z / ( / / ( ( ( ( / ( ) ( / D ( ( ( ( ( ~ / ) ( ( ( ` K J R P K P J K K P / P P ` ( ' ( ( _ ( / P I J J J P R P Z R / ~ P Z D P D P V J J l n G J J G L Z Z / ~ D D P ( / / / ( ' ~ / ( / _ ` ( ' ' / ` _ ' ' P z J Z z z j d k g Z K x D P D P ~ / / / J z n J z k G J J P J / / / P D ( / Z K P K V V z V l n z z T ( ( / ` ' / _ ( P ~ _ / / / P T / / / / / / _ ( ) P / ` Z J L J K J L T Z T ` ( ( ( ( ( [ ] P I U Y I J I J I / _ ^ v - o e U U ` ,.` P T T P P / ` P / _ _ _ _ [ [ [ [ _ _ O.[ _ [ [ [ } [ [ } [ ( / _ _ / / _ P K P L P R / ' T R O.[ [ [ _ _ | ] E T T T U T Y G T [ } } _ _ _ ( _ ' P / ` P U U / P P ' P P } _ ( _ ( _ _ ( _ O._ ( ( _ ` ( ( _ ( [ ( _ _ ( ( ) K / [ P K K J K P R ` P ( ( / _ ( ( [ _ / U U T U T T T U T ( ( ( ( / / / ) / P ` R J J J J Z J J Z ~ ( / / P ~ ( ( ( / ~ / ~ ~ T / R J P N + 2 / ( ~ ` P P / U J n G L J P Z K T P S P R P T / P J J J n I P P P / / / / / ( ( ( / I T T T K J U K P ` K J / ( ( ( _ _ _ ( ( ( / / [ [ ( ~ ( ( P / ( / / _ / Z P R K P R T / P ` ( / _ / ( _ ( ( ( _ / P I G G I J Z K ( / / / D Z D D D z J K V J K V K z K K A W / D Q ( ( W W Q ( W Q ( A D / Q Q / ",
"~ A Z Z K P Z Z Z P Z P P Z J Z g P Z l k z z J Z T L J ` ( / / ' _ / U U T T U U U U U I P ` ] ' ` ` ( _ / P ` / U U U U L P ' J Z ` ( / ( ( ( ( / ( ( ( / / / ( ( ( ( / / / ( _ _ ( / J J / P K K J J K P / P P _ ( ( ( [ [ / P U T J J P T T T P Z P / P D P D D K z J I G n G G G J U Z P ` ( ~ ~ ~ / ( ( / ( / / ~ / / ( ( ' ' _ ` ` ` ( / P z J Z l l l d g g z Z z P P D A P / ( P Z J N J z l k J K J J U T T K D ~ / Z Z P Z z G z V z J z z / ( / / / ( ' _ ( / / / / / R / R / / ( ` ` _ _ ( _ P R / J J L J J J L P V R _ ) ( / _ [ ] T L U U I Y U U U U P / } O.U e 9 9 0 n ` ` T U R U L ` _ P R _ ` _ [ [ } O.[ _ [ } [ [ _ [ } [ [ } } } _ / _ [ P / _ P Z L L L P ` ' T ` O.[ } [ O.O.] T T T U T T T Y U I E [ O.[ _ / ( _ ' P ( ` U P U T T P _ P / O._ } [ ( ( ( ( _ [ _ _ ( ( [ ( / ( _ _ _ [ [ [ ( ` K R [ L J K J J L ` / D ( _ _ ( ( [ _ / P / T T U / ^ T U I K ` ( ( R R / ( ` P / R J J K J V J Z Z / ( ( ' ~ Z P ( ' ' / ~ / ' / / T U U y 2 J ( / ' ] P P / J V J J G K E J P / ( D P P R R T K J I n n L U P P P P ) ( ( ( ( _ / U / T L I L L K P / J Z ` ( ( [ [ _ ( / ( / / / _ [ _ / / P T / ' ` _ _ / Z T / K K T / / / ( ( / } ( _ [ ' _ ( ( T R L I G J J J K P ( ( D D A D D P z V V J J J Z J J L J P ( Q Q ( ( Q D Q ( ( W / / W A D / W Q ",
"P Z z P Z z z Z A P D A P D Z z g P Z k k G z z Z / L Z / ( / ( ` ~ J I T T U T U U U U U U P / _ _ / ( [ / P / / P I U Y I U ' J Z ` ( ( ( / ( ( ( ( ( ( / / ( ( / ( ( / / / / ) ` ( ` K Z ` P V J G J G P / Z P _ ( ( _ _ / P T / / U J U U U P P K Z T P / P D R K z G L J G I n G L U Z / ' / ( ( ~ / / / / ~ ~ / P P ( ` / _ ` ` ` / P P / T z J Z g l n j j l x z h D D D D Z R / P J U J z z k J P J I J J U / P / D P V z K z l G z z V L z z ` ` ~ ) ~ P / _ ~ ' ~ / ( / P / / / ( _ ( [ _ ' ( _ P P R S K L J J J P U V R _ ( ( ( _ _ E I U I U I Y Y I I U T / ( ( _ / / I 2 9 c l j n T U J ` _ P T _ _ [ [ [ } } [ [ [ [ [ O._ [ } [ [ _ _ } } _ _ _ P P ( S Z L L J L / ' P ` O.[ { O.O.] P U U T U U T T U U I U / [ O.[ ( ( _ ` P ` / P I T U K T ] P R O.( [ _ _ } _ _ [ [ _ [ ( ( [ ( ( ( ( ( [ } _ ( ( ) Z P ) K J J J J K / ~ Z ( [ _ _ _ [ T P T / T P P E T L L L L R ` _ / ( ( ` ` P / P J P P G V K Z Z / / ( ( / A P _ / ' / T / / / / J U Y 8 y / / P ( ` K Z R Z V L J G K / J Z / / D P P / / P J P U k k L P L K K P / ( ( ( ( _ / U E P I I L L J T P V P _ / / ( _ ( / ( ( R / ( ( ( ( ( / P / P ( ' ( ( T K / / K K P R R / _ / / O.} _ ( [ _ / / / / T I G G I L J J P / D / D D R Z z J V K G G J G L U z P ( ( _ ( W D Q ( Q Q Q Q Q ( D C D W / ",
"Z Z z D Z k z P D D P P D D D z g P Z k z G Z z J ` L J T ` ( _ U J G U U T U U U T U T T T U T ` _ ( ( } ( J ` ` P L Y U J P ' Z J ' ( ( ( ( / ( _ _ ( ( / ( ( ( / / / ( ( / / ( / ( _ P Z ` P V G J G Z P / Z P _ ( O.,./ P E / R / T L J P T P U T P K P / ~ / / P z J L G G I G G J T Z / _ ( ( ( / ( R T D P / R P P / / ` ` ` ` / / P P / T z J J g l n z k z Z z h P D D P K P P P J J J J J J I P J J V J P T / ( / T z V G z l G G G V U Z V / _ ` ` / R P / ( ` / / / / / / ` ( / ( ( [ _ ' / ) P P / K J L L I G E E Z / _ / ( _ _ T T T U I I T Y I L U U U ` / ` ( / [ ] n c v 0 2 2 9 a I ' ` S R [ ] _ [ O.O._ _ [ } [ } [ [ [ [ } [ _ _ } } } } _ P D ( D Z I L I K / ' T _ O.[ O.7.` U U T U T U T U T T Y L T U / _ O.} _ _ ` P ` / P I U U J T ] P P } ( ( _ } } [ [ ( [ _ [ [ O.[ [ ( _ ( [ _ [ ( ( ) ) K P ) J J J J J K / P D ( _ _ O._ R P / T T P T T T U P L T P T T ` _ [ [  ./ P / E J U T K V P J Z / ( ( ( / / / ' ' ' ( / T T ~ / T Y e 2 n P ~ / / ` Z Z P J J L I J K T J J P P D ~ ( ( / P P T T J n L P J J P P P ( _ ( Q _ ( U E P I L L L K P T J ( [ / D / ( / / ( ( ( ( ( ( / ( ( ` / / / / / ~ ( ` P / _ T J P R P R _ / / +.[ } O.' R T ^ / T P T K J J L J K J P / ( D D / P Z / U J J G G G J U Z P ( ( Q Q D / ( ! ! ( Q Q Q ( Q Z A W / ",
"z z z Z Z x x P A A P P D D D Z d D D z z G Z z P / I n I / / U n n J Y I U U U U P U T T T T T T ` [ ( [ / J ` ` U Y Y U J T ] J J ' ( ( _ ( / ( ( ( ( / / / / ( / D / ( ( ( / / ( ( ` P Z ' / z V J V Z / / Z P ` ` [ ` T T / / T / / U P T P P U P P L K P / ( ( P l J P G G I I V K R Z P ( ( / / ( ( P P P ~ ( / P / / / / ` / / T ` T / ~ P z J P z g k n k V P z d ~ P Z P P Z V Z J J J K Z K J J K J J J J P ` ~ ( ` z V G z l n I z V E J z / ` ( / / ( P / ( / / ( / / / / / / / ( ( ( ) / ( _ P P ` P J I L J Z ` / Z / _ ( _ _ R U E T L J J I I I U U K K P / ] ` ( [ ] J n U Y j 6 O X 7 T ` Z / ,.] [ [ } [ _ [ [ [ } } [ [ _ [ } [ } [ ( [ } } [ D D ( / Z J L K K ` ` P _ O.} 7.' U T T T T U U P U T U L U T E U T _ [ } } / Z ( ` P I K U Z / [ J P } ( ( [ _ } [ _ ( _ [ [ _ [ ( [ ( [ ( _ _ ) ) [ ( ] K P ) L V I L Z P ` P D ( _ _ _ R P E / T T U T T U U U P T P P U R ` _ } O.R P ` ` J I T J S / J z ~ ( / / ~ / ` / ( / ` ' T P P / T I 6 8 U / D / / T Z P / J J J L J P E J Z P / P P / / P R P P R P J J P K K P T P R ( ( ( _ / K / T J L I L P / _ T / ( D D / Q W / D P / / / P ( _ / / P T ` / / ( / ` P P [ / J P P K / [ P / O.[ } _ P U E T P / P T K J J J I J J J T / ( Q D D A ' / J G I z G / T Z / / D W / W ( Q ! ( _ Q Q Q Q ( D A / / ",
"k Z Z Z x Z Z A A D P P D ~ P Z h P ~ S z J z V / ' J n I L I J J I I I U T U U U U E / T T T T T / ` _ [ / K ) [ E L U U L ' ,.K T _ ( ( ( ( ( / / / / / ( / ( ( / P R / ( ( ( ( ) ( ` / P ' ` J V I J D ( / Z T ] ` / T / / / / / / R T T E T T P U U U K K U ( _ T k J R K G I I V T / Z P ( / / / ( ( / P ~ ` ( ` / / ~ / / / ~ / ` ` / ( / T z P / J l k z z Z P z d ~ P P P P J V J J L J J J K I U J J J J Z U T / / / J V P G l n J V P ) P J / / R / / ( / ( ( R P ( / ) / / R R / ( / ( / ( ( _ T P ` / K L U J P ,./ Z / ] _ ` T P T R T P J J I L U U T T U L P ` :.] [ [ J J U K J I c 1 o l ) D ` ,.[ [ _ _ _ } O.[ [ O.O.O.[ [ [ } [ } _ [ [ [ } [ / P ( _ P J L K R ] ' L _ 7.7.' P T ` T E T T P U T ` T I U T T T P T ( } O./ J _ _ T J U I P _ [ P U } _ _ [ } } _ _ [ _ } _ ( ( ) [ ( _ [ [ ) ) ( ( ( [ P R [ R Z J J Z / _ / D _ } ' P P / R / T T U T P R P P P P P T P P P (  .[ / P _ ] K L Y K P ` J z ~ ( Q / ~ / / ( ( ( ( ] / P T / / U e J / / P / ( / Z P ` T Z L J J / ] J J ( ) P Z P T P T R T / / K L P U P P P T P P ( ( _ ( U ` ` K I L L P [ [ U P / D P Q Q ( / D D Z P ~ / ( _ ( P P ~ ( ( ( ( _ _ P / [ ( P K P P ( [ P / O.O.( T T T R R U / T U P K I I J J J J J / ( / ~ P A _ ( P G G G P / / Z / / Q W / Q Q Q _ _ ( Q W Q / / Q W ( / ",
"z Z Z Z z Z Z Z Z D P ~ D D ~ Z h D ( / Z V z Z ( _ Z n I J J U I U I I U T U U L U T T U U U T T T U / [ / J ) [ ] P Y U U ,.,.J R _ ( ( ( ( _ ( / ~ ( ( / / / P P / P / ( ( ( _ / ( _ T P / _ T Z G J / ( ~ Z P [ ` P T ` / T R R T T / T T E P K L U U K I J P T U z J ` P V G I Z ` / z K T P / ( / ( / / ( ( ~ / ( / T / P D P ` ` ` T / / U z K / P z l g V D P z d P P P P J K J P J L J I J J U J J U J J J I J P P T J V / P z k G V R ' J G T P T / P / / ` / D P ) / / / P R ( / R ` ( / ) ( ` T P ` _ U L I J / 3./ z / _ ` R J U T P P P L T U T T U T T U P U U ` ] _ ] K P / L V Z J T y 9 Z P ` 5.[ ] _ [ [ O.} [ [ [ O.} _ [ [ } [ _ [ } [ _ _ [ ( P ( [ P J J J ' [ / J ` O.) T T ` / T T T T U U T T T J T E U T T U P ' } ( Z ' } ` J I I T } _ P T [ ( { _ [ _ _ } _ [ } _ / _ [ ( ( ( [ _ ( [ ( ( _ [ P R [ ] P J J S ( ( ~ D _ _ / P T / T E T U T T T T U T U U T T U P K P / ] T T _ [ P I J P ( / J k P ( D D ~ / ~ / / ( ( / / ~ / K / / k T ( D P / / ` J U ] ` J G G K _ _ J J ' / Z z L E U K R R R P U P U T T U P R P P / ( _ _ U ` ] U I I L / [ / V J R / / D W / / / Z D ~ / _ / _ ( P P / T ( ( / [ _ P P _ _ R J K ( [ _ U R } ) T P ` ` P T T P U J P P J J I J J J J K P P ( T Z ( [ R n G J ` / P z P / ( W / ( Q / ( ( Q Q Q Q ( W ( Q Q ( ",
"z Z Z Z Z Z Z A A D D / P D P Z h D ( ( D Z Z ( ( ( Z J U J I U P I L P U U T U L T U K U T T T T P K P _ ` K ` 7.O.` U U ] 7.,.J T ' ( / ( ( _ _ ( / ( ( ( ( / P R / / / / ( _ ' ( ( _ P Z / ( ( K V P ( ( ~ J / [ / T / / / / R T T R / R T T P L U P P L L J Z Z U z K ` / K J J P _ / V I T P / ( ( ( ( ` / / / / T T / R P Z P ' ' ` / ~ P P V P / / D k d Z D P h k P Z Z K J L J P J U T U J J J I J U J K J L J V Z E J V / R Z J n K ) ` z G P P R / / / P P D R / / ( ( / / R ( ( _ _ _ ( / ( ] P P _ [ ` R J P ] 7.T V ` _ T P U P P T U U P T T T T E T U U T U U L P ` ,.P P ] R J Z Z T E 9 6 U [ ,.[ [ _ [ [ [ [ } } [ [ [ [ _ [ } [ [ } O.} ( _ [ / P ) _ ( J J / [ O./ K _ [ / T ` E E T T T U T P U T U U E E T T T T U / _ ) K ) } [ R I U ' } [ P / } _ [ [ ( ( _ [ _ [ } ( ( [ [ [ ( ( _ _ [ [ _ ( ( ,.T R [ [ ( K Z / _ _ ~ P _ ( P P T R T / P P T / T P P T P T T P L P U P P [ R P _ O.` I J / ( ( Z k J P D P ~ / ~ ~ / _ ( / ~ / T U T G g D Q / / / ( ` Z T [ [ P z L ` [ ( Z K ( K z G L E T P P R T P U K U T T T T R T U P P [ ` I ` [ T J J E _ [ T z P / ( / D D Q ( / P P P / ( ( _ / ~ ~ / / / / _ _ ` J P [ [ ( T / [ } ' K / O./ P T / / / / / P Z U K P U U U U J L J J z P ( T Z / _ ( J J T ( ( J k P / Q Q ( ( / D Q D W W ( Q ( / ( ( ( ( ",
"z x Z Z Z x x K A P P P D Z A J h D Q ( Q D ~ _ ( / J Z ` R J L U J I L U T U U T T U J P T P U P U U P ' ` K / [ } ] T ` 5.[ ` J K ` / R ( ( ( ( ( / P ( ( / / / / / / / / ( ( ( ( ( ` K Z P ( ( T P / ( ( / J / ] R / / T / / R T R T / / / T P T R U U U I I Z R ` z Z ( / ( T A ( ( R z J ` P P ` ` / ( ` P T / / T T / T J Z P / / ^ / D T T z Z / D Q Z Z D D D k k / Z z Z K K J K P P T U J J J L J J I J J J G V J T J V R P R ` J P ( P z J P / P T R P / P P ` / P / ( / ( R R ( _ ( _ ( R / ] K Z ( ( [ _ T ` [ [ P Z ` _ T E T U U T P T P U T E T T T T P U T P I K ` ,.T T ] ` P T U P / y + l [ [ ] [ [ [ [ [ [ [ [ [ _ _ [ _ [ [ } } [ _ ( [ [ _ R S / _ ( / / _ } [ / J ' [ / T ` / / T T T T T T T T U T E T T T U P U P _ ` J ` [ ( _ T / [ _ [ P T O._ _ ( ( ( _ _ [ _ } [ ( _ [ _ / / _ [ ` _ [ ( _ ,.P P [ ( _ / / [ ( ( P D ( / U P P T R T P P P / T T P T P P P L U T U K R [ T S _ [ ( / ~ [ / ( Z k J J D / P / ~ ~ / ' ( _ ~ P Z D I 9 k / D / / ) _ / Z Z ( } / P / _ ( / Z V P J l I L L R P K K P T P P P P R R R P P T P P ( T z R _ ( P P ( ( ( P Z / ( / / / W W / ( / A D / / _ / / / P / ( / T ( ( P K ~ ( ( _ _ ( _ ( _ Z / 7./ T / T / ` / T P P P J K U U J J I J J J k Z / P Z ~ _ _ ~ ~ / ~ ( J g ~ D D / ( / W W ( D D D / Q Q / / / / / ",
"Z J z k k Z Z Z Z ~ P P Z Z A J z D D Q Q / / ( ( / J P ] R J U J K J U U U P T / T U U U P U P U U U P ( ( K R _ [ [ ] ] [ _ ` Z P ` / ( ( ( ( ( ( / / R / / ( / ~ ( ( / / / / ( ( ( ` Z Z / ( ( ( / ( ( ( / J / ] ` / / / / E E R R / / / / T T / R R P P U J D ' ] Z Z ( ( ( ' / / ( T z U / P P / / ` / T P P / / ~ / T T J J T ~ J P Z P ~ T z J P D W / P D D D z z ` J z G J J J J P ~ P P P U L U U J K K J I J J K T J V T P R ( / R / P z J ` / / / / / / ~ P / / / P P ( ( / / / / ` / / / / ` J Z ( _ ( [ _ _ ( [ P Z _ _ / R T T P T T T T T P T T U T T T P U T U L ` ,.T / [ _ / / ` ` ` J 2 8 / 7.[ [ [ [ [ } } [ [ _ _ _ [ _ _ _ O.} ( ( ( _ _ _ P Z / [ _ _ _ ( _ } / J ] 7./ T / ` ` ^ E ^ / / / T T T T T E T T P T U P [ ] K ` [ ( _ [ _ [ [ _ K R } _ ( ( ( ( ( _ _ [ } _ ( O._ ( / ` ) [ ` ) ( ) [ [ K T [ [ _ _ ( _ _ _ D Z ( ( P U P R T T P T P T / / / T P P P U U P P P /  ./ P ( _ ( [ _ _ / ( Z z I Z P / P ~ / / ~ / ( ' ( ( P ,.I 9 K ( / ( ( ( [ ) Z P / _ ( ( ( / ( ( V Z T J G J P P P P K K P P P R R T T R T T T T T P ( P z T _ ( ( ( ( ( ( P J ( ( / ( ( ( ( ( / / D P / ( / ( ( / / / ( / T ~ / / P ~ _ _ _ _ ( ( ( _ J ` 3.` / / ^ / T R T T R T P U J J G G n z I I J Z T P z / / _ ( / / / ( P k T ~ D D ( W ~ Q ( ~ D A D / / D D D / / ",
"Z Z x d d z Z Z Z P P P Z T P Z z Z D Q D W / W Q / Z P _ T U L J J L P U J U T T U U T U U U T U U P P ( ( K R ` _ _ _ [ ) ' ` V P / ( ( ( ( ( ( ( ( ( / / R / / P / ( ~ / / ( ( / ( ( Z J ` / / ( / ~ / ( T J / ] / T T / T / / T T / T R T / T T E T U K L J P / ' Z Z ( ( / ( ~ W ( T z U T P P T / ` P P P R T / / / U J K T T / P P Z P P P z Z P D A P A D D P z V ~ K Z z V J Z J J P P P Z P K P U U J J J T J Z P T J V T R D / / P / / z Z / ~ ( ' / _ P P R P / / P P / ( ( / / ) ~ ( R / / / Z K ( _ ( _ _ ( (  .P K ` [ / U T / T T T T T T U L L T T T P T P T T K ` ,.P P [  ._ / _ ' ( ( l 2 j ] } _ [ [ } [ O.[ [ _ [ [ [ ` ` _ } [ ( ( [ ( ( _ P S ( _ _ _ _ ( _ } / P [ } / T T T T / T E ` ^ T T E / / T T T T P U U R [ ` K / [ _ ( [ [ ( ( / J T _ ( [ _ _ } ( ( ( } _ ( ( _ ( ( ( _ ' ( _ _ ` ) [ ] J P [ [ ( _ ( ( _ ( D Z _ _ U U P P T / T E P T / / / P P T P P U U P / ( [ / J ( _ ( _ [ / Q ( Z z U Z Z T ~ ~ ( / P / ~ / / O.] I 7 j / ( )  .[ ( [ _ J / / / / W / / ( / z P T P J G P T U R P P P K L P T R P P T / T U T P ( / Z / ( ( ( ( ( ( ( P J ~ ( ( ( ( ( ( / P P ~ / ~ / ( ( / / ( ( / / ( ( ( ' A P _ ( ( / / ( _ / J ' [ / E T / R P T / / P T T K J I I I n J J I L Z / T z / P ( / ~ ( ( ~ T k P / Z W D Q ( W Q ( / A D D / D D P ( / ",
"A P Z x z Z Z D A P Z P P P ~ Z h D D Q W W / W W R J P ] / K L J I U U U U U U I P P T U T U P U U K P _ ` J R ` _ _ ' _ ( ( ] J P ( ( ( ( ( ( / / ( ( ( / R P P / R P P ( ( ( ) ( / / K J / ( / / / W Q / P J / ] P L E / T / R T T T T P T T T E T P U U L J P ` / Z S ( ( ( / P / ( P z P ` / R / P R T T / / P ~ ~ / P P K P T ` / ~ P D P T k J P D Z Z Z D D D V V / P Z z J L J I J J P P P K J P J U K U P U U D D / Z Z / / D P P P / / Z Z T ~ P P ~ / P P R / P / P / P ( ( ( / / ( _ ' ` / ` J P ( ( ( _ _ ( _ [ ` K `  .R U T E E / T T T T U L U T T E T T ^ T L P ` 7.P U [ [ _ _ ( _ _ _ J e 9 G ] _ [ [ } O.O.[ } } } } } _ _ ( [ [ _ [ _ ( ( ) P K ( } _ _ _ _ _ [ / P [ } / T T P T T E / / / T T / E E T T T T T U U / [ ' Z ` [ ( ( _ _ [ ( ( J T ( ( ( _ [ } _ ( ( ( [ ( ( ( ( ( _ _ ( _ _ _ ] ] _ ] L R [ [ _ ( ( ( ( ( P P } ] P U P T R / R E T / P R P P P U T T P T P P / [ P Z ( _ ( ( ( / Q ( J z P D Z D P / / P P / ~ ~ U G e 1 1 I _ ( ( [ [ [ [ ) R ] _ / ~ P / ( ( / Z P ( / K J P P P T T P P T P L K K U T T T R T P P ( / P ) ( ( ( ( ( ( ( / P T ( _ _ ( / W D P ~ / / / ( ( ( / / ( ( / / ( ' _ ' P ~ ( ( ( / ~ ( _ ` U ` 3.` T / / / / / / / T P P P J I I U I J J I J S / T Z / ( / ~ ~ / ( ( ` z U D Z D D Q Q Q Q Q Q W / D / ~ W / / / ",
"A A Z Z Z Z Z Z Z Z x P D Z P Z h P D D W W D / D P G J _ / J L J U U U P T I I L P U U P P U I J L J P _ / Z / ' ( ( _ / ( ( ` Z J ` ( ( ' ( / / ( / / ( ( R / P / P D P ( ( / ` ( P R J J / ( / / D / ~ ~ T Z / _ K L T / / ~ / T P T T T T U T T P K K U U J S / T z P / / ( ~ P ( / T z P ] ` T K J J P / ' / ~ ~ D P P T J Z T P T / P Z P P k U T D D Z P P A D Z k / Z z J n J J N z J J U K J J J J J J P J J J Z D / P V / D D P P / D / J Z K P Z Z P D P D P / D / P / P / ( / P P / ` _ ( P ` P J ` ( ( _ ( [ ( [ ` J `  .R U L U T E T T T T P T T T / ` T P U T U P ( 3.P U [ [ ( [ _ ( } _ J J j 9 I [ [ [ } O.[ } O.} } [ [ [ ' ( _ _ [ _ _ [ ( ` T K ) _ _ _ _ ( _ } / J _ } P T T T E U / / / / P R / T E E T T T T U L P [ / Z ` _ ( [ _ ( ( _ _ J P [ ( ( ( _ ( _ ( / ( _ / ( _ / / _ ( ( [ ( _ ] ( ` ' J / [ ( _ ( / ( ( ( T P 3.( P U T E T R / T U U P P P P K K P P P P J Z P _ P Z / ( ( ( D ( D ( J z P P Z Z P / P P K / / ^ c 1 e n k U / ( ( _ [ [ [ / P [ [ / ~ ( / / ( / V K ( P J J P R P U T U U T P K J T R T P K P T P P ( P T _ ( / Q ( ( / ( / J P ( ( ( / D D W / ( P ~ ( ( / / ( T P / ( ( ~ ( ( ~ P P ( ( / / / ( ( ' K / } / T / T / ` / T T T P P T U I I L J z J U J D ~ P Z ~ ( ~ ~ / P / ( T k Z P S D ( D D Q Q D W D W W D D / / W / ",
"Z Z x Z Z Z Z Z z x x P P D D Z h D W D W D D / Q R z Z _ R J I L U U U U U I I T P P U U P L J J J L T ( ` Z T _ ( ( _ / _ _ / Z P ` ( ' ( / / / ( / / ( ( / / / / P P / / ( ( / / / ( J Z / ( / / ~ / / / P Z T ` U L T T / / / T T T / / T T T P P U U U U K D / T z P / / / ~ P / / U z T / P P J K P Z T ` _ ( / P T P P P P P P P T T P P J z T ( P D D D D D P Z z P Z V J J G z z z N U U P J J U U J V Z V Z z Z D / P Z ~ R D P P / P / J Z T P Z S P D D R D P / ( / / / / / / T P P P P P P ] / P / ( ( ( ( _ ( [ ` K / 7.` U U P L T T T T T T T T T / T U U K U T P ( 7.T U [ } ( ( ( _ O.} P Z K j y / +.O.O.+.+.O.[ } O.[ _ _ _ _ ( _ [ _ [ [ [ ] T P _ _ _ _ _ _ { } ~ J _ [ R P E ` E T / / ` ^ E E / E E T E T T T T P P ' / J ` } _ _ _ ( _ [ [ P T [ ( ( ( ( ( _ ( ( ( ( ( ( _ / R ( _ ( _ ` ` ` / ( ] L / } _ _ _ ( _ ( _ ~ P [ ` K L T / R / / T U U T T P U P K J K J K J Z P _ P Z / ( ( / / ( W ` Z x U P D P P P P P P P / ' y y ' R Z U ` _ / [ [ ( [ ` P ] [ / / ( ( ( _ R V P P Z z J R R T T P U T T U U U T / / E P K K P P ( / P _ ( Q Q / ( ( _ / K P ( / / P D ~ / ( / / / / / / ( _ D Z / _ ( / ( / P Z P ( / / ( / / ( _ J / [ ` R ^ / ` / T P P T T T U P T U I J J I U K P ` T Z / / ~ / ( ~ / / P j z P Z / / D D D Q W ~ D D A D D / Q Q W ",
"x z Z Z x Z Z A Z Z P Z P D A Z h Z D W D D D W D P z z ` P J I U U U T U I I L U U U U L L L P U I I P ( ` J U _ _ ( ( ( ( _ T V P ( ( ( P P ( / / / ~ / ) / D / / D / ~ P / ( / P P / J Z / ( ~ ~ / / / ~ P Z P ] T L L P E T P U T ` ^ T T T U U U U P I L U D / / z Z / W D / P P / I z U T S P / T T Z Z T _ ' ~ P / P P P P P T K U T P P T z U ( D D P D D D P z d P S Z J J z x J z z I U J U J J U J z J Z J z Z D P P z T D D / P P R U k z P Z P P P P Z P D D P / / D / / / ) / P P P P ' ( ` T K / ( ( _ _ ( ( [ ` Z / O./ I U U L T U T T T T T T / T U U P U U U P ' 7.T U ' } _ ( _ [ } ( P Z / E 0 y / _ ( ( ` [ } _ _ ( _ _ _ _ _ _ _ [ [ [ [ [ R J ( } _ _ _ _ } ( P J _ [ P P E T / / ^ / / ` / T / / / T E T T T U K P _ ' J / } _ ( _ _ O._ / P / _ ( ( ( / ( / ( _ _ ( / ( ( ( P T _ ( ) ` ( / _ / ` L T } } _ _ ( ( _ ( P Z _ _ J L U T / / ^ T U ^ U P T P L J J K J L U J P [ T Z P ( W ( / P / P k Z P P D T P P Z P ~ A P / e k ~ Z P ` ( ( _ ` _ / _ ) P / _ _ / / ( _ ( P z J Z Z Z L P P T P L L T T P U E U T / E P J U K D _ ~ Z / ( ( / ~ / ( / T J Z ~ ( / ~ / P / / / ( ( / / / ( / P P ` ( ( / / ( ( Z J / / ( / ~ ( ' ~ Z ~ [ ` T T / / T U T E U P T P T T U J J L J I P D ` P k Z / / ~ / / / D J g G Z Z P D / D Q ( W A D D Z D D D W / W ",
"Z Z Z A Z Z A P Z Z Z P P D P Z k Z Z A W / D D D P z V ` J G I I U U T U U I U U U U U U L U T U U K P _ ` J U ' _ ( _ _ ` T U Z P _ ( R P / ( ( / ( / / _ / P P ~ / / / ( R / ( / P / U Z P / / ( ( / P D P J / _ T E P P L J I I U T / E T T P U I U L I I J P _ / Z Z T ~ / / / / T I J J T P / ( / / T P D ( ' ( / P P P P P P R T T K K T T J U P D ~ D D R D K z j ~ P Z L J J J P J J J P U P J J J Z x K K J Z Z D / K V T Z P ( / / P J k z P P Z Z T P D P D D D / ~ / ( / ( ( ( / R / ' _ ( _ T P / / ( [ ( [ ) / ` J ( 7./ L U U U T T T T T P E T T P U P T T T P T _ 7.R U _ } { { { } _ ( P P _ [ I w 6 0 0 6 # l _ } _ _ _ _ _ [ [ _ [ [ O.O.5.[ R K ` ( _ { } { _ ( T K _ } T T ` T / / / ' ' ` ` ` ` / / / ` / / P P L P ] ' L / ( _ _ } _ _ ( T U / [ ( ( ( ( ( ( [ _ _ ( ( / ' ( ( ` _ _ _ ( ` ` _ ( ) J P _ _ } _ _ { ( / / P [ _ P U U T / / T T T / T T P P K J K P K L I J ~ [ ~ Z J / / ( ( / / K j G / P P / P P Z P P D ~ P r Z P Z P _ ( [ [ ` ( / ) ] U T / ( ( ( ( ( / J z K P P K P P P P U L U T R R T T / / / T U U U P / [ / Z P ( ( ( ~ ( ( P P P Z / ( _ ( ( / / / ( ( ( ( / P P / / ( ( / R / ' _ _ P J P / ( ( / ( / U J / 3.` T T T / R T T / P P P R R U K J K P J U P D ` P k Z T / / / / / D U n J S D Z R D P / ( / W A D D D D / ( / W ",
"Z Z z Z D D Z Z Z Z Z P A D T J f Z Z h Z / D C Z T z V / U n G J I T U U U I U I U U L I U U U T P K P _ ` J U P ' ( ( _ R J U Z Z _ ( R ( ( / ( ( / / / / ( / Z P / P ( ( P T ( ( ~ T J Z T P P / ( P Z P T Z T _ T T T U I L I J I U ` T U U P L U U L L I J T ' / Z J Z P / ~ / / J I J J / ( P / / ~ / / P P / ( T P S J J R P P / T J J U P J J V Z / P D R V Z V k / D D J J P Z J U K J L J U J J J P Z Z S Z J Z D / Z z P Z S / ( / Z P J k P / A D Z P P D D P D Z P ( ~ ( ( ( ( ( P / ' / ( [ U Z ` P ( [ _ [ R K ` K /  .R L L T P U T T T T P P T T P T T P T ~ P P _ 7.T T _ ( _ O.O.} / ( T D ( [ [ T v y n j + o k _ ( _ [ _ _ ] [ [ [ [ O.7.[ ] P U / / ( } O._ ( [ ` P _ } P U T T T T / ` ' ` ` / ` / / ' ' / R T U L / ] ' U / / / _ [ _ ~ P ` K P [ ( ( _ ( ( _ _ ( ( ( ( / ( ( [ _ _ _ ( / ' _ ( _ ] J P ( P _ } { } D / ( Z [ ` T T U T U E U U T T T T U T P T J K P J J J P ] T J Z P P / ( ( Z K l n T P P P ~ T A K Z Z ~ J 9 Z A Z / ` ( ( ` / T ( ` ` U ` K P ( ( / D P J k U ~ P P J P P U T P L L T T U U U / T J U T U P ( _ P V P P ~ ( / ( / Z P P T / P ( ( / / / ~ ( ( ( / P S P ( ( ~ P P P / _ ' ` P K T P / _ ' ~ P T J ` [ ' T L T / T E T T T P K P L J J P U J K U J S P U z J Z P / / ~ D ~ ` k z / D S D S / / / ( Q D Q W D D ( ( Q W ",
"x h h x Z A Z Z Z Z P P P P P Z k J K z z P D C D ` K Z ` P G G G I L U L U I I J I I Y U T U U T T U P _ ` J / T / ( _ T S P ^ V J ( ( ( _ ( ( / ( / ( / / / / P P / / ( / P R / / / / J z / ` D P / K Z / / Z T [ R U T U U P U I I I T T U T U U T U L I I I P ` / J J J J T _ / P J ^ J K ` ( / / / / / / T T U U J J P U P T / / / T U K P P J J J Z P ( / P V Z Z z / P D Z Z P J U P P I J G I J U J K Z Z Z J Z Z D T V l T Z z R R Z Z / K k T / / R Z D P P P R D Z Z R / ( ( ' / / / ( ( ` ( ) P Z ` / D [ [ / S T ` K / 5.` L U T T P P T T T P P P T T T T P P T U P ( O.P T [ ( / _ O.( / [ / D ` [ _ [ ,.] [ [ I $ 8 J A Z P ( _ ' ] [ [ [ [ [ [ [ T P ,.[ / ( _ / ( 7.' P _ } P U U U T E E T ` ` / E E / ` / / T T T T U T _ ' P ` _ D P [ / P / [ J P ( ( ( ( _ _ ( ( / ` ' ( ( ( ( _ _ [ ( ( / ' _ _ ( ] K P _ / D } O./ D [ / K _ _ T T T T T E T P L L P T P T T T P P P U J Z P ] P P J K Z ` / K Z / J z P / P P P P P D Z D ~ n 9 z D / ( ( / ( / / ` ( ] ` U ' ` P T ( / D ~ P z Z R / P J K L U T T U L T T T U U U U U P T ^ T / ( Z Z R P D / ( ( P P ~ P ' _ P D ~ ( / / ( / / P D P T / ( ( / P Z P ` _ _ ` P ~ _ T P ` / P / ` U / } ` U U U T / / T T R P T P J J L P U P I L z Z P T U L J P P ( P A ( / z Z ( ( W F R / ( ( ( / / ( Q Q D W ( / D ",
"Z Z h z x Z Z A Z P P A D Z Z Z d Z P Z x Z k Z / ~ Z Z ` P J I J L I I I J J L U L J L U K U T U U L P ] / J ' [ P P T J T [ / z J / ) ( ( ( / P ~ ( ( / / P / ( P ~ ( / T P R T U T / J z T _ / J J P / ~ T Z P ` T U U T T U U T I I P T U K U T T P K J I J Z / P z T U z J ` U Z T ' z J / R / ~ ` / T / / T J J J T P T J P ~ / P / P Z P U k I T J Z ` / P z P z l / R Z Z Z K P P J L J J P U Z J K Z Z K Z Z V V Z P z k U K V V z K J T Z d P D / ( / D Z T P P P Z Z P / ( ( ( / R / ( / ( / / P Z ) [ S R ` R P ) / Z / 7.E J P U P E P T T U T ` T U P P T T P J U P ' } P P } ( D P / Q ( [ P Z / [ _ _ _ _ ( ( ( P k e 6 $ d P ' _ _ _ ] ] _ _ [ [ T P 7.O.( / P D O.O./ P ( } P U U T E T T E T U ' ] / T T E T T E U U U P [ ' J ` 7./ D T P ( ' ' J P _ ( ( ( _ _ ( / ) _ ( ( ( ( ` ` _ ( / ` ( ` ` _ ( [ K Z [ [ A / ` P / [ P Z _ _ P T T E / T T U I P / ( P P P U P K J U L Z P ` z P P Z Z P J K P _ Z z T P D A A P P P P T N 2 9 J ~ ( / ( ( _ ( _ ` / ) ` J / ] T P T S D ( P l Z P Z J J J T U U T T I T ] ` U U U T T I U / T D / P Z / ' P Z T T Z ( / Z / } ( P ~ / / ( / ~ P ~ / / ( ' / ( ( / S T ` / [ ~ Z ~ [ / P P P ` / / J / 3./ P T I P E T / R K T _ / J J U U J P J J G Z ` T J / T Z Z T Z P ' Z z D ( Q ( ) / / / ( D W W W ( / D W / W D ",
"Z Z Z Z Z Z Z D D A D P Z Z Z Z k J P Z P Z h P ( T V Z ` P J U U L U Y I I U / ' / J I L T T T U U L T ] ' J ` [ ] U J K ] ( / G J ( ( ( ( ( / R P / / ~ / / / / ~ ( ( / / T T T T P / J z U / ( P Z T ( / / Z J ` P U U U T U U U I P / ` P K U U L J J J L J K / P z E ` P U L J / ' / J J / T P / ` ` / / / / P U T ` / T P P P P ~ / / P T P l J ) P Z K D R A P Z z / P Z J J J J U L I J ~ ( ( K J V K Z K J J V Z Z T k z P Z P z j T P T z k P ~ W ( ( / P P / / D D D ` / ( / ( / ( / ( / / / ( P K ` [ ) T P ) _ ( / S / 5.R K U P P P T T P T _ 7.` P K P P P P P P T _ O.P R [ } ( R P ( O._ P P ` ] _ _ _ ] ` ` / / T 0 # z / ( ( ' _ _ ) ] ] ] [ [ R P [ [ ( [ ` ( O.[ E K _ O.P P T T E E E T T / } O.[ / T T E T E T U U R [ ' K ` } _ / U T [ _ ` J P _ ( ( _ _ ( ( ' _ ( ( ` ( _ / / / ( ` _ / ` ` ` _ ,.L K _ } ' P Z [ _ ( / Z ] _ T T T / T T U L P / ( ( / T J P P P P U U K P ( V Z / D / P Z ` / ~ J J ~ ~ A D P P A T K 0 d e g / ( ( ( [ [ _ ` _ ( ( ) ` J / ` _ ` K Z ( ( K l K P Z V J K U T T T U T ' [ ] ^ U U T T U T E K D / T J / _ / P J U P _ / z / } ( ( ( ( ' ' / / ( ( ( ( ( _ ' ( ( ( / R / ` / T J T _ _ / P T [ ( T K / ] / E T U P U T U P P ' [ _ P J I P P L J I J P ) / Z / P P Z J P ( / P Z / ( Q ( ( / / R R D ~ D D / / Q ( W D D ",
"x x Z Z x Z Z D A A A D A D D Z d J Z z P P Z D P P J Z ( P J U U L I U I I / ( ( / ~ J J L U U U U L U [ ' J T / ] / / ' ~ P / J J ( ( ( ( / ( / P P T P / / P P ~ / ( / / / U T ` / ~ J z P T P T T P P P ~ Z P ] U I T U L U U I J ~ / ( / P J J J J K J L P K / T z U ( / T L U ' / T J J ^ T T / T ` ` / P T T ` ~ / / T P P P D P ~ ( / P K k J ` P Z J P ( A Z P z T Z V K J G J J J J J ` ~ P P P Z J J Z Z J J Z Z / z l P h J U J P Z P z l Z / W / / ( ~ P / / P D P / / ~ P / / ( / / / ( / / K K ` ( _ ` / [ ( P / K / [ R K U R P P T T P ' _ _ _ / J U P P P T U P _ 7.P R _ _ _ ( ( O._ ( T P / _ _ _ _ ) ` ` ` / T d & Z / / _ _ ( ( ) ` ' _ [ ] T P [ / / 8.7._ ( / E K _ O.P P ` T T T T U T } } { } [ T P ^ T T T U I / _ ` K / ' / ` ` ` ' / / J P _ ( ( ( ( ( ( [ ( ( ( ( ( ` ( _ / / ` _ / ( ` ( _ ] J J ' ( ' / P [ / T / J _ _ T T T T U T L J T ( ( ( ( / J J J P J U U P P ~ z J P Z ~ ( / / Z K J P ~ / P A J P A J e & P / Z P ( ( ( _ _ ( / ` _ _ ( ` K E / / ( ` ~ / D Z l Z P z z L L I U E T I / [ ' ' / U I U T P T T J P ' U K R ~ _ _ P / ( / J z / _ ( _ ( ' ` / / ( _ _ ( ( ( ' _ ( / ' / R U P / / Z P ` ( / ` ` ` P / K T [ ~ T / T P U P L P _ } ( ( ( P J U I J I U J P ` P Z J J / Z U / ( A / Z D ( Q / / F D D P D / ~ D D / Q / A Z P ",
"x Z Z x d Z P A A D A A A D D Z d Z Z h Z / D D Z J Z Z ' P U P L U L I I T / ( / / ( T J J I U L U Y U ] / J T / T / 7.[ K J / K P ( ( ( ( ( ( / / P P / ( R P P T / ( ` / / ~ / ` ( / J z P R J P ( / Z P / Z T [ T L U U U L L J P / / / ( / J J J L U K U U P ( P V P P D T ' ` K J ^ J U ` / / ` ` ` / T P T P T P T P P / / P R / ` T ~ ~ T Z T ` P P ( / R Z K U z P Z V J J Z J J J L ~ P A A D P P J x J Z J J Z D / Z z P h z / P J V P Z k P R D ( / ( / P P / ~ P Z P P P P / ( / ( _ ` _ / / P P ` / P _ _ [ R P / K ( [ / L P T P P T P / _ _ ( _ _ / P P P P P U P [ O.D R ) / ( O.} ( / ( / P ` [ _ _ _ ) ) _ ` / ` K d d 0 0 J _ _ ` _ ] _ _ [ [ T T [ R T 7.7.( P R / P _ O.R T / / E T T E ] } } { } } ' R T T T T U L T [ _ J / / Z / } ` P P / P ~ _ ( ( ( / _ [ _ ( _ ( _ ( ( _ _ ( ( / ' ' _ / _ ( ] J P _ P / [ _ ( P ~ ` K _ [ R T T E P U U T ` _ ( ( ( ( / P Z P P U U Z P / z P K h Z _ ( Z z U J P / / P P P P D x 6 z ( D D / / ( ( ( ( / ( ` _ ( _ _ P ' ` P ` 7.' D V Z k J ~ Z V K K L L T L E ' ' / / ' ~ U P U U T T U P ' T K T P / ( _ _ P P U Z / _ ( _ _ ' / / ( ( ( _ _ _ ` ' ' ( ( ' ' ` P T _ _ P P ` / / [ _ T P ` K T 3./ P / ` ` T P T _ [ [ ( ( ( / P J J J J I J P _ P V P J K P ] K V D ( Z D / / D P D D D P / ( / / D D D D Z A T ",
"Z Z S Z k Z D A Z D Z P A A P Z d z Z d k P P Z z L Z Z _ P P U I L I G T ` / / / / / ` ~ J J U I I U U ' / G T / P P ' ` K K / J P ' ( / / ( / ( ` T P / / K K T T P / ` / P / / / ( ( J k U R J J / P z P T Z T ] T T U I L I J U / ~ / / / ~ / P L K J U K J / ( P V P P Z T [ T z J U z I ] ` / ` ] ` T T T / K J P T P / P / ~ T / ~ P P P ( J P / z P ( T G k J I z T K V V J K J J G U / P ~ / P P R K z Z Z J z Z P T J Z P z l P R z z T x k T ~ P / ( ~ ~ ~ P / ~ P P P P / / ~ ~ ( _ ] ` / P / J P ` P Z ( _ / Z P ` Z ( O.T P U P P P L / [ ' ( _ ' ' _ / K P P U P P _ O.D R _ P P [ _ P P ` / P ` [ _ [ [ [ ] ` ` / / / P K n 2 + j ` / U / } _ _ [ T P [ R P ' [ / D ` ` J _ O.R E E E E U P _ } _ _ _ _ ' } ` T P T U U U T [ ` J R T V P [ ~ V T / J / _ ( ( / / ( _ ( ( [ ( ( / ` ( ( ( / P ` _ ) / / ( ` Z T ] P K _ _ P J ` / J [ ] T T U T U L T _ ' ( ( ( ~ / ( / P P U P K Z P ` V K P z Z ( / z n T J U / ~ P / P A / J 0 J D A D D P / ( ( ( _ ` / _ ( _ ` P ' ` J T ) T Z z J z x P P z G J L L I T ] ' ^ ~ ~ ~ ' ~ I I P P P P P ` / J T T Z P _ / Z T E J ~ ( _ _ ( / ( ' / ( _ _ _ _ ( / ` ( / ( ' / / _ } _ P P R P / ( ` K P ` J / 3./ T T T T K P _ _ ' _ _ ( / ` / J z J G J I K / Z Z E V k J T V z K T z Z ( D Q ( P P D ( / / _ ( D D D / D / P ",
"Z A Z D Z Z Z D Z Z D D D D P Z d Z J l j J J Z V J G Z _ / U U I J G U ` ( ( / / ( ' ( ( T J I U U I U ] / J T / U I T P L U / J P ( ( ( / / / ( ( / / / / K P / / P T T ~ / / / / / ( J z U E J G L J V U T Z P [ / U L L I J U / / / / / / ~ / / P K P L I K / ( P z P P Z P / J V L L V J / ` ] ' / / / / / ` T P Z P / / / / / / P P P R / / P U K G J T J G z I I V ` P Z L J I G J J T / ` / R P P P P Z z V J V V P / z J P V z J K z V U Z k P / P / / / / / ~ / / / / / ( ( ( / ~ ` _ ` / / T / J P / P J T ` T J T ` S ( O./ T T T U P / [ [ _ _ _ _ _ [ [ ~ P P T P T [ O.D R [ R P _ ` K P ) R P ` [ [ [ [ 7.[ _ ( / ( ( P P / I 6 # n L 9 y ' [ _ [ E E ,./ P ` ] / P ` ` K _ O.R E ` T T T ' } } _ _ _ [ _ [ [ / U U T T L R ] / Z / R J I T K Z T / K ~ _ ( ( ( / ( ( _ ( [ ( R / ( ( ( ( ( / / / / R / ( ` J E ] P I E E K L / / P _ ] E T T P U T ) [ ( _ ( / / / / ( / P J J J K / ` Z K T Z J / K V J I I U ~ P P ~ P ~ / k j K D D D D / ( ( ( _ [ _ _ _ [ [ ( P ' ` K I L K Z Z J l Z / P J J K L L T ' [ _ / P / ' _ ( ~ P ~ E T U P ( T J E R P P P J Z R R P / ( _ _ / / ( _ ( ( _ _ _ ( / / / ( ( ` ( ( ' [ } _ P T R K P ` / P P / K / 7./ E T I J P / [ [ _ [ _ ( ( _ ' / J G G I J P / P Z / J j G U G J J U V Z / ( ( ( / / P ( / _ ( ( W / D / ( ( ~ ",
"D D Z D D Z A P Z A A D P D Z z d K Z k j l k V z J n Z _ P J I J G L ` ( ( ( / P T ' ( ( ( T J I U I U _ / J U / K J I I U P U J P ' ' ( / P / / / / / / P P / / / / ~ P P ~ / / / / P J z T P J G G J J J P Z P ' T J I U J J ^ / ~ / T J U ` ~ / T J I J J Z / ( P z P P Z G J G J L I z J T E / T P T / ( / / ) T Z P / ~ P / / / P / P T / P Z J G V J J J J J U J V / P K I J J n J / / P T J z J P D / P Z z G G V P / z Z K V z z z l z G z g P D P D P ( ~ ( / ~ / / D ( ( / _ ' / / ` ( / ' / R J P E Z J J L U J T / Z ( } R U T P K / [ [ _ [ _ ` ' _ ' _ _ P Z P U P [ O.D T ] R P E P K P / / P ` ,.[ [ 3.,.[ _ ( ( ` ( R T T R U v l J e + 9 T ] ] T T ] R K E / T / T E L _ O.P E E T P ` O.[ _ } _ / ` _ ( _ ' ~ U I U U P _ ` Z / / Z J J J J K T J P [ ( ( [ _ ( / ( ( ( ( R R ` ( ( / ( ( R / / / _ / ' J T ] P I L I U U T / P _ [ T T / T P ` _ ( _ ( P P ~ ( W / / P Z U J K ( ( D J P J J J n J J J G J P / A P ~ / z 8 z P Z D W ( / / ( [ _ _ _ } _ ( ( _ P / R Z J K J J Z Z l Z ~ A J U K J / [ _ ' ` P Z L / ~ ( _ / P U T J P ` T J T P P J J J J T U P ' _ ( ( / / ( ( ( ( ` ( ( / ( ( / / / / ( _ ( ( } _ P K R K Z T / P P E K ~ 7./ U T I U ' _ ' _ _ T P / _ ( ( _ ~ J n J J Z ` P Z T J d G T J T Z J Z Z P ( / / ( ( F D / ( ( W Q ( D D ( / / ",
"A D D D A D D D A A Z P Z Z A z k P K z j k l z z I n Z _ J G G J U ( ( ( ( ( P J J / ' ( ( ( T I U U P _ ` J T T J J I I L L T J J _ ` / P P P / / ( / / / P / ( ( ( / ~ ~ P / ` / / P J J / P V G G G J L T Z P _ P J K U J T / ~ / T J z J T / / / U J J P P ( ( P V P R Z z G G J J L J J T P J T P / / / ( ` ) ` P P ~ / / / / / ` ' ` / P P z L J z J I J K J I J V ` P z I I J J ~ T P P J l j z T / P P / J G G Z P T z Z K V V V z z z V z z K D R R P / / ( / / ( / / / ( ( ( _ / ( / ( ` _ ( ` Z T T J Z L I U J T ` Z ( O.R P T U R ] _ _ [ ] T J ~ [ _ _ _ ` P K U T [ O.P / ] R P E T L L E R P ] 7.[ ,.,.[ ] ` ' ` ` ` / / / T R T J Z I e < 6 z L I E [ P J E T T / ` ` U [ 7.P E T T ` O.O.[ } [ ( J J / ' / _ _ / K T T / [ ` P / / Z J I J J U E J P _ _ [ [ [ _ ( ( ( ` ( / ) _ ( ( ( ` ( ( / / ` ( ( ] P / ] P I L I L L / ' P } } R T / T ` [ ( [ ( P J J P ( / / / P Z U K P ( [ P P P J J J G J I I n z P / P T J d % j T / D ~ ( ( ( ( ( ( _ O.[ [ ( / _ ` P / P Z J J Z Z Z U z z ~ P z J K P ' _ ( [ / Z z J U ~ / _ _ ~ P U L T _ / P R K S J J K Z P U K ( _ ' _ ( ( ( ( ( ( ( ( / ( ( _ ( ( ( ' ( ( _ _ [ ( P U T K Z P P P P E K / 7.` U T U / [ [ [ [ R J J U / [ ( _ _ T G G J J / T Z T J l G I J P P T Z Z R / Q ( ( ( D / / ( Q Q Q / P P D ~ / ",
"A Z D D Z P P Z Z Z A Z z Z A x k Z P k l n l k G I z J ` Z J G K ' ( ( ( ` U n I I J / _ / ( ( K I L P _ / J T U J J U I J L E G J R / ~ / / / / / / ( / / R P / / ~ / / / / / / P ~ ~ J Z T P z G G n G L T V P / Z J U J P ` ~ ~ T N G G n K ( / P R P J J T ~ / P Z P P V z n G J G I J J / T P / / / P T / ( P ` / P P ( / / ~ / ( ` ( ~ / P J P J z J J n I G J L Z / J z I G K / ~ A T L V l l g L / / P P P P G V J U z K J z z V k V z l l k P / D / D D ( / / ( / / P / / ( / / / / / ( ( / ` _ J P P Z Z U J J J U / S ( [ P P J T _ [ ( _ _ T I G J / _ ' ( [ ( K K R [ [ P / ) P L E T L L E P J ` ] ] ] _ _ ` ` ' ( ( ' / / / / / / T D K I v y 9 6 w n ` T L I T U U ` E U [ O.P E T ` O.| _ [ [ / J J I T _ ( ( ( _ / P T ( _ ` P / U V J I J J U E V D ( ( _ _ _ ( ( ( ( ( / _ _ ( _ ( ( ( _ ` / ( / / ) ` Z / ` J J L I I I E / P } [ T E T T _ _ ( _ P J J I J P ( / D / P J J P ( ) Z P P G G L G n G I k z P P P U e # j ` ~ D D D R / ( ( / ( _ [ [ ( / / ( / P / P K J G V z Z J l z P Z z G G / ( ( ( / P G J P J P / ~ _ ( P J U P _ T J P Z Z J K L V K P S P ' _ _ ' _ / ( ( ( ( ( / ( ( _ _ ( ( ' ( ( _ _ ( / P T P J J K L P L E K ` 7.~ U P / _ _ _ } _ J J L L J ` [ ( ' ` P G n K T T P T Z V j n J Z U R Z z R Q Q ( / W Q ( / / W Q D / / P Z A P ",
"D D D A P P Z Z x Z P Z z Z D x k P Z k k G n z V L G J ` K J I / ( ( ( / I J I I Y I U / ( ( ( / U I P [ / J U U J G U I J L T G Z T / / ' ` ( / / / ( ( / P R P P P ~ / ( / P P P ~ / J G U J G I G G V J P J U / V J U K / / / R J J J J I I T ` / / R J J z Z / R Z P P V V G n G J I z J ` / / / / / ~ / / / / / / P ~ / / / / / P / ~ P ( R J U K V G G G J J L P J / P Z L J / / / R L v l n G z z P / P D D / J z Z U z K Z z z V V V V V l z / ( / / D D / / / ( ( / ~ / P / / / / / / ( _ ( ( _ Z U P J J L I J V P / J _ ] P K T _ _ ( ( _ T I J L J P ' _ ( ( [ ` P P O.} D / _ P L T T L K E T K / _ _ ] _ ) ` ` ` ` _ ` / / / ` / / / / P J U E L y 2 7 v J T E E K P U T P [ O.P / _ O.O._ _ _ ` U I L T L T ( ( ( _ ( ~ J / } ` P / U Z J I J J K T Z Z ( ( ( _ ( ( ( ( ( ) ( ) ( ) / / ( ( ( ( ( ( ( / ) R Z R ` K L L L L I / ` P 7.` J T T ` _ _ _ T J I J I J K P / W / / T Z Z / ( D P P V G Y I G G G n z P ~ P P z I / / ~ R D D P / / / / ( ( _ _ ( / ( _ / P / P Z J J Z z z z d z P Z Z V K ) ( ( ( P Z J K P P P / ( ( [ _ T K / [ P J U J J J L K Z K P S P ( ( _ } _ _ ( ( ( ( _ _ / R _ ` ( _ _ ' ' ` ( ( / P T R K J L L L L R L ` 7./ K T _ [ [ } ' T L I U L J P _ _ / _ ( J Z K / P P T Z Z n G z J J L J Z P / Q R D W / ( / / D Q D D ( P Z A P ",
"P D Z Z P A Z Z x x Z k k Z Z z g J Z z l z n k z U z Z ` S J / / / ( / K I J I I J Y I K / ( ( ) T J K _ T z U J N n J J J J U J J ~ ` ( / / ( / / / / / / P P P ~ / P / / / / P ~ / P J V J J G G G G z J T V P / Z J P / / / T J n J G n I n J R / P R T J k V / / Z D P z G J z l G J z Z T ~ / ~ ~ / / ~ P P / P P P P ~ ` ` P P / P / ( ~ / J J P V n I G G J U I z / R G J / / P T J n c j k J z k Z Z P / Z P P z Z T z Z P z l k V z V Z l k / ~ / P D / D / D W ( / P P D P P / ~ ( / ( ' _ ( / V P K J J I I J V R / Z ` ' P P _ _ ( ( ( / I I I L I J P ` _ / ( } / D } } D R ) P L T T L K T P Z / [ [ _ _ ` ' ` ` ( _ ` / / ` ` / ( ( / T U P P _ ` n c j 9 l Y T U K T ` K ` O.D ] O.O._ _ _ ( U I L I J I J T ( ( ( _ / A R [ ` Z / P Z J I L Z J T J P / ( ( ( ( _ ( ( ( ( ( / R R R / / ( ( ( / ( ( ( / / Z P / P I I L U L / / P [ / U ^ ` [ ( _ R I J I J J J J J U / W / ( P D W ( Z Z T J n J I G z Y J k P P A ~ ~ K Z P / ( / ( ( ( ( _ ( ( _ [ _ ' [ ' _ ( Z / T Z J K z z g l r f P Z z J / / / P Z K Z J Z G L Z Z / ( / [ ( P / _ Z Z T J V J J I J K T D / ( / ( _ { _ ( ( _ ( _ _ P P / ` ( / ' _ ( / / ( ` J U R J J P L J P E J / 7./ P ( _ ' _ ] U I I T T L I J P ' _ ( ( / Z Z / P Z P z z G G k G z I z Z P / W D D / D / ( W D / D D / P Z P P ",
"~ P Z D D D Z D Z J z d z Z D z j z Z z k z n z Z T J K / D ~ ( / ( / U J I J J T Y J Y L P / ( ( ( P D _ P z U K J n n I G I T J J ` ( / ( ( / / / / / / ~ P P / / / / / / / / / / / / J V K J G G G G V U T Z P / P / ~ / ( ~ J G G n G J J J J J T / / ( ` K Z / ( Z D S z V J n l z I z J / P P / / / P P P P P P P P P P ( ' / / R ( / ( ( / J P P V J J J J J T L V / P Z U ` / / L l l y l J J z z z z Z / P P P D A / Z Z P z l z k V z J z z P / D D D ~ / ( W D ( / D P P P T / / ( ( ( ( ( ( ` J D / P J I I J J / ` Z ( ( / ` _ ( ( ) ~ J I I L L L I Z T ( ( ( [ [ ( [ [ D / [ R L T T L P ` T K ` 7.} _ _ ` ` _ ' ` _ ` / / _ ' ( _ _ ` ( / / / _ _ K J P z 6 6 q 6 y G ` T ` [ ) O.} [ [ _ ` T L L L U I J L J / ( ( _ _ / Q O.` Z / P Z J J I Z U / J T _ ( ( ( ( ( ( ( ( ` / / R T / / P / ( ( ( ( ( ( ( ` J P ` T U T U T T ` / ~ _ _ _ [ ' [ _ / I I I I I U I J G I J / / ( ( / / ( D S / K n G G G J E I Z U / ~ P k 0 Z / ( ( ) ( ( ( ( ( ( _ _ _ ( ( _ _ [ _ P / T Z J J z k z x d z D Z Z / ( / D Z Z K J Z J K J J Z P ( ( ( ( / ) _ A K R J G J J J J P / D ( _ ( ( ( ( ( ( ( ( _ _ / P T / ( ( ( _ _ ` / / _ _ P P R J J P P K P E K / O./ / _ _ _ ( T I Y I T ] E Z L J P ( _ / ( P P / J Z K Z V z G k z J J z Z / / P D P ( Q ( ( W W / W ( P D P / D ",
"~ P Z Z Z P Z Z P P Z z J Z Z Z d z J k k J k h Z P z J / / / / ( ( J J I G I / ) ` I I U L J / ) ( ( D / K z P P n n J G n T ` n J ` ( / ` / / ~ / / / / P P / / P / / ~ / / ~ / ~ / / Z Z P Z z G G z J T T Z Z ` ` / ~ ( ` J n G G v G U L n N J J / ( ~ ( ( / / / Z A P z z J J l V U k J ` P P / / ~ D D ~ ~ P P R / P P / ( _ / / ( / / ( / Z J U J n I G V U E J Z T P P / P T P n v c j z P A Z l l J z K R ~ D / A P Z Z J V g n l l V J z k P D A P Z Z / / / Q / D D ~ D R T P P / ( ( ( ( ( [ P K ` P J I J J T ' / Z / ( ( ( ( ( ( P J L I J T / I J J J D ( ( _ } _ } [ P / [ ` L Y Y I T ] T J ` ,.] ` / ` _ ` ` ( ( ` / / ( ' _ ( ( ' _ / ( ( ( [ U V / P j 9 2 1 2 2 b n U [ O.} _ _ [ ` U L U J U ` ` U J I J / ( ( } ( ( [ / Z / ^ Z J I J Z / ' J T _ / ( ( / ( ( _ ( / / / / ` / / / / / / ( ) / / / _ J P ` P J U U P / [ / P [ 7.} [ ' _ / I I I J J T ` P n n G n P / / / ( ( ( P Z ( P z G b n J T U J K T U l 0 n ^ ( / ( ( ( ( ( ( ( ( _ ( ( / ( _ ( [ ' Z / P Z J V V g z U g z A x Z P ~ P z n J V Z P / R J G G Z P _ ( ( / ( [ P J / K Z J I J V / / D ( [ ( / / / ( ( / / _ / P / ` ` / ( ( ' / / ( ( / ] / P T J Z L P Z P ` Z D _ / / _ [ ( K I Y Y I / ` / K z I T A ' _ / K P ` z Z T Z k n n j z / U k J / P Z P P P Q / D / D D / / P A D ~ P ",
"~ A Z A K Z Z Z D P Z Z Z S D Z k Z P Z k Z k z P / z J ) ( ( [ / U J J G J / ' ( ` / I I U J K R ( ( Q / P z T / J n I G G ` ' G J / ( ( ( / / / / / / / ~ ~ / / / P P ~ / / / / / P P J Z ~ T V G G n K ` T Z P ` / ( [ ` I G G G G J T ` T J J J I U ( ( ( / / / / Z D R Z z J G l K E z J ` P ~ / ~ ~ D P ~ / P ~ P / / / / ` ~ ( ( ( ( / ` / Z J R K G G G J T ` L J ` / / ) ~ P G n v l J P D P D J z G G V K / ~ Q D / z Z P K k n z g S P k z P A D P Z S A P D D ( D D P P / P / P P / ( ( / ( [ T P _ T J L I J / _ / Z ( ( ( ( ( ( P K I G J T _ _ ^ J J I Z P ( _ } _ O.} P ` 7.] P Y I J ` [ T U ` _ / / ` _ _ ' ` _ _ ' _ _ ( _ _ ( ( ' ( _ _ ( _ _ P K ` T z j m b n n c 8 v ) [ [ O._ ( U L L L U ` _ _ ` U J L J / ( _ [ _ } ` Z ' ' P J Y J S _ ' J T ' ( ( ( ( _ ` / ( ' ( ( / ( ( ( ( ( P / ( ( ( ( ( _ J P ` / L L U P ' 3.` P } } [ } [ / L I I I I U ( _ / P v n G J P / / ) ( _ P D ) R z G n n P ` I k P T k 0 n ` / ( ( ( ( ( ( ( ( ( ' _ ( ( ( ( _ _ [ ) S / / Z J J z l Z P d Z P A P ( P J G G G V P ( ( ( T J V J J P ( [ _ ( } T P ( / Z J L J Z ) ` D ` _ ~ / ( ( ( ( ( ( ( / P ( / / / / P / / / / ( ` ) T ~ ) K V L P K / ] P P _ ( [ } _ R I Y J U ' ' ( _ ~ J J T P P / ( / ~ _ Z Z / J n k G k J ' T z I J z Z / P D Z D Z D D / D P D D / D P ",
"P Z Z P A Z Z Z A Z Z Z Z Z P Z k Z ~ P h k z T ~ ~ k J ) ( ( ` U J G M n T ' ( / ( ` U G I L J Z R ( ( ( K z U / T G n n U ' ^ z J ~ / ( / P / ( / / / ~ / ~ ~ ( ( D D T ~ P / ` ~ P T K V / ) K V G I T / T Z U ( / _ _ P n G G n J / ( / / / J n I J P ( ( ( D Q / Z D ( S k G k z T P z J / / P ~ D ~ W / P P D / D P / / T ~ ~ / / / ( ( / P z K R P G b b P ` T L J ] ( P / T J n n j n ~ ~ D A W / V l G V V P P Q D / z z P T z k l z P T k h P P Z P P Z Z D Z R W D Z P / ~ / / P / ~ / ( / / ' T P ' ` J J J U ( ' / Z ( ( ( ( / P J L I G T _ ( _ _ ~ Z J U J / ( } } _ } P / O. .E J G T ) _ T P / ( / / ` [ ' _ ' ` ' [ [ _ _ ( ' _ ( ( ( _ ' _ _ ' P P ` ` P j v v J 5.;.v I E V J E T U J I I U ` _ / ` _ ` L I I K ` ( ( _ } / Z ` [ / J I J P [ / J U ` / / ` / ) R P ( _ ( ( / ~ ( ( ) / P / / / ( ( _ / Z P _ _ P I I / [ [ / T } ] ] [ ` L J I G G L ` / / / T I G G G J / P / ( _ P A ( / z n n G T ` J g K ` n j T ) R / / / ( ( ( ( / / / ` ( ' ( / ( _ _ / Z / _ Z J J l d P K d x P P ~ / P z n G z Z ( _ ~ / ( T V z J J P ` _ [ O.P Z ` ( J J I J P _ / Z T ( P / _ _ / ( ( ( R P P T / P P P P / / / T ~ ) / Z P _ R V J L P ` ` ~ P _ [ [ [ U I Y J J / _ / ~ ~ / / Z Z P Z J ( ( _ ' Z J P T J l v k / ~ J z I z z K P D Z Z R P Z D D D P Z P P D / ",
"D Z P ~ D P Z Z Z Z Z K Z Z Z J k J / / Z z J / / / z I / ` R U J I n n T ' / ( ( ( / T J I I J G J / ( ( P z P ` ` U n J ` ' T n U / / / P ~ ( ( ( / / / ( / / ( / / P P P / T T P P / L V / _ / L J P / / T J R ( ) _ P G G G G K / ( / P / / T I J J I T ' ( / / / Z Z ( R V z z Z / U k J ` / P P / ~ ~ / ~ ( ( / / / / / P P / / P / / ( P P z K R / I G I ` ` / I J ] ( ( T J G v b G T ~ / ~ ~ D ~ P V z G V J P / / ` Z Z T / Z G j P / / z z T / P P D A P P D / ( / D P / ( / T T / P / / / / / U P _ _ T J J / ( ( / Z / ( ( / Z J J J J T ( ( ( ( _ [ P J J P P ~ } O.} [ / ` } O.] L L ) [ _ T P ` ` / ' ' ' [ [ _ ' ' _ [ _ ( ' ( ( _ ( _ ( ) / ( _ P P ] _ ` K G J R [ ;.I ` ,.G l e w n I I L / / _ _ _ _ ) / U I L P ` ( ( [ / Z ` } [ T I I ` [ / n U ' ( / / T / P P ( _ ( ( ( ( / ( ( ( ( / ( _ ( ( / / J / [ [ ` T K _ } } / T [ _ ) / L J I I G L T / P / P / R U G G G T / ( ( ( P Z / / J G J P ~ ` J k / / j J / / / / R / ( ( ( ( / / ` ( ' _ ( / / ( ( / J / [ P Z z l Z / D d z P P T P Z z n n Z / ( ( ( / ( ( U V G J K P ' [ } T J ` _ ` L I U ( [ R Z P P ~ ' _ _ _ ( / / / / P P T R P P ( ` ( ( R / ) ` J P _ ` J z J / [ / J / O.[ ` T I Y I J E ' / / P P / ` U V Z J Z U / ( _ V Z / / T n k J ( ~ J k J J Z / ~ D P P ( / P A / / P D ~ / / P ",
"A Z P P P D Z V z K Z Z Z Z Z Z l z ~ ~ D A / P / / k J / T J I J n n U / ( / ( ( / ~ / T I G I J G P / ( T z P / ` / I T / / P z U ~ P P / / / / ( / P ~ / / ( / / ( / P P P P P P / / J V R ( ( ` U T / ` R Z K / ` T G G I n J / ' ~ P / P P ( P N J I J T ' / / / Z Z / / P z k P / K g Z / P P P / / D / / / ( / / / P P P / P / / T T P T P z J / ~ T U E ` P / G z ^ / / J l n c l P / D ~ P A Z K / P k G G n J P ( ` z V P A T I x P D / z Z T P P Z Z D Z D / ~ / / P / ~ / / / P T / / T P P ( U Z ( ( / T T / / ( T z ~ ( / Z V L J G L ` ( ( ( _ ( ( [ / Z K P P ( _ O.[ P / [ [ [ ` ` _ ( _ P P / ` ` ` ` ` [ [ _ ( ( _ ' ( / ( _ ( ' ' ( / / / ( ` P U ] ` ` / I T ( _ ] I / ` P ;.H q 7 p U ` / / ` _ _ ` ` ) ` J J I P _ ( [ / Z ` _ _ ` U ^ [ ( T n T / / T P R / T / T / ( ( / ( ( / / ( ( ( ( ( / D P ` Z / [ ( [ ` / [ _ } / J / ` / U n I n J L / U K J P P ( / T J G G n P / / ( Z z T ( P / P / ~ / n k ' I 0 J / P / / P ( / ( ` / / _ / _ ` ` ) ( / P P T J P [ _ K z J / / Z d Z J J J z l n n j P _ / / ( / ~ / / K z G J G T ' } T J / _ [ / P / _ ( P z T P P ( ) _ ( / P / ` ` / K P R T / ` / / P / / / ` J J ` ` / K P _ ( / Z T _ ( T I I I G T ] ( ~ P D / P P R Z l J J z P D ~ V z T / T J I P ~ P z k U Z D ~ W A / D W ( A A P P D D ~ / D ~ ",
"P P Z A Z Z Z Z Z P P P Z Z Z J k z D ~ D P / ~ / / z J / P G I G n L / / / ( ( / ` / ( / T J I I G J R ) P z L ~ / ( / / ~ / T J U ~ P P / / ' ( / / / ~ / / / ( / / / / / P P P / ( ` U V T ( ( ` R R / ` P z J T U I G I G J / ( / / / P T / / ( T G G I I T ( ( / Z Z / ( ( P J P / P l V T D D / ( / / / W ~ / ( / ( P P P / / ) ( / P D P P z J P P P / ~ / P T z z P / P V n v l J ~ / D P D Z Z P ~ P J V V I G Z P U z z K D D ^ P D D / z J R D Z Z S D D P / / Z D / ( P / ~ / P / ( ( T P P ` U K / ( ( _ ` ( / ) T V / ( D Z J J G L ( ( ( ( _ _ ' ( ( _ T J J P P / [ [ P T [ [ _ } [ _ ( _ T P ` _ _ ` ` _ _ _ ' ' [ [ _ ( ( ' ( ) ) ( ( ( ( ( _ ) P P ] _ ( ' ( / ( [ ] I ` T J T E H a p I T ] ' _ _ [ _ _ _ ' T J G L T ( _ / Z / _ _ [ ] _ _ ( T J T ` / T U / ] / ` T / P / ( ( ( ( R / ( _ / / / / / ` J R [ ( ( _ _ [ _ [ P J ` ` U J J G J E T P J L K / P / / ( P K l b z Z R / Z z P ( ( ( / P D / n z ' g j U P / P / ` _ ( _ _ ) / / _ [ _ _ ) ( / T P R J T ` _ ( ` ` / / K g V P J z l l b l Z ~ ( ( ( ( / P ( ( / L J K J K / [ T J / ' _ _ _ _ ( / P Z P / / / / ( R R / / / ( ( ` R R / ) ) / S P / ' ' [ U J / ( ( ] ' ( ( / Z ~ ] P L T I J P _ ' ( / ~ D / / / T P Z V V J V Z J Z z P P P ~ ` P P J J k J Z Z ~ ( / W W ( / D D D D / Q ~ D D / ",
"P P Z Z Z D Z Z P P T P Z P D Z k x Z P D A P / ~ T k J T U G n n I / ( / ~ / ( ( _ / ~ / ) T J G J z K ( U l J T / / / / P ~ ^ N J T / T P / ` / / / / / P / ( ( / / / ( / P / ` / / ` J z P ( / / / P / / Z z L R L G I G G P ` / / P P T ` P R / / U G n I J / ( R V J P D / P P P P K l z ~ P Z P / / / D D / / ~ ~ / / P P ~ ( / ` ~ P P P U k Z P D D R P P P J z l K P z G v y z R P P ~ A P P Z ~ A P ~ J k G G z Z P l l K P Z ~ P Z A ~ k J / S Z P Z S D P P S Z D / / / / P ~ ~ / / / P P P / I Z / ( / ( ( / / / U z / / Z J J V J / ( ( ( / ( ( ( ( ( ( _ / Z L L P ( ] K P ) [ _ _ [ ( ( _ T J ` _ ` _ _ ` ` _ ' / _ _ / _ _ / / ( / / / _ [ ( _ ` P P _ [ ( ( _ ( ( [ ` J U T G I G n T ;.U n Y T ` ( _ } } ' ` ` R J n J P / / Z / _ ( ' [ _ ( ( / n U ' ( T / ` / ` / / P J P ` ( ( / P P ` / ( ( / _ ( E G P _ ( ( _ ( ( _ _ P J ' / J n I G T / P J U ` / D P / / ( P S l v l J J R V k K / / ~ P A D / z k U g Z T P P D R ` ` _ [ ( / / / _ [ [ _ / ` / ` / U J P P ( / ' ( P / T g z U V j j j j z ~ ~ W / / P / ~ P / ( / J J K J P ] U Z / ( ( _ ( _ / ~ P Z P ( / R / / / / / / P / ` ' P P / ( P K K U P / _ / L J ` ( / _ _ / ( ` Z T ] J L T G J _ ( / / ( ( Z Z T P Z P P Z l V l V T z z Z A / P / P D K K g z J Z Z / ~ D D Q D A A P A P / D D / P ",
"P P D D Z D D P Z Z Z P P P P J k Z P P D P D D W / z J E P n n I ` / / / / ~ / ' ( ( / / ( / T G G G K / T z G T / / / / ~ / / J P / / ~ R P / ( ( ( ( ( / ( / ( ( / ( ~ ~ / / ( / / R J V P / / ( / P / / J J T ` L G G G L / / / ( T P / ( ( / R ( ) P G G I K / T V P / D D / D P P P k J / / P P P / P D ~ / P ( ( ( / P / / / ( / / P P T U z Z P P D D D P P J z k K P z z l z J P Z P D P P P Z P D ~ ~ R V n z V J E z z T P P ~ P Z P ~ z J / D D R P P P P S D Z R D / ( / ~ ~ / ( P P K R T / J Z / ( ( ( / / D / T V R R Z J J Z R ( ( ( ( ( / ( ( _ ( _ [ [ T J I P / [ P P _ [ [ _ _ _ _ [ T P ` ' _ [ [ _ ' _ _ ` _ _ ( ( _ ( ( / / ( ( _ [ _ [ _ P P _ ( _ [ [ ( ( _ ` I E T I I n Y ` ] ] G 9 n ] P k U [ [ [ ( / I n z P ` ` J ~ _ ( ( _ ( ( _ ' n U ] ` / / ( ( ( ' / ~ P K P ( ( ( R R T / ( ( ( ` ( ` V P _ ( ( _ ( ( ( ( U P [ T n J I U P J J K E _ / ( P ( ( / D P K z n P P E z k P P Z P K P P / z z z J T ` / / / ( / / ( ( / / ( _ / ] ] _ ` ` ( ) ( R Z J T / P / / P ( / k Z P V j j j n P / D ~ ~ D D ( / ~ / ( _ R J J J T _ T J / ' _ ` ` ` / ` T Z R _ ( ( ) / / ( / / ( ( / / T T / / P P T R P R / T K L ` ( / ( / ( _ ` K / [ P P U K ` ( ( / ( ( ( P V l z x P / T z j l K ` V l S D / / / P P P P l J T Z Z P D D D / D ~ D P D P D D / ( ~ ",
"P P Z P Z Z D D Z Z z Z P D P Z l P P D P P A D R T z z / J l G T ( / / / / P ~ ` / / / ~ / ( ( K z V J / P l K T P ~ ~ P T / T n J / / / / P T P / ( / / ( / / ( ( / P P P P P / / P P J z / R R ( / P P / U z R / J G n L / R R / ( R P T / / / / ( / / J n I J R P k P / D D P P D / U k Z / / / R P P ~ / ~ / / / ( ( / / D P ( ~ / ( ~ P / P k Z P A D Z Z P A U n g U J l l l P P J z Z Z R D Z Z A ~ P D / P z j V P U z J ~ A P P K P P T z Z P ( / P P P P P P / P D P ~ P / / P T R P P ~ T P ` J J / / ( / P / D R U z T P Z G G P ( ( / ( ( / / ( ( ( _ _ _ [ _ I J U ` [ K T [ ' ( _ ' _ [ ] P J / _ _ ] [ _ _ ` _ _ ( / ( / / ( ( / ( ( _ ( ( _ [ _ J P _ ( _ _ _ _ ( ( ` J ` T G H n ` ) / ` ` U T  .E 9 2 y J / / / P I l Z ` T J ~ / ( ( / / ( / ^ n T ' / ' / / _ / ( / ' / T K R / ( / ` R ` / ( ( R ) ` V R _ ( _ ( ( ( ( _ I J ,.J z I n P J J J R P P / R D / / P D / P K k z P K l l J K Z P J P A T J k k K T ~ ( _ / ` / / / / ( _ ( ( ` ( ` _ _ / ( / _ / z P ` P P T K P / P k Z K V j e z / ~ D A ~ P Z Z Z / / ~ ~ / ( J z J P ' R J R _ ( ` _ / / ' P V T ' [ ( ( / P / ( ( / / / / / ( ~ P P ` / / T A P P J P / / ( ( ~ ( _ / K ~ _ S J P / ( P ~ / ( P P Z d g V P P D / K d l T T V l P P P ~ P A / P I k N P P z z Z P A D D / D A P D Z / D / / ",
"D P P D P P P P A P Z Z Z D / P z P ~ D ~ P D P P / z J / Z z E / / / / / ~ P / ~ ( / P P / / ( / K z Z ` T z P / ~ ~ T T R ( / n J / / / ( ( / T / / ~ P P P ( / / P P ~ P P P ( / P ` J J / R / ( / P / _ T Z R / J n U ` ) / / ( / / / / T T / / / / ' / J n P / T V P ( F P P D / / T z Z / / ( / P P / ( ( ( / P D ( ( / D P P / / ( / / / P k Z / D D A A P P R J z T Z j z L R R P V Z J T P Z V D P T P / P L V V P T z J ~ P P P P ~ D / z Z P / / ( / / P P D ~ ~ / / P P / P P S P P / ( P P ` J P ( / / / / / P / K z R R V V R ) ( ( ( ( ( ( ( _ ( ( _ _ _ [ [ ) L K )  .P T [ _ ( _ _ [ } [ T K ` ] _ ] _ ' ' _ [ _ ( ( _ ) / / ( ( ) ( ( ( [ ( [ _ K P [ ( ( ( ( ( ( [ ] U ` ` I I T ] ) ` ' ' [ ] _ ` T v w 8 j x / / U z Z ( T Z / ` / ( / / ) ( / n T ' ( ( ` ( _ ` ( ( _ ( ` / / / ` _ _ ( / ( ( / / / ` J E _ ( _ _ ( ( ( _ K P ] J n L L P P R R R P T K P / / D P D ( / / V z Z K l n K K D P P P P ~ U k G P R / ( ( [ [ _ _ ( / / ( _ _ _ ( ( _ _ _ ( ` ( / Z R [ ( P P P P / T k Z T V j n / ( D D P T P P Z Z P P / ~ / ( / P K / [ / K ` ] ' ` ) ` ` ' T Z P ( ( [ [ ( / ( ( ( / / / ( ( _ ` P P ( ( ` / P T R J U ` ( ( ( / ( ( / Z ( _ Z Z ) _ ( ( / / ( / R V g z P / R D / R J J / / Z z T P P P P D ~ ~ I z P / P z z J P D D D P ~ ( / / D / ~ / / ",
"A D D P Z Z Z Z Z P D D Z D P Z z K P ~ D D ~ / P T l J / Z P / / / P P ~ ( / ~ P / / P D / / ~ ( / J S R T z J / / P T T P / T z J P / / / ` ` / / / / P / / ~ / / P / ( ( R R ~ / / / I z / ( / T T P R / J Z P / J J / ` / ( ( / ~ / / P ~ R P K P T / / L J P / U V J / Q D P P / / U z Z ( / / ` / P P / ( / D P P ( / / P P P R P P / / P P k Z ~ D Z Z D D P P z k K Z k J R ~ D / Z Z P K P Z z P P P Z Z Z T Z h Z T z z ~ ~ Z ~ P D P / h Z D S D ( P / R D D D P / D / ~ P P / D D / / ~ ( ~ / Z Z ( ( D / P P / ~ Z V / ( P U ` ( ( ( ( ( / ( ( ( ( ( ( ' _ ( [ [ T P ` [ K U _ [ ( ` _ [ [ _ T P / ' ` ` / ` ' ` _ ( / [ O.( / / ) ` ( [ ( ( ( ) ( ` U U _ _ ( ( ( ( ( [ ' U ' E J Y ] ` ` ` ' ` ] ' ` ` _ [ ' T U z Z J I z Z / P z T ` / ~ ' / / _ T j I _ ( / ' / ` / ' ( ' / ( / / ( _ / ( ( ( _ ( / / ~ ` J T _ ( / ' / ( ( / P J / T J T T P P / / / P ~ T ( P / ~ / ~ D / / T Z P P z l K R D P T Z A / J g J T P ( / ( _ ( _ ( ( ( / / ) } _ _ / / _ _ _ / ~ T Z P ' ( P K P A / U g z P Z k ~ ( P D A P P A D Z Z J J K P P / _ / U / [ T J ' ` / ` / ` ( ` T V T ( / ( _ _ ( ( ~ ~ / ( / / ( ( / P P ~ / P ~ / P T J J ` ( / / ( ( ~ P Z ~ _ D ~ _ ' / ( / P / ( T z z T / Z Z S A P R K D / J z K / D Z P A P T Z k P ~ Z J J K A D D P A ~ ( / / D P / ( P ",
"D P D Z A Z Z Z D P P P D P D D Z P P D D / ~ / / U z J T P / / / ( / / / ( / / / ( / P P P / / / / / P / / V J T P ~ / / / T I z J / / / ( ( ( ( ( ` / / / / / / P / / / ( / / / / / ` L J / ` / T R / R J J Z R ` T T / R P / ` / / ( / ( ` / P P P / / / / ~ / / / J P ( ( W P R / P U z Z ( / / ( ( / / / P P P / / ( ( ( / P P R P ~ ~ D D D z Z D D A D Z P P T z k P P P T D / P P P P P P P S Z P P K V Z Z ~ P Z D / x Z P A P ~ P P ~ ~ Z K P S S P / / P D D P P P / ( / ( ( ( / / / / / ( / / Z Z / / / / ~ / R P P Z ( ( / / / ( ( ( ( ( ( _ ( ( / / ` _ _ _ _ _ _ ` ` ,.P U ' ( ( _ [ } ' / T P / ` / / / ` _ _ _ ` ( _ [ _ ( ( ( ) _ [ _ [ ( ( ( ` P U ` ( ( ( ( ( _ ' / U ] ` P / ] _ _ _ ` _ ] ] _ ( _ ( _ _ ( ( P k g d k z z z U T / / ` / ( ` I j I _ ( ( ( ( / ( ( ( _ _ ` P P / _ ( ` ` ( ( _ _ ) ` ` J T ] _ _ ' ( _ ( / P Z / _ ( ` / ( / / ( [ ( / ~ ( ( ( ( / / ( ( ( T P P R V V K P P P P P P T G k L / / ( / ( ( ( ( / ( [ ` / ( ( _ [ ` ( ( ( / P / R J T _ ( ~ R P P T K j V / P Z / / A Z Z P / P Z Z P P P P P / / ( ' / ( [ / J / ] _ ` / _ _ ` K V R ( / / / ( ( / P D ( ( / / / / P P / / ~ ( / / / / J J / / ( ' ( ( P J Z / _ / ( ( / / P P P P Z P Z z P D Z z Z P P R D P T Z l P P D K P Z P J Z k J J Z Z P P P D P D P D D D A / ( P ~ / ",
"A A D D D P Z P D D D P P D / P z P P z Z / ~ T Z J k G P / P P P / / / / / / / / / / ( / T P / P R / D / P z J Z Z T ~ ~ / Z I J J ~ ( / ( ( ( / ( ( ( / P ~ / ~ P / / / / / ( / P / ` U J P U / T T / J z U J Z / T / / / / P T / ( / / ( ( / / R / T P P / / / / T J Z P P P P P T Z J z K / / / / P / / / P R / ' / / ( / ( ( P P / ~ P Z A P z Z Z x D Z Z P P Z k l P / P P Z P P D Z P P R Z Z P P P Z Z D S A D Z D / z z J Z P P P ( P J V Z P D Z Z P / P ( P P P D / ~ / ( / ~ P / P / / / Q ( Z Z P Z R / P / K J P Z / / / / / / / / / ( ( ( ( / / _ _ ' ( ( / ` ` ` [ [ J U / P / _ _ ] K T / J / ` R / ` ' ` _ _ / ( ( _ _ _ ( ( [ ( ( [ ( ( ( ) ( J P / P / ( ( _ ` T L U ` / ` ` ` ` _ ( ' _ ' _ ( ( _ ' _ / / ( P J J P P z l e l g K ~ / / ` J k j J / ( ( / / ( / P ( _ ( ` T K Z / ( / P / / ( ` ( _ ` Z T ` P / _ ( ` Z T T V ` _ ( / ( _ / P / ( ( ( P ~ ( ( / P P ( / P P P P U z Z J Z P ~ A D P z y n n P / ~ ( / ( _ ( _ ( ` _ / / _ ' _ _ / / ' ~ / ` P J U P Z J / A P Z z j z P P Z Z Z P A P J Z D ~ D Z T / / P P P / _ ` / _ / J T ` ' ' ' ' _ R J J P ( ( ( P P / / D / / / ~ / ( / / ( / / / ( / P / T z J P Z / ( / P Z U Z P ( ( / / P P T ` P K Z J l z J Z Z J J P P U P R J G g z J R Z Z P P k z k Z Z / ~ / D P D A P / A D D / / / Z P / ",
"P D D P D Z P P D P P ( / P / P V P P z l R ( Z z U z V / / R ~ D D / ( / / / / / / / / ( ( / / R R / / ( T z J J V Z R T Z Z ^ J Z ~ ( / P / / / ( ( ( / ~ / / / ~ ~ Q ( ( ( / / P / ` U J J Z P / ` K V J / Z Z / T T ` ` / / ( ( ( ` ` R P P / / / ~ / / ~ P / / / J J J V P ( / Z V I z K ( / D P ~ / ~ / / ( / / / / ~ / ( ( / / / ~ S Z P U k K K h Z P K P Z J z z P P D P D P D D A P P P Z Z D / P P D P P P P R / T z z P Z z ~ / D Z Z Z V D P D P P R ~ / ( / D D D / / ~ D P P / / ( / / Q ` J J T Z D ( / P V K P Z / ( / ( ( ( / P P ( ( ( / ~ ( [ _ _ _ ) ( ` _ [ O.[ K U ' P K _ } T Z ` T J / / / ` ` ` _ _ _ ( ( [ _ _ _ ( ( [ _ [ _ _ _ ( ( ) P U / P D / [ _ D R T P ] / ( _ ` ` ( ( _ _ _ ( ( ' _ _ _ _ ' / / P / ( _ ` L j J G l J _ ( J k I n J / _ / / / ( / T T _ ( ) / P P R D / / / ( ( ( ( ( / J T ' J Z _ ( Z Z ` R J _ ( ( ( ( [ / / P ( ( / / ( / / D P P ( / / P P P T z J U Z Z T ~ / P j e G n J P P / / / / ' [ _ _ ( ( / ` _ [ _ ~ ( ( ( ) ' / J P K l z P R J z z j z P R J Z Z P P P Z Z K P R / P P P P P S P ' _ _ [ / P E / / _ _ ` P P P P T ( ( ( / P / / ~ / / / ( / / / / ( ( ( / ( ( ( ( T Z K / Z D ( / Z K / Z D ( ( / / P P P T / / P J V J T J V P J L R / / / U J n z V T P T P Z x J J P P W W / ( / D D P ~ ~ ~ D _ ( D P / ~ ",
"P D D D D A Z D ~ / P P P D D P z Z R P g K P z P P l z / ~ / / P / P / / / / / / / P / ( ( / D P / P D / P z L / Z z J J Z P / J Z ~ P P P P / ( / ( ( ~ / ~ ~ / W D / ( ( P P / / / / J J ` P Z U K V J / T z J / P P / / / ( ` / ( ` / P P P / P T ~ T P P P / P U J U / z z ` P z J P k J ( P D D P / P P / / / / W Q D / ~ / / / P P Z D P J g Z / V d J J Z Z T J k T A P P P D Z P D Z Z Z Z D Z P P Z Z Z A P Z P Z Z l z P Z k J U z Z P z z P P P P Z P / ~ ( / P D D D / D Z ~ T P P / ( / D / Z Z / D h P R Z V R P V / ( / ( ( ( ( ( / / ( ( / ~ / ` _ _ ( ( ` / _ _ ( _ J I ,.` V P ` J / _ U J T ` ` ` ` / ` _ _ _ ( ( [ _ ( ( ( ` _ _ ( ( ' / ( ` P K ] ` D S ) / D ] ` J ` _ ` / ( / / _ _ ` ' / _ ( ( _ ( _ ( / ~ / ( P / ( T Z ` [ G j T J k J ` l j U P P R K / / J z P ~ T P ) ( / D / ( ( / ( / / P / z U ' / z P Z P ~ ' P Z _ ( / ( ( ' ( / P / ~ / / ( / / P ( ( / / ( / D P P k J ' P k J T / Z g n k k P P / T / / ~ ( ` _ _ / ( ( _ ( _ ( ( / ~ ' ( ( / Z J U J j z U Z h J n g P P Z P J Z Z V z z z J K J Z Z J R P P P T ` _ ' P K ] ` P P T P P ~ / U P ( / / ( / P / P P ( / / / P / P P / / / / R P P P Z Z _ Z z / P Z P T z Z / ~ ( / ~ / Z J T T P k V U J V z z z J ` / P / T z J T z Z P P V K ~ P Z ~ D D D P / ~ D P A D ~ Z P ~ R D P / ~ ",
"D D D D D D Z P D / P P Z D / R z S R ( D Z Z P / P l V / / D / / ( / / / ( / / / D P / / / D D D / P D / P z P / R V k z R / T V J ~ P D D P / / / / / / / / / / / Q ( ( / D P / / / ` J Z _ _ P V z P / ~ P z J / P T R / ` / / T P / ) P P / / P T P P D P P P ~ U z P ] P V J V Z / T z P / P D P R / P P P ~ ( / P D / / P / / ( P A Z P P P g Z / P z z z Z P ` J z P D D P / P D / D P z Z P Z S P Z Z V Z Z Z Z Z h Z k z P P Z Z z Z D / z x ( / / / P P P ( / ~ ~ / P ~ / D D R P P P / ( / / ( J V R / S K Z Z D / P V T ( ( ( / ( ' _ / ( ( ( ( / / ( ( ( ( _ ( ' ( / ( _ L L ] [ T L L / _ ( U J / _ _ _ ` ` / / _ [ _ _ _ _ _ [ ( ( ` / / ` / / [ [ P P ` ) / K P P ( [ R P ( ( _ ` ( / / _ _ _ _ ' ' ( ' ' _ ( ( ( ( / ( / ( ( / J P ] / z y y U P G j j J Z P / P / R P J P P / P R P ( / / W ( P P / / / / G L ] [ P z Z [ / / P J _ ( ( _ ( / / / / / ~ ( / / / / / _ ( ( / ( / / P P z J _ ] Z Z z P V z ' P x T / ~ / ` ( ( / ( ( ' ` / ( [ ( ( ( ( ( _ ( ( ) T G J P T k V J J Z / J k J D D P P Z z k z J V V V l V P P R / / R / / / ' T J ` ] R Z J P / _ / Z P ( / ( ( ( / ~ P R / / / / / P P P P / ( / P Z Z P J J ( / Z J Z P ( T V K / / / ( ' ` P J V P P z V P Z J k k V / ` ` / / T V Z ` P S z J Z ` ~ Z Z P P / D P P W ~ / P ~ P D Z Z D / / / / ",
"A D D P D D A D D D P D S P / T z K D P P Z D ( S J z V T / D P / / / / ~ P P D D R P ~ / P D / ~ P P D ~ T z Z P / Z Z I P Z T Z J / P D ~ / P ~ / P P ~ ~ / / ~ ~ / ( / D D / / P ( ` J Z / / T J K P P J J z P / P T R T T ( ( T / ` ` P T T T / T P D P T P D P K k Z / T J V J / P J z J / D P / P T ~ P D P / / P / / ~ / P / / D J J D / P g z P ~ P z z T P J J z P P Z P T P P D / J z z J Z P Z Z Z Z Z Z K P Z Z P z l J D J J l P Z Z k h / / P / P D P / P / P P R / D P D A P / D P / / P / V z K D P K z P ~ P J V P ` ( ( / / T ~ / / / ( ( / / ' ( ( ( ( ` ( / / / [ L J ` _ ` T / _ ( T U J ` _ ( _ _ / / / ` _ _ _ _ _ _ _ _ ( / ( ( / ` ( _ [ P J / / / / / / ( ` U P ( P ( ' / ( _ ` _ _ ( ( _ / / / ( ( ( ( / P ~ ( ( / / K P K U E J J T J J j I / / / ) ( / R / ` ( / / S Z J P Z / / A D P A / / ^ z J ` ( P P / / P A P P ` ( ( / / P ~ ( / / / / / P P ( ( / ( / ~ / / ( D T z z / T U T Z J z T ` z J T P / / / ( / ~ ( / ` ( / ( ( ( ( / ( _ ' ~ T T K z V G J J J k Z P P z z Z D A P P Z Z J J Z J J Z K T / D D P ~ / ( / P ( T J U ` [ P J T / ~ P Z P / / ( / / / P P / P / / / / P Z P ` ` / / P S P P Z Z P P P Z Z / / K V Z / ( ~ / / / T J z J J k V Z Z Z J J U ` T ` / ~ ~ J z K ( P k z P / J z Z ~ P P D A D / D P / D P R Z Z P / D D / ",
"~ P D W D P D D D P P P P P / P V P Z Z D / / D V J z V R / D ~ / / / ( R P Z D D ~ P / / / D / / / / D ( / z J J Z P / / Z Z / Z K / / ~ / ~ / / ~ P ~ P ~ ~ P ~ / D / / ~ / ( / P / / J J T P P / ( ~ Z Z J Z P / / / R P R ` / ` ` ) / P / ` / / / R P T / P P P U z Z P K P / ` ( P J z K / P P / ~ ~ / P D / / / D / ( ( / ( ~ ( P P P R / T k z J Z A R P / J Z J V T P Z Z Z P D D D P Z Z Z K K Z Z K Z Z D P S Z D P Z z J z Z T P S V z k k P / ~ / P P P P P / P / T D P ~ D P P P D R / / D ~ J J P S P ' / / D J U V T ` / _ / P P ~ / / ( ( ( / / ( ( ( ( ( _ _ / ( ( [ U U / R ~ ` ] _ P U U K ` _ ( _ ] ` / / / _ [ _ _ _ ( _ _ ` ( ` _ ` _ [ [ [ P P ` D P ` [ ( D T T P ` / / / ` ( ' ' ] ` / ( ( / / / / ( _ / R P / / ( ( / P R J Z ` [ _ T J L J P ( ( / / / / / / R / / P K Z P S Z P P z P ( P P ~ T J J T P A / ( P Z Z K P ` ' / / ~ / / ( / ( ( ( / / / ( ( ) ( P P ` / / / / J J T Z Z / _ / z / U j J / / ( ( / / / / ( ( ] ` ( ( ( ( ( / / / T P P P U n G z z P P Z P P n j J J P P J J Z A P P P J V V R / D D P P / / R R / ( R L U R ` ` ` ` T P P J P ( ( ( ( / / ( / ~ ~ / ( ) / T T / _ _ / / P P P P Z K P Z P / / ` J J K Z ~ ~ / ( / P Z J V J J z Z V l V K / ~ ( / E P P / K z J J / P P / P J z Z / D P P D P / / / D ~ ( ( D P D ~ W W / ",
"P Z Z A D D D D D D P P P Z / P k J Z h V R / Z k J z z / R D / P / / / / ~ P P P D ~ / ~ ~ ~ P P / P D ( / z J V z Z T / Z z / Z Z / / ~ P / / P P ~ P / / Z Z / D D D ~ / / P T P D ~ J J T Z Z P ' T z z K x J / / / T P R / ( / ( ( P P / / / / / P P T ~ / P P J k Z K k K ' / P Z J z J T P / P / P P / D P ( T Z P ' / / ( / D P / P P P T k z K k z P ' P k J K z P P Z Z Z D D D Z D P K P / Z Z Z K Z Z S Z Z D Z D Z z Z d k T T Z k J k k J P P P P D D / P ~ / / J Z P ( D P A Z S R P D P / V G E J V ( _ T z J U z T / / ` / P ~ ` / ~ / / ( ( ~ / ( ( ( _ ( ( / / ( ' J U / K J ` [ / G P T J / _ ( ) ' ` / / / ` _ _ / / _ _ ` ` ) ( ( _ [ _ [ _ J P ` S Z ~ [ / Z T T Z / ( / P / ~ / ' ` / / / / ( ~ / / / ( / D P / R / ( P K R J G J ) ` J z U z Z ( / / ( / / R R R / R Z V P R D S D z 8 k K Z A / ~ k J P z P ( ( Z k P J V ` / / / P / / / ( / ( ( / ( / / ( ( R D P / ( P R ` J V P z l P ] E z J n y L / P / ( ( / ( / / _ [ ~ P ( _ / ( / P P / P R / J k I z j z P P P J l k K J V V z V K P P P ~ P z l P ~ D A P P P R P P ( _ U I T K P / _ ` Z Z T Z P ( ( ( _ Q W ( / ~ / ( P T / ~ ( _ ( ` ( P P / P J Z P P z K ( ( P l L J z T P / ( ~ A D P z J G g V V l l V P P T / T Z P P J J J z K / ( P Z J z Z ~ / D D P P P ( / D W ~ P D A D ~ / W W ",
"P Z k z D P D P D D P R D D P P z K K z z K K z z J z V / / P P / ( / / / / / / P P ~ ~ / ( ~ P P D / / ( ~ z Z J z l G I Z Z / J Z T P / ( / / / ~ P ~ ( U k G R ~ D W / ( / P P D / / J K / K G J T J z J P z J / P T / / R / ( _ ` / P R / / ` / / T P P T / / / U z J K k J ` / J V I z J / P / / ~ / ~ / ~ / ( P Z J P ` ( R P D P / P ~ ( T z Z P z k J T V V P K V P P D Z P P Z D D D Z Z ~ / P J z J Z Z Z Z Z D D P z z Z l l J J z z K Z k K P D Z Z P P ~ ~ / / P n G U / ( / D Z P ( / / / ` Z J / U V P T Z z K P Z R ` ` ` / P / ( / ( / ( _ _ / / ( ( ( ( / ( ' ( ( _ K U ` L J E ` U J E T J / [ _ _ ) ` / ` ` ` ] ` U P / _ _ ) ` ( ( ` _ _ [ ) J P ) P J K E P Z E T K ` ( ( ` / P / / / ' ( / ( / ( / ( / ( / ~ / ( / / / P S / R J G E T J J T V Z ( ( ) ( ( / R / ) ` L J V Z P P F / P k g z d z z J k J J V Z ] P Z V T J Z T / ` / / / / / ( ( / / ' _ / ( ( ( / / T / ( / / ] U J P V z J T J j J l j T / P / ` ' ( _ ( _ [ ` U U / _ ( ( / P P / / ` / U z J J l j J U J l k n J Z J z V J J P T P / / Z V T P Z D / / T P R / ( _ / I P P P T / U Z P T Z P ( / _ { ( ( / / ( ( / J J T ` ( ` ` / / / / / / P Z P P V J / P z G U V Z / P Z P D P P T J J z l V Z V z V K R / E P J P T J Z U J Z J P J Z K J z / / / / ( D / / / D / A Z Z D Q ( ( ( Q ",
"Z z z z Z K P P D P P P P D D Z k K J z k G n V z G l z T P P / / / / / D ~ / / P P P / W / / / D P P D ( P l J J k k n n J Z P J Z P D W / / / ~ P D / T n n J J T D D ~ ~ / / P P / ~ Z J T K n G J Z z J K z J / P P / / / P / ` / R / T T / / P P P T K S T / ( U k V I z z U U z J L k J R S D T T / ~ P ~ ( P J J J z P ` / P P Z P R D ( / z Z U V z z J z V P J z T D A P A P D D S Z Z D D P P V z V Z Z Z P Z Z D P h g V g l l z z k J Z g P P Z P Z Z P P ~ ` J k n I J J / / D ~ ~ ~ ~ / / / Z J T J V G G V z K J V / ` ` ( P ~ ~ / ~ ( / / ( ' ~ / / ( ( ~ P ( _ / / _ J L E L I I Y I I T T J / _ ` _ ( _ ' / / _ ` T L L L T _ _ ( ( ( / ` _ ( ` J U ` P J U L J K U U K / ` _ ` ) / / ' ` / ` / / T / / / ( / / ( / / / / R K J / E K I I L V K T Z Z / ( ( ( ) ( / ( ( R V n z z Z / D F / R P T P P k 0 d n d l y l l k J U J z T ` / / / ~ ( ( / ( / ( ( ( ( ( / / P / P P / ( ( ` J Z J V n n J k j L n n ^ P P P / ( _ ( ' [ ` U U T T / ( ( ~ / / / / ~ ` P z Z J l y l z J l n G k J P J K J z J P ~ P P Z Z P P Z J T T S J R / ~ ` T J P P P U I J J P P Z P ( W / ( _ ( W Q ( ( P J J L E / / ( ~ P / P / ) K V J J V G I I z G L l Z ` Z V Z P / A P R J g l Z Z Z Z z V T R P T Z J / J z U K z z G z J J z V D W ( Q W / ( ~ D D D Z P Z Z / ( W ( Q ",
"z z V J z Z P / D P / / D D R D z P K z z G G J z G l z T D P / / P P / / / P / / P P / / / / ~ P R P P / P z J I z k z n G Z T Z Z P P D D P ~ D P / P J G n I J J P / P D / / / P / / Z U / J G G G J x J K Z J T P / ( / ( ~ R R T / / / / P P P P / / P P U R P U z J I z n I J z J I z J P Z Z Z P / P / / R J n L I n J T ` ( / P P / ( ( ( Z U P V V G G G V P K Z / ~ P / / / D D Z K Z D P P Z Z Z Z k Z Z / D D D P z z V l d l j V z Z Z z Z P P P P P Z T T I n n G I J J J ~ / ( / ( / / / / Z J T J V J J J V L U Z R ` / / / / R ( ( / / ( _ ` T / / ` / / / ( ( ( ( ' K U E U I U I I I P E K T ( / ( _ _ _ ` ' _ E L U P U U ` _ ( ( ( ( ( ) [ ) P T ` K K P P L P U P K ` _ _ ' ` ( ( _ ' ` _ ( / P P D P / / ( _ ( ( / / ( U J / T L J I I J J E K Z ( ( Q ) ) ( ( [ / K G G G V J P R / D / S D P / T J J T N n d j d z J T J Z ` _ ( ( ( / ( ( / / ( ( / ( ( ( / / ( ( / R / ( / T z J P n n G b n v G n G / / P / / ) ( ( _ ' T T T / T T / ( ( ( / _ ( ~ / P z J z j j l z G z J V l J P P T P Z Z J P K P Z D T P J J J J Z U / / / ( U J T P K I J J K ~ P Z / _ / Q ~ / W / ( ( P T T T U T ( ( ( ~ R ( P / ) D V J J V G I I J J L z Z P P Z Z P / P / T Z l z V D D D Z V Z ~ / / D P / D Z T P z z G z Z K Z h P W ( / / / / W ( P Z Z K Z Z D ( ( ( / ",
"k z z Z Z V z P / / D D D D R P z U K z z G G G n G l z P P D T P D D / / ~ P ~ ~ P D P / / D P ~ / P D ~ T z J I z j n n k z P V Z / / A D D D P ~ P J n J J G J G V K / / D ~ / P P ` J Z U J n J J n z J K x Z / P P / ( / / P T / P P / / P S P / T T T U J Z V Z z J J n k n J z z J z Z ~ P Z Z P D D / P Z n I J I I z V / ' / P ~ P ( / ~ Z J U z G I n G J J K J / / D P / / P Z Z P S Z D D Z P T D Z S Z A ~ D D P k z z r d l d z z z Z h Z P P P P P P P I n n I n G J J z J ~ / / ( / P P P Z J U V z J n J G J U Z T / P ( / P P / ` ( ( / ( / P / / / / P ~ / / ( ( ( J U ` L I U J I I L E J T ( P / _ _ ' _ ' T U U L L P P U / [ ( ( ( ( / [ ` J T / Z K E P K K T T J ` _ ( _ ` / / / ` ) / / ( ( / P P / ( ( ( _ ( / / ( T J P U n G I G J Z T P A ( Q Q ( Q ( [ ) J G J J n J z J R / / R P P D D / J N / U J J I k G z J U Z / ` ' ` ~ / / / / ( D P / / P P / ( ( ) ` ` ~ P D / z z U k j G v n v v v l / / D / / / ( _ / T T / ^ / E U K ~ ` ( / / / P P R z Z z 0 j J z z V J z l z T P P P J Z Z Z P J Z P U Z z z J Z P ~ T T / / Z n L U J J I L Z P ~ Z ~ _ ( Q / / / ( / P P U T T J P / ( / / P / / / / Z Z P V l G I n I z G z x ~ A Z P Z P P R Z V k V h Z D D D Z Z P / ~ P D P D Z T Z k z G k z J Z h D D D D W D W ~ / Z z z z z z k Z / / ~ ",
"k z z V Z z z Z W / D Z D / / K V P S z G I G G V I G V / / P R P D D / / ( ~ / P / P / P P D P / / P D R T Z K J k l n n z V P V Z / / D ~ D P / T J N N J J G I I z z P / / / / / / / J Z U J G J J G z J U Z P ( ~ / ( ( ( P P / / / ( / / T T ` ( / / P T P Z V J z J J n z z n n n I z J ( / D P D R P P Z G J I J L I J G Z P _ ( / P P ~ / Z J J V J I G G G P P Z ` ( / P P P D D K P S S P D Z D D R D D Z Z Z P / P k k z d d l g z k Z Z k K T D P P P / R G n G I G J J J G G Z / ( P D A D / Z J U V V J G J V K U Z R / / ( ` ` P P P / / ( / ( / / ( ( ( ( / / ) ( _ ( J U / U I U I I I T T J / ' ( ' _ _ _ _ T U U U U U T T T T ( [ ( ( ( ( [ ` K T ` J U T P P L E E L / ( ( _ ` ` ` / ` / ( ( ( _ ' ( ( / ( ( ( ( ( ( ( ( / J P L G J I G J J T P D ( Q Q Q ( [ ) P J I G J J J J L J P K T R / P R / J Z / Z z G J J J z I J J U U P U J K P / ~ D Z Z Z Z Z J T _ / / / ` T D / ) J Z J k v G n n l v v l T / / ( ( _ _ ' / T T / / / ` T J P P _ ( P S P / R Z J n d l J V V V J z z J P P P P Z Z Z Z K J Z V Z V z J J Z P / ( / ~ ( J G U U J J I K P / / A / _ ( ( ( _ } ( P P P R P T / R P / ( ( P / P ( ( D Z R K n G I I J G J z Z ` / P P Z S Z Z z V Z Z z C D ~ D P Z S K P D P / T Z T J k G J z V Z Z h D W D D D D ( ~ Z V Z z z J n k z Z T T ",
"k k z Z k Z z z A / D D D D / P z P Z z G G I G z L G V / D / P D P P P / / / / P D / / D D P / P P R P P U J K J k l n G z z K V Z P P D A P / ~ J J J J J n J J J G z z P / / ~ D / ~ z J T z n G J J z J J x K / / ` ` / / / / P / ( ( ( ~ / ( T / / D P T T P P U z z I k k n l n G I k J / D P P P R J z n J G n G J n I G z Z T / / P D / / Z P J z I I I G G P K V / / / D D P Z P Z D D P A D Z Z D D Z A D A V Z P Z l h k g d g z g d Z Z Z P P D A P ` T J n n n n J I n J G n z J T ~ D P D P J Z P J G J J G z J K Z P ` ( / _ ' P P P / ~ ~ / / / P / ( / / ~ / _ _ ( / J U / L I I Y I G T T Z / _ ( / ( [ ` T U T T L I P T T E T P / _ ( ( ( ) ` J T E J U U P T U P T K P / ( ` _ ( / / / / / / ( / ( ( ( / / ( ( / / / ( ( P Z P J J G G I z J T Z D ( Q D Q ( ( P J J J n n I J J L G V J T / / P P / P k P U z n J J G z J J J ` E U T I J G J P P P P J Z Z P P P P P D T P ~ D R T x J n j v b j y n v j U / / ( _ [ ` / ~ / T T T / P T U Z P P / / D Z / P Z P n d j n G z V J z Z T Z D D Z J Z Z J Z J z l k n J J N J Z P / / P / P J L J J J J I P / P Z / _ Q ( } } ( / P T T P K P T P Z Z / / / ~ D / _ P Z P T G b G I n z L l l P / P K P Z Z K k k Z Z z V z D D D D Z Z P P ` ~ Z Z K z z z G z k V Z h A D W A P / / Z Z Z K z Z k n z k z J I ",
"z z z z Z Z Z Z Z P / / D D / D z K Z z G G I G Z T V Z / D R / P / P P P / ( / D / ( / D D / ( / / P D / T V K J z z k G z z U Z Z / Q D P ~ P J J n G J G n I J I J G k V P / / ~ ( / J P / J G G J J V J K Z P / P P / R / / / T / / T P / ( / / P P P / / T ~ ( / z G I n n n n n J U z z T D D / T K z k J I J n G J J I J J G J P / / D / ` J ~ T G I I I G J T P Z P / ~ D / / P R D D P D P P Z D P Z V Z P P Z Z D Z d z Z k l k z k g P P Z T P D P T R J z n J n n n J J J n n n G J T / ( P / Z Z T Z J I J J z K U Z / ` ( ( _ _ ( / / _ ( / / ` / P / ' ( ( ( _ ] ' ( ( J T ' U I I Y I J / / P ( _ ( [ [ _ R U T E T U L L T T T T U P / _ ( ( [ ` K P E J U U P T U T T K / ` ( _ _ _ ( / / ( ( ( ( ( ( ( / / ( ( ( ( / ( ( ( P Z / T J I J I G J / Z D ( Q ( ( / P K L J I n n G I I L G n G / / ` ( ( / T z T J z J I n J G U J I ' ' ' ' E T J I I P T ` ~ T T / T P / ( / ( P P D / ~ T R J l b n j y n n j U ` ( [ [ ` T T T / E T T T E P J U K K P ~ P D P P z G l j l b n z J K z K / D D D Z P J J Z J J k j n J J J J J Z P P P / ( P I P P K L J J P / P Z / ( ( _ [ _ / R / / / R P K J K P P D / / / ~ ( _ P V T E G G G G G l G z l Z P Z Z P A P P V V z J K Z C Z Z D P A P / ( _ ( J z P Z z G G z z J J z D D D Q ( ( Z Z J J J Z J z G G G J L I ",
"V V k z x x J Z Z Z D ~ P D P Z k P P z n G G z D / V Z / D P / D P P D D ~ / / P P / / D / T R / P D P T U z J U z l n n l Z P z Z / D D ~ P J N J n n n J n n I I V G n G J P / ~ / / J J ` P z G J z V P T z J / P P P / / P R P T P P T / R / / T P ~ / ~ P P / J z J J z n G n n I I l k P P P T K n z J J J J I n J I I J I n z n T ~ / / / J P ` J G I G G P ` J Z / / D P P / / P D D A P D D Z P Z Z x D Z Z Z Z D Z d z J l j k k l z K J k U P D R I G z J n G n n n n J n z G n G z J / / / / Z Z / J V J J V z / P Z / / ( _ ( ( / ( ' ( ' ' / ( ` P P / / / ( _ ( ~ ( ` J P ' T G I Y J P _ ^ J / _ ( [ ' P U T T U T P U L P T U U L U P T ) ( ( ( J U ` K I U T L P ` / Z / _ ) ( _ ( ( ( ( ( ( / ( ( / / / / / ( ( / ( / ( ( P J / / J G I G V T / Z D ( ( ( ( P K U U J G G z n I I I G J J U / ` ( ( P P z ~ P Z z J J z J / U J / ` ` / ' ] T U I U U P T / P / P ~ / ( / / U Z Z T Z Z J G n n c j y n G j I ` _ ] / T T / ^ T T T T E T T U P P J Z J / D P Z l G j y j n l z K T Z Z T P Z D D Z P Z Z Z z z z G Z x J J Z Z Z P P D / P Z / P Z J I J Z ~ ~ Z P ( ( _ ( T / / / T T R P K P P / / W D D / / ( / J V K U n b I G l V J g z Z Z A P J P Z P P h k P P S Z Z D ( ~ / P ~ ( ~ / J z ~ K k n G l z P A h D Z D ( / D Z J J Z Z J z G z z J n J I ",
"J J Z Z Z K Z Z Z Z Z J ~ / ~ P z T T Z V G G V / ` Z Z / D Q ( / ~ ~ P P / P P P / / / / / R P P P P P ~ P z K T V l G n l P / z J / ( P J z n J J n n v n n J G G G z G I G J T / ~ / J J ' P z I J z Z ( / Z T _ ( ~ / ` / ~ / / T P P T / / / / ~ / ~ / ( ~ P P J k K P z n J n G P L l k T / P I n n J J J J J J J P U L G G n J n J U ' ( ` Z / ) J G I G J ` ] P J / P / / P R P D ~ D D P D P D Z Z Z A P Z Z Z Z P P k Z P V g k z l Z T V g J R P J G n n J G n I n k G J G n k n J n J J P P P Z D / P V I I z Z [ / Z R [ ` ` ( / / ( _ _ / / / _ _ / P P / ( ( / / P ( ` K T ] / J U Y I / [ / J ( [ ` / U U U T T U T T U U T U U L U P U L R ( _ ` J T ] T U T T J / [ ` D _ [ _ ( ( ( ( ( ( ( ( ( ( ( / ( ( / / ( ( ( ( / ( ( P J ` ' P G I G V ( ` Z D _ _ / P K P U P L I G G J I I I G L J U U ' ~ P / ^ Z / ` P n n J J P ] T J ` ` ` / / ` / / R / U z z P ( ( / / P K Z Z Z P P J k g V V l n b l v I I l P _ ( ~ T T ~ ` / / T / T ` / / T P P P Z Z J P / Z l J V y l G l z / ` Z Z ~ P D R P Z Z Z Z J z J J P Z J P K Z Z D P P D / P J ` / Z J L J Z ( ( A / [ ( / R R / / / / / T P P / / ~ ( / D D / P D P K V P U G b I G z P P k J Z Z D ~ ~ / W / ~ Z S ~ D S A D / ( / / ~ / ~ ~ ( P J ' ~ V G J k C ( P h D D D D P Z K Z K J J J J z z G J J J J ",
"J J J J Z J x z Z Z Z Z J Z / U z P / T z n z P / / V Z ~ / P / / / D / ~ P P / D R P / / / / / P P P A P P z Z T L l k k Z / ~ z Z P R J z k G n n n n v n G J n G G J J J I J L U P / N Z / ~ J G J z D ( / K ~ ( / / / / ( ( / P ~ / / P ~ / ~ / / P P / / P P ~ J k U T J n n n Z / P j J / P J n n n J J G J J J U L G z z G n J n n J / ` / z P ` P G H G T ` ` K Z / / ~ ( P A D P D P D D P P Z Z Z P A D D Z Z P P J k x P P z g k z P / Z j J P Z G n J n z G J G G k n n J n I J n J J J Z Z / Z Z / / Z J J J / _ ~ Z / ) ` / / ( / / ` ( P T / / ' _ ~ P / ( ( / ~ ( ( / J U ' ] L I I T ( _ T J ' _ P J U T P U U T T U T U U T U P T U P L J T ) / I U ] ' P L L U _ O.( D ` _ ( _ ( ( ( ( ( ( ( ( ( / ( / / / / / ( ( ( ( ( / P J / ` ` J G G P _ / Z P ( / P J U T J K L L J T I L J I I J L L J J K T / ` n P ' / Z I n Z / ' P J / T / _ / / ~ ( / / / J J T R / / / R T V z k z P J z I / P j a c y I E J k T / ~ P U / ~ / / / / T / / T U J P J Z J V k Z D K z V J j j z z D / ~ Z Z P P D J U A Z A Z Z G l G U K P P Z Z P P P P D D J J / / K Z J J D ( / A / ( / P R / T T / / / T T / T P P D D P D P P S / ` K K / J l n n J T J k z T Z Z P / ~ / ~ P P Z P P Z Z / / ~ ~ ( / P P P ~ / J ( ( D z J z ~ / D x W D D Z Z J P Z J J J Z J z k n n I J G ",
"J J J J z z z J Z J J J V Z P T z P ( / S z J ( Q / V K / ( / / / / / / ~ P P R / / / / / / ( ( / ( / P P P z Z / / Z k z P ' T z z K Z z n n I n n G n n G J I J J J J J I L I I J K ` I Z ( ( P J z Z ( ( ~ J / ( W ( ( ( ( / ~ / ( ( / ~ / / ~ / / ~ / P P P ~ ( P z P / P z n G P ( T z J ( P z n G G G J J J J I J V k n n I J G G J J K T / Z U ` ( U I L _ ( / Z J / / / / P D P R P P D P P Z z Z P ~ D P D P D ~ ~ P z Z ~ / Z z l Z ~ / Z n U P Z J J I z n n I J n J J n J J I J I J I J V Z ` Z Z / ( P K n P ( _ P Z ` ( R / / ` / ` ( / P ~ / ( ( ( ( ' / ( ( ( ( ( ( / J K _ [ / L L ` ( ( T J _ ` P U U T T U P / E P P U U U U R R T T T L K / ` K U _ _ / K L / O.} / P ` ( ( ( ( ( ( ( ( ( ( / ( ( ( / / ( Q / ( ( ( ~ / ( P J / _ ] T I J ( } / J T ( P J L P P U U K U U P P L I I J I U L J J J R / ' J T _ ) P J z D ( _ P U / / / ` ` ` / / / / ( / R / K P T / ( ` P P z J T K Z K ( ) J j y n T ) J z ` ` P P T / / / ` / / / ` E K J J P P J Z z k k Z K V J P V l l V / / / Z V P R Z V z z P P Z K Z l z n P P J J Z A D P S A / P G / ( / P Z P ( { / Z ` ( P P / / / / T R T T / / / T P P P / P P J D _ ) D P ) / J n z / ( J g V R P D T P Z P ~ / R Z K Z S P / / / / ' ` / P T ` T P ( _ / Z Z D ( Q D z ( W P K P Z P J J V J J K V n z G n z I ",
"Z J J J z z x L Z J J I n z P U z Z P / D P P ~ Q / z P / / / P P / ~ / / ~ D P / ( / D P / P ~ / ~ / / P K z Z / / P J K ~ / P l J J V k n J G n n n J J n G I I J Z V J L I I J G J / I z / ( ~ P J P / / D Z P ( Q ~ / / ~ / / P / / P ~ ~ T / P P / P P T K ~ / U z Z / ~ P Z Z ( ~ P k Z ` K z n n G n n J G G J z l z J G J J J n n I x P / z J _ ( / / / ( / / Z J R P / ( ~ / P P P D D D D D Z P P D D D A P P D / P k Z P P ~ K z D / P J k T P z J z G G z n n n J n J J n n n J J J I J z Z / Z Z / ( ( ` P / ( ( P Z / ` P / R / / ( / P ~ ` / ( / / / / / / ~ ( / / ( ( V J ` ( ( / / ( ( ( P Z ' / K U T U U T E T E P L U U U T P T / / U L J T / I J ` ( ( P P _ [ [ T Z / _ / / ( / ( _ ( / / / / / / ( / / ( / ( / P P ( / U V R ( _ _ ^ T _ _ ~ Z P ( ( P U K P P P J K U P U T J J J J I L I I J P / ^ n P ` / T T P ( ( ( J J ` ( ~ / ' ' / ~ / _ P ` / P P Z Z / ~ P ` ~ P P P R J x P / / J j I / / Z z ` ` P T T T / / / / / / / / L P U J Z J z z k l V Z l k P J k z K P / P V V U P K P z j J P P J J J l z Z J Z J K Z Z P K Z / P G P ( ( / D / ( _ D z ` ( / / T T R / T P P T T T / R P P P P P K J P / / Z Z ~ ~ T J Z / P z j V J Z P P Z Z Z T P Z Z Z Z P ~ ~ ~ ( / / / / K P / I P ( ( / A K ~ Q Q A z / D Z P P Z J J J z V J J J J n z n J G ",
"J K J J z J J Z Z J I J G Z P T z Z D Q W / P D W / V T / P D Z D / / / ~ P D P ( _ / / D P P P / / P D P P z J T / / ^ / ~ / K z L T J z n G J J G G n n J J J J J J J J J I J J J Z / U Z / ( / / / / Q Q P z P ( / P / / ~ / ( / / P Z T ` / / P P K ~ / P P P / / z J ~ / / ~ ~ / / P z Z / K J J J G z G z J J J G z J I G J J J G n J J P ] Z J ( ( ( _ ( / R / J J / R / ( ( ( / P / P D D P P D P D P P P Z T ~ D D T z J P D P T P / W / J z / R Z J J G G G k n n J G J J n n G G I J G J J D _ Z Z / / ( _ ' / / ( P Z ` / ( ) R / / / / / / ` ( ( / ( / / / P P / ( / ( ` Z K ( ) ( ( ' / ( [ J J _ ( P T T I L T T T P P U P P T R T T R R T L K R ` U P ( ( ( ( ` _ ( _ T Z ` _ ( ' _ / / ( ( / ( ( / / ( ( ( ( ( ( / R P / ( / P V / / ( _ [ ( _ ( / Z P [ ( T P L P T P U U K T U T K I L U J P T U I P ( ' n U / ( ( _ ( _ ( _ Z P _ ( _ _ _ ( / / / ( ( ( / ) T J J T / / / ( ` / / / K J P / ( / J P ( / Z V ' _ / / T T T / / ' ` ` / E P T U P K J Z J z z Z J j d Z A Z P P P ~ P z J T P P R J z k J P P Z J J J G Z P P P J K P P P / P J P ( ( ( / / ( ( Z Z _ ( / / T R R T T U T / / / / T T ~ P P P P J D ( / Z Z D P / / P P Z Z k J J V z K P P Z P P S Z P P / / ( / ( / ` ` ^ P T / P Z ' / ( ( ( W W D D z / D Z P P J J J z V I x J J U J J J J G ",
"J J J Z z J Z Z Z J J J n Z T U k P D D W D P D W T z P ~ R P P P P P / P D D / / / ( / D D P ~ P P P P P U k J P P P ^ ' ~ ~ U k J / Z k n n n J J n J J J J n n J J Z Z J G J I z Z / J Z / / D P / D D Q P k J / P D P / P D / ( / P T T ~ / T K J U T ~ / T P / T z Z ~ D D / P D / K l Z / K z J I z G z z J J J z J z J G J J G G G n J P / J J / ( ( ( / / / ` J J / R P P / / / / / D D P Z D D P A D P Z Z K / P D T n V P D D / P D / P Z l U / D J J J z G n G n z G n N J n n J n n J n z D _ Z Z / / / / / / R ( P Z / ) ( ` ( / P / / / / / ( ( ( ~ / ' / / / P / ( / / Z J ` ( / ( ( / ( ( J J ' ` T U U U L L T T U U P U T T P T T P P P L J / ` J U / ( _ ( ( / ( _ P J ' / ( ' ' / D / / P ( _ P P ( W / ( / / / P / / / ` K z T / / / _ ' ( ( T Z ~ _ P U U P P K P U I L P P J J I U J P U L U J P ( ' k J ' ( / ` / R ( ( x Z ' ( _ _ / / / ( / ~ / ( ~ ` / / P K P / / T P P Z T K Z Z R P / P D / / V V ` ` / / T / T T ` / / ` ~ ^ P U P P Z Z Z J G l Z P d 0 z A A A P D D P G z U T Z Z P J l z P K Z z K T J Z Z P J Z Z P ~ P P P z P / ~ ( ( / ( / Z J _ ( D / / P T T U P U T / ~ T T P T P K K K Z Z ( / Z z P D D / D Z Z K g N / Z g Z P P P A Z P Z P ( ( / ( / / / / T ^ J U / U k P / ( / ( D A D P k W D Z J J P J Z J z J J J J J J J J J J ",
"J J Z Z Z Z Z K J G n I J Z / T k P D W D D D D / T z K / / / / P P P / P / / ( / / / / / / P / P P P T P P z Z ~ / D P ~ ~ / T z J P S z k n G G J I I J J G n n I J J J J J I J G J / J V / ( P P P D D / P z J T P P P ( / D R / P / / T / P T T U T T P / / / / T z J / D D P P / / Z z Z ` P z G n n z G J J G J J J J J J J J J G J J J P / z K ( ( / ( / / / _ P J / R P / P / / ( P P P P Z D D P D P P D Z K T / / T G G T P D R P / D P J z J / Z J V J J z J I G I n J G J G G G G n J J G P ) Z Z / ( R / / / / _ P Z / [ _ _ _ / / ( / ( ( / ( ` ( / / ( ` ( / T / ( ( ` J K ) ( ( ( ( ( ( _ K K _ _ T U P P P P T T U P T P T T P T P K P U U P ` ] P P ( ( ( ( ( ( ( _ T K ' ` ( ' ' / / / ( P / ( D ~ _ W / / ( ( ( ( _ / ( ` U V T / ( / ' _ ( ( T J / ( D J U T P U T U T U T L J J I J L L I L U L T ( ' n U [ [ ( ( P P ( _ Z J ` [ ` ` / / ( _ / / / ( ` ( / ( / R R R P Z Z P P P K V P / P / P P ( / J Z ` ) R / ` / / ` / / T T / / T P P P Z J Z Z Z k Z U k j Z D Z Z P D P T G J T T P K Z P J G J Z Z P ~ ~ P Z Z P P P P P R D ~ P z T ( F / ( ( ( ( J J _ ( F P T R / ` / T T / / / / / T P P P P J Z P ( / Z Z P P D P Z Z P P z J ` P V Z P K Z Z J / T T ~ / / ~ P P ( ` T / T _ ] L l P ( ( W / D D D P k P W Z J L Z P P P Z J K J J J J J I J G ",
"Z Z V J Z V Z J Z z z I J V / T k Z / Q D D Z D / P z P P P P P P / P P P P T / / ( P R R R T P P P T D ~ U z J T ~ D P K T ` K z K P Z z n n G z z n G I J z n G n J I J J G n J J Z T J z / / D D Z P P P P k J / D P / ~ / P D P ~ P / / P / P P / P P P P T / T J k J ~ D D P P D / K k J ' P z n G z z I J G z Z K Z Z J J J J z k n J z P R g Z ( / / / P / ( ( U J T P / / P R P / P Z K P P S Z P D P P P Z J J P R P z J T D / P D Q D P P g K D V z J Z Z J Z J J J J J J n J J n J G z J z Z / z J / P R / T P / ` U Z R / ( ( / / / T ( ' / ( ( / / / / / ( ( / / / / ( ` Z P _ ) Q ( ( / ( _ J J _ _ P P U T E T L I U U P T T P T K P P P J J P ' ] K J ( ( ( ( / / ( ( T J ' _ ( ( ~ / ( ~ / / P P / / / ( D P / ~ / ( / _ ` / J V / / ~ / ' / / _ T Z P _ D Z L P T U P U T U J J J U I J J J L J I L P _ ] J / _ ) ( ( P / / ( J z ^ / / T / _ / ( ( ( / / ( / P / / P T T P / T P P P V J / R / P Z / / ( J z ' _ P T / / / ' / P P / T T P D Z Z J z z z k z Z J g z Z x z Z Z Z P P n n T U z P P T L z z J Z Z ~ P z Z P A K P P P D D P Z z P ( D D ( ( Q ( P Z / ( D P P P T / / P U R R / / ~ P P ~ ~ A P Z A / ~ x Z P D P D Z Z Z U z Z T P Z z Z K z Z P / T Z T / ~ P P / ~ / / ^ / ' ] T g T / D / / P / D J k A ~ P N J z z J J P P Z J Z J J J J k n ",
"J J Z J Z J J J Z Z z J J Z / T z J P D D D D P / P n T P P D P P / P P S S K T / / R R P P P P / ( P D P U V P ~ P P T K T / T z K / Z V J J J G k j l n G z G G J J J J z z G I Z K / J Z / / P P P / / / T k I / P / / / / P P P / P / / / R / / / ~ T T U J U J J z J P / ~ P P / / T z T ' P z G G z G J J J z V n J J J z G z z z n n V P P z K / ( ( / / / ( _ K J T / / ( ( / P R P Z P / P P P P D P D P S P J K P U z I / P R Z D / D / P k T Z z z J J z Z Z I J J J x Z I J J J G z J n J Z / Z J / / / / ~ / ( _ P J / / / R / ` / R / ( ( ' ( ( / ( ( ( ` / / ( ( ( _ ` Z J _ ( / ( ( / ( ' U P ' ) P T T T P L J I L P P U T T P P U U P K K P _ [ U P ( ( ( ( ( ( [ [ T J ' / / / / / ( / / ( / / ( / ( ( P / / P / / ` / / ` U J / ( ( ( ' ( ( _ ~ Z P _ P J L L T P U U I L J J T U T J I L U L U L P _ ' U ] ' ( ( ( ( [ ( _ J J T P P / ] _ ( ` ( ` P R P / / R / ` T T / _ / ( T T V U ` _ ( P Z / / _ P V ` ] T T ^ ` T / T P U ~ ~ T P P Z J Z z k l z Z Z J z J K z x A Z J P ~ J J U J z G J J n k n L Z U P Z Z P P J V V K P ~ ~ / A Z / ( D W ( ( Q ( / Z ( ( D P T T U T U P E E T R T P ~ ~ K Z Z K J Z ~ / Z Z Z D D D D D Z J z J T T Z Z Z Z Z P ~ ` U J T ] / ( ~ / ~ ` :.' I P / / J ` / / ( ( ( ( / T k D _ ~ J G z V G U P J J J J P J J n n n ",
"J J J z J K K Z z J z z J Z ~ P k Z Z ~ D A D ~ P J n J U S Z P P P / T P P T P P T P T P P P / / / P Z P P z Z ~ / D P P ~ P J k z ~ S z J J J J n k l l k n z V J J z z z G n G J P / J z ~ ( P P P ~ ( / P z J / / ~ / / P P P P T / / ~ / ~ P ~ ~ / ~ P U P J J J k J ~ D D P P / ~ J z P _ T k J n J z z J J z z z J J n z z n J z k n V P / Z P / / ( / ( ( ( / J J / / / / ( / R ( / P P / P R D D P P Z P / / P Z J U z z T ~ D P Z R P K P l P K k J z G V z J Z I J z J J J J V n G J G n z Z / Z Z ~ ( ~ T T / ( ` J V ` _ / / / T / / P P ` ` ( ' ( / / ` / ( / / ` ' ( / z Z T ( ( ( / ( ( T J K ' ( P P T T U J J U U K U P T T P U L J K U I P _ [ P P P / ( ~ ( ( ( _ U J / ` / / ( / / / / / / / / / / ~ ( ~ ( ( P P P / / ` U Z T / ( ( / ( _ / P Z P ( ~ J J J U U K L U J J J K P U U P J J L I I P / ` J T _ ) / ( ( ( ( ( J J ^ T T ] ` _ ` ( R / ` / P T R T R / ~ P P P ` ( P U z J [ [ P P K T / / J z / ] / / T T / ~ T T T P P / P P J Z Z z g j J x P P g z Z A x x J A P P n z K T J z J J z z n z P P Z z Z J K J z z K / P D / A Z ) ( D / ( / ( _ / Z / / D U P T P P U T U T ~ T P T U P Z z Z J x Z D ~ z k Z D A D A D S z j J / D P P Z P ~ / P ~ I z U ` ' ~ ~ ~ ~ ' :.T Z Z T ^ Z T ( Q ~ / / ( / K z D _ A J z z J n n J J J K J J J z k n n ",
"Z U Z Z z J J Z Z J J z J Z T J z J V D ~ / ~ / Z J n J J P P P P / / / P / / / P ~ / / P / / ( ~ P D Z P T z V P / P ~ / ( P V j z / P V J J G G G G G l l z z J J G z z J J n J J P ` J z T T P / ( / / J J G J / / / / P P / / P P / / ~ / / P P T / / T U U P U L k J ~ P P / P / P Z k K _ T z n J J z G J I J V J U J G G G G J J J J Z P ` J T / D ( _ ( _ / T J I ` ` ( ( / R R ( / / / / D / D R P S D P / / ~ P P P V J P Z P / P / P Z J z P P Z J G G z V V J K Z Z K J J G V z L J J L J Z / P Z P R / / / ( / T J Z / ` ( _ ( / / / P / ` _ / / P P P P / ( / ( ` / ( / J z P ( ( ( ( ( / P J P _ _ P P T T U L U T P U P P ~ R U K J J I U U P _ ] P Z P / ( ( ( ( _ / P U ` ` ( ' ( / / ( ( / / / ( / / ( ( ( _ ` P P / ( ( ` U J / / ( _ _ ( [ / J J T _ / I U J J J P U U J L J J U L U U K P U T I P ( ` z L ` ( ( [ ( ( ( / J J ] ( ( ' ` ` / ~ / / ` ( R / / T / ` R P Z P P ~ / / V J ' / P / / / / P V z :.7.` / / / / T R ` T P P ~ P A J K J J V V Z Z K J g l Z P Z K P P Z J n n J T P U J J J J Z J P P Z Z J Z P P J Z P / ~ ~ ( P J P / / ( ( ( Q / P D / ( D P U T P P / / T / / ~ P P K J x z J J x Z P P x z z S P / D P Z z j J / ~ P P P / ~ / / / I J L / ~ P T ` ' [ ' T J K / ` J P / ( ( _ ( / Z K Z P ( Z V J Z J z J G J J L J J J J n I n ",
"J Z J z z z Z J Z J J J N z P J d U Z V D / ~ Z Z K k J P P D P P / ~ P P ~ P / ~ / P P / / ~ D D / P P ~ K k z z J / ' / T Z J j k ~ S z n n n n n n n n z l z G G z z J G n J J Z P T z z U Z Z P / / V V U z J / P ~ P / / P / P P P R / / T P P T P ~ T K J P U J z J P S P ~ T A P K g Z ' T k n J G G Z J J J J J K J n n J n z z J I Z D / z P P Z ( [ ) P P ` J J ` ` / P P P P P / / D P / D D / Z Z Z / D P P ~ P K k Z J h Z / / P z Z J g ~ / Z z J J z V z J V J V J J J z G J J J U J Z Z / Z P P Z K / / / S T P Z / ) ( ( ( / / ` / / ` ( / P T / ~ / / / / / / P / / Z J T P P ( _ / D U J Z ' _ P P P U U U U U P T P P T U J K J J P J U P ` ` Z J P Z P ( _ ` P P U J ` / ( ( ` ( / / / P P / / / / / / ( ( ~ T T / ~ ( ` P Z / D D ' _ _ / Z P Z P [ P J U J G n I Y U K J J L J L J J U U U L J P / ^ z J U P ) ( ( ) D ~ J J ` / ` / / / T / / / T / R P / / / / D P ~ / P ~ ~ P z Z T Z Z / ' / Z P z J ,.3./ T / / / / T / T P P P A P J V Z P Z k J z z J g z k x K T T V k J z k J J J J z z Z J Z P K J Z x Z P P P Z A P P ( / / P V V Z ~ ( ( / D D P Z ~ ( D U U P P T P P / / ~ P P P P Z J K Z J J Z A Z z Z z k P ~ / K k l j J P P Z Z P / ~ / / T I E J J T / P / ] ' T T U / / P Z P Z / _ _ R Z Z ~ x A ( Z z J V z J Z z J J J J J J J J n J ",
"P P Z V x J z J J J z J V z T P g P P V V R T z U T G J ~ / P T P / P P P / / R P P P / / / P D P / P P / P V J Z Z K / T Z K T V z / P k n G z z G G G G z l z z n z G J J G n G z Z T V z J J V S ( K z P / z J / P D P ( ( ~ / / P P / ` / P P T T P / / K J P P K z J ~ P J P J P T T l Z ` T z G J n J J J J J U J J z J G J G G n n G Z / / z K P Z T T K Z / _ K P / P Z S P R P R / / P P R P P D Z Z P / P / P P D L z Z U z z T P Z x T P z / ( S V G z n J z G J Z Z J J J z J J J J K J Z D ` Z D T Z V R / P Z ) T Z / _ ( ( / / ( _ ( ( _ / / / ` ` ( ( / / ' ` / P / ` Z J ` / J P P P / ` U Z ' _ P P T U P R T U T T P P P P K K U P U J J P ` ` Z P / D D ( [ R Z / T J ` _ ( ~ / / ( ( ( P P / / / ( / / / / P / ` ( / ` ( K K ` P Z P _ ( P P / Z P [ / J L J J V J G L K K U L J L J J J J I I K / ` ' J I U P P [ _ D D _ P Z / ` ( ` / R P / / ` / / R P / ) / R P T / ( / / ~ P V Z / Z V / T P Z ] T J [ 7.` T R / / / T T T R P S P P K P P J z l z z V J V Z J V z J J k z U V z U P J Z z V V Z K P J P J K P ~ P Z K P / ( ( P / P z J J P [ / P D / ( Z ~ _ P U P P T ~ T T P P P P P P A Z K P P P A A P D h P Z z Z P / J l n l J P P Z Z P / / ` K Z n L J P / ( ~ ` ~ T P ' / ( / / Z ~ K Z T / P Z T / Z D / Z Z J G J n J G J J J J x J U J J G ",
"P D Z P Z Z Z Z J Z z n z J ^ P k Z T P h Z V P P U n J T P P / P P P / P P P D D P P P / T D P P P ~ D / A V / / Z z J z J P T z z / K z n z G G n G G z z Z Z z k n n z n n n k z P ~ z k T / Z Z J Z P ~ P z Z / P D P P / / / P T P P / P P ~ P P T P P P J J P J k J / P Z z z U P T z z / T z J G J G J J I J J J J n n n G G G z z n Z T ^ k Z R ~ T V z T / / J J T P P R K P P / D P P P D S D P Z P P P D R P Z D U k V T K z V z P P P P k P / D Z G J z n J G z Z J P Z Z J J Z J V J Z Z Z / Z Z / / Z K K Z P ` P V R ` ( ( R P P R ( ( / ( / ` ` / ( ( ( ( ' ( P P / / V Z / ` J J Z T ' ' U J _ ) P T U P T P P P U P P P P J U P P P U U J P ` ` Z Z ~ ( D D T K ~ ^ I J / ` / P T ` ( / ` / ~ P ~ / / / P P P / ( / ' ( / T J Z ` / P Z P Z P / ' Z A _ P Z J I L J G G J J T / T J J J n J J J Y U P _ ` J J / / D R P P / ' P Z / / / P P ( P P T T / R P P U R P P P / P / / D D P z Z T Z Z P z J T 3.T z ] [ / T T / ~ R T T P P K P J K P P K z l n n z J I k z T J d z k V J J z z J K Z U Z k z J Z J J Z J T P P Z Z Z Z P / P D / D z P ( D P T J D ( / Z / [ P K U P P P P P J P ~ ~ D Z J K Z Z P P Z D ~ D h Z P Z h Z J z z I j z P Z Z P P P P T J J J I z U / ~ ` T P P P / T D ( P Z ' / Z K U Z ~ P U z Z ~ Z G k k z n J J J Z K J Z J I U J z ",
"J P D P J Z Z Z V z z J Z Z ` P z J P / K z J ( ~ P J J ^ / P R P P ~ / ~ / P D D T P P / P P / P P P D / P V R / T J n J E T U G Z ` P z k n J G G G G V Z / / Z k l k n z z n z V R / J V T / R P Z P / ~ P z J / P P P P P P D P / P T P A P / P P P P T P P P U I l J T Z K J J T T P z V ` R z J I J G J I J J J T T J J G J G z l n n Z P ` z J / ( ` K K / / T Z J ` / R / P P R / D / R / D Z Z P ~ / P / P / P S P / z J R P J G z E ~ P P z / ( D J J J G J G n z K / ~ Z J J J J J J J J Z S / Z Z R ( / P V P ( ( P V R ` ( ( ( / P P / ( ` _ ( ( ` ( / / ( _ ' / P / ( / J J ` ( T T T ` ` ` P K ] ] P U T E T T T P U Z ~ ) P S P P P U U U J P / ' Z Z T ( / P J / [ / L J ` / ~ / / / ` ` ( _ / / / / ( / P / ( / ( ` ` R P / J Z ` ( ( P J K ) / ` Z D [ P Z J I P L Y I I K ` _ / J J J I J L I L U / [ ' J I ` _ / P Z ) ( _ P Z ` / P / / / P R Z K P P P T J P Z P R / / / P A Z T J P ~ Z J J z U / 7.T V ,.[ / T T ` T T T T P P P / P P U P J z z G G n J T J z U T Z z J R J z k V J T P P L z V J J P Z Z Z J Z z z J Z K P P P / ( P V R ( / K J P / _ ( P ' O.D Z P P P P U P Z P ( ( P Z Z A Z J J Z Z K / P h z P K Z T T z J U l z L Z Z P T P T T P / / T J T ` / ` / T ` T T P P ( P Z ] ' / T P P / A U z Z / K J J n z J I G z J / / K z J I I J ",
"J z J J Z K Z Z V J n n J Z ' U z J Z P P K T / P P J J T ~ P P D / P P / / P P D P P / P ~ P P P P D D / Z z K P T P T T E K J z J / P z n G G J J G z K / / / ~ J g l n k z n n J P E J V J U T K D P P Z K z Z / P / P D D P P P P T P P P P P P Z S P P R P K P J j n J z U / / T J I z z ` T z J J G J I G J J T / ( / J z G n z n G n z P / z J / P / / T T Z U Z J / / P P P D P P / P P / P P D T / / P / P P K S T T z V P Z U U I R P Z U k P / Z Z I J J J n l J / ~ ~ ~ P V J K J V J J z Z R V V T R / T K ( / P P V P _ / ( _ _ / / P / ` / ( ( / / / / / ( / ~ / ~ / ` Z J E P ~ [ ] ' P P U Z ` ' K L T T T T T L K P ( ( / P K K P P K J U J / ' Z Z P P / P T _ ( / U Z ^ ` / ~ / T / ` ` / ( ~ ( / / / ( / P / / / / P / R J J ` ~ ~ / / T ` T P J D _ P J I G I P U J J ] _ ( ` T J z I I J I I J / ] / G I / ( / ~ P ( ` / P Z / / P / / / _ _ P Z Z P J J K K S ~ P P / / ~ / D P J x T z J ` T ' U ` L V :.[ T T R R R R P K P / ( _ / P J J V G G n n k I T G g g I P z Z U V V J V z J P J z z k z J Z Z Z Z V Z J J U P Z K / / P / R V Z ` _ P T / / ( ~ K ' } D Z P P P T P Z P ( ( _ ( D Z Z K Z z J J K T P z z z Z A ( ` Z k I z k L K Z J P ~ / / P ~ ` ~ P / T / ~ ` / / E U P / / / x ~ ` ~ / ` Z Z P J l P T Z P T J J J I G Z ^ ( ` ^ K V k I I ",
"z z Z U A P J Z J I n n J P ] L z L Z Z Z / / K Z T U J T / P P P / P P ( P P / P P P P ~ / ~ P ~ ~ P P ~ J z P K Z U ' T L V G G J / P z G G I G G G I R / / D / / J l l n G n z J E / J J J J P P / T V Z T Z Z / / P R P P T / P T P P T P A P P Z P T T / P P T J l J J k J ' T J V L V Z ' E G J I G G G z J R ( / / / U V z n G n G J Z R ` V U ` Z P _ ( P Z T P Z T / P S P / P / / / / / ( ( D P / / / P P K Z R / / V I L z P ` / R Z Z P z P / S J G L J z z J T / ~ ~ / ~ J V G J J L J V Z T Z Z R P Z / ( ( K Z P V R ] ` ` ` _ _ / / ` ` / R / / ` ( ( / ~ P ( ` / ( ` Z I / K P [ _ T J T P S ) ` K L U T T T U J T ' ( ( ( ( P P U U U U I J ` ] Z P P P / ` ] / P / / J / ] ( ` ` T / / / ( ( ( ( / / / ( / R P P R P / ( T J P ) Z P [ ] ` T Z P K D _ P J T I L I L L / ) ) ( ( ` T J J J L I I I R ` / J U / T ` _ ( / P K T P / _ ~ T / [ ' [ ` P U / P P P P / / P P / / / ( P P Z Z P h J ] / / J T P J :.[ / E R E T P K P ` _ ( / ( _ L G G L J G I J T T z j y n Z P T G l K J Z J J Z Z z z g k J Z Z P J z Z P P P P P P / / P ( / J J E ' _ _ _ P P T P ' O.P J T P P P P P ( _ ( _ { ( P K J J J J J P ~ P Z Z Z V Z ` P l z Y l l T P Z P ` / T T P P T / _ ` ~ ] ` R K J L T / ( _ ) D ` / Z _ _ P K J J z T / J J I L L J n J / / _ / ' / K z G G ",
"k Z Z Z K Z Z J J J J J z P ' J k P Z V k J K z k P L z P / P / P P / / P P D P P P S P P P P ~ P P / D ~ Z k P J z J U U V k J G z / P z G G G G z J E R D D P P T T J l z n n z z P T z J U J z V R K g J T z Z T P P D P / P P / P D P P P P P P R P P T T R T K J g J U l z U J k J U k Z ] P z G I G l z J / / / P R P T U V l G n z I Z P T z K ` z z / T V V / Z z P / P R P P P R P R D R D P D R D R / P Z P U D / / z G L z z P T J d Z K h P R Z Z G G n z Z R P P ~ / P ~ T K z V J G J V Z T Z z T S g K / P g K P z R ` ( _ / ( / ` ( / ` / P R ( / ` ( ~ P ~ ` / ( ( / x J / K V P / J Z / U Z ` ` J Y U U P U P / ] ( / ( ( ( ` R K K U U I Z ` ) Z P E Z Z P ` Z V T / Z / [ ( / ` ( ~ / ( ~ / ( / P / / P / R P / / ` ( P / J Z ` Z Z / / / Z Z E V D _ D Z Y L J G K ` _ / / / ( / ` T J z I J I J J ` ' J U ` V J ` / K k T P J / / ( ` P ( _ ` ~ ( ~ ~ / / P ~ P / / R P / ~ ~ / / z z J k z J / Z k ` P Z :.] / T T R P Z P _ ( ( / ( / ( T J z G I L J G P J d G n l r V J d y J Z l J J z J K J z z z Z Z Z K Z z V K J Z P P P / / ( P G J L U _ ` T Z P / Z ~ [ A J U P D D ~ ( ( / ( _ ( _ _ P Z Z J L z Z / P x Z P z g z V l j G l j J J P T / T Z P P R P ~ ` ` ` ` _ P J J J ` P ~ [ / A ) P k U R P z J U h D R V z J J J z K / _ / / ~ / ~ ^ U J n ",
"Z Z Z Z Z Z Z P J J U J J / ` Z z P P V d z z z N T U z P / / ' / / ~ ~ P / P P P P P P Z P ~ ~ P T T P / J z T P z d n J z J U G V R P V G G G G J T / / P Z D P P / U G z n n z z U P z J / U k l J z g K T x Z T P P P T / P / / P P T K D P P / / P P P T T T P J k J U k k J z z K L z Z ' J n n n n z J / ( / ~ P P P / / P G G k G G z P T z K R z k U Z k Z / J z P ~ / ` ~ / / / P P A P P D D P A R P P P / P P ( T z J T z g G J z k L L z P P Z G J n l J P P P P D P P ~ / T J Z z J Z z Z R J z P J d z J z z P U z P ) ( ( ( ( ` _ ` ` ` / T / / / ( ` ~ / ~ / ( ( ( / Z K ` P z J U J P / K Z ` ` L Y T T L U / [ _ / / ( ( ( [ ' T P U K I Z ` ' Z P ` P Z Z P z Z / ^ Z / [ ( ( ( / / ` ( / ` ' / P T ` ( / ` ' ` / ` / / T z Z E J z J T P Z U T Z S _ P J L J I J E ` ( / / ~ ( / ' ' U J J J L J P ` / K T ' z l / T Z J T J Z / / ( ( P ( ( ( / / / / / / ~ / ~ / P P K / ~ P / P z z P z d V J x Z ] U J ] ) P T T U P P ( [ ( ( W / W / ( P z G G J k k I J d z G l 0 z z 0 j G z k z V Z P J U U x z K J Z K Z z Z J J P ~ T T / ( ` T n I U I P U J J / ' Z / [ A K U K P / ( _ ( Q Q / ( { } [ / Z J L Z Z / P Z Z P k 0 d G l j G j d J J Z P J Z Z K T / T / P ` [ ' ` P J E J T P / _ / x / P z J P Z z U L k T P z J G k J K ' ( / ~ P P / P / / U I ",
"Z Z Z Z Z Z Z Z J J J K P / ` P Z J K Z z n z J J I U n K ~ / ` ` / P / / P P P P P P P Z P P P T T P P T J J L L n n n z G J J n J P K V G G G J T / P D P P K K P P T I n k n n z J U J J U U G z G z z J U J J U K P P U T P / P P P P P P D P T P T P P T T P U J z J J z z n z Z J J z J U J n n n n J ' ` / / P P P P P P / T J z n n V J U z J P Z V J Z z J U J Z P T R / / / T R P T U P P T P P P P P T E T T T R T V J I G z n n G z J J z K P Z G G V Z T P D P P P P P P P T T K J J G V Z P K Z J J z z z V V I I z L ` ` ` ` ` ` ` ` ` / / / / R ` / / / / / ` ` ` ` / J K ^ U J L I K U P J J ` ` U Y U T P / ,.] ( ( / / ( ( ( _ ] T P K J J ` ` Z J T P K K L J K U U J ~ ' ` / / / ` ` ` ` ` / / T ^ / / / ' / / ` / / / P J J U I J I I J I I I Z K ` P J I J J L ' / / / / / / / / ` ` J J J I J P / / U T ` Y n I J J I I I L T / / / / / ~ ` / / ~ / T / / T ~ T P T T P P P P P Z z J V z J V J L T L J ' / P T P P P ` _ ( / / W W ~ ~ / P I J n n z n J J k j j l k z k k k l k V k z J Z J J J J J J J J J J J J J J U T T T / ` ` T I I Y Y J I I U T T K ^ ' P K P K ~ _ _ ( ( ( / / ( ( _ } ` K J J J J P P Z Z J z d l l l z k l l n V V Z J J P U K T / / T / ' / T / P U U U P / / ~ P U U L I I J J J J z P J J J G V U ` ' / ~ P / T T T T ^ ` U "
};
