/* XPM */
static char *bcf602233bc547ac811f2a48e2161538nYLVs37gBbB7pDMj[] = {
/* columns rows colors chars-per-pixel */
"618 618 193 2 ",
"   c #3D371B",
".  c #3E391B",
"X  c #40371C",
"o  c #443D1D",
"O  c #493F1D",
"+  c #453E21",
"@  c #483F21",
"#  c #46411E",
"$  c #4C431E",
"%  c #4F481F",
"&  c #51461F",
"*  c #53491F",
"=  c #584C1F",
"-  c #464121",
";  c #4C4522",
":  c #4F4823",
">  c #4D4628",
",  c #4E4928",
"<  c #514722",
"1  c #544B23",
"2  c #594E24",
"3  c #554D28",
"4  c #594F28",
"5  c #575025",
"6  c #5C5225",
"7  c #5F5827",
"8  c #575128",
"9  c #5D5429",
"0  c #5F582A",
"q  c #615626",
"w  c #645A26",
"e  c #6A5D26",
"r  c #615629",
"t  c #655B2A",
"y  c #6A5E2A",
"u  c #705F2A",
"i  c #655C30",
"p  c #695E30",
"a  c #676027",
"s  c #6D6127",
"d  c #67602C",
"f  c #6D622C",
"g  c #6F682E",
"h  c #726427",
"j  c #756927",
"k  c #7A6B27",
"l  c #72652C",
"z  c #78672D",
"x  c #75692D",
"c  c #7A6D2E",
"v  c #76702F",
"b  c #7D712E",
"n  c #6E6431",
"m  c #6F6832",
"M  c #726631",
"N  c #786730",
"B  c #756A31",
"V  c #7A6E32",
"C  c #756A38",
"Z  c #7A6E38",
"A  c #767035",
"S  c #7D7232",
"D  c #7F7834",
"F  c #7E7238",
"G  c #806F2E",
"H  c #82742E",
"J  c #88772F",
"K  c #86792F",
"L  c #897B2F",
"P  c #907F2F",
"I  c #806F31",
"U  c #827533",
"Y  c #887733",
"T  c #867934",
"R  c #8B7D34",
"E  c #837639",
"W  c #867A39",
"Q  c #8B7D39",
"!  c #907F34",
"~  c #907F39",
"^  c #8E802F",
"/  c #92812F",
"(  c #8E8135",
")  c #8E8139",
"_  c #938436",
"`  c #988736",
"'  c #968936",
"]  c #9A8B36",
"[  c #93853A",
"{  c #98873A",
"}  c #96893B",
"|  c #9B8C3B",
" . c #9E9037",
".. c #9E913D",
"X. c #A08F37",
"o. c #A08F3B",
"O. c #A29237",
"+. c #A3943D",
"@. c #A8973D",
"#. c #A6993E",
"$. c #AA9B3E",
"%. c #B09F3E",
"&. c #AEA03E",
"*. c #B2A23F",
"=. c #B8A53F",
"-. c #B6A93F",
";. c #B9A83E",
":. c #8E8341",
">. c #948641",
",. c #968A41",
"<. c #9C8E41",
"1. c #9E9141",
"2. c #9E9248",
"3. c #A08F41",
"4. c #A39541",
"5. c #A89741",
"6. c #A69942",
"7. c #AB9C43",
"8. c #A39548",
"9. c #A69A49",
"0. c #AB9D49",
"q. c #B09F42",
"w. c #B09F48",
"e. c #AEA144",
"r. c #AEA149",
"t. c #B3A444",
"y. c #B8A745",
"u. c #B6A846",
"i. c #BAAB46",
"p. c #B3A549",
"a. c #B8A749",
"s. c #B6A94A",
"d. c #BBAC4A",
"f. c #BFB047",
"g. c #BEB04B",
"h. c #B4A651",
"j. c #B6A952",
"k. c #BBAD51",
"l. c #B9AA58",
"z. c #BEB151",
"x. c #C0AF46",
"c. c #C0AF4A",
"v. c #C2B246",
"b. c #C9B747",
"n. c #C3B34C",
"m. c #C8B74D",
"M. c #C6B84E",
"N. c #C9BA4E",
"B. c #D0BD4F",
"V. c #C0AF51",
"C. c #C5B552",
"Z. c #C1B254",
"A. c #C3B654",
"S. c #C5B555",
"D. c #C4B551",
"F. c #CAB752",
"G. c #C8B754",
"H. c #C8B751",
"J. c #C7B951",
"K. c #C9BA53",
"L. c #CBBA53",
"P. c #CABA52",
"I. c #CEBD52",
"U. c #CABA55",
"Y. c #CCBB57",
"T. c #CBBC54",
"R. c #CBBD56",
"E. c #CFBF57",
"W. c #CDBE56",
"Q. c #CBBC52",
"!. c #C5B658",
"~. c #C8B558",
"^. c #C7B95A",
"/. c #CCBD59",
"(. c #D0BF57",
"). c #D0BF54",
"_. c #D0BF58",
"`. c #C8B960",
"'. c #CEC04F",
"]. c #D1C14F",
"[. c #CEC057",
"{. c #CEC055",
"}. c #CFC158",
"|. c #CEC159",
" X c #D3C155",
".X c #D1C255",
"XX c #D6C857",
"oX c #D0C158",
"OX c #D0C259",
"+X c #D2C359",
"@X c #D6C859",
"#X c #D8C85D",
"$X c #CEC263",
/* pixels */
"Z F F M Z B Z E F M E F V B Z Z F V Z F Q W Q U ) R E Z F W W E Q E Q 2.) W Q <.2.[ Q <.4.{ _ Q ,.{ } 4.4.| | } } { <.{ [ <.<.4.4.4.4.3.<.4.<.8.9.3.[ <.<.[ 6.4.4.9.4.4.2.[ 6.0.<.2.8.<.2.4.<.4.0.p.7.7.a.p.4.<.4.8.4.4.8.2.7.s.6.1.4.4.t.s.j.p.7.4.<.[ 1.7.1.| 9.7.4.4.7.7.7.t.7.7.t.s.a.7.7.p.7.r.t.7.e.s.0.2.9.7.t.k.t.p.j.7.4.4.4.k.4.4.4.4.4.4.4.4.6.p.t.t.q.a.a.9.4.0.9.9.0.9.7.Z.Z.0.j.p.j.^.l.`.!.a.s.j.7.Z.n.n.Z.d.t.a.s.n.g.a.d.Z.d.z.Z.C.Z.Z.d.g.Z./.U.P._.g.a.U.d.D./.[.G.D.d.C.s.D._.n.d.k.k.k.k.k.s.Z.W..X).B. XP.d.d.V.V.k.k.k.d.T.^.a.Z.Z.P.W.Z.D.oXG.Z.s.d.U.W.P.P.T.W.W.oXoXW.T.T.W.}.oX}.oX+XoXoX[.T.T.P.P.U.d.s.A.n.P.U.n.W.H.c.s.a.U.W.s.j.k.k.k.k.l.j.k.R./.U.T.G.j.p.j.j.j.j.j.p.d.Y.s.7.k.d.U.D.Z.U.D.d.k.s.p.C.D.Z.U.D.D.J.D.d.c.Z.Z.d.d.Z.Z.d.Z.d.C.C.C.C.D.D.s...j.a.7.d.n.V.s.6.r.0.7.G.t.0.0.r.p.r.p.0.p.Z.D.c.n.n.k.r.0.r.0.9.0.0.7.Z.k.4.p.p.j.j.j.k.Z.k.k.s.7.Z.d.n.Z.s.s.a.d.s.d.Z.C.Z.Z.D.D.d.d.s.Z.Z.D.D.n.a.d.0.8.r.a.d.a.a.n.a.p.7.#.n.a.6.7.7.7.7.7.7.6.t.v.d.y.i.a.7.7.7.7.7.0.0.4.t.d.@.#.6.t.a.q.p.7.4.7.4.4.t.t.t.a.t.t.a.p.t.t.7.7.7.7.4.6.6.+.| 6.7.7.0.4.4.t.<.{ 4.6.4.1.4.9.4.[ [ <.1.<.Q Q Q Q Q Q [ 2.4.<.} } | <.[ W ) Q W W W E [ 2.R S U R { _ E U _ W x F Q E R W Q S U W Q E W W R W W W U V W U ~ [ Q U W F B n B Z U U W F V ",
"C E W F W V F Z Z C F W F V B Z F V F W ) W R W R ) ) U F E W Q ) W ) 8.[ W W ) [ [ <.<.} _ [ R } [ } { { [ [ } } } <.} <.| 3.4.4.4.5.4.4.4.0.9.9.4.,.2.4.[ <.0.p.4.} <.2.} 9.0.4.<.8.2.8.2.2.9.p.p.q.q.t.a.p.9.8.9.8.8.8.4.r.s.6.4.4.1.7.a.s.r.<.<.4.,.2.9.7.r.t.7.6.7.6.7.p.t.t.p.p.s.t.t.a.s.t.p.p.t.t.s.p.4.6.4.7.s.s.j.0.4.6.4.4.k.6.4.4.6.4.6.4.4.a.a.t.t.t.i.a.r.4.9.9.9.0.0.7.D.z.r.h.r.r.z.^.$Xz.p.k.k.0.A.n.n.n.Z.k.Z.s.Z.d.d.d.Z.d.k.z.D.V.Z.n.J.U.U.P.W..Xg.s.G.g.g.U.}.D.s.d.G.d.D._.n.d.k.k.k.k.d.Z.oX.X).).).).).C.d.d.Z.z.k.k.d./.R.a.D.g.v.Q.U.^./.d.k.k.k./..XW.W.Q.W..X.X.XQ.J.T.W.[.[.oX+X+XoXoX[.T.Q.J.P.T.d.s.D.d.g.U./.U.d.d.k.s./.oXd.j.k.k.k.k.k.k.^.oXW.U.P.U.A.d.s.j.k.j.j.s.d.U.s.r.k.s.d.g.W.R.s.s.Z.d.k.U.D.D.P.D.D.D.D.Z.Z.D.d.a.d.C.G.D.D.D.U.Z.C.G.D.Z.p.1.k.p.7.a.U.n.t.6.j.0.e.U.a.r.p.h.h.r.h.t.z.Z.n.n.v.n.D.s.r.0.r.0.r.0.t.g.s.4.j.p.p.j.^.!.k.p.j.s.r.k.A.d.d.s.s.s.d.s.Z.D.D.Z.D.Z.D.D.d.Z.D.Z.C.D.c.a.z.0.6.r.6.p.z.n.d.e.7.7.7.v.a.7.0.0.0.7.0.7.t.d.v.i.a.y.d.a.7.7.r.r.7.0.4.t.s.@.6.7.e.s.Z.s.4...7.6.4.t.a.t.a.t.a.s.t.7.7.7.0.7.0.7.7.7.4.4.7.7.7.w.6.6.w.1.} 4.1.1.4.r.9.} ) ,.<.6.4.[ ) Q >.[ [ <.4.4.<.[ { } | } ) Q Q Q W Q E ) [ U U U S ) _ ) W W S V U Q W _ Q U F U W Q Q Q U W W Q E U S U E W W E W W E Z f B F E V Z B l ",
"C M Z Q W F B M F M Z W Z B Z B B V W W W R T U _ W W W U Z E U Q ) [ <.) W ) W Q _ <.Q T ) [ W ) <.} ( _ { } [ } } [ <.} | 4.4.4.4.4.4.4.9.0.8.3.4.>.<.8.[ _ 4.0.| _ <.8.[ 4.0.4.<.<.8.<.,.6.7.7.q.t.q.q.t.a.p.9.4.4.4.8.8.0.a.4.4.0.4.| 7.t.4.<.2.<.[ ,.4.6.t.7.7.t.7.6.7.7.p.s.t.0.t.a.a.t.t.p.p.7.a.r.t.s.1.4.0.4.7.p.p.4.4.0.4.4.s.7.1.4.6.4.4.7.a.t.t.t.t.t.t.t.t.6.4.8.0.8.0.0.Z.z.7.p.p.e.t.!.!.p.r.Z.j.0.k.Z.d.d.n.D.D.D.D.a.s.d.k.d.s.d.z.Z.D.D.U.P.T.U.P.W.d.s.G.g.s.g.J.d.s.d.G.s.M._.g.s.k.k.k.s.Z.W..X.XQ.Q.).Q.W._.D.d.k.k.k.d.d._.U.t.Z.g.t.d.P.U.d.p.k.s.s./.W.Q.[.Q.W.W..X[.W.T.[.[.T.[.+XoXoXoX}./.T.P.P.Q.T.d.s.Z.a.p.Z.U.d.r.z.z.a./.oXd.j.j.k.k.j.k.^.+XW.U.Q.P.D.Q.D.s.s.j.j.s.p.d.U.s.0.k.s.t.a.D.z.r.s.Z.s.k.U.D.D.D.J.D.n.n.n.D.Z.Z.s.k.C.D.D.U.Z.Z.D.G.Z.d.Z.t.1.j.p.+.7.g.s.6.0.k.0.e.U.a.7.p.p.h.r.p.z.D.c.c.c.v.d.n.n.a.7.0.0.9.r.7.a.a.4.j.p.6.t.Z.Z.r.r.k.j.6.k.k.d.s.s.d.s.s.c.D.n.Z.D.D.n.D.n.D.D.n.D.D.d.c.d.k.0.6.p.+.6.d.d.e...0.7.@.v.d.6.4.0.7.6.6.7.c.c.i.y.y.t.a.d.t.6.7.r.7.6.4.t.a.+.7.7.+.7.s.7.4.1.9.4.4.t.a.7.7.t.t.p.t.6.7.7.7.t.7.4.4.4.7.7.5.7.7.7.6.7.7.| } 4._ _ 2.6.<.Q :.,.[ 4.0.} >.,.Q [ <.3.} | | <.} } [ } [ Q W Q W W E R _ W U ) V S R R U U U W V W _ Q W E U W U W _ W V U Q W U E V V E W U E E E Q U f B Z x x l f B ",
"C m B F B l M C F B F ) F B Z M Z E ) W W R ) R _ Q Q W U U Q W W Q [ 2.Q Q ) W ) [ ) W U ) [ W [ <._ _ [ <.1.[ <.| } <.<.<.4.4.6.7.7.4.4.8.4.<.<.9.<.[ <.<.[ 3.4.| } 4.8.} 4.0.<.<.2.<.,.2.e.t.q.t.a.a.a.t.7.0.7.4.9.8.8.4.t.a.6.7.t.6...6.7.1.<.7.2.[ 4.7.6.7.7.e.t.t.e.e.7.r.7.7.0.r.p.a.a.a.t.t.a.a.t.s.s.4.8.0.6.0.t.0.4.6.p.6.4.d.7.4.4.4.1.4.t.a.t.q.t.s.t.a.t.a.p.9.9.0.0.r.p.D.z.7.p.s.r.p.k.k.r.p.z.k.0.Z.D.n.n.D.n.n.D.n.d.s.k.Z.s.a.d.A.G.P.D.G.W.}.U.T.}.k.s.G.z.d.s.g.d.s.z.C.s.M.oXg.d.k.j.k.d.W..X)..X.XQ.Q.W.).).W.Z.d.k.z.d.g.oXU.t.D.g.t.t.J.D.p.p.z.s.d.U.W.Q.P.P.W.W.W.[..X.XoX.X[.[..X+X+XoX[.W.W.W.W..XW.d.s.D.d.p.k.Z.s.p.Z.Z.s.W.oXd.j.k.k.k.k.!.+XoX[.[.T.P.H.P.P.g.s.s.j.s.p.g.U.s.r.k.s.p.a.D.s.7.j.z.s.s.D.n.D.D.J.n.n.D.D.D.D.C.n.Z.Z.C.D.D.D.Z.D.C.d.d.D.r.1.s.p.6.7.s.t.7.r.k.t.t.Y.s.0.j.p.p.p.k.D.n.M.D.d.d.c.c.n.n.t.0.9.9.0.7.d.a.7.j.s.0.0.k.s.7.r.z.j.r.j.s.a.j.k.k.a.k.D.M.n.n.D.Z.n.n.D.D.D.Z.d.d.d.n.c.k.7.7.s.6.4.p.p.6.4.0.7.#.v.d.6.9.6.6.6.7.d.c.x.n.a.a.a.a.i.d.e.6.0.0.7.6.t.a.4.7.t.6.4.7.7.6.4.0.4.4.a.s.t.t.t.a.t.7.7.7.7.7.7.4.| 7.0.t.q.7.7.7.0.4.5.0.| _ <.} ) ,.4.[ Q ,.<.) 6.0.<.) >.:.,.4.4.<.3.4.4.} <.<.<.| [ Q Q W W W Q { ( W Q W U E W S U W W S Q _ W W Q W W U W Q E E E W Q E W E E E E W Q W W Q W B A C f y M M Z ",
"m m y m m d A M C M U ) B B B M Z W E W _ R U U W _ W E Q W U W W F [ >.Q U Q Q W ) W U W _ Q W [ { } _ ~ <.| 3.} { } } <.<.<.4.4.7.5.4.7.4.4.<.<.8.} [ <.<.} } } [ <.8.4.[ 4.7.} ,.2.>.<.7.7.7.t.t.r.t.t.t.t.7.7.7.4.8.2.1.a.a.@.4.0.4.4.4.<.<.| 4.<._ 4.7.+.4.7.e.7.t.t.t.t.7...4.0.0.7.t.s.a.a.s.a.s.d.s.t.4.8.9.6.7.7.4.4.0.0.6.6.d.4.4.4.1...7.t.t.t.y.q.4.6.t.a.t.t.p.7.9.r.0.r.G.d.6.s.p.r.r.p.p.r.e.s.s.r.D.n.D.g.d.n.D.d.D.n.z.d.z.s.s.A.U.D.J.J.U.U.U./.U.U.z.s.D.z.s.s.d.s.s.d.A.s.M.).d.s.j.s.k.T..X)..X).Q.n.n.W..XT.).W.n.k.Z.k.d.W.J.t.D.d.p.p.d.d.p.s.k.s.s.D.W.P.Q.P.P.Q.[.Q.[..X.X.X[.Q..X+X+XoX.XQ.U.}.Q.Q.T.s.d.Z.s.p.j.j.s.p.z.z.s.T.}.k.j.k.j.j.!.|./.W.oXR.Z.D.P.M.m.P.s.r.p.j.p.d.T.s.t.k.a.p.t.s.p.0.s.j.p.a.Z.D.Z.D.D.M.M.D.n.n.J.D.V.V.Z.Z.Z.n.Z.D.V.d.d.Z.a.r.1.s.r.4.6.7.0.r.0.j.p.t.Y.s.7.p.p.r.d.D.c.n.m.g.t.t.c.n.i.v.a.7.1.4.4.e.a.s.7.p.j.0.0.p.r.r.r.j.j.0.j.s.s.z.d.s.d.Z.Z.Z.c.Z.a.d.n.n.c.Z.Z.d.a.d.d.d.d.z.7.7.p.6.4.7.4.4.4.6.6.#.v.i.6.6.4.4.7.d.d.d.d.d.t.6.y.d.y.i.t.7.1.6.7.+.t.a.@.6.t.4...6.4.6.4.4.4.4.7.s.a.a.t.t.q.q.t.7.7.7.6.4.4.9.7.7.7.t.7.6.6.4.6.7.} ,.<._ [ >.[ _ ,.<.<._ 4.4.) ) Q >.4.| } | 4.<.>.Q [ <.} { } _ W W W U _ _ T W U U T S V c W U W U E _ W E Q E U W U E W I W U E W E E W Y Q W W W W Q F M Z B n p n B B ",
"M n n n m m B B C M U U l F V B U R R Q _ U B l U ) Q ) } ) Q U W U [ <._ W ) _ Q Q W W R _ ) W _ <.| { [ [ <.4.4.} [ <.4.4.4.4.4.4.4.4.0.4.4.4.9.9.<.} 2.} } } } [ <.4.9.} 6.7.| ,.,.2.7.t.t.t.t.6.| <.7.p.t.7.t.t.7.6.4.4.t.s.6.4.7.4.4.1.<.<.| 4.| [ 6.7.+.4.t.e.7.t.t.t.d.t.4.6.p.e.7.r.t.u.a.a.r.p.a.a.s.4.9.0.6.7.6.6.4.7.0.7.7.d.7.4.4.4.7.i.t.t.t.t.6.<.<.e.d.d.t.g.p.0.0.r.r.D.g.7.s.p.r.p.r.r.r.e.t.s.e.C.D.n.g.d.g.n.Z.D.D.J.n.D.d.z.U.P.D.J.P.U.D.D.D.J./.A.s.A.g.s.s.d.s.d.d.A.s.D.oXg.s.s.d.U..X X). XQ.d.s.a.D.[.W.Q..XU.d.k.k.g.[.J.t.D.z.p.p.s.s.a.s.k.s.s.U.[.Q..XW.Q.Q.{.{.[..X{.Q.Q.Q..X.X[.[.Q.W.W.W.Q.Q.Q.s.d.A.s.r.h.j.j.s.z.Z.j./.oXk.j.l.l.z.}.}.[..XT.k.p.s.J.M.M.N.M.a.p.s.s.g.W.d.t.Z.s.p.p.s.p.r.p.s.p.a.D.D.D.P.M.P.M.M.n.D.J.D.d.g.D.g.d.D.D.G.n.g.a.d.d.t.4.s.e.6.6.7.0.t.r.s.a.s./.Z.p.p.p.s.D.n.n.M.a.t.7.7.t.n.c.x.n.a.6.8.4.p.a.d.r.p.r.6.r.r.r.p.r.p.s.p.k.A.Z.D.Z.V.n.Z.d.d.n.n.a.p.a.d.n.n.d.d.a.Z.d.d.n.Z.r.r.p.6.6.6.4.6.4.4.7.7.n.d.6.4.6.0.s.c.d.v.a.7.4.4.7.a.a.i.d.t.6.6.0.6.t.d.#.7.t.4.4.6.4.6.4.4.4.4.t.a.t.7.t.t.7.a.t.7.7.t.7.7.0.7.7.7.7.7.6.| 4.6.7.0.} } 4.} ,.,.) [ | <.4.} 4.4.[ ) ,.4.4.} } 4.4.[ E E Q <.<.{ | } Q W W W | { R R U U W V V S U U U U Q [ W _ _ W W S U Q W U U U W Q W U E W W E U U U U Z B Z Z B M M d M ",
"y M M y n m d B A l V M l S S W W U Q W U V B B F U Q Q _ | | E W Q _ 2.Q Q W W Q U W U E _ [ U [ { { } <.{ _ <.4.} } <.<.3.4.1.| } 4.4.4.4.3.4.5.5.<.[ [ [ [ [ <.} _ <.9.} 4.7.| <.4.0.t.7.7.q.4...} <.4.6.t.t.t.t.t.7.1.4.7.t.4.4.9.4.| <.1.<.[ <.[ ) <.4.@.6.7.t.t.7.7.t.a.a.0.7.7.t.e.7.t.a.t.p.t.7.7.a.s.4.4.6.4.1.1.6.4.4.7.7.#.d.6...4.p.a.t.t.t.7.@.| <.4.6.7.a.d.a.d.r.4.9.r.d.a.e.t.t.r.7.0.p.0.7.s.r.7.Z.n.d.a.d.d.g.D.M.D.n.D.d.d.D.D.D.H.P.D.C.C.D.g.g.R.z.p.D.d.d.a.d.d.s.d.A.s.M./.g.s.d.T..XQ. X).P.d.s.s.s.s.D.W.Q.Q.).H.d.s.g.).P.t.D.Z.t.p.s.p.s.a.s.s.s.T.W.Q.[.[.W.Q.Q..X.X.X.XQ.Q.Q.Q.[.[.Q.W.W.T.Q.Q.Q.U.d.d.D.j.r.h.j.p.h.Z.Z.s./.oXk.j.j.z./.}.W.oXT.s.h.j.p.a.D.M.n.M.M.s.t.a.n.U.s.r.k.s.r.p.r.p.p.t.s.t.s.C.D.D.D.M.M.D.D.D.P.D.n.d.n.Z.g.d.n.D.D.D.n.a.t.d.t.4.a.t.4.6.r.7.7.r.s.e.s./.D.a.t.s.D.c.c.n.g.p.7.r.r.7.t.c.v.i.v.a.4.4.7.d.s.7.r.0.0.0.r.0.r.0.p.0.r.A.C.Z.g.n.D.d.s.a.a.s.d.s.7.t.d.v.d.d.d.c.d.d.a.n.k.7.t.p.4.6.0.4.4.4.0.7.6.M.d.6.6.r.d.d.a.d.a.7.6.4.7.4.6.y.i.u.i.t.6.6.6.t.a.@.7.7.4.4.1.4.4.1.6.4.4.7.t.6.7.7.7.t.7.7.7.4.4.7.7.9.6.5.7.7.6.4.| 4.7.5.0.<.[ 1.<.) Q ) Q _ 2.<.} <.4.} 1.9.4.| | <.{ } ) W Q Q Q [ | { { _ E E Q { | K R U S U S U B V U U S ) _ R Q _ ) W U E U W ~ ) U E W E U W U E V U V V U B n B B B M n n M ",
"n m M f m d m B A B S B F V E W U U W S S B U F S U [ ( _ { } _ Q _ <.} U W Q W W U W U U _ _ W } | } | 4.} [ _ } 3.4.} 4.4.4.| } } 4.4.4.6.4.} <.9.<.[ [ [ [ [ <.} _ <.4.| 6.7.| 4.0.t.t.t.t.7.4.| <.8.4.| 6.t.t.t.i.t.7.4.7.a.7.4.0.4.1.1.1.<.,.<.} [ <.4.6.e.t.r.7.6.e.a.a.d.s.t.7.t.t.t.d.d.s.d.a.t.p.s.t.7.7.6.4.1.4.6.4.1.7.6.7.d.#.4.7.t.t.t.y.t.4.| 4.7.6.4.4.p.a.a.g.d.0.0.r.g.g.e.s.p.e.e.r.p.0.7.p.p.7.Z.n.d.n.D.n.J.n.D.n.n.D.Z.Z.D.H.U.U.U.U.U./.T.D.g.G.d.s.A.g.d.s.d.d.s.d.A.s.D.oXn.d.G.oX.X.X.XP.d.d.j.k.d.s.d.D.[.Q.Q.W.D.d.g..XP.t.D.n.p.p.s.s.a.p.d.d.s.W.[.Q.[.[.[.Q.Q.[.[..X.X.X.XQ.W.[.[.Q.W.W.W.W.Q..XW.d.d.A.j.r.h.j.j.j.Z.A.d.}.+Xz.k.z.R.oX[.oXT.d.j.j.j.p.r.d.M.M.n.N.n.a.s.n.T.d.p.Z.s.p.p.p.p.p.p.s.t.d.W.C.D.n.v.n.J.J.D.D.n.d.d.n.n.Z.d.n.D.D.P.D.d.d.D.d.6.a.e.6.6.r.7.7.e.d.e.d./.d.t.s.Z.M.v.n.d.a.r.p.r.s.7.7.a.n.c.x.d.t.7.t.n.d.4.6.r.r.0.r.0.r.r.h.r.r.z.d.n.D.n.g.a.s.a.d.a.d.d.t.a.n.c.v.d.n.n.n.g.d.a.d.9.p.p.6.7.0.7.6.6.r.e.t.M.d.t.s.g.n.v.n.d.t.6.0.0.t.7.6.e.i.t.t.i.t.7.6.t.a.6.e.t.4.4.4.4.4...6.6.4.0.t.7.e.7.t.t.7.t.7.4.4.6.4.} <.7.t.7.7.4.6.7.4.7.7.1.| 4.} ) ) ) ) [ <.<.| 6.6.} <.4.4.4.4.1.[ ) Q [ [ ) Q [ | { { } Q W Q _ _ R _ W S S U E V U R U S ) } } Q Q U W Q W U Q _ W F F W Q E W U V E E U W Q B M A M f d n m B ",
"m y d m m y f A B f F S l V S z U b B B S S U V S S V ) _ Q { _ ) R <.[ U U ) E U W U U U R _ U [ 4.} } } } } Q [ | <.<.<.4.| } } <.<.4.7.3...} <.4.[ [ } ) [ [ ,.<._ } 4.} 4.6.| 6.t.q.q.t.7.4.| 1.<.4.6.4...4.t.t.t.y.t.6.4.p.7.4.9.4.4.<.<.<.[ <.4.} } 4.@.7.7.6...4.t.t.t.a.t.e.t.t.t.a.a.a.a.t.t.a.7.t.r.4.0.4.<.4.1.2.4.4.7.+.7.d.6.6.p.t.y.i.t.4...1.4.6.4.7.6.4.7.d.a.d.s.7.6.g.d.6.s.p.6.r.r.r.r.7.s.p.6.Z.d.n.c.D.D.n.n.d.n.D.n.D.g.D.P.T.D.D.U.U.U.U.A.g.D.s.t.G.z.s.s.s.d.s.z.A.s.M.W.D.Z.W.W..X.XP.g.s.s.j.s.d.d.s.a.D.W.Q.Q.W.M.v.W.P.t.D.g.t.t.p.p.p.t.d.s.s.U.Q.Q.[.Q.Q.Q.Q.Q.Q.W.Q.Q.W.W..XW.Q.W.W.W.[.W.Q.[.W.d.d.Z.j.h.h.j.j.p.Z.Z.d./.+Xz.z.R.}.W..X/.k.s.j.j.r.r.t.r.d.M.n.n.M.n.u.d.Q.a.t.Z.a.e.p.p.r.r.s.s.t.d.U.n.D.d.d.n.n.D.D.n.g.n.d.d.D.Z.d.d.d.Z.d.n.n.n.Z.t.6.p.e.7.6.7.r.6.e.k.7.s.U.u.t.Z.D.c.n.d.a.r.0.r.7.r.t.9.4.u.v.x.i.a.6.t.n.a.4.9.0.6.0.0.0.r.9.p.r.r.k.d.d.n.d.s.d.Z.c.a.a.a.a.a.n.c.c.n.v.c.d.n.d.i.i.s.4.r.r.6.0.9.0.7.4.p.7.e.n.i.t.g.d.c.n.d.p.8.4.0.7.6.7.7.4.7.u.u.t.t.e.@.7.d.@.6.t.4.4.6.4.1.| 4.4.4.7.a.e.#.7.7.t.t.7.7.7.4.4.4.} } 4.7.7.7.6.4.4.4.6.7.} | 4.) W ) ) Q _ <.| { 4.4.[ <.4.4.4.<.>.) W Q ) Q Q Q Q Q } { { } Q W _ W E ) W S U V U U W W W V E } { ) U E W U W S U Q U x F E R Q W S U V U W E E F M B f y n M m n ",
"M d B f M d f B M l W T B V W E W U V B F S E R U B V S R _ { _ } _ | <.Q ) <.W U U U U U _ _ W [ } [ _ } <.<.<.[ } 4.<.<.} <.} 4.4.4.4.4.1.} } 4.4.} <.<._ [ >.[ <.[ | 4.} 4.@.@.t.t.7.t.6...<.1...1.4.6.6.1.1.6.t.y.i.d.t.t.t.7.4.5.4.4.<.,.<.<.6.7.| 4.7.+...| +.4.7.t.u.u.t.t.t.t.t.t.a.t.t.7.7.a.a.t.a.r.4.0.6.4.4.4.4.6.7.t.@.$.d.t.s.d.i.i.t.6.4.4.4.4.7.7.7.4.6.9.p.a.n.d.d.t.d.d.7.s.p.7.r.r.0.0.e.k.s.7.n.M.J.D.D.n.d.d.d.D.P.D.D.n.D.U.T.P.U.D.D.D.D.D.D.U.d.s.}.D.s.s.s.d.d.A.C.s.D.W.J.T.[.W.[.T.d.s.d.s.s.k.d.d.s.a.s.D.W.)..XQ.M.Q.P.t.D.n.t.p.p.p.p.t.k.d.d.W.[.{.[.Q.Q.Q.N.Q.Q.Q.{.Q.Q.Q.Q.W.[.Q.Q.Q.W.W.Q..XT.d.d.D.k.h.j.j.j.s.!.z.s.}.+XD.T.}.[.[.T.z.j.j.p.s.s.r.r.p.p.d.M.n.M.N.v.v.Q.d.t.J.s.e.p.p.t.p.s.d.a.d.U.D.n.n.D.J.n.J.J.n.n.D.d.d.g.Z.n.d.d.d.g.n.d.a.s.7.6.s.p.7.7.r.r.7.s.z.e.s.D.i.d.D.n.n.a.p.r.p.0.7.t.p.e.p.6.7.a.n.c.n.a.t.n.d.4.p.r.6.0.0.9.9.r.j.p.r.z.A.d.d.a.d.n.M.n.k.d.d.a.a.n.v.i.a.i.c.d.n.d.d.v.a.6.e.a.6.0.0.0.0.6.s.t.e.g.i.d.g.n.D.d.r.4.8.8.6.0.0.4.6.7.7.t.i.i.i.i.$.e.d.6.6.7.+.1.6.4.1.4.0.4.4.t.t.t.e.t.7.7.t.7.t.q.7.7.7.4.6.6.4.6.7.7.4.6.6.6.4.} ..4.} [ } [ Q _ 1.| { 4.7.4.9.7.4.4.[ Q W ) W Q ,.) Q Q Q ) _ { | [ _ } Q U Q W S U F E U E S F S Q R R R Q R ) U U W W Q W E Q W W U E W Q U W W E Q E B B m m M C M B ",
"m M y M M l l f M f U U x U W Q U B Z B M W Q W U B B B E R _ _ _ } ..} E [ } ! Y S U S T { Q R [ _ _ } <.} } | [ } 4.<.[ _ } 4.4.+.4.4.| | 4.<.3.7.{ <.4.[ ) [ <.} [ <.<.{ @.#.@.7.t.7.4.| 1.<.} ..7.7.4.4.4.| | 7.t.y.t.d.i.t.6.4.7.4.<.,.>.>.<.7.4.| 4.4.{ { +.6.7.t.7.t.t.e.t.u.t.e.t.t.t.7.6.7.7.e.t.a.7.4.t.r.4.1.4.4.4.p.p.+.#.a.d.d.a.a.t.6.4.4.| ..t.s.7.4.4.0.7.6.t.s.g.g.t.i.d.+.t.a.7.6.0.0.6.r.Z.a.0.d.n.D.D.n.d.g.d.d.Z.n.P.D.n.J.J.G.J.D.n.Z.n.D.D.D./.Z.d.}.G.s.p.k.s.z.U.C.t.D.W.W.T.T.[.U.d.s.s.s.s.g.[.P.a.s.s.p.s.D.).).W.Q. XM.t.M.D.a.r.p.p.e.s.G.d.a.W.Q.Q.Q.Q.[.Q.[.Q.Q.Q.Q.Q.Q.P.W.W.Q.Q.P.Q.W.W.Q.Q.T.d.d.G.z.h.h.l.h.j.^.z.s.R.+XT.[.[.[.W.z.j.l.j.p.s.C.s.7.p.p.e.d.M.n.m.M.n.M.d.t.P.d.e.r.p.p.e.s.Z.a.a.H.n.D.J.D.D.P.P.n.n.n.D.d.d.g.g.n.n.a.d.d.d.Z.d.s.e.4.d.d.7.6.r.9.e.k.k.7.a.n.g.n.c.n.d.e.r.r.p.7.t.n.d.7.7.0.7.6.s.D.c.c.d.d.a.4.t.s.6.4.9.9.6.p.k.r.6.k.d.s.p.s.n.d.d.c.n.a.t.t.d.y.d.t.t.t.d.i.d.d.d.d.d.6.7.s.7.6.0.0.8.7.j.0.7.d.d.u.d.n.d.r.9.8.8.4.r.s.s.7.4.4.7.4.7.a.d.d.i.u.a.+.@.7.#...4.4.| 6.s.4.| 7.t.$.q.t.6...6.t.7.7.7.6.7.7.7.7.7.+.+.7.7.4.+.4...} } 4.} Q >.[ ) } | } { +.4.7.7.7.4.} ) Q W W ) <.} ) E E Q W E _ [ } _ { _ S E Q F V F F V x U U z W ) W U Q ) Q Q W W _ Q Q ) ) U S V U E W W U Z U E B B M y M M B Z Z ",
"C C M y m f f B B l W U U Q W V V V U B B R _ R R W Z F W U _ { [ _ ` | Q R | | Q U U S R { [ W _ _ } +.4.| 1.1.<.<.4.<.[ _ } 4.4.4.7.4.3.3.6.4.4.4._ <.9.| [ [ <.,.} 4.1.{ 6.6.#.q.t.6.} [ ,.1.<.6.t.t.6.1.1.4.1...6.t.i.i.i.d.7.4.t.6.<.<.,.:.,.7.4._ 4.6.+.+.7.t.7.t.7.t.t.t.t.u.t.t.t.a.t.t.a.p.6.p.a.a.0.1.t.s.6.4.4.6.7.d.s.+.7.d.d.d.s.t.6.4.4.4.4.7.g.d.t.p.6.6.7.0.7.7.s.i.i.i.t.+.t.n.e.6.0.0.6.s.D.a.r.Z.d.n.g.n.M.D.n.g.d.D.D.Z.D.P.D.G.D.D.n.Z.J.T.D.J.oXD.d.oX/.z.r.s.s.C.}.G.t.J..X[.W.W.W.Z.s.k.k.d.n.). X].n.s.j.s.p.d.D.)..XQ. XM.t.D.[.d.t.p.p.e.n.+Xd.d./.[.N.Q.Q..X[.Q.{..X.XW.Q.Q.Q.W.W.W.W.Q.Q.[.W.P.W./.d.d./.^.h.h.l.h.z.|.z.s.R.+X[.}.+XT.g.j.j.j.h.s.C.Q.D.p.7.p.t.e.d.M.M.M.N.M.a.t.Q.D.t.r.p.p.t.n.U.a.a.D.d.D.P.M.n.D.P.M.M.n.n.n.d.n.D.n.D.n.M.n.n.n.n.Z.p.6.g.Z.p.6.r.0.a.D.d.6.a.D.n.n.D.d.t.e.p.t.p.s.Z.M.n.t.0.6.0.7.t.d.D.n.d.v.a.7.k.k.7.8.9.1.6.d.Z.r.6.p.s.a.a.d.n.d.d.g.v.a.t.a.d.d.d.t.t.t.d.d.i.d.d.d.Z.7.t.s.7.6.0.0.4.r.k.7.7.g.g.g.Z.d.p.9.0.9.8.r.d.a.d.s.r.7.7.6.6.7.t.d.d.u.i.+.#.t.t.4.4.4...t.s.6.+.7.t.$.t.a.@.| 6.t.q.7.6.+.6.7.6.7.7.4.| 4.7.4.4.4.| } | 6.<.) W ) } ..| | { o.7.7.7.7.<.[ >.>.Q Q <.4.} [ Q Q Q Q W Q ) } { <.} U W [ U F F F B x Q Q V Q _ R ) R E Q Q W W W U W U U V V Z W U E Z Z B E E Z B Z M M M M C B ",
"B F M r d y t A V x E c T U S f l B S V U E R _ _ U W U S W W { { _ } } R W } | W U S U Q { _ S E ~ { <.<.4.4.| | <.<.} } [ Q } 4.5.4.+.4.4.<.| 4.4.) [ 4.4.[ ) [ } } 4.<._ +.7.t.e.4.} ,.,.[ } 6.t.7.e.t.4.| 4.4.| 1.7.t.t.t.t.6.9.s.0.1.>.>.:.<.7.| _ 4.4.@.7.6.#.6.7.t.t.t.s.t.t.t.t.e.7.t.t.7.t.p.7.7.a.7.} 0.a.e.4.<.4.t.s.s...7.d.t.a.t.6.6.7.4.4.7.a.a.t.t.t.t.r.4.7.7.9.7.d.t.t.s...t.n.i.6.6.9.e.d.n.t.0.z.d.d.n.D.n.n.n.g.d.n.n.D.D.D.D.J.g.g.n.D.J.D.P.P.U.g.s.T..XG.p.p.A.U.W.C.t.J..XQ..X.XZ.s.s.k.s.s.W. XN.'.N.Z.s.k.s.a.a.J..XQ. XP.t.Z.W.P.a.p.r.a.P.oXd.a.W.Q.P.Q.{.Q.Q.{.Q.[.oXW.P.W.W.W.W.[.Q.W.W.W.P.P.W./.d.g./.+Xz.h.h.k.^.+XZ.s.R.+X{.+X[.z.s.j.l.h.j.U.Q.M.M.D.t.7.p.e.e.d.M.m.M.N.d.e.P.Q.d.e.p.e.u.T.U.t.a.D.g.n.M.n.d.d.n.P.Z.n.n.d.n.n.n.n.n.D.n.n.n.d.d.Z.p.6.s.D.g.7.6.7.d.n.s.6.s.D.d.M.n.t.7.r.s.0.e.v.n.d.v.v.s.7.0.0.7.e.d.D.i.i.c.6.d.D.s.6.8.1.r.k.k.0.1.p.s.t.s.p.s.d.n.d.a.t.t.t.y.c.y.t.a.y.t.t.d.t.y.d.d.6.t.a.s.6.9.9.6.p.V.0.7.k.g.D.Z.r.0.9.9.9.0.s.a.a.t.d.d.7.6.7.6.4.6.u.t.y.a.| 4.a.a.7.4.1.4.t.a.+.+.t.7.#.7.7.6.| +.t.t.6.+.4.7.5.6.7.7.4.+.4.4.6.4.+.} _ } 4.4.) U ) _ { 4._ _ 4.4.4.4.} [ >.[ >.[ [ <.} } { } [ E Q Q W W _ } { } E E _ Q U B Z M U Q E S W Q R W R U U U Q Q U S U Q W U W E U U V M Z F V E B M F B n m M n M ",
"Z E A f d d B U U V S x U S f f B l A R _ U R R _ ( [ W U S S Q _ _ | | _ R | { Q W U W { } U x U [ _ Q [ [ <.} 4.4.<.} 1.<.[ [ } } } } 4.| } { | 4._ _ 4.7.} Q [ 4.4.4.1._ +.7.7.4.} >.,.} } 1.e.t.e.7.t.e.7.4.4.6.1.4.7.t.t.t.6.7.s.a.0.,.Q >.6.7.| _ 6.6.#.7.6.6.6.7.7.t.a.a.t.t.a.a.t.7.7.e.t.a.7.+...7.7.| 7.a.a.4.| 4.d.n.a.+.r.g.a.a.7.4.7.7.4.7.a.a.t.7.7.t.d.s.6.8.6.0.7.s.i.d.s.1.p.M.M.t.6.7.d.n.c.p.r.k.d.d.D.D.n.D.D.J.D.Z.D.J.D.D.D.D.d.d.D.W.D.J.U.P.T.g.u.U.[.W.Z.g.T.W.W.G.t.J..X.XW.D.s.s.d.s.k.T.Q.Q.Q.N.]..XZ.d.s.s.s.d.P.Q. XP.t.D..X.Xd.t.r.D..XW.s.d.W.Q.N.[.{.{.W.{.{..X.X[.Q.W.[.W.W.T.T.W.}.T.M.M.W.}.g.g.}.#XR.j.r.C.+XoXZ.s.R.+X.X[.z.j.k.j.j.j.C.W.P.m.M.M.D.t.e.p.e.t.n.M.N.Q.d.e.H.).M.s.t.p.v. XM.t.a.U.v.n.D.n.d.v.n.n.D.M.M.n.D.n.D.n.Z.d.d.d.d.n.Z.Z.s.6.p.M.D.a.9.t.J.c.s.6.s.D.M.n.p.7.r.r.p.r.d.g.n.c.v.c.n.s.r.r.e.7.a.c.d.d.n.7.s.D.Z.t.4.8.z.n.k.6.4.s.d.a.d.a.t.a.g.d.a.a.g.t.a.i.i.t.d.y.t.t.d.t.t.d.a.#.7.d.c.t.9.4.t.d.Z.7.0.z.D.d.s.9.r.0.8.0.k.k.a.a.a.d.n.a.7.4.6.6.4.7.t.i.a.+.6.a.d.t.6.| 7.a.a.4.+.t.t.#.+.+.6.@.6.7.7.#.6.7.7.4.7.7.5.6.6.4.4.6.4.4.| _ _ +.4.} ) ,.{ ..4._ ( 4.4.} [ [ >.[ [ >.<.<.[ [ [ <.| 1.Q Q Q Q Q ) { { _ W W _ { ) Z B V ) ) U S Q ) _ R _ ( Q U Q ) Q U U W R W Q E W U B B F Z U W B M Q F M M M n Z ",
"V V B B A B z E x l x x x f l l B f V _ _ R W U Q _ ( R U x S S Q ) _ <.[ R _ _ _ T Q _ _ { U x Q ~ _ Q W W ) <.4.4.<.[ } <.<._ [ [ <.4.4.4.6.| | 4.[ Q 4.6.<._ [ 7.+...<.) | 7.+.{ } ,.>.} | 7.t.7.7.6.#.e.t.7.4.4.4.1.1.7.t.t.+.4.p.t.t.2.>.<.0.7.} ) 1.6.@.@.7.6.@.@.7.t.t.a.a.a.t.a.t.7.@.@.e.t.t.7.+.7.4.} 6.t.a.p.5.t.d.d.a.| r.d.s.7.4.7.5.7.7.a.t.t.t.7.t.u.t.a.p.4.<.6.7.7.s.a.a.1.e.d.n.d.t.a.n.d.Z.9.r.k.s.d.d.Z.J.G.D.D.g.D.z.D.D.D.n.d.d.D.U.P.M.D.D.D.P.d.t.T.P.Q.P.P.Q.P.W.D.e.D.W.W.g.a.s.d.s.s.C.Q.P.P.Q.{.N.Q.W.D.a.s.s.s.d.M..XP.t.Z.Q.Q.H.a.d.W.{.U.p.s.U.Q.M.Q.Q.{.Q.Q.W.).W.T.W.T.W.W.Q.Q.Q.T.W.P.D.J.W./.d.d./.oXoXC.k./. X.XZ.s.U..X[.D.s.j.j.s.s.D.W.M.M.m.M.v.m.n.e.7.p.r.t.M.Q.Q.s.e.D.N.M.M.a.n.N.N.M.e.a.D.n.D.n.D.D.n.n.d.g.n.D.D.D.n.D.n.d.a.a.a.d.n.d.D.a.+.t.d.n.n.s.d.v.d.p.+.a.M.v.s.9.7.p.7.r.s.d.a.a.c.c.i.c.d.p.4.r.0.7.e.d.a.s.7.t.D.c.d.t.s.n.g.s.1.9.s.a.d.d.a.s.t.a.t.a.t.a.a.u.t.t.t.t.t.t.t.t.t.t.t.t.+.6.s.d.d.a.7.a.d.c.7.7.s.n.a.9.9.0.9.9.j.Z.d.s.a.a.a.t.a.t...4.4.4.4.7.t.a.+.+.a.i.t.t.7.t.t.t.+...t.t.#.+.| @.6.@.@.7.7.+.4.6.4.6.6.4.@.4.7.6.+.| 6.| W ) } | 4.1.<.{ ..1.R R <.| ) ) >.Q [ [ Q [ } [ [ Q } 4.} | Q U W Q W R W W W U ) _ _ U Z U ( ) S F [ W R _ _ } ) F F Q Q E U V U E U W U F E F Z B V W B M E W F M n B E ",
"Z B x V F c S F l x V x l l V l m S U U W Q R E ) R ) Q E U E S W Q _ } Q R ( ` ` ` | [ { { W S ) _ } _ Q Q ,.} 3.6.4.} | 1.1.} } <.7.6.4.6.6.4.4.5.} _ 4.6.7.4.5.7.+...1._ ..4.| [ <.,.[ <.r.t.t.e.7.6.#.e.s.a.7.4.1.4.4.4.t.u.#.+.t.t.7.7.4.0.6.6...[ 4.@.#.#.7.e.#.6.e.t.t.p.t.t.a.t.a.a.7.7.7.t.a.a.7.p.7.{ 7.a.t.a.a.s.t.a.t.4.s.s.t.7.6.7.5.7.s.d.t.a.a.t.a.d.t.d.i.e.4.8.9.6.e.t.a.6.7.a.d.v.d.D.d.d.d.9.r.k.s.g.d.Z.Z.g.d.d.d.Z.z.D.D.D.g.g.n.W.P.P.n.n.n.D.T.n.u.T.Q.Q.P.P.P.P.W.D.e.J..XJ.s.s.s.s.d.U.W.Q.Q.Q.Q.{.Q.Q.{.W.Z.s.s.s.s.M.Q.M.t.M.Q.Q.Q.P.P.Q.Q.T.a.s.T.{.M.N.N.Q.Q.[.Q.Q.Q.W.[.W.[.W.W.[.W.W.W.T.U.T.W.W.g.g.}..X.X).W..X X XD.s.R.+XD.k.j.j.s.s.Z.P.P.P.M.M.M.M.m.M.d.e.p.t.p.d.M.Q.d.e.M.M.M.M.m.M.M.M.M.e.s.P.n.P.D.M.P.P.J.n.d.d.J.U.C.D.n.g.Z.n.n.d.n.n.D.D.p.+.s.i.v.v.n.d.d.u.t.+.a.M.g.e.r.0.7.e.s.n.g.u.a.d.d.d.n.Z.d.t.0.0.7.6.a.d.d.6.t.d.n.c.g.a.D.d.a.6.0.s.a.d.d.n.g.i.t.a.c.i.d.i.t.e.u.a.t.t.s.t.t.7.7.i.t.+.7.a.i.i.d.a.d.i.d.7.0.k.g.e.r.0.9.9.j.Z.n.g.d.s.s.s.t.t.t.7.1.1.4.4.7.t.a.6.+.t.y.t.a.a.t.7.7.4...e.7.#.7.6.7.6.#.4.@.#.6.7.t.6.@.6.6.@.4.7.@.| +.| } ) W } | 4.4.1.{ ..} R ( 4.| [ [ ) Q >.) } <.<.1.| [ <.| 4.4._ U E E W U W E R U R _ { _ ) W ( R U U [ Q R R R R E S F Q _ ) W V V U U W U U E U F B V F B M E W W B M E ) ",
"B l B l B V U x w B S f B l l f B W _ U W U Q R U ) W W ) Q U S S R _ [ Q W { _ _ { { { _ { ) S W [ } { <.} [ | 4.| 4.1.| } } | 4.4.4.4.4.3.4.4.o.4.} _ <.+.6.7.6.4.o...<._ | 4.| <.[ [ } 6.e.7.7.t.t.7.7.7.t.a.s.7.| 1.4.4.#.t.6.| 6.7.7.7.5.7.5.4.} ~ 1.+.+.6.#.7.t.7.7.t.t.7.7.t.t.t.t.s.t.6.6.t.t.t.e.7.7.+.7.a.a.a.p.t.t.t.7.4.a.a.7.7.4.4.7.a.a.i.i.d.t.t.t.t.a.t.t.u.7.4.4.6.4.a.a.4.7.t.t.v.c.n.n.a.s.9.9.s.d.a.d.n.d.d.a.d.d.d.g.Z.n.D.D.J.P.P.P.M.n.n.P.P.P.g.t.J.Q.Q.M.Q.m.P.P.Z.t.D.[.n.s.k.s.s.G.W.Q.P.Q.Q.Q.Q.Q.Q.P.W.W.Z.s.s.s.d.Q.P.t.n.Q.Q.Q.Q.Q.Q.Q.W.a.t.U.W.Q.Q.M.M.Q.Q.Q.Q.P.P.W.W.W.W.W.W.oXW.P.W./.T.W.W.d.d.W..X[..X.X). X.Xz.s.U.[.d.j.l.s.p.Z.T.M.D.P.M.n.n.m.m.M.M.d.e.r.t.t.n.P.a.7.n.N.M.m.M.m.n.N.n.7.s.U.J.D.P.M.m.P.P.T.n.n.D.U.D.n.g.d.D.G.D.D.J.c.n.Z.e.+.a.a.d.i.v.i.i.t.p...t.Z.t.p.s.7.7.d.Z.a.d.i.t.i.n.d.d.a.n.a.7.4.0.6.e.g.d.@.t.d.n.d.n.d.d.a.s.4.4.s.d.a.d.d.c.c.d.a.d.c.a.t.t.i.d.t.t.t.i.a.t.7.t.a.d.+.4.a.i.t.d.i.y.i.d.6.7.k.s.7.r.0.9.j.Z.d.s.d.d.a.t.t.t.t.t.a.r.| <.4.4.7.a.4.+.q.y.t.a.t.t.7.6...| 4.t.#.6.7.@.7.t.#.+.6.t.a.t.6.+.6.4.| 4.7.6.+.| | _ W W } 4.| | 1.} { | _ W } 4._ W [ [ Q [ <.3.} } <.<.[ ,.1.} } ) U F U U Q W U W R R _ { [ W W Q U U Q Q W W Q W Q S U U Q _ U V U S U S U U V F E V x V C n Z W W F Z W W ",
"B B A M B A V B t Z S f B f d V } _ ( R R W ( R R R W R _ _ _ W F W ) } _ R } { } _ { } _ | } S W _ _ { 4.| <.| +.4.4...4.4.4.4.6.4.<.| | 4.6.7.4.4.} [ 4.+.4.4.+.4.5.4.1._ ..7.4.<.,.<.7.e.e.e.e.e.t.t.t.t.t.s.d.a.e.4.1.6.7.t.6.4.7.7.q.q.7.5.5.7.| [ 4.@.@.7.7.e.7.@.@.t.t.7.t.t.q.t.t.q.4.+.7.t.q.t.t.q.7.6.7.a.a.a.7.t.d.p.r.4.s.p.7.0.4.6.d.d.a.a.t.t.a.t.7.t.e.t.t.i.a.7.4.6.4.a.k.4.7.s.u.v.g.g.n.g.z.r.r.k.d.s.g.n.g.g.n.D.d.d.n.D.n.J.M.P.P.Q.Q.M.D.U.T.Q.T.g.u.J.Q.Q.M.Q.P.M.Q.D.t.D.[.n.s.s.k.G.W.W.Q.W.Q.Q.Q..XQ.Q.Q.P.[.}.g.s.s.g.Q.P.t.n.Q.Q.Q.Q.Q.Q.).W.a.a.P.)..XW.Q.Q.Q.Q..XW.Q.[.W.[.oXoXoXoXW.W.W.[.}.W.[.oXg.d.W..X.X.X.X.X.X).Z.s.U.W.g.j.j.s.Z.W.Q.M.M.P.P.M.n.M.M.n.M.m.d.p.p.p.d.T.g.e.n.Q.M.m.m.n.n.N.M.t.z.U.P.P.P.P.P.Q.Q.P.U.P.P.D.G.n.n.n.g.c.D.D.n.Z.d.g.p.6.s.d.g.d.v.d.i.a.s.+.p.d.a.7.t.e.d.Z.n.a.d.u.t.a.g.v.n.c.n.n.k.0.9.9.e.g.n.7.s.c.n.d.d.d.d.c.A.0.7.d.d.c.M.n.n.d.d.t.s.a.a.t.t.i.d.i.d.i.d.d.a.t.a.d.d.7.7.a.d.u.d.d.u.d.d.7.t.Z.s.0.0.9.j.Z.n.d.d.a.d.a.t.t.a.t.a.d.d.0.1.4.6.7.a.6.+.t.i.t.t.a.t.q.t.1.| 6.7.7.6.7.7.6.6.7.7.6.6.7.4.+.6.t.6.| ..6.e.7.+.+...) ) <.4...+.4.} | 4.<.) <.4.) Q ) Q _ 4.4.| 4.} | 4.<.[ [ } | 1.) F U Q _ Q U U Q Q { ) W W Q [ Q U Q ) _ _ _ R ) Q Q W Q W E V E U E S W U U U F V B B C M Z U U F W Q E ",
"C B M B B l F M t M B f l l S W _ Q E W ) T U Q ) T R W T Q } Q U S ) } Q ) { { { _ ( Q { { ) S W R } } } | 1.} } | 4.4.4.4.4.4.1.4.4.} <.4.4.4.4.+.{ [ 4.4.{ } 4.4.+.7.4.) <.7.<.[ <.4.7.7.7.t.t.7.7.t.e.t.a.t.t.a.d.7.1.4.7.t.6.| 6.t.7.7.7.4.+.7.<.{ 4.6.7.6.7.7.@.| +.7.7.q.7.7.a.t.7.7.6.e.7.7.p.e.7.t.4.| 7.s.t.t.7.t.a.a.0.| s.a.7.4.6.a.d.d.a.a.t.t.t.a.a.t.7.t.t.t.t.a.4.1.4.a.s.4.7.a.y.i.g.n.a.d.Z.0.r.z.s.d.d.d.n.M.d.g.n.g.d.n.M.M.n.n.M.P.M.M.J.Q.D.J.W.d.t.Q.P.P.M.M.M.M.W.D.t.D.W.g.s.s.D.[.Q.Q.P.Q.P.Q.Q.Q.Q.P.P.Q.Q.W.U.d.p.g.Q.P.u.M.Q.N.Q.Q.P.P. XW.a.a.P. XQ.).W.Q.P.Q.Q.[.W.Q.T.W.W.oXoXW.P.Q.W.W.W.[.[./.g.g.W..X.X.X)..X.XQ.g.a.G.W.d.j.j.Z.[.P.M.Q.M.M.P.m.m.M.M.M.m.m.D.a.p.s.g.U.d.e.D.M.m.m.n.n.n.m.n.t.d.U.M.P.P.P.P.P.P.J.P.D.D.U.Z.g.D.n.g.a.d.n.n.n.D.d.r.6.k.a.i.d.d.d.d.a.t.4.7.Z.t.4.r.d.Z.d.d.d.a.a.d.a.a.d.n.d.c.n.d.s.6.4.7.d.d.6.s.D.d.n.d.a.k.d.C.j.e.s.d.n.d.c.d.t.i.t.e.#.s.u.u.t.i.d.i.i.i.t.t.t.t.i.a.@.e.d.y.d.d.i.y.i.d.t.r.k.s.7.4.p.D.d.a.d.d.a.s.a.a.a.t.t.t.t.a.d.e...4.e.a.+.@.a.t.t.t.t.t.t.t.1.} 6.6.#.t.7.@.+.@.6.@.@.@.| | 4.4.t.6.| | 4.6.7.6.@.6.} _ 4.+...4...{ { 4.<._ | } W Q Q [ 4.4.4.4.| [ <.<.,.) ) } | } <.Q U U ) _ U S R Q Q Q W E Q _ E W ) W Q W W Q W Q ) ) R U U c U U E U U F U F Z V F B M M V B U V U Q V ",
"F F F F B V E x f M F x l U ) V F S Q Q [ W W W R R ) W R R Q W V S } } Q ) } { | } Q _ { | ( S W ) | ..<.4.+.| } | 6.4.| } } 1.9.0.4.1.4.5.4.4.+.4.} [ 4.6.| | 6.6.4.7.4._ 4.7.} } 9.7.4.+.#.7.7.7.t.t.e.e.t.t.y.i.d.a.6.| +.a.t.4.t.t.6.7.7.4.4.7.4.[ | +.@.7.7.e.6.@.6.7.7.t.7.t.t.7.6.7.a.u.7.7.7.7.e.p.4.} 7.a.t.a.t.a.t.g.t.4.s.s.7.6.a.n.d.a.a.a.i.d.d.a.d.a.a.a.t.t.i.a.7.1.4.d.d.4.e.g.i.a.d.d.d.g.Z.r.r.k.d.n.d.d.g.J.n.Z.d.d.a.d.M.M.n.n.n.P.n.n.P.P.P.J.P.d.u.T.Q.N.M.M.Q.Q.W.D.t.P.W.d.t.G.W.Q.P.P.M.M.M.Q.P.P.M.M.P.[.Q.Q..XD.s.g.[.P.u.J.W.P.Q.Q.M.Q. XW.a.a.P. XQ..X.X[.P.P.P.Q.P.U.P.M.M.W.oXQ.J.T.[.[.[.T.W.}.z.Z.oX.X.X.X)..X.XW.g.s.U.W.d.a.Z.W.Q.N.M.M.Q.M.M.M.M.M.M.M.m.M.Q.P.s.t.Z./.g.t.P.Q.M.M.n.n.m.M.D.a.g.U.M.P.P.P.P.D.J.P.P.J.J.J.Z.n.D.Z.D.d.d.d.n.Z.D.D.t.6.k.d.d.g.d.d.n.i.a.4.t.D.t.7.d.n.n.d.d.d.a.d.n.d.d.d.d.d.c.d.n.n.p.4.7.n.g.6.s.Z.d.d.d.s.D.Z.Z.e.7.s.g.d.d.a.i.t.t.d.t.7.a.t.t.a.d.t.t.t.t.t.d.t.t.i.a.6.t.d.i.d.d.i.i.i.v.t.a.z.s.6.t.z.D.d.d.d.c.d.d.d.d.d.a.t.u.y.a.a.a.4.4.p.s.@.6.a.t.t.t.t.t.t.p.4.} 4.e.#.6.@.| | 6.4.| 4.7.4.7.7.4.t.@.| 6.+.| 4.+.4.+.{ { 4.4.| ..| | +.4._ _ 4._ E [ <.| | <.4.<.[ <.<.>.<.} [ } <.{ <.,.W U _ } W R [ W Q _ ) W Q [ W E Q U U x V S E [ [ _ _ R U U W E U S B M B Z Z F U V B B Z V E S U E U ",
"V E F S U V B F e f W S B S S V U Z R R Q Q U W Q R W R T W Q W W W ! } _ W } +.{ R } _ ` { R S ) ) _ +.6.| ..| ..1.| 4.4.} | 1.6.6.5.4.3.7.0.4.o.4.{ _ 4.5.+.+.+.4.7.4.<.) 4.4.} 4.7.6.+.| +.6.7.e.7.e.t.7.7.t.t.i.y.t.q.4.#.t.7.+.t.t.q.6.4.4.6.5.} _ | | ` 6.7.6.e.t.q.7.7.7.7.t.6.@.7.t.t.t.7.6.7.e.7.7.4.{ 4.7.a.t.q.a.d.d.t.+.a.a.e.a.s.d.d.n.d.t.t.i.a.a.t.a.t.a.t.t.t.a.t.4.7.d.a.4.7.a.a.i.t.a.d.n.s.6.r.k.d.n.d.u.u.g.D.Z.d.a.d.g.g.n.n.n.n.n.v.M.n.D.P.M.M.a.t.D.Q.Q.m.M.P.).D.Z.t.M.W.n.n.W.Q.P.P.Q.M.M.P.P.P.Q.M.Q.P.P.Q.Q.W.P.D.M.W.P.u.n.Q.Q.Q.P.M.Q.Q.P.a.t.D.Q.).Q.).W.Q.P.Q.Q.Q.W.W.Q.Q.[.oXW.U.W.W.W.T.T.W.W.d.g.oX.XW.)..X.X.XQ.d.s.D.W.n.D..XW.P.P.M.M.M.m.m.M.M.M.M.M.M.M.P.Q.Z.a.D._.d.e.D.Q.M.M.M.n.n.M.n.t.d.D.J.M.M.P.M.P.P.D.D.J.M.D.D.n.d.n.n.n.a.s.D.D.n.D.p.4.s.g.d.i.d.d.v.d.t.6.t.Z.d.a.d.a.a.d.d.a.d.a.d.d.d.y.s.a.a.a.d.v.d.7.7.d.d.#.p.d.g.a.s.d.D.d.d.7.6.d.g.a.a.t.t.t.d.y.a.t.7.t.d.i.d.d.i.t.*.u.t.i.i.t.a.#.7.d.c.i.i.y.d.i.a.e.t.n.t.t.n.n.d.d.d.a.c.n.d.i.d.i.t.i.d.i.y.t.p.t.7.t.d.4.@.a.a.t.t.t.t.u.a.4.| 6.6.#.#.@.6.5.+.4.+.| @.t.7.4.7.@.4.@.| 4.+.| } | 3.} _ +.6.| { | | 4.| W R <.[ Q <.<.{ [ <.<.<.<.} <.<.<.[ ,.[ [ } { _ Q U _ [ U Q } _ _ R Q _ _ Q U V W ) R W E V S E Q _ ( W Q W U E U V A M f C E V S U B B U V S U U V U ",
"Z V F U E S B B y l E c c l B F W U W W Q W U Q ) R W Q _ Q _ _ | _ { } Q U _ { { { { ` ` } R W | _ _ | 4.4.....6.4.6.4.4.4.7.4.6.7.7.4.4.7.7.6.4.6.| { +.6.7.+.4.6.7.4.| _ 6.7.6.q.7.6.6.6.7.7.e.t.t.e.7.t.a.t.u.i.t.t.t.t.t.y.t.+.4.t.t.7.6.6.6.4.( _ 4...| +.@.#.7.t.7.q.t.6.@.6.4.#.t.t.7.7.6.6.7.p.e.t.4.} 1.7.t.a.s.s.s.a.e.6.a.a.t.g.a.s.a.n.d.a.a.s.t.t.t.d.s.t.e.t.e.a.a.t.a.i.a.6.6.e.a.d.t.d.a.d.7.6.r.z.d.d.u.a.s.g.n.n.n.d.d.n.d.n.M.J.n.n.n.M.n.J.P.M.J.d.t.g.P.Q.M.Q.Q.Q.n.n.u.M.Q.W.Q.Q.Q.Q.Q.Q.P.Q.P.P.Q.{.Q.Q.Q.[.Q.[.Q.W.W.{..XP.u.n.M.Q.Q.Q.Q.Q.Q.n.a.s.P. X XQ.Q.Q.Q.W.W..XQ.Q.[.[.W..X[.[.[.[.[.W.W.[.W.T.d.d.W.).Q..X.X.XQ.M.d.s.D.).Q.W.W.Q.Q.N.M.M.M.Q.Q.m.M.M.M.N.M.M.P.Q.P.P.W.W.z.e.n.P.M.M.M.n.m.M.n.s.g.U.M.M.J.M.M.M.P.J.J.P.P.P.U.n.n.g.n.n.d.d.n.n.D.D.s.6.p.d.d.i.n.v.n.s.t.7.s.D.n.c.Z.s.a.s.d.d.g.a.a.a.d.a.a.a.n.i.d.d.d.d.i.a.s.#.e.a.d.a.Z.d.D.d.t.e.e.k.z.d.d.t.t.t.d.y.d.y.t.u.d.d.d.v.v.t.t.i.i.i.i.i.a.6.7.a.i.i.d.i.d.d.t.#.e.g.i.d.n.d.g.d.i.t.a.d.v.d.i.i.a.i.i.i.t.t.d.d.t.d.d.6.+.t.a.t.a.a.a.p.7.4.+.6.6.$.#.@.e.t.6.t.7.| +.7.7.6.7.@.+.@.6.6.4.} [ | +.| _ | 4.| ....| +.[ U ) 4.<.<.4.} _ [ [ <.<.4.} <.1.<.[ <.<.| } { [ _ _ { [ T E { { ` Q ) _ ) F B Z Q R _ _ ) W W U W W Q U E U V E E U W V B V F F S F l B W S F S F F E ",
"B l l F F x l B y l B S U V F V U W U R Q U E W Q _ _ Q ( Q _ ! _ { } _ W W ( R _ _ { | | ` ) R _ | } ( | +.| ..4.6.6.4.6.4.6.7.e.7.6.5.@.5.7.7.@.6.} _ | ..4.+.+.5.4.1.} ) 4.t.7.7.4.@.7.e.t.7.6.e.a.7.@.q.t.t.t.t.t.7.7.i.i.t.6.| 4.@.@.7.q.7.| } _ _ | +.@.@.@.#.+.@.7.q.t.+.| ..@.7.7.t.7.6.5.t.q.7.p.t.| } 6.6.+.p.s.s.6.6.t.+.t.d.t.d.d.t.#.e.a.d.a.s.7.7.t.a.s.7.#.7.e.t.e.a.d.t.a.4.r.7.6.s.a.d.r.7.e.0.6.d.d.u.u.d.a.u.d.n.d.g.d.g.n.M.n.n.g.n.d.n.D.M.M.M.P.s.t.n.d.v.M.Q.Q.d.d.Z.t.M.W.W.Q.Q.P.Q.P.P.P.P.P.Q.P.Q.Q.Q.P.[.W.P.P.Q..X{..XP.t.n.M.n.P.Q.Q.Q.d.d.s.t.P.{.Q.Q.Q.Q.Q.Q.[.Q.W.[.Q.Q.[.[.[.[.W.W.[..X}.T.Q.W.d.d.U.n.P..X XW.d.d.d.t.D.).Q.Q.P.P.Q.P.P.M.D.P.Q.P.n.M.P.M.M.M.M.M.Q.P.Q.}.z.e.d.n.M.H.M.M.M.d.d.s.d.P.n.n.M.M.P.M.P.P.D.M.P.D.D.D.n.g.n.d.Z.c.n.n.D.D.s.7.p.6.s.d.n.n.s.7.p.6.p.D.d.d.d.s.a.t.d.d.a.d.s.t.a.d.a.a.a.a.y.i.d.n.d.d.p.+.e.t.t.d.n.n.a.&.a.t.6.d.a.d.g.t.t.t.t.d.c.y.t.t.i.d.v.d.i.t.t.y.y.i.i.i.y.@.7.a.7.t.c.i.a.t.t.#.7.s.d.c.d.a.d.d.d.a.t.t.d.y.y.t.i.t.t.t.t.t.s.a.i.d.a.4.6.@.7.s.t.a.a.@.4.4.| 4.t.#.@.@.+.6.q.7.7.6.+.@.t.6.+...+.@.6.+.} _ } | } } } { { +.+.4.4.} Q W Q <.| 3.<.[ [ <.} <.{ <.4.[ [ 3.4.4.4.<.) Q ) } | | Q U W R R { _ _ W S B A B U _ ) R ) Q W U E E U W E S U Z S E E U S z U V S V f f F U V V U V F ",
"B f B F Z l x F f l S S W W W V S W E Q _ R R Q Q _ _ W U R _ R _ { } _ W ) { U R ' | | ` { | R ) | | } 4.+.4.4.| | | 6.7.6.6.7.6.6.4.5.7.4.7.t.@.#.{ { ..' +.6.@.| _ | 1._ 4.7.@.| | ..6.6.7.7.7.t.7.#.@.q.a.t.7.t.u.$.7.t.t.t.+.| 7.+.{ +.7.4._ } | _ +.6.+.| 6.#.| | #.t.6.| | +.7.t.7.t.t.7.7.t.t.t.e.6...| r.7.+.7.7.7...e.s.+.7.g.t.a.d.a.t.7.7.g.d.g.t.7.t.d.t.e.7.7.t.t.e.s.i.a.a.4.s.t.+.p.t.t.7.7.z.p.6.d.a.u.a.n.d.d.d.n.v.g.v.d.n.n.v.J.n.d.d.n.M.P.n.P.P.u.t.U.i.u.g.Q.P.y.n.D.t.M.[.Q.Q.[.P.P.M.P.P.M.Q.W.P.M.M.Q.Q.Q.P.M.M.[..X[..XQ.t.M.Q.f.v.Q..Xv.u.P.d.u.P..XQ.Q.[.Q.{.Q.[.{.Q.Q.W..X[.W.[..X[.[.[.[.[.P.Q..Xg.g.W.d.g..X+XM.s.D.g.t.J..XP.P.J.M.Q.M.M.P.M.M.P.m.M.P.P.M.M.M.M.P.W.P.Q.}.g.e.Z.n.d.M.M.M.d.t.n.d.a.P.D.M.M.P.P.m.P.Q.D.M.J.D.D.J.n.n.n.D.P.D.D.n.n.J.a.7.j.7.7.a.D.d.7.7.k.6.t.D.d.d.n.d.d.d.n.d.n.n.d.y.d.n.u.e.t.t.t.t.d.d.n.M.s.#.p.p.e.t.n.n.u.&.n.t.$.d.d.d.d.d.i.t.a.i.i.t.7.i.d.i.d.i.t.q.t.t.d.d.i.t.i.@.7.a.$.@.a.d.t.$.a.7.7.d.g.d.d.d.a.d.n.d.a.t.t.t.i.i.a.t.t.t.i.i.t.a.a.d.a.+.7.7.6.t.a.a.e.+.7.7.| #.t.$.#.+.| +.#.7.q.e.#.7.t.7.@.+.6.4.| } } } ..+.| } { } _ } | 4.+.` _ ) R } 4...<.[ } <.} <.} 4.4._ [ <.4.<.[ _ _ [ _ } { { R U _ ( H ( _ _ U S U W B U _ ! Q ) ( R U U E W U W E W V U Q U V c U U c U S V y F W c S E U F ",
"B l B F f f Z x l x U z U U U S S V U E R Q Q W Q Q Q T R W U ) R _ Q _ W W _ R R | | W ) { _ W ) | 6...} 4.6.+.| } } 4.6.6.6.4.+.+.6.@.+.5.@.q.#.+.{ { 5.+.' { ..} ` 4.| _ | 6.6.+.4.6.6.@.4.6.7.7.6.+.6.7.7.q.t.t.t.t.#.7.t.7.| 4.t.7...} } _ _ 4._ W 1.@.{ { +.@.@.+.o.@.6.4.{ +.6.#.t.t.7.e.7.7.t.t.@.4.3.} 7.a.e.@.+.6.4.t.t.+.6.y.u.i.t.d.s.a.t.i.d.d.u.a.t.t.t.s.7.t.7.t.t.t.t.a.t.4.r.s.7.@.7.7.6.d.s.7.6.s.a.d.a.a.g.g.d.i.n.n.d.d.d.n.n.n.n.d.g.D.n.M.M.v.D.t.e.U.D.i.t.D.d.v.P.d.t.n.P.Q.Q.U.P.M.M.P.H.M.P.Q.M.n.M.P.P.Q.P.M.Q.W.[.[..XQ.t.n..XM.i.n.J.i.v.W.d.u.P.W.Q.W.[.W.Q.[.Q.Q.Q.Q.W.W.W..X.XW.W.[.W.P.P.Q.Q.W.g.d./.T.d.A.G.g.P.T.d.t.D.W.P.Q.M.M.M.m.M.M.P.M.v.n.M.D.Q.M.M.n.M.P.P.P.P.U.k.e.C.[.u.u.T.n.e.d.J.t.d.P.M.M.J.M.H.Q.Q.M.P.n.n.M.D.n.D.Z.D.U.D.D.D.n.n.Z.e.6.k.k.e.7.d.t.p.j.s.6.t.n.d.d.d.d.d.a.d.d.Z.d.s.t.i.d.t.t.t.7.t.t.t.d.v.n.a.+.t.D.t.+.u.u.t.t.d.e.#.s.d.a.a.t.t.t.t.t.t.t.t.t.y.y.y.t.t.t.7.t.i.d.t.*.a.4.6.p.a.#.e.e.$.q.a.7.6.d.n.d.d.a.d.d.d.d.c.t.t.t.t.d.i.t.t.t.t.t.i.a.t.a.t...7.s.7.+.t.r.+.6.t.4.| 4.6.#.7.6.@.+.+.#.#.@.#.7.7.+.@.#.@...} { 1.4.{ ..| ( _ | { R _ { _ { { Q W { ..{ _ } [ [ } [ } 4.<.Q Q [ [ [ _ [ _ } _ ( _ _ E E ) { R R U W S Q W S S W E Q Q Q W W W W U W S U E U W E W U x S V S U S U E f l E S V S E F ",
"B A F Z f l U V U S S S W U U W U S U U Q Q [ Q { Q W R { R ) Q _ ) _ _ ) W } ` _ _ R U | ..( ) _ 4.7.4.4.4.4.4.4.1.4.4.7.7.7.7.6.6.7.7.#.@.#.#.@.@.{ { 7.%.@.{ } | 6.t.o._ +.7.t.6.7.7.6.6.7.7.7.7.6.6.e.p.q.q.t.a.a.t.7.7.t.e.4.4.7.t.7.| _ [ 1.7._ U | 4.{ { +.@.@.6.| @.7.7.@.6.7.6.#.6.6.7.t.t.t.7.#.7.6.} 6.d.a.e.4.7.s.t.e.6.4.t.t.t.a.a.a.d.t.t.7.t.t.a.t.u.t.t.u.i.t.s.u.t.t.a.a.4.7.d.a.e.7.r.s.g.s.7.r.p.s.n.a.d.d.d.t.a.g.M.n.n.g.n.M.M.n.g.M.P.M.J.M.M.M.s.e.D.Q.M.u.s.d.W.P.z.t.n.Q.Q.P.J.n.n.M.Q.P.P.Q.Q.M.M.P.P.P.Q.P.P.Q.W..X[..XQ.t.n.Q. Xv.a.d.M.W.W.d.s.U.W.Q.P.P.W.W..X[.{.Q.Q.Q.[.W.[.W.W.T.P.P.J.J.W.[..Xg.g..XoXP.z.k.T..XU.z.a.D.W.P.Q.J.n.M.M.M.D.P.M.M.M.P.P.P.M.n.n.J.M.P.P.P.U.k.r.D.oXn.t.d.d.d.D.J.a.d.P.M.P.P.D.M.M.Q.m.P.M.n.M.P.n.D.G.U.D.D.d.d.g.D.n.r.6.k.Z.d.s.s.a.C.Z.j.7.t.Z.d.d.d.d.n.d.s.a.i.t.t.e.a.a.a.a.d.t.t.t.t.a.i.d.a.6.p.D.g.$.7.7.g.g.a.e.#.a.d.i.d.t.a.i.d.t.i.y.i.t.i.i.y.y.i.t.7.t.t.t.*.t.a.6.6.a.d.i.t.#.t.i.d.7.#.d.n.d.a.t.d.d.d.a.c.d.i.t.u.d.y.t.d.d.t.t.d.d.y.a.a.+.7.s.t.7.7.4.7.t.a.6.| 4.7.#.6.7.e.6.+.#.#.@.#.7.7.6.#.@.+...| 1.4.+.| +...Q Q 1.| _ _ ) _ 4.| W W } | _ _ [ Q ) <.<.[ } } _ [ >.[ | | | } | _ _ } } Q E W { ' ( c x S _ Q S W ) U _ Q ) W E W R E E U U V F U U Q V S U V U S W U E B M V x V W U B ",
"M B F M f Z F V S S S S S U W S W U S W W ) E Q _ _ _ R R _ Q _ { W ) [ E W _ ` | Q R } ..| ) R 1.4.4.4.4.<.} 1.6.4.4.4.4.6.7.6.7.q.7.7.7.@.@.+.#.#.} { +.$.q.| ` +.6.7..._ 4.7.5.6.4.4.4.6.7.4...4.6.7.t.7.t.t.7.t.a.7.7.q.7.t.4.{ 7.t.7.4...4.o.+._ T } | +.+.+.+.| @.@.6.@.@.6.6.@.@.+.@.7.t.7.t.t.7.#.t.e.} 6.t.t.a.6.a.d.#.7.7.+.a.7.t.t.t.t.t.e.e.7.t.7.t.s.u.t.a.t.i.a.t.t.a.t.t.s.4.r.e.a.s.6.s.d.p.7.p.7.d.d.d.d.d.t.d.a.a.i.g.n.Z.n.D.n.n.d.n.n.M.P.P.D.M.M.a.t.g.v.Q.n.g.U.W.n.Z.a.M.P.P.Q.J.n.n.M.J.P.P.Q.m.M.P.P.M.M.Q.P.Q.Q.W.[.[..XP.t.D.P.N.Q.g.n.Q.N.P.d.s.T.Q.M.P.M.P.W.Q. XQ.Q.W.[.W.Q.W.W.W.Q.Q.Q.W.W.Q.{..Xg.g.U.P.T.U.U.oXP.D.Z.t.n..XM.P.J.M.M.M.D.D.M.D.P.P.P.Q.M.n.n.n.M.P.Q.D.P.T.d.e.g.J.J.d.t.M.D.n.n.a.d.P.m.M.P.P.M.v.M.m.M.M.P.D.D.H.P.D.U.D.n.d.Z.g.g.z.7.6.k.s.d.a.z.k.k.a.s.7.t.Z.a.a.d.a.d.d.a.t.t.t.a.e.t.t.d.t.s.a.d.t.a.t.t.y.a.4.7.d.n.d.t.t.M.d.7.t.@.t.i.t.y.d.d.n.d.y.t.q.t.y.y.y.i.y.t.t.t.t.t.$.u.t.a.6.4.t.t.d.t.7.d.a.t.6.@.a.d.i.y.t.a.d.a.y.d.d.t.t.y.y.y.y.i.i.y.t.a.d.d.t.a.4.7.t.q.a.7.+.a.a.7.4.| 4.t.#.@.@.@.#.$.@.@.@.+.#.t.7.6.| { ..6.+.| ..+.| | _ T _ +.{ Q } 9.4._ Q Q { { _ _ Q [ } ,.<.[ Q <.} _ <.4.3.| o...} { { _ { ) S W ( R Q U T R ) U V U ) _ _ Q U W W W W W W U U B B S E V E U U U c x U S V l B l f S U F f ",
"f y Z B Z E V f l V W V V S W W ) W E Q _ W V S E Q } ( Q R R ) _ ) _ } W W Q | +.| | +.+._ _ ) 4.5.6.4.4.} <.| 4.4.4.7.+.| 4.4.6.5.@.@.@.6.6.+.#.7.{ | +.+.$.#.@.+.| +.| } 7.7.6.4.4.<.7.7.4.4...6.7.6.t.t.t.q.t.a.t.7.7.q.7.t.6.| 4.5.4.5.t.7.o.| _ Q 1.+.@.#.+.+.@.6.@.+.+.@.7.6.+.+.@.7.t.t.7.t.t.t.t.t.t...6.7.7.a.a.s.e.#.q.p.6.a.t.u.t.u.e.7.e.s.t.a.t.a.a.t.a.t.7.t.t.t.a.d.i.a.s.7.r.7.t.a.a.Z.a.e.7.s.7.D.d.g.d.d.d.D.d.n.a.d.D.d.a.Z.n.n.n.M.n.M.P.P.J.n.D.a.t.g.i.v.M.W._.n.i.D.a.J.P.Q.Q.Q.P.J.n.M.P.P.Q.P.M.Q.P.M.M.Q.Q.Q..XW.W.[..XP.t.D.P.f.M.Q..XP.g.D.d.d.T.Q.M.Q.Q.Q.P.Q. XQ.Q.[.D.n.W.oXW.[.Q.Q.[.[.[.Q.{.[.g.g.U.n.g./.#XU.s.Z.D.t.n..XP.P.P.P.D.P.M.M.P.D.M.n.J.P.M.M.P.M.P.J.P.P.Q.G.z.p.z.g.n.U.P.Q.v.d.M.a.d.W.P.P.Q.Q.m.M.M.M.D.H.n.a.d.U.U.D.U.D.g.n.J.n.g.z.r.6.k.s.s.d.U.A.t.7.s.7.t.Z.u.d.n.d.d.n.a.a.a.s.d.t.t.a.d.i.a.i.d.t.t.a.i.i.d.6.7.a.i.u.d.M.d.e.6.t.#.t.d.y.i.i.a.t.t.t.t.t.y.e.7.y.d.y.a.t.t.t.t.t.i.u.a.6.#.a.t.i.c.d.n.t.7.6.6.t.s.t.t.a.a.a.a.d.d.a.#.t.d.t.u.y.i.d.d.t.t.s.a.y.a.5.7.t.7.y.d.a.a.7.+.5.4.4.7.$.7.7.6.7.t.#.#.#.7.4.+.4.@.+.+.+.@.@.4.4.@.+.+.| R ) ..+.| 4.4._ R _ ( { { } [ >.<.| <.<.[ ) <.4.} <.} { [ { { [ { { ` { } T R ( K U ( } _ T S U U U U ) W T W Q W U ( ) F V Z Z B U V Q U W S x l S c x l S B V U W S l ",
"m t M F B U l d l B U V V x U R W Q _ _ Q W E F W W W R _ R R T _ _ _ } W S ) _ | +.4.| } ) ) ) 1.0.7...<.<...<.<.4.6.4.| _ <.6.4.o.+.+.6.#.#.#.@.#.{ | +.` | @.5.| _ | | } 4.t.7.4...4.4.4.4.| ..7.#.+.7.t.t.t.7.t.t.7.@.7.7.q.7.| 4.+.| 4.4.4.} | { R | +...+.@.@.@.@.| | +.6.+.| ..6.7.7.7.t.t.7.7.t.e.$.7.| 4.e.+.7.a.t.+.#.t.r.@.a.a.a.t.t.e.t.t.t.i.d.a.t.7.e.t.7.7.t.e.t.a.a.d.n.a.4.r.e.@.p.g.d.7.7.p.t.7.k.D.g.i.d.d.n.n.d.d.Z.s.t.0.s.D.n.n.n.n.n.n.n.n.M.D.s.t.n.a.t.n.oXD.a.s.C.t.n.W.Q.M.P.P.P.M.M.M.Q.M.m.M.M.M.P.M.P.Q.Q.Q.)..XQ..XP.t.J.P.i.i.P..Xg.s.D.d.a.U..XQ.Q.W.Q.Q.Q.Q.{.[.D.d.s.D.W.[.Q.Q.Q.Q.[.Q.Q.Q.T.g.g.T.g.s.!./.k.p.A.D.t.n.W.M.Q.M.P.P.M.M.M.P.M.n.v.M.P.J.M.D.P.Q.Q.T.P.Q.T.d.p.z.g.s.J.T.n.t.s.n.t.g./.P.Q.P.P.M.m.M.n.P.D.a.p.s.Z.U.U.U.D.Z.g.D.D.n.d.p.6.k.k.e.p.G.z.7.9.s.7.e.Z.a.t.d.Z.d.d.d.p.p.a.s.t.s.q.t.d.d.y.t.t.d.t.u.d.a.6.7.a.e.7.d.n.t.@.t.e.+.t.t.t.i.i.t.t.y.t.t.d.t.+.4.7.t.i.i.t.7.t.a.t.t.u.d.7.#.s.7.$.c.n.t.@.t.7.+.p.u.t.a.s.a.q.s.d.p.@.t.y.i.t.t.d.d.i.a.t.t.t.t.t.t.4.7.a.@.#.d.a.7.| | 5...+.@.#.t.t.e.@.@.6.@.@.7.} Q } 7.4.| | | 4.7.6.+.@.+.} ) R ( | 4.4.{ R _ [ T { | _ { <.<.} | 1.[ Q [ | { _ <.| { _ _ } _ { | { { U R ( H H W _ R c V Q U B U W U Q U Q U U ) W V B V F B U U H W U c c S S z S l V V F B Z l B ",
"m f B B V B B M S l U T U x W _ Q W ( ) Q W [ Q _ Q ) R _ ) R R { _ _ ) F F ) Q } | 1.{ _ _ ) ) 4.0.6.1.<.4.4.| 4.4.7.4.} } 1.4.4.4.6.6.7.6.#.#.@.#.` | +.' } 4.4.} _ ....} 6.7.6.6.7.4.4.4.4.4.7.t.7.#.e.t.t.a.7.t.a.7.#.7.t.a.7.} 4.+.+.4.<.<.} +.| ( | +.| ..7.6.@.@.+.5.4.+.} _ <.7.t.e.7.e.7.#.7.t.e.7.7.| 7.t.4.6.e.6.+.7.t.e.#.u.a.t.t.e.t.d.t.a.i.t.t.a.7.7.t.e.t.u.t.s.d.d.a.s.t...p.r.6.7.r.r.7.e.s.t.6.d.D.n.d.n.d.n.n.n.n.Z.p.p.s.p.z.J.M.D.n.n.d.g.n.P.P.a.t.D.d.t.s.D.d.t.d.G.u.g.P.M.P.P.M.P.P.M.M.Q.P.M.M.Q.M.P.P.M.Q.Q.Q.)..XQ..XP.t.J.P.d.s.D.D.d.a.U.Z.s.D.[.Q.P.Q.Q.Q.Q.N.[.J.d.d.k.d.D.[.W.Q.{.Q.Q.W.[..XW.g.g.R.D.s.k.z.d.s.D.D.t.n.Q.M.P.P.P.P.P.P.P.P.P.M.M.J.D.P.J.P.M.P.T.T.U.Q.T.d.r.A.z.s.z.D.s.t.s.n.u.g.W.P.Q.P.M.P.H.M.P.P.d.p.s.d.s.C.T.U.G.D.n.D.D.Z.Z.s.7.A.d.r.r.z.j.7.r.s.6.7.Z.d.t.s.d.d.a.a.t.s.s.0.7.a.q.t.a.d.d.i.i.d.i.d.D.a.@.t.s.t.7.a.a.t.6.a.t.+.t.t.t.d.a.i.i.d.t.a.a.6.4.4.7.t.i.t.t.t.t.d.i.t.i.d.7.$.a.7.6.a.s.6.6.s.7.+.s.s.t.d.s.s.p.a.t.7.q.d.y.y.y.i.d.d.i.a.d.d.a.t.t.t.6.e.a.6.+.p.e.+.| 6.4.| #.7.6.7.7.+.| +.6.6.7...) Q | 7.7.@.+...4.+.@.4.6.4.{ ( ) R } +...( R { } T } | _ } 3.<.| | <.) [ [ [ ) Q <.4.| | { | } } | { _ K R _ T T S U S U E ) R U U Q W R E E W _ Q F B Z M B V U T U T b c U W T U S B Z B M f m n M ",
"m M f B f f A B M l V Q S c Q { R U R W Q U Q _ Q Q _ Q W Q { ( Q _ [ Q F W [ _ ) ) [ R [ } _ R 1.7.| | 4.4.1.| 4.6.1.} | <.} | 6.6.@.6.7.7.@.+.@.#.` { 4...{ | | ( _ <.} [ 6.7.@.4.7.7.7.+.@.7.7.6.7.7.7.7.q.t.t.t.t.t.6.@.7.a.+.` 4.4.| <.} _ } 4.} Q { | | +.+.@.@.+.| 4.4.{ } <.| | 4.e.e.7.7.t.7.6.e.t.6...7.t.6.+.4.4.4.6.7.7.#.t.t.t.t.t.a.i.i.d.e.7.t.t.7.6.7.a.t.t.y.d.d.d.t.t.7.4.0.t.7.6.8.9.0.7.p.p.+.a.d.Z.d.a.g.d.a.n.z.t.0.p.s.p.p.D.P.M.n.g.a.d.n.M.P.a.t.d.s.p.p.s.a.s.a.Z.t.d.n.M.M.M.M.P.m.M.M.M.P.M.M.M.Q.M.M.Q.Q.Q.Q.Q.Q.Q..XJ.t.D.J.a.s.d.s.d.d.C.Z.a.n.P.M.P.P.Q.P.P.{.M.s.s.d.d.s.d.J.[.Q.Q.Q.T.W.W..XoXn.Z.^.Z.k.k.j.k.s.z.A.t.v.Q.M.M.M.P.P.P.P.Q.M.M.P.P.J.J.M.P.P.P.Q.Q.T.T.J.J.d.e.z.z.p.s.s.s.p.s.g.t.d.W.P.M.m.m.H.M.P.P.d.a.a.s.s.s.d.C.Y.C.Z.n.n.d.n.C.j.e.z.k.r.r.r.r.r.7.p.7.7.Z.a.a.a.t.a.a.d.p.t.a.6.6.a.t.6.7.a.a.d.i.a.n.n.d.t.@.a.p.7.7.7.6.t.t.7.e.+.t.u.t.t.i.d.t.t.t.a.5.4.4.7.4.7.t.t.q.t.y.i.i.i.y.a.e.6.a.7.4.7.7.7.6.t.7.+.t.a.a.a.a.d.a.t.7.a.a.y.t.i.i.y.i.i.d.c.d.s.p.t.7.t.5.6.p.7.4.6.4.6.4.4.+.| +.7.6.@.+.+.+...| +.7.1.Q [ ,.| 4.7.6.+.| +.+.| 4.4.( R [ ( R } _ _ { _ _ W Q { _ { | 4.4.} ) [ <.[ Q [ [ Q } 4.+.4.| { } } Q R W W Q R U U S V W U E Q S S ) Q U R W W [ W B C F l M M B W U c F x V E U W B V F B f f M n n ",
"M l M B l M A F B x S U W U W W U U _ W ) ( ) Q E W } ( R ( | { _ _ { [ Q W ,.[ [ ) ) ) } } } ) 1.4.| | 6.4.4.6.4.1.| [ 1.<.| } 4.6.7.7.7.6.@.+.#.7.] | 6.+.| | [ ( } 1.} _ 4.t.7.@.7.7.7.6.7.t.t.7.t.t.q.t.e.7.t.t.t.p.6.@.7.a.| } 7.6.| <.| } | 4.4.[ | | @.@.@.6.+.| { _ { { ..4.} { | 7.p.t.t.a.a.t.t.i.e.+.0.t.6...4.6.4.6.7.7.7.u.t.t.i.d.a.a.d.t.7.7.a.a.7.6.s.a.t.s.t.d.a.t.u.a.a.6.7.p.7.6.8.r.7.e.a.s.6.a.d.n.d.a.g.g.n.n.s.0.0.s.s.s.p.d.Z.J.n.d.d.J.D.n.T.a.t.Z.s.t.p.s.a.s.d.D.t.d.M.M.M.M.M.M.M.M.M.Q.P.M.v.n.n.M.P.W.Q.W.W.Q.Q.Q..XJ.u.P.D.a.s.d.s.d.d.U.C.a.D.Q.M.Q.Q.P.Q.Q.J.d.s.d.s.d.d.s.d.T.[.[.W.[.[.[..X+Xn.D.R.Z.k.k.l.k.s.Z.A.a.n.Q.M.M.M.P.P.P.P.P.P.P.P.P.W.Q.J.n.J.W.W.T.T.Q.J.T.d.e.D.z.s.p.p.s.s.d.D.s.u.P.M.M.P.P.m.m.P.n.a.s.s.a.s.d.s.g.^.U.A.g.n.d.D.U.z.p.z.z.r.r.r.r.p.7.p.e.7.n.d.d.d.t.a.a.g.a.p.t.6.e.s.t.@.p.a.t.v.i.d.n.c.i.t.4.s.p.6.7.6.6.t.e.t.t.#.t.d.t.u.u.i.t.a.s.7.4.4.6.6.4.7.7.a.i.g.i.i.d.d.u.v.t.7.s.7.4.6.4.7.6.w.t.+.p.d.a.a.a.a.a.t.t.d.i.i.i.i.y.i.d.d.i.d.a.t.t.t.t.a.6.6.a.7.4.6.4.6.6.6.7.+.@.t.7.+.| 6.6.+.| | 4.4.} } } [ | +.4.4.+.4.@.+.6.6.} Q | } ( Q ( } } R _ W W } { | 4.<.} _ [ <.4.[ _ 1.<.) { } | | } _ _ _ _ R T W ) U c U S U W S U V V U Q Q Q ) Q W Q S V F F B B f l S U U E S V S S U x S U B M m B f M ",
"f l M m M f B V V l V V E H S c W E R Q W ) Q U U R _ _ _ R _ } { _ { } W Q ) [ } Q W ) } [ _ } 1.| | | 1.4.6.9.4.} [ <.<.} <.} { 4.7.7.6.@.@.@.#.7.| +.4.| | } } _ ( ..1.{ +.7.6.#.5.7.q.7.#.6.t.t.q.t.t.t.7.7.7.t.t.q.q.7.6.7.| } 4.4.4.{ } | { 4.4.{ 4.4.+.@.+.o.@.4.} Q _ { } ..| { } 4.7.p.s.a.t.a.t.t.t.+.r.e.+.1.4.4...+.7.6.+.t.t.t.d.i.t.a.t.7.7.a.t.t.t.7.t.t.i.a.e.t.a.d.t.a.s.4.t.t.6.7.6.6.7.7.d.a.7.d.d.d.a.d.a.n.n.a.r.r.0.p.p.j.s.p.a.D.D.D.D.D.D.M.H.y.t.g.a.e.r.s.a.p.a.D.e.d.U.J.M.M.Q.Q.M.Q.Q.Q.M.v.v.n.v.n.P.Q.[..XW.Q.Q.Q..XD.t.J.n.u.a.d.s.s.a.U.C.a.D.Q.Q.Q.P.Q.[.J.a.s.d.s.s.s.d.d.s.z.T.}.W.W.[.W.[..Xn.n.^.z.j.k.k.j.s.Z.Z.t.M..XM.M.M.M.Q.P.n.M.P.P.P.P.W.W.P.M.P.Q.W.W.T.P.Q.P.d.e.D.z.r.s.p.r.s.d.n.s.u.M.M.M.m.M.Q.P.d.a.s.a.a.s.s.s.s.a.k.G.D.d.g.D.D.^.Z.t.Z.s.r.r.r.0.r.9.p.6.#.n.d.a.g.t.a.t.a.a.d.7.4.t.t.q.t.7.a.t.a.i.d.n.v.i.a.5.a.a.@.6.7.6.7.6.p.e.#.t.i.i.i.t.t.t.a.6.4.4.7.4.4.4.4.4.7.a.d.d.d.i.d.d.v.t.7.a.6.+.7.7.4.4.7.7...s.a.t.a.t.s.t.d.d.i.i.d.y.q.t.d.d.i.t.t.t.t.p.7.t.a.4.7.t.@.+.6.4.| +.7.7.+.6.e.#.#.+.+.+.6.+.} [ <.<._ [ } [ { | 4.4.| +.5.7.6._ ( } | R W ( _ ( ( { U R } } | 4.{ _ } <.<.<._ _ <.<.[ _ [ } { _ { { _ { Q b W ( b c c U V S U S B U V F U _ Q F U E V U V B B C M B B F U U S V x S z V B F B B n n n M ",
"f M B M B M B F S l S U W U b U _ R W U R ) R U U [ ! { } Q _ | 4.} { | Q Q [ [ } ) ) ) } | } | ..4.6...<.4.0.4.1.} <.<.| | <.[ [ { +.7.7.#.7.7.#.t...| +.+.| } 1.| _ 6.r...4.7.7.7.6.7.e.7.#.#.7.t.t.7.7.7.7.7.7.7.7.q.t.t.7.t.4.| 4.4.| [ <.<.} 4...{ 7.7.@.@.+.@.6.6.| [ } } { } { } 4.4.4.r.s.a.t.t.t.i.t.4.p.e.+.+.6.4...4.r.4.| e.t.y.i.i.i.u.t.7.t.d.y.a.t.t.t.t.t.t.e.7.t.d.t.s.d.6.t.t.7.e.6.9.7.e.d.a.e.n.n.d.d.n.n.D.d.a.r.p.r.t.s.j.s.s.a.s.n.W.P.H.M.M.H.u.t.d.p.r.p.s.p.t.s.z.e.d.P.Q.M.M.M.M.M.M.M.M.d.n.P.M.M.P.M.Q.Q.Q.Q.Q.Q.Q..XJ.u.J.M.u.a.d.s.s.a.G.D.d.P..XQ.Q.Q.W.G.d.s.d.s.d.s.s.k.d.d.d.g.T.[.[.[.[..XoXg.n.U.z.k.k.k.k.s.z.Z.t.M..XP.Q.J.J.P.M.n.M.T.Q.P.Q.Q.W.Q.Q.W.U.T.Q.Q.Q.Q.U.d.p.D.g.r.p.p.p.s.d.D.s.d.Q.P.M.P.P.U.d.a.s.d.s.s.s.s.a.d.s.d.Z.D.c.D.U.U./.Z.e.z.s.r.r.h.0.0.6.p.6.#.n.d.i.a.a.d.t.a.i.v.a.7.t.a.t.t.t.d.y.t.u.v.n.v.v.g.6.a.a.4.6.r.6.7.6.e.e.7.u.i.i.i.t.a.a.e.4.4.7.6.4.4.4.4.5.7.7.a.d.i.i.v.c.g.t.e.a.6.4.7.7.6.+.7.7.+.a.d.y.t.u.d.d.d.i.y.t.t.i.t.$.d.i.t.t.t.a.a.t.t.t.s.7.6.7.@.+.6.4.<...4.7.@.7.7.7.t.#.+.4.@.| } [ [ } [ [ <.} } | 4.4.+.4.+.+.| _ { | { ) ) _ _ ( _ { T _ 4.} [ { [ <.| 1.} >.) [ } [ } } } | _ _ } } { | _ U E Q U c S U c F E U S Q F F U _ U l F U S W V B M B A F B F V W S V V U F B V U B M m n n n ",
"m M B Z B l x Z x x W W U b U U T R U U R R R S Q Q { _ { { ( } } } { [ ) W >.[ _ ) ) Q [ 1.} _ 4.7.6.9.7.4.4.4.1.<.[ <.4.| } [ _ _ { | 5.7.6.6.7.t.` { 4.| | | | } } 6.6...4.6.7.e.7.#.6.7.7.7.+.4.7.6.6.7.7.7.#.6.7.7.7.7.t.a...| 6.+.| <.,.<.<.4.} ( 4.7.+.| 6.7.+.} { [ _ { } [ | 4.4.6.4.6.7.a.a.t.t.i.t.| 7.7.+.4.4.4...4.7...{ t.t.t.t.t.u.t.t.t.7.t.y.y.t.t.t.t.t.t.7.t.e.t.s.a.a.@.7.a.7.7.r.7.6.e.d.p.e.n.n.g.g.D.D.g.p.e.t.p.s.s.a.s.s.d.s.s.a.D.T.P.n.M.P.t.t.g.t.t.p.p.s.p.t.z.e.d.J.M.M.v.v.M.M.m.n.M.n.n.D.M.P.P.P.Q.M.M.M.Q.W.P..XD.t.D.M.s.a.s.s.s.s.G.Z.d.W.{.N.{.[.G.k.s.d.d.s.j.s.s.j.k.k.k.s.d.T.}.W.[..X[.g.g.U.k.j.k.k.k.s.z.Z.t.M.).Q.Q.P.Q.Q.J.M.P.Q.P.Q.Q.Q.P.Q.T.W.W.P.M.P.T.Q.T.d.e.z.d.p.p.p.s.e.d.n.t.d..XM.M.Q.P.d.a.s.k.s.s.d.a.s.s.s.s.j.s.k.D.U.D.^./.k.7.d.s.0.r.r.r.6.+.r.6.+.d.i.y.a.i.d.t.d.i.i.t.s.7.s.t.7.a.a.t.t.i.n.d.d.M.d.7.a.t.6.7.7.7.7.#.e.7.7.a.i.t.y.a.d.7.4.1.7.4.6.4.1.1.6.4.7.4.7.t.d.d.i.v.g.7.7.t.6.4.6.7.7.+.6.6.+.s.d.u.t.i.d.d.d.s.7.#.t.t.7.t.t.t.t.y.a.t.t.y.t.t.a.7.+.6.4...4.4.1.} 4.4.| +.e.7.$.7.7.@.| } <.,.) Q [ [ ) <.<.} [ 1.4.+.| | } { _ | { ( R { { R ( { Q _ <.} <.{ 3.4.} } } [ Q _ } } [ } _ [ [ } { { { { [ b U Q c U U S S c W E c E W S Z W U Z Z A F A F x B Z V F F F V S S U V V U x x F B f M M y n ",
"m d M B B B S V B x U W c U ( U W ) W _ _ W R R ) Q { ` } } ` _ _ } ..| } W ) [ } ) ) ) ) } } } 6.0.p.p.0.1.| 1.8.<.} <.<.} [ _ | } { } 4.7.e.7.t.t.` { 6.+.....| } | 4.4.| 6.e.6.7.#.7.7.7.t.7.6.+.+.@.7.t.a.t.6.6.t.7.6.7.t.a...{ 4.4.<.<.,.} <.7.| ( 4.6.+.@.6.4.{ _ _ } [ [ } } 4.6.4.6.6.4.4.0.s.s.t.i.e.| 7.e.+.4.1.4.4.6.7...@.d.t.t.t.t.t.t.t.t.7.7.$.#.7.s.t.t.t.a.u.d.q.t.t.t.a.+.t.a.7.7.e.r.7.s.n.a.e.g.n.M.M.D.d.a.e.t.r.t.s.s.a.d.s.s.a.s.a.d.D.T.m.M.P.t.t.n.u.p.p.p.s.p.a.Z.e.c.D.n.M.v.M.P.M.m.M.Q.M.J.M.P.M.P.Q.Q.Q.M.M.Q..XQ..XP.u.M.P.a.s.s.d.s.d.U.Z.d.W..XQ.[.U.k.j.k.d.d.k.j.s.s.k.k.k.k.d.s.g.T.oX[..X.Xg.n.R.z.k.k.k.k.s.Z.D.t.M.).M.W.W.Q.Q.P.P.T.Q.Q.Q.T.P.Q.Q.P.T.P.M.J.P.T.Q.T.d.t.z.g.p.s.p.p.t.g.D.t.d.W.Q.Q.U.d.a.d.d.s.k.s.d.s.d.s.s.k.k.s.s.d.~.Y.U.T.d.7.k.s.7.r.r.r.9.6.t.6.$.a.d.i.d.i.d.i.g.a.t.d.d.7.6.7.s.p.a.t.t.d.n.v.d.n.c.7.a.s.7.7.7.7.r.6.p.e.e.i.i.u.d.s.p.6.4.4.6.4.4.4.4.4.0.7.7.6.6.6.d.n.d.v.g.7.e.a.7.7.6.0.7.4.t.7.+.e.t.y.d.d.d.i.d.a.q.7.t.t.7.t.y.t.d.i.i.i.t.t.t.t.s.6.+.7.7.4.1.4.4...7.6.| +.t.t.t.t.7...} } <.<.[ ) [ [ >.<.} ) Q } | +.4.4.4.| _ | | ) R _ _ R R } _ { 4.} { [ { } { } | } ) _ <.4.| | _ { { } { } | } _ U W _ b U U S V S Q Q S W Q F U W U E B F V Z Z B B F V F E F V x F W S S U x V Z l n m C y m ",
"m d d f B B x U l l U z U U T U R _ _ { [ U R ) Q _ _ } { { } Q { } } 4.[ R [ ) _ ) ) ) ) [ _ ) <.0.s.0.1.| 1.<.1.<.} _ [ _ <.<.} | 4.<.} 4.7.7.7.t.o.{ @.+.| | 1._ } 7.4.} 6.7.#.+.6.6.7.7.7.t.t.6.@.7.p.a.a.t.7.@.6.7.7.7.7.e.| _ 4.4.<.<.,.} | 7.4._ 1.4.+.6.| { _ [ Q ) [ [ } 4.4.4.4.4.4.6.4.+.7.s.t.t.7...7.7.+...4.4.+.@.t.6.6.d.i.t.t.t.t.t.t.t.6.#.+.$.#.e.t.i.t.t.i.a.d.t.t.a.a.7.t.a.e.7.7.r.7.s.n.t.$.d.d.M.D.d.t.e.0.r.0.0.r.s.s.s.s.a.a.s.a.s.a.D.P.M.P.t.t.n.d.t.p.p.p.t.d.Z.t.c.H.n.d.n.n.n.M.M.M.P.P.P.n.v.P.Q.P.Q.P.P.Q.P.W..X.XM.u.M.P.d.t.s.k.s.n./.Z.d.P..X.XG.g.k.k.d.d.s.k.k.s.d.k.k.k.k.k.k.s.d.U.}..XoXz.n./.A.s.j.k.j.d./.D.t.n. XM.Q.W.Q.P.P.P.J.P.Q.Q.Q.T.J.J.P.P.Q.T.Q.T.J.Q.W.d.t.D.z.t.p.s.p.t.n.n.t.i.Q.).P.d.a.d.a.d.s.d.d.d.s.s.s.k.d.k.k.s.t.k.~.D.U.k.6.d.k.9.6.r.9.4.e.s.@.q.c.i.i.v.i.y.d.n.t.%.i.d.t.7.7.a.t.e.e.a.a.d.v.v.d.a.6.t.d.7.7.r.7.7.e.s.t.#.a.d.d.d.e.6.4.6.4.4.4.4.1.4.6.7.7.7.4.6.6.7.d.n.d.d.7.e.d.7.6.9.7.7.6.a.a.+.7.u.t.i.a.i.i.i.y.a.t.7.t.s.t.t.i.i.i.i.t.t.$.t.t.a.4.+.t.7.+.4.4.| +.7.6.| +.7.e.t.7...| | | } } [ [ Q [ <.<._ Q ) [ _ | 4.6.4.} | ..{ R ) ) R K R _ R { 4.` _ [ Q [ } } { } [ [ } <.<.[ [ } { { } <.{ _ R E E ) T V E U x U Q W U W W F U W S F F V V A B Z M B A F S F B l l F W W S l x F f y m n n y ",
"Z f f f A x S W x l U H R U T R Q Y { { Q W ) Q } [ Q T _ } { _ 1.| | 4.| ) <.} ) [ [ ) [ <.} [ 1.9.4.| } } 1.1.1.4.[ [ [ [ 1.<.| 4.4...4.<.4.4.q.a.@.| 6.#.| <.1.} ..p.6.| 6.7.+.+.7.7.7.t.7.t.t.e.7.t.t.t.e.7.@.@.6.7.7.6.7.t...| r.7.<.<.,.,.4.0.4.{ 4.7...| } [ } } Q Q ) [ <.6.4.4.4.4.6.7.4.4.6.e.t.t.t.4.e.t.+...6.4...#.s.7.6.y.t.t.t.t.e.t.7.t.t.7.6.7.6.7.t.a.t.y.i.a.a.y.u.n.d.t.t.n.t.6.7.r.7.d.U.u.7.g.d.d.a.p.e.p.r.r.0.7.7.s.p.p.s.a.s.s.s.d.a.d.Z.D.W.t.t.P.n.p.p.s.p.t.D.J.t.n.P.M.v.M.v.n.n.M.n.M.Q.P.M.v.P.Q.P.Q.M.Q.Q.Q.Q.W..XM.t.M.Q.n.a.s.k.s.J.oXZ.d.U.[.J.z.j.k.k.d.d.k.k.k.d.k.k.z.z.k.k.k.k.s.d.D..X+XD.n.+X^.d.l.l.j.Z.#XP.t.M..XQ.Q.Q.P.P.Q.Q.P.P.P.P.W.W.P.Q.Q.Q.Q.W.[.W.P.Q.W.g.u.G.D.s.s.d.p.t.P.M.t.d.Q.M.a.a.s.d.d.a.s.d.d.a.a.k.k.V.d.k.d.s.p.p.s.D.^.k.6.Z.z.r.9.r.9.6.s.d.@.t.n.i.i.d.d.d.g.n.i.t.a.n.d.i.t.a.t.e.t.d.a.d.d.g.i.u.#.t.d.e.6.0.7.7.u.g.e.#.i.d.t.e.4.4.7.7.6.4.4.7.6.7.6.7.7.6.4.7.6.7.t.a.a.d.e.t.d.t.6.0.0.7.t.d.a.6.i.n.i.d.a.d.i.i.i.d.a.t.t.t.t.i.t.i.d.d.i.t.t.i.y.a.7.#.a.e.+.4.4.| 7.a.#...6.7.@.+...1.+.+...} <.} } ,.<.<.,.[ _ <.<.} } | 7.6.} { 4.{ ) ) _ W R } _ T } 4.| | <.} } 1.| } | } } ) ) [ [ } } { } | | ) Q Q W E [ W z U F x W [ U U Q U U W W S F F F V F V F B B V S U S x c l B S U E x B W l f n m y d ",
"Z V l f M S S U c h c T R Q Q T T E W [ R U Q R } _ U b Q _ { { } +.4.4.{ _ 4.| ) ) [ ) { 7.| ( 1.4.} _ <.,.} <.4.} <.[ [ <.<.} <.| <.<.| } _ | 7.s.+.| t.7.| } ,.1.7.a...| 7.@.+.@.@.7.7.e.7.6.7.7.7.6.7.7.7.6.@.#.6.6.6.#.7.7...4.a.t.4.,.[ 1.7.7.4.{ 4.7.{ _ } <.[ } ) Q W [ 1.4.+.1...4.4.4.4.7.4.6.7.t.t.@.a.a.@.+.4.4.+.7.s.4.6.t.$.t.7.t.#.t.t.t.t.6.@.@.6.q.$.t.d.y.t.t.7.t.i.y.d.7.i.n.t.e.6.7.p.n.D.a.7.d.d.t.t.e.7.t.s.s.t.p.t.t.p.p.t.a.a.a.a.s.s.a.a.M.U.t.t.P.D.d.e.s.p.d.U.D.t.M.H.M.M.P.D.M.n.n.M.M.M.J.n.n.P.P.Q.Q.M.M.P.Q.Q.P.Q.M.t.M.Q.P.d.a.s.d.W.oXg.a.U.T.d.k.k.k.k.k.d.s.d.k.k.d.k.z.z.z.d.k.k.k.s.g.[.#XD.n.+X+Xz.j.l.k.U.+XD.t.n.W.P.P.M.P.Q.P.P.P.M.M.P.P.P.P.P.P.P.P.Q.Q.T.W.J.P.g.t.D.T.g.p.s.e.d.Q.M.t.d.P.a.a.s.s.a.a.d.s.s.s.s.s.k.k.d.s.s.s.s.s.0.r.Z.^.k.6.k.z.s.9.9.8.7.d.s.+.t.n.i.t.d.d.d.t.t.t.d.t.d.d.t.a.a.e.t.e.t.d.d.i.u.i.s.6.e.d.p.4.4.4.t.a.d.7.@.t.e.6.6.7.0.5.7.7.7.6.7.7.7.6.7.7.7.7.7.7.0.7.7.a.Z.e.e.d.s.7.7.7.6.t.n.t.+.g.v.d.n.a.i.i.i.t.i.a.i.t.t.i.i.y.t.i.i.t.t.t.t.t.d.7.+.t.t.+.| | +.t.t.@.| 7.7...| ..4.4.| ..1.} ,.} [ ,.,.) [ <.} <.<.{ { 4.4._ } 4.| ( R ) R _ | _ T } | ..| <.} } } <.| } [ [ [ ) Q [ [ } } } } _ Q Q Q U E _ Q U B V V Q _ S S Q U U E W U S V F B B V Z S V x S S V x V V B f S U l V U F M y m t M ",
"V W F l B E U E c x W H U U U U R R ) W ( R R ( } _ R U ( ) { { } +.+.4._ _ 7.5.| ) ) } 7.7...) | 4.| } <.} } <.| | 1.} <.4.<.[ } } 4.1.{ } } | 7.s.+.| a.a.7...} 7.a.t.| | #.#.$.#.#.e.e.e.$.@.7.7.6.6.@.6.e.6.7.7.@.@.7.7.7.t...4.p.a.t.| } 7.t.7.4.| 4.7.{ _ <.1.} } <.[ Q ,.4.+.4.4...7.6.7.6.7.4.6.7.i.t.@.t.d.t.6...4.#.i.a.+.@.t.t.u.q.$.#.e.t.7.@.6.6.@.t.t.#.7.t.a.t.t.7.t.i.u.a.7.t.n.n.d.7.7.g.D.D.d.#.d.v.t.t.p.e.p.p.s.s.s.s.s.s.a.p.s.a.s.a.s.d.s.s.n.W.t.t.P.Q.J.s.p.a.Q.W.n.t.J.P.P.n.n.g.d.d.n.M.n.M.P.M.M.P.Q.Q.M.M.P.M.P.P.M.Q.M.t.n.N.).M.a.p.D.+X.Xg.d./.U.d.k.z.z.k.z.k.k.k.k.k.k.z.z.z.k.k.k.k.k.k.g.Q.+XD.D.+X#XR.k.j.G.+XoXn.t.M..XP.M.M.P.W.Q.W.T.J.M.P.J.Q.P.M.J.P.Q.Q.P.U.P.M.P.d.t.J.[.J.d.p.u.Q.).v.t.n.P.u.s.k.d.s.d.d.s.s.s.k.z.s.s.s.d.d.s.s.s.t.r.d.G.j.6.k.z.z.r.9.8.s.M.t.+.t.v.i.i.M.a.t.$.t.t.i.7.t.t.7.t.a.t.t.t.a.d.d.i.t.i.d.6.e.g.d.7.6.7.g.d.a.e.+.r.7.4.9.7.7.7.7.0.t.7.7.7.e.7.7.7.7.7.7.7.t.r.7.d.C.r.e.Z.Z.t.7.7.t.d.n.t.+.i.v.d.d.u.t.t.d.i.a.i.i.y.i.u.i.i.i.t.t.t.y.y.t.t.d.6.] t.a.7.....t.t.t.#...7.7.+.4.4.6.+.| 1...<.<.) Q ) [ [ <.1.<.4.4.} } 4.4.} | 7.7.| Q ( { 4.4.( R | | } _ _ } | } } } } _ } <.} } [ ) } } | [ ) ) { _ U U _ { ) S F W _ Q S U W W W U E U U F U V V V V A V B S V S B B V Z l S U l l U U S m p f F ",
"V U S l x U T R x h U T b c T U W U R W _ _ _ { _ Q Q ( _ _ _ { { | | { { Q 4.7.4._ _ 4.6.5._ R 1.<.} | } <.1.} <.<.} | 3.4.| _ } <.1.| <.} [ 4.7.p.+.' 6.a.a.6.4.7.t.7.| | @.@.6.7.7.$.t.7.6.6.#.6.7.+.+.7.6.6.$.7.7.7.$.t.t.7.| | 7.u.t.@.4.7.7.7.+.} 5.5.{ } [ } { { | } [ } | +.....1.4.t.7.4.+.4.7.7.t.t.+.7.i.i.t.+.#.t.u.t.| | t.a.s.7.@.#.$.7.#.+.4.@.6.t.7.@.@.@.t.t.#.$.t.t.i.u.#.#.d.d.c.a.a.n.c.H.t.#.i.i.s.7.t.e.t.r.p.s.s.s.s.a.s.s.a.s.d.d.s.a.s.a.n.U.u.t.D.Q.Q.n.d.D.Q.Q.d.7.d.P.M.n.v.d.n.d.d.d.n.n.M.J.M.P.Q.M.n.n.P.M.M.M.M.P.n.t.n.M.Q.Q.n.d.W..X.Xg.a./.U.d.k.k.z.z.k.z.z.k.k.k.k.d.z.d.k.k.d.k.k.z.g.Q.+XD.g.+X+X+XT.C.oX+X.Xn.t.n.W.P.M.D.P.P.W.T.P.P.M.J.P.M.M.M.n.J.Q.P.Q.P.D.P.J.d.e.D.W.P.J.g.n.).).v.t.d.T.d.s.d.d.g.d.d.d.d.s.k.k.s.s.s.s.s.s.s.t.p.r.s.D.s.+.d.d.d.p.r.7.d.n.t.| t.t.u.a.d.t.t.t.a.t.t.t.t.t.t.7.7.t.e.t.a.a.d.t.t.i.s.6.7.d.n.d.d.s.d.i.d.+.+.s.7.4.4.4.7.7.r.7.7.7.7.7.e.7.7.7.7.7.7.7.p.0.e.d.C.r.e.Z.n.d.t.t.d.d.d.t.+.t.d.d.i.t.t.t.t.i.i.i.i.i.i.i.i.i.i.t.t.t.t.t.t.t.t.+.` @.t.t.q.7.q.$.#.+.| 6.6.+.6.6.4.4...| | 1.<.[ Q ) ,.<.[ } <.<.} } { 4.4._ } 7.7.4.| } +.@.| T R | | _ _ } _ _ _ _ _ { } } { | <.} [ { _ } _ [ ) _ _ W U Q _ [ ) ) R _ W c F W U W V B V U V S U F B B B A x B F Z B B l B x z W l f V V U B M B E ",
"S U S x V V b U l l U T b S W R R U U Q Q U ) _ ( W _ } } _ } { | | +.o.| ( | 6.5.+.7.4.4.6.R ) 4.<.} } <.<.4.1.4...| | 4.<.} } 1.3.<.<.4.4.| 4.7.p.+.' @.7.t.t.e.7.t.e.` ..6.+.#.7.#.7.t.q.t.7.7.t.e.@.#.7.7.6.#.#.7.7.7.7.7.#.' { e.t.t.t.7.t.#.6.@.{ 4.7.+.1.} | { { } | | | | ..| <.4.4.4.4.4.4.4.7.7.t.t.+.#.t.y.i.t.t.y.=.t.| 4.7.6.7.@.6.7.t.$.e.#.+.#.t.t.t.7.6.6.t.7.#.t.u.t.u.u.#.#.i.i.n.d.g.i.d.d.#.#.d.d.d.t.r.e.e.p.p.r.a.s.s.a.s.s.s.s.j.s.s.s.z.a.g.T.i.e.M.Q.N.M.P.Q.P.Q.u.$.d.M.v.M.M.D.P.n.c.v.M.n.n.M.M.P..XQ.n.n.P.M.P.J.M.M.v.t.n.M.N.).Q.Q..X XoXn.d.oXW.d.k.k.z.z.z.k.k.k.z.k.k.d.k.k.z.z.d.z.z.d.g.Q.+Xn.g.+X+X+X+X.X+X X.Xn.t.n.P.M.n.D.T.W.P.Q.J.D.P.P.P.P.n.M.M.M.P.Q.Q.Q.P.Q.J.d.e.n.Q.Q.Q.Q.M.N.N.v.e.d.W.g.s.d.d.Z.c.Z.k.d.d.d.k.s.s.d.s.s.d.s.p.r.r.a.D.s...s.g.i.s.d.a.d.d.t.+.t.t.t.t.t.7.t.i.d.t.t.i.d.d.d.7.e.e.t.i.d.i.d.i.i.d.a.@.e.d.n.d.n.a.t.i.t.+.+.s.6.6.4.4.7.4.7.4.4.6.t.7.r.7.7.6.7.7.t.r.0.0.t.d.G.r.e.n.n.n.d.a.n.d.g.e.#.t.d.d.i.i.d.t.t.u.i.i.i.i.i.d.i.i.d.t.t.i.t.t.i.t.t.+.| #.q.$.7.6.@.$.7.| ' 7.7.| | | } | | | <.| <.<.<.<.<.| ,.[ _ _ | 1.} 4.4.( } 4.4.4.6...} +._ U R | _ ( } <.} } } _ } } } } { ..| <.} [ [ Q _ [ ) _ } W S W _ { _ [ W ) W S U Q U F l l B F V E S Z l B B F B B V B B x l M f V U f f B B U V F F U ",
"S S z x S x S z c h c V W b V W W W W U W U U U R W _ _ ` ` } ` | | { 4.{ ( ..| 4.4.7.6.+.o.R W <.1.} [ [ 4.4.4.4.4.4.| <.} <.| <.4.4.<.3.4.4.o.7.p...{ 4.#.7.7.#.t.t.#.| +.6.+.+.@.#.7.$.e.t.t.t.q.7.#.@.6.t.7.@.#.6.7.#.@.#.6.{ | 7.q.$.t.q.7.6.6.| { +.6.+.<.4.| { } | | | | { { ..4.| +.+.4.+.6.4.4.7.a.7.| #.t.$.t.y.y.u.%.7.+.| 6.| +.#.t.6.$.t.t.7.#.t.d.a.7.#.t.7.6.@.#.7.t.t.u.t.+.@.i.i.a.t.t.a.d.t.7...d.c.t.t.7.e.e.e.p.e.t.p.p.a.a.p.p.a.p.p.s.s.s.d.n.P.i.&.M.M.M.M.M.Q.m.M.a.#.d.g.M.v.M.M.D.M.n.M.J.M.n.g.M.Q.Q.Q.M.M.M.M.U.U.P.M.v.t.v.M.Q.Q.W.W..X XoXZ.d.oXW.d.k.k.k.z.d.d.z.k.k.k.k.k.d.z.k.k.z.d.k.d.g.P.+Xn.g..X+X X+X+X.X.XW.g.q.c.H.n.M.J.P.Q.P.M.M.P.P.P.P.Q.P.J.P.P.M.Q.P.W.U.T.T.s.e.M.Q.M.Q.Q.M.M.m.g.e.n.W.d.s.d.s.k.V.d.d.d.z.d.s.d.s.s.d.s.s.s.t.t.7.a.D.t...s.s.a.t.Z.d.i.i.a.+.7.d.t.7.t.7.t.d.i.y.d.i.i.d.i.t.t.7.u.d.d.i.d.n.v.v.a.+.e.g.d.i.a.t.i.t.t.....t.4.4.6.4.4.4.4.4.4.6.0.r.e.7.7.7.9.7.7.7.0.0.7.d.J.7.6.d.n.d.n.n.v.u.g.7.+.d.d.y.u.i.d.d.t.t.u.d.i.d.i.t.y.i.t.t.t.t.i.y.t.t.t.| ..7.7.@.@.$.q.7.6.| _ 7.7.{ { { | } { <.1.} } | | <.[ } <.[ Q ) } } } ..4._ ( | 4.+.| +.+.| _ Q W _ { { _ } <.| { { } | _ { ..| { { } <._ ) Q ) ) _ _ E S Q Q _ _ _ Q R U U S E E B f l B Z S U B l B A M B S V l l l l B M f l V y y Z B V S U E Z ",
"V V c V U H W b S h c S T U S S U _ _ W { _ R U ) { ` _ _ { | } { { { ..} ( ..o.6.6.4.+.| 4.{ _ 4.4.| ( _ 1.4.4.4.<.| } } <.<.<.<.4.4.4.4.4.| 4.7.t...| 6.7.t.7.#.t.t.7.+.@.7.#.+.+.7.7.7.7.q.7.7.q.t.$.@.6.6.#.6.7.7.6.#.@.7.7.| +.7.7.t.7.7.#.6.7.| { +.+.| } } } } { | ..| ..| | 4.6.4.+.6.4.4.6.4.+.7.t.6.{ 7.t.$.t.*.t.d.*.t.6.| 6.+.@.7.t.$.q.$.7.t.t.7.t.7.@.7.u.7.4.+.#.t.t.t.t.t.+.7.d.t.u.u.a.d.d.d.e.+.n.d.7.7.7.r.t.r.t.p.p.t.a.a.p.p.s.r.r.e.p.s.s.d.n.Q.d.e.M.M.N.n.M.M.M.M.n.t.d.n.M.n.M.M.M.M.J.n.d.d.n.g.M.M.W.Q.Q.M.M.M.M.n.n.M.M.t.g.M.Q.P.W.W..X.XoXZ.d.}.W.d.k.k.d.k.k.z.z.k.k.k.z.k.d.k.z.k.g.d.k.d.d.N.+Xn.g.oX+X.X.X.X.X.X).Z.t.c.Q.P.W.Q.J.P.M.M.Q.W.Q.[.[.Q.Q.Q.M.M.P.J.P.W.W.T.T.d.t.J.Q.P.Q.P.M.Q.m.g.t.n.).n.s.k.s.d.s.s.s.k.s.k.d.d.s.s.s.s.a.t.s.p.0.a.D.t...s.a.d.u.d.d.i.d.k.@.e.d.t.i.a.t.i.t.i.i.v.i.i.t.y.i.t.t.a.d.c.d.d.i.d.M.a.@.a.d.a.d.a.a.d.i.s...| s.6.4.0.6.6.7.4.6.r.7.0.r.r.7.r.r.0.4.6.4.0.7.7.d.n.7.6.d.n.d.d.g.v.d.v.t.#.t.i.t.d.i.i.u.t.t.d.i.i.v.i.$.t.i.t.*.*.t.i.y.t.t.t.| 4.p.7.$.7.t.t.q.t.6.{ 7.t...{ | 4.| } | 1.| } } | <.[ <.1.} _ [ } } _ | 6.} ) | ....| 4.4.+...| Q _ ..| _ } | +...+.} _ } | ..| { { } | } ,.W Q _ [ _ W W [ R _ { ) R Q ) W V W U B M B F Z E V B V V A M B A B l B f B B l f h U f f F V V S Z F F ",
"x c U c H R W c x x S c S S T c U W Q _ [ | _ U Q { ` ` { { { { { ` | | ) R +.4.+.5.+.{ +.+.| ..4.4._ ) _ } 1.1.1.<.<.} | | | | } <.1.1.| <.<.4.7.t.| | 7.7.7.7.@.$.t.7.| +.7.@.@.#.#.#.7.7.@.] @.e.7.#.6.6.@.+.@.7.q.@.#.6.6.7.| { 7.7.7.6.+.#.@.@.| _ ..@.` _ } } [ } } | 1.| | +.1.4.4.+.+.6.7.6.+.+.#.t.6.} 4.t.t.$.#.t.%.t.t.o.4.7.+.e.6.7.7.7.7.7.#.7.7.6.+.#.#.7.e.6.+.t.a.t.7.7.t.+.6.d.i.u.t.i.t.a.a.7.6.d.d.7.7.0.0.r.t.p.t.t.t.p.r.t.t.p.p.t.t.p.a.s.u.n.P.d.e.n.M.M.n.n.v.P.P.d.t.n.n.n.M.M.M.n.M.D.d.i.a.n.n.v.M.Q.M.n.M.M.M.n.v.v.M.n.t.n.M.M.Q.).Q.)..X.Xn.d.}.W.g.s.k.d.s.d.k.k.k.z.z.k.z.z.k.k.d.d.d.k.k.g.P.+Xn.g.[..X X.X.X.X.X.XZ.t.n..XQ.P.Q.Q.P.P.P.P.P.W.[.Q.Q.Q.P.M.P.P.J.J.T.Q.M.J.d.t.D.Q.P.P.P.P.N.M.n.t.n..Xn.s.j.k.s.s.d.s.s.s.d.d.s.s.s.s.a.7.r.r.t.t.i.D.t...a.d.a.d.s.a.a.d.a.#.t.a.i.t.d.d.i.t.i.c.d.i.t.t.t.t.t.t.t.d.n.i.i.t.u.i.t.@.a.d.d.y.a.t.i.d.t.@.4.a.7.4.6.7.7.4.7.7.7.7.r.7.7.7.r.t.0.4.4.7.7.7.7.t.c.7.7.d.d.i.d.i.i.d.g.$.@.t.u.y.u.t.t.t.t.a.i.i.d.d.t.$.t.i.*.@.e.t.t.t.t.$.t.+.| 7.t.#.7.q.7.q.t.6...7.t...| | | ..| } } 4.| [ [ [ <.| } _ { } _ _ _ 4.4.[ _ | { ' | 1.| +...} Q _ | ..} ( ) } ..| ..| { | | _ { } _ [ } } [ [ { _ [ W W [ { _ _ ( T W _ W W R c V M B E S F B x F B x B B l V f M B l V l f x V f f B S S x V M Z ",
"x B S b E U S x h S U U W T W T R U R _ _ _ T U [ _ { { } { _ _ | | +.4._ _ 7.4.+.+.+...6.4.{ ( 1.| ( _ [ <.1.| <.<.<.<.4.| } | ..<.<.| | | 1.+.7.p...| 7.t.q.$.#.7.t.7.| +.#.#.t.7.7.7.t.t.+.` @.t.7.#.7.7.#.@.$.t.q.#.$.7.6.7...{ 7.t.7.#.+.@.7.6.| { 6.6.` _ | } } } _ ..| } | +.4.4.4.4.4.6.6.4.4.4.#.u.7.+.7.t.t.$.$.t.*.t.t.| +.e.7.t.7.7.#.#.t.t.#.t.u.t.e.t.@.7.u.e.#.a.t.e.+.#.a.6.#.a.d.t.t.d.i.d.t.6.7.n.n.t.r.p.7.r.t.p.t.p.p.p.p.s.p.p.a.s.p.s.a.s.u.M.T.g.t.n.M.M.n.M.M.P.M.g.t.n.M.M.M.J.M.P.P.D.d.d.d.J.n.n.v.v.v.M.n.M.M.P.M.M.m.M.t.v.Q.Q.Q..XW..X.X[.n.d.}.[.d.k.k.k.j.k.d.k.z.z.z.z.z.z.k.s.s.d.d.k.d.g.Q.+Xn.g.[..X X.X.X.X.X[.Z.t.n..XQ.Q.Q.Q.P.P.Q.M.P.P.P.Q.[.Q.J.M.Q.P.Q.D.D.n.M.P.g.t.D.[.P.P.T.P.Q.Q.D.t.n.oXn.s.j.k.k.k.k.s.s.d.d.s.k.s.s.a.t.e.p.7.r.t.i.M.s.@.d.d.d.d.a.s.d.d.s.#.t.v.i.y.d.v.d.i.i.i.d.i.t.t.t.t.s.t.t.t.a.d.d.t.i.t.s.6.a.n.d.t.s.i.d.i.a.7.7.d.a.6.7.0.7.7.7.7.7.t.r.7.7.t.r.0.7.6.r.e.7.7.e.t.n.e.e.d.d.d.g.i.i.d.v.t.#.t.d.y.i.t.t.t.g.d.i.d.d.d.y.t.i.u.*.$.t.t.*.t.t.*.t.@.| 6.e.#.q.t.7.7.7.+.+.t.7.+.4...| +...} } 1...} [ ,.<.| ) ) } } [ _ | 7.4.} | 4.| } | ..| +.| _ ( } | ..{ Q ) _ } | | ..{ { | } { | { { } | } <.{ { } W U _ } ~ _ ( T Q _ R U E U B l F V U U V S W c V S V B B l M B x x l f c V l f V S S V F B Z ",
"l l S V U V x h S x U ( R W T U ) R U R [ ! R W _ { { _ } ( _ } +.| { 4.{ _ 4.4...| ..| ..4._ R +.4...} <.<.<.<.| } } 4.4.4.| } <.<.1.| <.| <.4.7.t.| | 5.7.t.$.*.t.7.@.....#.$.7.q.t.t.t.t.7.6.7.7.7.#.6.q.q.6.$.t.t.#.#.e.t.7.| { 6.7.6.@.7.t.7.6.| _ 4.7.{ { [ [ } } [ } } | } | 4.4.4.4.4.4.| 4.6.4.@.t.q.4.p.t.$.$.#.q.i.$.6.| | t.t.q.t.e.@.+.7.7.7.t.y.t.t.t.7.7.t.7.t.t.7.+.e.t.t...4.t.t.y.t.a.d.t.7.7.#.v.i.t.t.p.t.r.r.t.r.0.t.s.s.p.s.p.t.a.t.t.s.s.s.g.W.g.t.n.M.M.v.n.Q.W.g.d.t.v.M.M.n.M.M.Q.P.g.i.d.n.n.M.M.d.d.d.M.M.M.M.Q.Q.M.m.M.t.c.P.M.Q.Q.P..XT.P.Z.d.}.[.d.k.k.k.k.d.d.k.z.z.z.z.k.k.d.s.s.k.k.k.d.d.Q.+Xn.g..X+X.X.XW..XW.D.d.p.n.[.Q.Q.P.J.D.M.M.M.n.n.M.P.W.P.M.M.P.Q.J.n.n.n.J.P.d.t.J.T.D.P.J.P.W.D.Z.t.c.).n.s.k.s.d.d.d.d.s.s.d.d.d.s.s.a.a.t.7.r.r.7.i.D.a.#.a.g.d.i.a.a.D.a.7.+.t.a.i.d.i.d.d.i.t.t.a.i.i.t.t.t.t.t.t.q.t.i.d.d.i.t.t.4.p.d.i.t.i.d.n.t.t.7.@.d.t.7.0.6.7.7.7.7.6.7.0.0.r.7.0.6.6.7.e.t.t.7.7.t.c.e.t.a.t.d.d.i.d.i.i.7.#.t.t.t.y.i.i.i.i.d.v.d.i.t.i.i.i.t.$.t.t.t.t.t.*.*.t.@...6.@.6.7.7.t.6.| ..| 6.7.+...1...} | | [ [ <.} [ } [ ) _ [ [ } } } { 4.7.| _ | ..| } ..6..._ Q ( } | | _ [ <.} _ } ` _ _ _ { { _ _ } | _ _ [ { { } _ U V W Q _ Q Q Q _ W S H Q V B f B F U V S S U U S V U U B V Z l l f M f x S l y l z U S V S E ",
"l l U U U S x V S x W W b U ( R Q R Q R _ [ } _ [ } _ R ( _ | { | | | 4.<.R | 6.@.{ +.| | +.' } 7.6.4.<.4.1.| | 4.| } 1.4.4.<.<.4.4.4.4.4.4.<.+.7.t.| | @.#.t.t.t.t.+.+.....7.*.7.e.7.q.q.t.t.7.#.7.7.#.6.t.e.+.#.t.q.$.7.e.t.7...| +.@.6.7.7.7.+.+.4.} 4.7...} } } | <.} [ | ..} | ..4.1.4.4.| 4.6.+.6.7.t.e.+.6.7.$.t.7.t.t.$.@.| ..s.7.q.a.a.#.#.@.7.t.t.7.t.7.7.t.t.t.t.i.t.7.t.i.d.t...6.7.$.i.a.a.a.e.7.e.#.v.c.a.r.p.r.7.r.p.0.0.r.s.s.p.p.t.p.s.t.t.s.d.a.g.[.g.t.d.g.M.M.P.Q.P.i.d.t.n.M.M.P.J.D.M.v.g.d.M.M.M.M.m.v.n.c.M.n.M.M.P.P.M.N.M.t.n.M.n.N.Q.P.Q.n.J.D.d.}.}.z.k.k.k.k.d.d.z.k.z.z.z.z.k.k.z.z.z.k.k.d.d.Q.+Xg.g.[.Q.Q..X.X.XJ.g.k.a.n.[.W.Q.J.P.P.M.M.M.M.M.J.M.Q.P.M.M.Q.Q.M.n.n.J.Q.P.d.t.J.n.g.U.P.P.J.d.Z.a.n.oXn.s.k.s.d.d.d.d.d.s.d.s.s.s.s.s.s.t.r.r.t.e.a.D.a.#.d.a.i.d.g.d.n.t.+.#.t.a.d.d.d.i.y.i.t.i.d.i.c.y.a.t.t.d.d.i.i.t.d.d.d.d.a.6.a.t.t.d.n.d.u.$.7.6.#.a.u.6.7.4.4.7.6.4.7.6.r.0.6.9.9.4.r.7.7.e.t.7.7.i.n.e.t.a.t.d.v.d.n.u.t.7.7.t.#.@.q.d.g.i.i.d.a.i.u.t.i.i.t.t.t.i.t.t.u.t.t.t.t.#.+.6.+.6.t.t.q.+.| | | 6.t.+.+.4...} 1...{ [ <.<.} } [ ) | } _ } | | | 6.7.{ R } 4.....6.+.} ( [ ( _ ....{ } 4.4.| | _ _ } } _ } _ { } { Q R _ | { } W U U W U { _ ) E W U b U _ E F l B E S V U c S S z x F F E V B f f y M f l U l f f l U U E F E ",
"l f B W U z V z x c W S l b ( W W T _ W _ _ { _ } { ( R { { { ` { | +.4.{ R } | +.4.4.4.| | } | 7.6.{ | 4.o.+.| <.| } } <.| <.1.<.1.4.4.4.| 1.| 7.t.} } 6.+.+.6.7.+.| 4.| | 7.t.t.7.#.#.7.q.7.#.@.#.7.7.7.q.7.+.+.@.t.t.7.$.7.7.| { 4.....6.@.| { +.+.{ | 6.} } 1.} { | } } | | | | } } ..| | 4.4.4.4.+.6.t.6.+.6.6.@.#.t.t.@.+.7.| | t.$.$.t.t.t.7.@.q.t.7.@.@.t.t.$.t.$.t.i.t.$.t.i.t.t.| 6.a.#.e.t.t.#.$.a.e.+.d.v.t.e.7.7.r.0.t.r.0.7.r.r.p.r.t.p.p.p.a.t.s.s.v.U.d.7.s.u.i.g.P.n.i.i.d.t.d.D.J.M.M.n.n.i.g.M.M.M.M.n.v.v.M.v.v.M.M.M.M.M.M.Q.M.t.g.P.d.v.Q.Q.v.d.P.D.d.}.}.g.k.k.k.k.k.k.k.z.k.z.z.k.z.z.z.z.z.k.k.d.d.T.oXg.g.U.g.a.U. XW.d.g.Z.p.g..XQ.P.n.J.W.D.n.M.P.D.P.M.M.M.M.M.M.P.M.n.P.Q.P.T.d.e.n.g.s.g.W.J.d.s.Z.t.n.oXD.d.s.s.s.a.d.s.s.s.d.s.s.s.s.s.s.a.t.7.r.r.a.Z.t.#.s.t.e.t.d.d.t.#.7.#.t.d.d.a.i.i.d.i.d.i.i.i.t.t.a.a.d.a.d.v.d.i.i.i.i.n.t.@.p.e.@.t.n.t.@.@.7.4.+.a.i.6.4.7.0.7.7.7.0.6.4.6.9.4.6.0.7.7.7.7.7.7.7.i.n.7.t.a.$.t.M.n.a.#.7.6.@.u.u.$.$.t.i.d.i.i.d.t.t.t.t.t.u.*.*.t.t.t.t.i.i.t.t.@.| 7.+.| 7.a.4.` +.| ` 6.7.@.4...| | | | <.} [ } | ) _ [ } { } } } | | 4.7.} ( _ } | +..._ ( _ _ _ | 4...{ { } | | _ { { { { } { ! _ { ( R _ [ [ } _ W U U ) R Q } R S b W U H ) Q U V S V F B B S c z F x B B S M f f l f y f x V f f B f l F U F B ",
"M f B U U V S S c x E U c U W R ( W Q Q [ [ W ) <.| ( ( ..{ } | +.| | +.} _ | } ..4.4.| { +...| 7.7.| } 3.4.4.1.<.| | } | <.<.<.4.4.4.1.1.| 4.4.0.t.} | 7.@.+.+.#...#.t...] 7.t.t.$.$.#.7.t.$.@.#.7.t.t.t.q.7.6.@.6.t.t.t.t.t.7.| { 7.4...4.+.| } 6.4.{ | +._ } 1.| { } } 1.<.| } 4.} } | | 1.4.+.4.4.4...e.6.+.t.e.| ..6.6.| #.a.@.{ t.t.u.q.a.t.t.t.7.6.+.+.6.t.t.t.7.$.i.d.a.t.t.t.t.u.| 6.d.e.7.7.7.#.s.n.e.+.d.d.e.7.7.7.t.r.t.p.r.9.0.0.r.t.s.t.p.a.a.e.e.t.n.U.s.t.n.t.t.t.n.s.a.J.d.e.i.J.P.M.J.n.v.n.n.M.M.n.M.n.v.n.M.n.v.M.M.M.Q.Q.P.P.M.t.g.[.d.i.P.Q.i.n./.D.a.}.}.d.k.k.k.k.k.k.z.z.d.Z.D.k.z.z.z.z.z.z.k.s.d.Q.+Xg.d.W.n.t.z.}.n.a.^.C.t.g..XQ.J.n.D.W.P.M.D.n.n.D.M.n.J.P.M.J.Q.Q.P.Q.Q.P.T.d.e.Z.U.s.s.G.g.s.D.A.t.Z.oXJ.d.k.d.s.s.d.s.s.s.s.s.s.a.s.s.s.a.p.p.t.r.a.g.e.#.a.d.7.#.d.a.t.t.d.#.t.n.d.i.t.d.c.d.n.c.d.t.6.t.a.d.d.d.g.c.n.d.i.d.d.d.t.+.s.a.#.6.e.6.#.e.s.6...a.a.7.7.7.t.7.t.t.0.6.4.6.0.7.0.0.0.0.e.7.6.7.t.a.Z.7.t.c.6.@.s.d.6.@.s.6.@.d.n.i.u.t.t.i.i.i.d.i.u.i.t.u.i.=.=.t.i.i.t.t.*.t.y.@...e.7...4.9...+.e.+.' 6.t.@.+.| | 1.| | 4.<.[ <.| _ | | } } } } _ } | 4.4.{ | | ) } ..| ) } 1._ _ 4.4...4.} _ } } _ | ..{ } | { { { { { { | { { { Q E S U } R U W W S Q _ R H Q W V U U V U l M S U S W S B M M l M l B f d t l B y f F l f f Z Z B ",
"M l V x S V c W x h U b R U U W _ R R ( } ) c R | { ` _ { | +.+.+.{ | 4.{ [ 7.4.| _ | _ | 6.| _ 6.6.| } } 1.1.4.4.| } { 4.7.4.| <.3.3.| | 4.4.4.w.0.} | 6.7.7.+.| +.t.t...' 7.t.$.$.$.t.t.t.t.7.e.t.t.t.t.$.t.a.t.6.7.t.t.t.y.7.| } 7.t.+.| | | +.6.+._ | 4._ _ } | { { <.1.} _ | 6.4.} [ <.1.4.4.7.4.....e.6...e.t.7.+.{ ..+.q.t.....a.t.i.t.t.t.t.t.6.@.4.+.@.6.t.t.t.t.i.a.t.t.t.t.u.t.| 6.t.t.7...6.t.d.i.7...d.d.7.7.7.7.0.t.p.t.r.e.a.s.e.7.t.p.a.t.p.7.7.e.d.U.t.t.D.n.d.e.t.a.n.M.g.7.d.D.M.J.J.n.n.v.n.v.v.M.M.v.M.M.v.d.M.M.M.M.Q.Q.M.M.v.t.g.Q.P.u.d.d.v.W.W.Z.a./.W.d.d.k.k.k.k.z.z.s.g.[.}.Z.k.z.D.z.z.d.d.s.d.Q.oXg.d.W..Xn.d.d.g.D.U.D.p.d.[.Q.J.J.n.P.P.M.D.M.d.n.n.M.D.M.M.Q.Q.Q.Q.Q.P.Q.P.d.e.g.W.D.d.s.s.D.U.g.s.g.oXJ.k.j.s.s.s.s.s.s.p.d.J.g.a.p.p.a.t.s.p.p.t.a.d.t.@.s.g.a.7.e.t.i.d.t.#.7.d.i.y.i.d.d.v.d.n.v.t.7.a.d.a.a.d.g.d.d.t.a.i.d.u.e.+.t.Z.a.6.7.7.d.t.t.7.+.a.a.7.t.7.7.0.r.r.6.4.4.p.s.t.7.7.p.t.e.7.7.7.t.d.Z.7.7.d.a.@.7.6.7.a.a.#.@.i.g.d.d.u.i.t.i.i.y.i.d.y.t.t.t.i.d.d.c.i.t.$.$.*.t.+...7.e.4.4.| ..5.7.+.} @.7...} | ..| <.4.<.} } | 1...| | 1.| _ [ } _ _ +.4.{ 4.4.| | } _ ) <.| _ _ 4.4.o.4.1.{ _ _ { { | | { ` { { { ( { { { } } Q R E U U [ _ U V E H { [ U U Q S V F U F V B B M S E U U A f f f M l l M f t f x y f F Z B m B M Z ",
"M Z V B V l U E x x U U ( U T U W T _ _ [ R b W 1.{ | ` } | +.| { { +.4.} { 7.7.4.} _ | 6.4.} ( 6.7.{ } <.} 1.<.1.| { 4.7.t.7.<.} <.3.<.4.4.4.4.w.t.} <.4.$.t.6.+.6.t.q.| ..7.$.t.t.t.t.q.7.e.t.t.t.t.t.t.t.t.a.t.7.t.t.t.t.a.e.| } 7.a.6.{ | 4.@.@.{ _ 4.6.| } [ | | } <.2.} _ 4.7.6.1.{ | 1.4.4.4.| { +.t.6.| 4.q.t.7.+.6.7.t.@.} +.d.7.$.7.$.t.u.t.7.#.t.6.+.4.7.t.t.t.t.t.t.t.i.t.t.t.+.6.e.t.t.6.t.i.i.7.6.#.d.a.7.7.r.7.0.r.p.r.7.a.n.g.a.6.7.t.t.t.r.r.p.7.d.P.t.t.n.M.M.t.t.n.P.d.d.e.g.M.n.g.d.n.M.g.n.v.n.g.M.v.M.M.d.d.M.m.M.Q.Q.P.M.M.n.t.v.M.Q.n.a.d.[.+XD.D.a.T.W.d.d.k.k.k.k.z.d.g.W.+XXX}.z.g.D.z.z.g.d.s.d.P.oXg.d.T..X Xn.d.T.W.D.D.a.d.W.M.Q.T.n.P.D.v.P.U.c.n.P.P.M.J.P.M.M.M.Q.W.Q.M.Q.z.t.g.J.Q.H.s.n..XD.d.a.n..XD.k.k.s.k.s.s.s.s.a.M.M.M.a.e.t.a.t.s.s.p.s.a.n.s.6.s.d.d.t.7.7.v.d.7.@.t.n.i.i.d.a.d.v.v.c.c.d.a.a.d.a.s.a.a.t.i.i.d.d.i.a.t.+.t.n.n.t.s.a.n.y.t.t.6.d.a.e.t.7.0.r.r.0.6.4.t.d.d.a.r.7.r.0.7.7.t.7.e.v.Z.6.7.d.n.t.7.e.g.i.t.@.@.d.v.d.i.i.i.t.i.i.i.i.i.t.@.@.%.u.d.d.i.t.t.t.t.t.t.@.+.e.s.7.4...e.7.@.+.| 7.6.{ } | ....| 1.| { 1.4.+.+.} _ _ } } } | _ _ 4.4._ | 4.7.1.) _ 6.7.} { { | 4.+.+.4.| { } | } | | { { } | { _ { | { [ _ ) ) Q W U [ } { U W _ ` Q E U _ U S F U S V B B y V W E U U M f l B f l B M y x S f d Z W U B M F W ",
"B V U E c x W V f V W b T R T b U T ( ( [ Q U ) } { | { { } | } | { | 4.<._ | 4.7.4.| 6.7.| _ ( 6.6...} | } 4.<.} } 4.6.7.$.7.6...{ <.4.<.4.4.| 7.t.} o.6.+.#.q.t.7.@.6.| | 7.t.t.t.t.7.#.7.t.t.t.t.t.7.7.t.t.t.a.t.$.q.a.t.t.7.| | 4.6.7.@.6.q.o.| | { +.6.| { } } { ..1.} } 4.@.+.@.4.| } } 4.4.| } <.+.t.7...4.@.@.t.t.a.#.@.+.| | e.e.+.7.t.e.t.7.7.7.7.6.6.+.6.t.t.t.t.$.t.t.t.t.i.t.| 7.#.#.t.t.y.t.7.7.7.+.d.t.7.7.7.7.r.7.7.7.7.a.i.u.d.t.7.6.e.e.e.e.r.e.u.J.t.t.n.i.d.d.D.D.i.t.d.e.d.P.D.u.u.u.d.n.d.v.n.d.d.d.d.i.d.n.M.M.M.Q.P.M.M.J.g.t.n.M.d.m.P.P..XJ.n.D.a././.d.d.k.k.k.k.d.g.W.+X+X+XXX.Xn.g.Z.z.d.d.d.d.P.oXg.d.G.U.P.D./.}.n.z.A.p.d.[.Q.Q.P.Q.J.n.n.M.P.J.M.M.P.P.M.M.M.n.M.P.T.Q.P.Q.g.p.z.g.v.T.P.P.n.d.d.s.d.W.g.s.k.j.d.d.s.s.a.n.n.n.n.n.a.t.p.a.a.s.a.t.d.Z.s.7.a.t.t.t.a.y.g.t.7.@.e.d.t.d.d.a.a.a.g.a.a.d.d.t.a.a.d.a.s.t.t.u.d.i.i.d.a.+.p.i.t.t.d.a.t.$.t.t.#.c.a.7.7.e.r.0.0.6.6.t.d.y.i.d.y.6.7.5.7.7.0.7.t.d.d.6.6.t.a.a.d.a.d.t.7.4.@.u.g.i.t.t.i.d.u.t.i.t.t.$.q.7.q.e.*.i.d.t.y.y.t.t.t.@.+.7.t.t.a.a.a.#.| ..| 6.5.} } | | | | } [ | +.+.+.4.4._ Q _ | } } } ` ..4._ _ 4.7.7.<.4.t.6.` | { { 1...+.| 3.<.} } | | _ { | | { { { } { { _ ~ _ [ [ W W _ Q [ _ [ { ( S W U ) U V W S x V f m x U U W S V V B M M M l B M l l U B y V U F V E E W ",
"x B U Q Q S V x x S W H U U b H ) T R _ } _ R ) } | { { | { ..| +.{ | 4.<._ } | 6.@.7.6.+.{ } ' 7.7.6.| 4.1.| } | 4.e.7.7.6.7.e.7.+.| 1.<.4.4.| q.a.| 4.e.+.+.7.t.@.| 4.| { 7.t.t.t.7.#.#.7.t.t.t.t.t.7.t.a.t.t.i.t.7.7.t.t.q.7...4.4.| 6.q.6.+.' | 4.| +.7.+.{ ..} } 4.1.| ..7.@.+.| @.4.| } 1.| | | 4.+.t.e...+...+.7.t.t.+.| 7.6.| 7.$.$.t.t.e.7.e.7.7.t.7.t.#.7.7.t.t.t.7.t.e.7.t.t.#.+.a.7.+.a.d.a.7.+.e.7.@.d.d.e.7.7.e.r.7.7.6.a.i.y.t.i.v.a.7.e.e.p.p.e.t.i.J.t.t.n.t.e.u.P.d.7.e.g.e.d.P.J.g.a.t.d.d.n.n.M.v.i.t.d.a.n.v.M.M.P.Q.Q.M.Q.Q.n.t.n.M.t.d.W.Q.P.d.n.D.a./.}.d.k.k.k.k.k.d.T.+X+X+X+XXX@X[.g.k.k.d.d.d.d.Q.oXg.g.U.g.d.P.#XP.a.Z.C.p.g.[.Q.J.P.T.P.n.n.M.P.P.M.n.P.Q.P.M.M.P.P.P.T.J.Q.T.g.s.D.d.u.J.W.n.a.t.g.d.d.T.d.s.k.s.d.d.a.a.D.M.n.v.n.M.D.s.p.p.a.s.a.t.d.D.d.7.d.t.#.t.D.d.t.#.e.6.e.d.d.a.d.d.d.a.a.u.d.d.a.t.y.d.d.a.a.a.u.i.d.d.a.g.d.6.t.t.@.7.g.a.7.+.s.t.#.c.t.7.p.r.r.r.r.9.t.d.d.i.i.i.d.a.7.7.p.7.7.7.t.i.Z.6.6.t.7.t.n.d.a.6.7.6.#.t.g.d.t.t.a.a.a.t.u.t.$.$.t.t.a.e.&.t.i.i.d.i.t.t.i.@.+.e.6.6.d.c.7.| | | +.7.e.{ | | } | | } | 4.@.| } +.6.+.{ } | | | | ' | 6.| } | 4.7.6.t.7.} ` +.} { | | | 4.4.4.| <.4.| { } | | { } } | [ _ { } [ <.<.W Q } U W } <.Y E U W U ) W F U S M M M V H R U E U S S U B B B B l M B S U V l U U F F ) F C ",
"V l x E F l f l V x U T T c U U Q Q _ ( { } Q R } { | | +.+.| } { +.o.+.| <.6.| | +.4.4.} | } _ 6.7.4.<.<.<.{ | 7.7.7.6.#.#.7.7.e.7.4.| | <.4.| 7.s.+.4.7.6.| ..6...+.4.} { #.t.t.$.$.6.7.t.t.t.t.t.t.t.t.y.y.t.t.t.t.7.#.$.7.6.| +.7.| | 4...} { 4.4.| 6.7.+.} | ..| | } +.7.@.| ] o.@.@.@.| { } | | ..#.t.#.] 4.6...+.6.+.+.@.7.7.| @.#.e.7.t.t.t.7.7.7.t.t.t.7.$.7.t.t.t.7.7.$.t.$.t.$.+.a.t.#.@.t.7.@.6.t.6.6.d.c.7.7.7.7.7.6.6.a.d.t.t.t.d.d.v.d.t.7.e.t.e.7.i.M.t.e.d.t.7.6.s.a.#.e.d.$.i.D.D.n.d.s.s.s.g.n.n.v.d.d.g.d.d.n.M.m.M.M.Q.Q.M.Q.D.t.v.M.t.t.D.D.n.u.Z.A.s./.}.d.d.k.k.j.d.U.+X+X+X+XXX+X.X@XW.d.d.k.d.s.d.W.+Xg.g.U.d.p.Z./.g.a.C.C.p.d.W.Q.Q.J.J.J.M.M.P.P.M.M.v.n.M.P.M.P.P.Q.T.K.n.M.P.z.p.D.z.e.s.D.a.t.s.Z.s.d.U.d.s.s.s.s.a.a.M.M.n.n.n.n.n.D.Z.s.t.a.a.p.r.s.D.a.7.s.t.@.7.d.s.#.7.s.6.7.n.d.a.g.n.d.t.t.s.d.n.s.7.t.a.d.d.d.a.d.u.i.d.d.n.a.6.t.7.#.@.t.a.#.+.t.t.#.d.t.7.e.t.r.0.7.p.d.d.i.d.d.y.i.d.a.7.7.7.e.7.e.d.c.4.7.a.+.$.d.a.7.4.t.7.+.u.d.i.i.t.t.t.i.t.t.t.7.@.7.t.i.i.t.t.t.t.t.i.y.t.t.+.+.7.+...7.t.+.' +.| ' 7.t.| } } | } } | 4.@.| | | +.@.@.@.{ { | | } } +.6.| } 1.} } | 4.| ( _ .._ { 1._ _ ..4.4.4.4.| { { } { | } { { } { [ [ { } } [ U W [ W S ) ) U S W W z Q ) V F B l B V W U U W W S S U U F Z M l f B f V E V l U U l Z F M d ",
"Z M B l l y f B x x S R R T ( T W _ { _ } | _ Q { { ..| 1.| } _ } 4.o.6.3...7.4...| 4...` ..} ' 6.q.7.} } | 4.6.t.7.7.t.#.@.e.7.7.t.7.4.<.| 4.1.7.s.4.+.7.6.| } 1.+.@.4.| { @.t.q.%.t.t.t.t.t.t.t.t.t.t.t.a.y.t.t.t.i.t.7.7.t.e.| ..7.....4...{ | 4.4.{ 7.7...| } | | { | 7.#.@.+.| @.$.+.$.@.{ } | | | $.u.@.] 7.7.+.+.+.1.+.7.6.6.4.#.e.t.7.t.t.t.t.t.t.e.7.6.@.6.t.t.t.t.t.t.t.i.t.t.t.#.t.t.#.+.+.4.@.t.t.6.6.d.n.t.r.0.7.e.6.a.v.d.y.t.t.d.i.g.v.d.7.7.7.t.e.i.M.t.e.s.e.e.@.7.e.7.t.s.$.u.M.J.v.D.d.a.u.d.n.d.d.M.v.M.v.d.v.P.M.M.M.M.Q.P.Q.J.t.n.M.u.t.d.g.d.s.D.C.d./.}.g.j.k.k.s.D.+X+X+X+X.X.X+X+X.X+XP.d.d.k.d.d.Q.+Xg.g.T.d.a.k.Z.s.a.C.G.t.g.W.Q.Q.D.n.D.Q.Q.P.M.M.P.M.n.n.P.Q.Q.P.P.J.M.D.M.U.z.t.J.D.r.p.d.p.a.s.z.d.d./.D.s.s.s.s.s.M.N.M.n.n.g.n.n.n.D.n.a.t.a.s.e.u.J.a.e.s.a.7.6.r.e.#.t.d.6.t.D.g.d.d.g.d.d.d.d.n.d.t.t.a.u.d.n.n.d.n.d.d.d.g.d.t.#.a.t.7.+.7.7.#.@.t.t.#.d.t.7.7.r.r.7.t.g.n.i.d.i.t.y.d.d.n.a.7.7.t.7.t.d.n.6.t.d.#.7.a.t.6.4.a.t.#.u.d.u.d.i.i.t.7.7.s.i.t.#.7.t.i.i.t.t.u.t.t.u.i.t.t. .+.7.#.| 4.7.+.| 9.| _ 6.7...| } { } } +.#.+.o.| +.6.+.#.#.| _ _ } } | 6.6.+.4.4._ ) ) | | _ _ | _ _ <.{ { | 4.4.4.4.} | +.| { +.| ! _ [ | | [ <.| [ Q W Q ,.R U U W U U ) W c Q Q V E B B U U U S U W S x x F E U U M y M B f V W V l Z F l M B n n ",
"B B Z M m f B B h h U b T R R R R R ( _ } } ( _ } { { | | { { } { | +.7.<.{ 4.+.+.} 1.} ' } } } 6.e...} <.} 6.7.7.$.t.t.+.| 4.7.e.7.0.7.<.| 4.4.7.a.+...7.+.| | 4.+.| 6...` #.$.7.t.q.t.t.q.t.t.t.t.7.t.a.a.t.t.t.t.a.t.7.7.t.7...| 6.4.1.<.+.+.{ +.4.| 6.6.| } } [ _ ..6.6.+.7.@.| | @.#.@.#.@.| } } | +.t.#.| +.6.4...| 4.| +.7.4.@.7.t.t.y.i.t.t.t.t.t.q.#.#.4.6.t.t.t.t.t.d.d.y.t.t.t.@.t.#.@.#...6.@.#.t.6.+.d.d.7.r.t.7.7.t.c.i.d.i.t.7.t.i.d.d.d.t.#.@.7.t.t.n.t.7.s.7.7.6.7.6.6.t.a.7.&.n.M.M.d.s.t.u.d.d.d.d.d.v.v.n.v.v.v.Q.Q.M.Q.Q.Q.Q.D.*.n.M.t.t.s.s.d.a.D.C.d.}.}.g.d.j.s.D.oX+X.X+X.XJ.g.W.+X[. X.XJ.d.s.j.d.Q.+Xg.g.^.k.s.j.k.s.a.Z.C.a.g.}.P.J.n.M.P.Q.Q.M.n.n.P.P.M.M.M.P.P.P.M.n.n.D.P.J.d.t.J.z.r.p.p.p.s.p.d.d.g.W.g.s.s.s.d.M.P.M.M.M.d.t.a.n.D.n.D.n.p.e.s.t.t.n.d.$.a.s.7.7.e.7.t.7.s.q.y.D.d.i.a.n.n.n.D.d.d.a.t.t.a.a.u.d.n.v.d.n.n.d.i.i.t.@.a.a.7.6.6.@.#.+.7.7.+.d.t.#.7.7.9.t.Z.n.d.c.d.7.4.7.c.d.d.c.i.7.7.e.t.i.n.t.t.a.7.7.0.6.6.4.7.t.7.t.d.i.i.i.g.t.t.#.t.i.u.t.t.t.t.t.t.t.t.t.i.t.t.*.*. ...7.#...6.6.@.+.4.| _ | 6.] } } _ ` | @.+.+.+.+...+.#.+.+.+...( ( } | 5.7.+.@.4.{ ( } | { } ( { _ _ <.| ` } 4.4.4.| { | 4.o.+.| | { Q ~ [ } [ [ _ [ Y W Q [ R S W W S U E Q S E U x B V S W U S V S U x V S V S W U B l d M M z U S l Z B l B Z n n ",
"M Z F V l l V B f l W H H R R Q _ W _ } <._ R } ..{ } | { { 4.} { | 6.w.| } 4.+.+....._ ..} | ' 7.7.} } } 1.7.7.7.t.t.4.| | ..7.e.7.r.r.4.| 4.4.7.t...+.7.+.| | 4...| 4.+.| 7.t.*.t.t.t.t.t.q.t.t.q.@.q.s.a.a.a.t.t.t.s.t.7.6.6.4...7.4.4.| +.+.{ 4.4.| @.7.| } } } | e.t.#.#.6.| _ _ | @.@.@.$.@.| } | ..t.t.+.6.7.@.| | 4.| ..7.@.+.t.q.$.t.t.t.t.q.t.t.t.t.a.q.t.7.t.t.i.y.t.t.q.t.a.t.@.7.@.#.7.@.7.+.@.t.6.#.d.t.6.7.r.6.e.d.v.i.a.7.4...4.t.i.a.d.d.t.#.7.e.t.v.t.7.d.7.7.7.7.6.6.7.d.6.e.n.g.g.d.t.u.s.d.a.n.d.d.v.n.v.v.v.n.m.P.P.Q.Q.Q.Q.D.t.M.M.t.t.s.s.d.a.D.A.d.}.}.g.d.d.D.oX+X.X.X.XD.k.k.z.W..X{..X.Xn.d.s.d.Q.+XZ.z.R.k.s.j.k.k.p.k.A.s.n.}.P.M.n.M.P.P.J.n.M.P.M.J.Q.P.M.J.Q.M.M.P.P.P.P.J.d.u.J.z.r.r.r.p.s.p.d.d.d.T.g.s.s.s.n.N.M.M.P.d.r.0.r.s.D.n.M.D.g.t.p.t.t.n.d.e.d.a.7.7.t.t.t.6.a.t.d.D.d.d.n.n.n.d.d.u.t.a.a.t.d.a.t.t.g.v.n.n.n.d.i.d.d.6.a.a.7.7.4.+.6.+.6.e.#.d.u.6.7.7.0.g.D.g.n.d.t.6.4.6.a.d.d.v.v.t.7.7.e.d.n.u.a.a.6.6.7.4.7.4.4.7.4.e.d.i.d.u.d.d.d.t.t.t.d.i.i.a.t.t.i.t.t.t.i.t.7.t.t.+.+.#.+.#.6.+.#.@.6.4._ +.7.] _ } _ ` +.+.+.+.| ` ( ` | +.@.+.$.+.' } | 6.t.@.+.4.} [ | | | | ( { _ { 4...{ | 4.4.| } | | | +.+.o.3.<.{ [ [ [ } [ _ [ Q E U Q W S Q W F U U W S E U S x U E U E U c V V V S E V S U E E F f f B c U F x Z B l V Z M m ",
"C B B l B f l V h l U W T H R U R Q { 4.| _ ( } 4.| { { | | 4.+.4.+.@.7.{ { 6.......} _ ' } ..} 6.6.{ [ <.7.7.#.t.t.+.| 4.1.| ..7.t.e.7.0.1.<.<.6.7.| 4.6...| | 1.......| +.q.t.t.t.y.t.t.q.t.q.t.a.7.#.t.a.a.a.t.t.t.t.t.6.@.6.| ..7.4.| 1.| | { +.4.} @.6.| { { +.t.7.#.#.#..._ _ } { { @.#.+.#...{ { ..7.7.@.e.7.| ' | 4.| ..4.| +.t.7.#.#.7.$.$.q.t.t.t.t.t.a.t.q.t.t.y.i.t.#.e.t.t.t.+.+.7.@.#.7.@.#.@.7.6.#.a.t.6.4.8.7.d.i.i.i.t.1.<.<.1.4.t.d.i.i.i.e.#.#.u.g.e.e.s.e.+.6.7.7.+.7.t.@.$.d.g.i.u.t.s.u.a.d.g.v.v.g.v.n.M.M.M.M.m.P.P.Q.M.P.M.t.M.M.t.t.s.s.d.d.C.A.s.}.}.g.s.D.oXoX.X.X}.D.k.k.z.k.g.T..XQ. X[.n.s.d.Q..Xz.z.^.k.s.k.k.j.p.d.Z.t.g.W.M.M.n.M.M.M.M.M.P.P.M.M.M.P.Q.P.P.Q.M.P.Q.D.M.P.d.t.D.d.r.r.p.r.p.s.d.s.s.U.g.p.s.n.P.m.M.M.d.r.r.p.p.r.s.D.M.n.J.g.t.7.t.n.g.t.d.s.7.7.p.t.e.7.a.$.a.D.d.n.H.n.c.i.d.u.d.d.a.t.a.i.u.t.d.v.n.d.d.i.i.d.d.7.t.a.e.6.6.+.+.+.7.7.#.d.u.7.7.r.g.n.d.v.g.p.7.4.9.4.6.a.v.d.d.c.a.6.7.v.D.a.a.a.6.4.7.4.6.4.4.4.4.t.t.t.i.d.d.d.d.a.a.t.t.i.i.y.i.t.t.t.a.t.t.*.t.t.7.+.+.+.+.+.+.+.| +.7..._ @.6.| { _ _ | +.+.+.{ { { } _ _ +.@.@.@.$.#.` ' 6.7.+.+.| } } } | | } } } ( { 4...| | | o.| | | | } | | | | | <.} [ } [ | | } _ U E W S E U W F V F U x ) Q S W W c E U S S S l B l B F U V U U W U B f V U S A Z M B M B B M ",
"B Z B l l f l F x l U W Q H ( U U { { _ _ { { { <.+.{ { 4.o.4.4.5.| @.7._ | 6.| +.....} ' ..+.' 6.t.+.4.7.e.t.t.t.6.| 4.6.4.1.| 6.e.a.t.p.6.| | 7.t.| 4.6.| | | | ........| 7.t.t.t.t.t.q.t.y.t.y.d.t.#.t.a.t.t.t.7.t.s.t.#.$.t.....6.+.| 4.| | } 4.4.} #.6.| | | #.t.7.6.6...} ) } 4.{ _ ..@.+.#.#.` ` | t.7.+.6.@.| | | <.| +.4.{ ] t.t.t.q.7.+.#.t.t.t.i.t.t.t.t.t.y.t.a.d.t.t.s.y.t.s.+.+.7.#.#.7.6.#.#.t.e.#.a.d.7.1.6.d.v.u.i.t.4.2.4.4.8.4.e.i.d.u.g.u.$.$.t.d.e.e.s.e.+.+.e.7.#.$.e.+.$.i.n.d.i.d.g.u.a.g.v.M.M.f.n.n.m.M.P.m.M.P.m.M.M.Q.n.*.v.M.t.t.s.s.s.d.^.A.d.}.[.g.g.}.+X.X.X[.Z.k.z.z.d.k.k.g.T..XQ..XQ.g.d.Q.+Xg.Z.R.k.j.k.k.j.s.k.Z.t.g.Q.M.M.M.M.P.M.M.Q.Q.P.P.M.M.Q.Q.M.n.M.Q.Q.J.M.M.Q.g.e.g.d.r.r.p.r.r.s.z.s.s.U.g.p.d.Q.M.m.P.Z.t.p.p.p.h.r.r.z.J.M.D.J.n.t.t.M.D.t.d.t.7.7.p.t.7.7.a.e.t.D.n.d.M.d.d.d.v.d.n.n.a.t.i.d.n.d.n.d.d.i.u.i.g.n.d.6.t.a.7.6.7.4.+.+.s.7.#.d.i.e.7.d.M.d.d.d.a.4.0.6.7.4.6.7.d.d.d.v.c.a.t.v.H.t.t.a.6.4.7.4.4.7.7.4.7.t.t.t.t.d.i.t.d.d.a.t.*.i.d.i.i.i.t.i.t.t.q.t.i.t.7.+.@.+.@.+.#.+.] +.7...} 6.4.' _ _ | +.X.@.+.} } | ..| } ` @.#.O.+.$.+.| 6.7.| ....| | } | ..} | | _ | 4.| } } } | +.4.+.4.+.| ..| { _ } } } <.[ [ { } } W Q Q E W U E F V U E F E V x F W W W V U S l d f f M B S V U c U E V M B W F V Z M B M M B B ",
"B Z l B l l B V f x R H R T T T W _ Q U } { ( { | { { | 4.@.4.| | | 4.4._ | 4.+...} | } ' ..4.| 6.7.6.7.q.6.t.t.6.| 4.4.4.4.4.4.4.4.t.s.a.s.7.4.6.t...| 4...{ | | | } +.@.` @.t.$.$.t.%.t.t.t.y.t.y.a.t.q.t.t.e.t.a.a.t.t.$.$.t.@.] 4.6.} | 1.} { 4.4.} +.6.+.| | @.+.$.#.+.} _ } | } | ` ` +.@.+.#. .` ] e.#.` | +.| } | <.{ | 4.{ ` 6.t.t.t.7.@.#.7.q.t.t.i.t.t.t.t.t.y.a.y.d.t.t.y.a.t.| 4.7.#.@.6.6.+.#.a.e.7.d.a.t.e.a.d.i.d.t.4.4.4.6.4.6.7.6.6.a.i.u.u.t.#.*.g.e.$.u.6.+.4.6.7.#.#.7. .$.i.i.g.n.d.v.v.d.i.v.n.M.v.v.n.M.M.M.M.M.M.M.M.M.Q.D.*.v.n.u.a.s.d.a.d.R.A.d.}.T.g.T.+X.X+X[.Z.k.z.s.z.Z.d.k.d.z.[. XQ..XW.n.Q.+Xg.n.R.k.j.l.l.k.s.Z.Z.t.d.T.J.J.P.Q.Q.P.Q.Q.Q.Q.M.M.M.Q.Q.P.n.v.M.P.M.M.P.J.s.t.Z.d.e.p.p.p.e.s.A.s.s.U.d.d.P.P.M.P.n.s.p.p.p.r.p.h.r.r.Z.D.n.n.D.c.d.J.n.7.s.t.7.7.t.p.7.7.d.t.i.M.d.a.d.d.c.c.n.v.d.n.d.t.i.d.d.c.v.d.g.i.t.a.d.M.a.@.t.t.6.7.7.4.4.6.a.t.#.i.u.$.t.d.i.d.d.t.6.4.6.7.7.4.7.4.7.a.v.d.c.v.d.v.n.7.t.a.6.4.5.7.4.4.0.6.4.a.d.t.t.t.u.t.i.a.t.7.t.i.i.i.d.i.u.t.t.t.$.t.t.y.t.O.+.#.O.+.+.+.| | 6...) +.@.( ( { ..+.+...{ } | } } | { ' | +.@.O.+.@.O.@.6.' | +.} } } } { ` ` { ` +.4.' } | } | | +.6.4.4.4.4.} _ _ _ } | } } _ R _ } W W [ W U U F B S U U U F x c U W W U E F l f f V V l f B V V U S U V x x W V B V M M M M M M ",
"B M B l B f f S f c ( H R R R T _ _ T R | { ( _ | ` | | ..+...| ..+.6.4.' | 6.@.| } } [ ' +.6.| +.6.6.7.t.7.t.6...1.6.+.6.4.4.4.4.4.7.t.t.a.s.7.6.t.....7.+.{ | ..| ` +.7.` @.t.+.$.y.t.t.t.q.y.i.i.a.t.t.t.a.t.a.a.t.t.t.t.t.q.+.| t.e.| <.1.| { 6.6.{ +.#.@.+.+.@.+.$.+.{ } | } { { ..{ _ | #.+.#.#.] +.&.+.] +.7.| { | 1.} | 7...` #.@.#.#.@.$.7.6.t.t.t.t.t.t.a.t.t.i.i.t.t.t.t.t.t.t.+.t.e...#.7.6.+.$.a.r.7.d.t.u.t.a.i.d.t.6.4.9.4.4.0.9.4.6.6.e.u.u.u.i.t.*.d.e.$.s.e.#.6.6.7.#.&.t.+.t.a.t.g.n.n.v.v.d.d.M.M.M.v.v.M.M.M.M.M.M.M.P.M.M.Q.J.u.M.M.i.s.s.d.d.n./.A.d.}.{.Q..X.X.X.XZ.s.z.k.s.U.}.Z.s.z.d.n.[.Q.{..XQ.{..Xg.D./.Z.j.l.l.k.s.!.C.t.n.[.P.P.Q.{.Q.Q.Q.Q.Q.Q.M.M.N.M.Q.Q.M.M.M.M.J.P.P.D.a.t.D.g.e.r.p.p.p.g.C.s.d.U.v.M.W.M.P.M.s.r.s.p.s.j.r.r.p.r.p.g.n.n.M.n.M.P.d.7.s.d.e.e.t.p.e.t.z.e.d.n.d.c.d.d.v.d.v.v.c.n.n.i.a.t.t.u.i.d.n.c.d.i.d.g.u.#.t.a.6.7.0.7.@.t.d.t.$.i.t.&.d.i.d.d.a.6.4.9.4.7.s.7.4.0.7.7.d.c.n.v.v.n.d.#.t.k.7.4.8.9.7.4.p.7.4.t.d.t.t.t.d.y.a.a.t.q.t.i.d.i.i.u.t.i.d.t.t.t.t.i.i.O.@.$.O.+.4.4...+.7.+.( +.#.` ` +.+.+.+._ [ } } | 4.} { | ' ] +.+.+.#.+.#.#.' ..4.} _ | } _ ' | { _ ..+.` 4.4.} | | +.5.5.4.7.4.} { _ } } } 4.| } [ } } ) W [ R F F A B F W F S W E ) W E U W V B f f V E U S B B B B S U T Q V S W c B E B B M M m M ",
"M C l f B t f z s h R R _ R H H R R ( ( _ | _ R | } } +.| | +.+.@.+.+.6.' } 6.@.' ) } ) ' #.+.' @.7.@.#.t.t.6.| 4.1...6.t.t.6.4.4.4.4.4.e.q.t.7.6.6.| | 7.6.| } | } ` 5.7._ +.t.+.@.t.y.t.t.t.t.y.i.a.t.a.a.a.a.a.a.a.t.t.t.7.6...+.t.t...} 1.| | 7.4.{ @.#.| +.7.#.@.+.{ } } { { +.+.| ` ' _ { #.+.@.#.#.$.+.` @.7.+.} } | } +.7.| { 6.+.+.@.6.@.6.7.a.a.t.7.q.t.t.t.t.a.y.t.t.t.t.7.7.7.@.t.t.+...4.7.+.7.a.e.#.d.u.e.t.u.t.7.+.6.6.4.4.7.d.p.4.1.4.+.#.i.u.u.t.u.d.$.$.u.u.7.4.7.#.#.u.i.+.t.d.i.t.d.g.g.d.g.v.M.M.M.d.g.n.M.M.M.M.M.M.M.P.M.M.n.u.M.Q.v.t.s.d.d.J.oXZ.d.}..X.X.X+X[.n.k.k.k.k.U.[..XT.d.s.k.a.n.[. X{.Q. X[.g.D.oXC.j.j.l.j.k./.C.p.D..XQ.Q.J.Q.Q.Q.Q.Q.Q.M.M.M.M.P.M.M.Q.M.n.M.Q.D.M.M.d.t.M.D.s.e.p.r.u.D.C.t.d.W.M.P.Q.Q.D.s.p.p.r.p.Z.C.j.0.r.t.7.e.Z.n.n.n.M.P.d.#.d.g.t.7.p.e.e.a.z.$.a.D.v.i.d.i.d.d.d.n.v.v.d.a.d.t.t.t.d.c.c.v.n.d.i.i.t.#.a.a.e.6.0.7.7.i.d.7.#.i.t.t.d.g.v.p.0.9.9.4.7.a.a.t.7.4.7.6.7.d.n.c.v.c.c.7.t.s.a.4.9.4.4.6.t.7.4.7.e.t.s.a.t.a.a.7.e.t.t.t.i.i.t.t.t.i.i.i.i.t.*.u.i.+.@.*.$.+.+.4.| +.7.+.( +.$.+.#.+.+..._ ) [ ) { 6.t.4.{ _ } ` ] #.#.+.+.#.#.| | 4.| ) [ [ ( _ +.{ R { +...| 4...} { | 4.4.4.4.| } [ <.} } { | 4.4.<.<.} R ) { R S V A B U Q V x W ) W W W S V B x l V S b S U V B B Z l S W Y W R W l B E F M M M d l ",
"Z A f y B y F S s h H R _ T k H _ R } R R } _ _ 1._ _ ..{ | 4.+.6.@.@.7.| | 7.6.| ) } _  .#.+.' 7.7.#.7.t.7...<.4.+.4.t.t.t.t.6.4.1...| 9.7.7.q.7.7...| 7.t.| _ <.} ` 7.4.( +.t.$.+.7.t.t.t.y.t.t.a.i.a.a.s.a.a.a.a.a.a.t.t.#.@.6.@.t.a.4.} 1.| +.t.#.| 6.$.@.#.$.#...{ | ..{ { #.$.+.@.` _ _ { { +.#.$.#.&.@.] 6.t.7...} } | e.t.| | 6.$.#.#.e.6.#.7.t.t.7.q.t.7.t.t.t.t.t.t.y.t.t.7.e.t.6.t.d.$...6.7...e.d.r.+.d.s.e.t.t.7.+.4.9.6.@.t.d.f.d.7.1...+...e.u.i.;.i.f.$.#.i.g.e.4.7.#.e.v.g.#.t.M.M.i.d.u.u.u.d.d.g.g.d.d.g.g.v.M.M.M.M.M.M.P.M.M.M.u.n..XM.a.s.d.d.Q.+XD.d.[.@X.X.X.Xn.s.k.k.d.U..XQ.Q..XJ.s.j.d.s.n.[..XQ. X.Xg.D.oX/.z.j.l.s.Z.+XC.a.D.oXQ.P.n.n.Q.{.Q.Q.M.Q.Q.M.Q.Q.M.M.M.M.M.M.M.n.n.P.g.t.n.T.d.e.r.e.i.Q.n.t.d.[.Q.P.Q.P.d.p.j.t.p.j.U.P.C.s.p.r.r.7.a.n.M.n.M.M.d.7.Z.Z.d.e.p.t.e.Z.g.#.a.M.n.c.n.d.d.d.c.v.n.d.i.d.c.d.d.d.v.v.c.v.v.d.t.i.a.7.a.c.a.#.7.7.t.v.d.7.$.d.d.u.d.d.a.7.0.0.7.7.s.d.d.a.s.4.9.7.4.t.d.n.d.c.D.t.t.d.a.6.4.9...e.s.7.4.6.#.7.d.s.s.t.t.7.7.a.i.t.t.t.t.t.u.t.t.i.i.t.*.u.t.+.@.t.&.+.+.4.| #.t.+._ ..#.@.@.| | _ ) [ _ _ +.7.t.6.| _ } ` ` +.$.#.+.$.7...| 7...) ) [ R { #.| L { 4.@.+.+.+.| | | 4.4.4.4.} { } 1.<.| | | { | { } ) W _ } R S S F B W ) V x W ) R T U h l B B x U U U U W S B l l M V S W W R U f B W U B M M d B ",
"V V B e f l T W s f b H ( K H U R ( _ ( _ _ ( _ 4.| _ } | | | +.+.@.6.6.+.| 7.7.6.' _ | +.+.@.' 6.7.6.t.7...1.4.+.@.t.t.#.$.t.e.6.1.4.1.1.6.t.q.7.t.+.| e.q.@._ _ } +.7...R +.7.$.#.7.#.q.t.t.t.t.t.a.a.a.a.s.a.t.t.a.a.t.7.#.7.6.+.t.d.7.| } 4.7.t.@.' 6.t.t.t.#...| | | | { +.#.#.#.+.+.} _ _ _ ' | 6.#.$.@.| +.t.t.+.{ } 4.t.7.` } 6.+.@.7.#.6.7.@.@.$.t.q.e.7.7.t.t.q.q.t.t.t.e.7.7.t.@.t.i.t.#.+.6.+.s.d.7...p.t.t.t.7...1.4.4.+.t.u.u.*.t.t.6.| 1.....$.f.i.u.i.$.$.i.i.p.+.+.&.d.v.i.+.t.M.n.v.i.t.t.u.d.i.i.i.v.v.M.v.v.v.M.M.M.P.P.M.M.P.n.u.n. X{.n.s.a.D..X+XZ.d.W..X.X.Xn.d.k.j.d.U..XQ.Q.Q.Q.[.Z.s.j.d.s.D.oX X X.Xd.D.oX}.G.k.h.k.T.oXD.p.D..XP.P.n.n.M.Q.P.P.P.P.P.P.Q.M.M.M.M.M.M.n.v.v.M.J.d.t.n.Q.v.t.7.u.M.m.n.t.d.W.M.Q.P.d.a.s.p.0.s.J.M.n.D.D.d.r.p.e.7.t.D.M.v.M.d.7.d.J.n.a.r.7.a.n.d.#.a.d.n.n.n.v.v.i.c.c.c.d.d.i.d.i.c.d.c.c.v.c.d.i.d.a.a.6.t.n.d.7.6.6.i.c.c.$.#.n.i.d.v.p.0.0.0.4.6.s.g.i.a.d.d.7.4.5.7.6.a.d.c.d.n.a.7.d.s.e.4.4.7.a.k.7.4.t.t.7.a.a.a.t.$.$.t.d.i.t.t.t.t.t.t.t.i.t.t.t.t.*.t.+.@.t.t.#.+.| | $.t.+.( { @.| | { ) ) } [ Q | 7.#.#.7.@.} _ } ' ` +.7.$.$.7...| 6.6.} ( ) { +.@.` R { +.| +.@.+.4.4.4.4.4.| | } { } } | 1.} _ ( { | } R U ) } ) W V F V W Q V B U W R c x l B f B S U U W T U U S M f M M B W W U U f B E F V n n f U ",
"z U F f f S U U s l S c R R ( T R Q ( | { } } ( +.4.` | +.{ | ..| +.@.6.4...6.7.7...} +.+.@.+.' 4.7.7.e.4.1.4.4.4.7.a.t.#.#.$.t.t.4.4.4.| 4.p.p.7.a.4.| 7.t.7.| _ 4.@.@.| ( 4.6.#.t.t.7.7.7.t.t.t.t.t.t.t.a.a.t.a.t.t.a.t.7.e.a.7.+.t.d.t.| | 6.t.e.+.| 6.t.$.7.+.| | ..{ { 6.@...+.@.+.#.+._ _ _ } _ +.6.6.@.| | 7.$.#...+.7.7.4.( 4.7.' +.7.7.7.t.6.+.6.t.t.t.t.$.t.t.q.t.6.7.t.e.#.7.a.+.7.i.u.e.+.+.e.d.a.7...7.t.t.r.4.<.8.1.4.7.u.t.t.t.q.u.t.1.....| +.t.i.u.i.$.$.d.i.f.&.#.u.v.i.u.#.t.d.g.v.d.t.t.d.n.d.d.v.M.n.m.M.n.v.n.M.M.M.M.v.n.P.n.u.n. X.XP.d.g..X X+XZ.d.T..X.XM.s.k.k.s.C..X.XQ.Q.W.Q.{.W.z.p.s.s.s.G.[..XoXg.D.oXoX}.A.k.G.oXoXD.t.D.[.M.P.D.M.M.M.M.Q.P.M.P.Q.M.M.M.M.n.n.n.n.v.M.M.M.d.t.v.M.M.g.t.v.M.m.n.e.d.P.M.Q.Z.p.j.j.p.s.D.M.M.n.M.M.D.s.t.r.7.7.d.M.v.D.n.t.d.J.M.n.s.t.n.M.a.6.s.i.g.v.d.c.c.d.c.c.v.i.d.t.t.t.i.i.v.c.v.d.d.i.v.d.a.6.t.v.v.a.7.7.v.d.n.7.#.i.v.c.a.7.0.0.0.7.a.n.g.d.d.i.t.d.7.4.0.4.7.t.d.d.c.a.7.a.s.a.t.7.d.a.s.7.6.d.d.t.t.a.a.t.$.t.d.d.a.i.t.t.i.t.q.t.i.t.i.a.t.$.7.+.@.t.i.t.@.| #.y.t.| ( | #.| | } ) } | _ { 4.#.#.#.7.$.@.| { _ _ ' #.$.t.7.| | 6.7.+.) ) +.#.o.{ R | 6.+.+.4.+.4.4.4.4.| } } { | { { | 6.| ( _ { ..| _ W W <._ Q S V W ) Q E V E Q H c V l M f Z E U U W E U E Q S Z f M M F U U U B M U W F n n F W ",
"S U U S S b b x x l c H T K R T R ( { } } 4.| ( | 4.| | +.....{ ..| | 6.+...6.6.7.@.+.@.+.#.| _ 4.7.7.4.4.4.4.1.6.t.t.t.7.@.t.q.t.7.4.| 4.+.6.7.t.t...{ 7.$.7.@.+.6.+.+.} _ 4.6.$.t.t.t.7.7.t.t.t.t.7.e.s.t.t.t.t.t.a.t.6.7.e.a.7.+.q.y.t.7.7.t.$.$.@.{ 4.+.+.@.| ..| } | 4.6.#.+...+.@.+.#.+._ Q _ _ { +.#.@.{ { +.@.7.+.6.e.#.| Q 4.7.{ ` +.7.t.t.#.+.@.e.t.t.q.t.7.t.t.t.7.7.t.t.$.7.a.+.#.u.t.t.6.7.d.i.d.6.| r.t.7.4.4.1.4.| 6.u.u.*.t.t.t.t.p.7...} ..| +.7.i.i.$.#.i.f.v.i.u.i.i.i.e.+.&.d.d.u.d.u.t.d.n.n.M.v.n.m.M.M.M.n.v.v.m.v.v.M.H.M.n.u.n.{..X[.P.T.+X.XoXZ.a.T..Xn.s.k.k.j.D.[.W.Q.Q.Q.Q.W.Q.[.[.k.p.j.s.p.D.+X}.g.D.oX[.+X/.U.[.[..XD.t.D.W.M.Q.Q.P.P.M.M.M.P.M.M.M.M.M.M.M.M.v.g.n.P.M.M.P.g.t.d.M.M.n.v.n.n.m.g.e.s.M.Q.Z.p.j.j.p.s.D.D.n.M.n.n.v.D.n.a.7.r.6.7.a.n.M.g.e.d.M.M.M.D.n.M.v.a.6.d.d.u.d.v.i.d.d.c.d.d.d.t.t.t.t.y.i.d.d.d.d.c.c.d.v.d.#.t.i.x.c.d.d.v.v.d.7.#.t.g.t.7.9.r.9.7.p.d.a.d.d.d.t.t.a.t.4.4.4.6.4.t.i.n.t.6.a.a.a.a.a.d.i.d.6.6.n.d.y.a.t.u.t.t.i.d.d.d.i.y.i.i.t.t.t.t.i.d.s.#.#.t.@.+.7.i.t.7.6.t.y.7.} ( | +.+.| _ } } _ | @.@.+.+.$.@.#.e.#.} _ ) ) _ +.t.7.{ { 6.$.@.{ { @.+.] ( T | 6.@.+.| | | | | | 4.} } { +.4.+...4.| ( _ } ` { } W E [ _ Q U W Q _ [ Q S W E V V A m n B U U U U S S E U F U V B A C B B U E M B U E E S F U U ",
"U c U b U U U c U c c H K K T R ( _ | ` { 4...( } | +.+.4.+...{ | | ..4.| | 4.5.7.#.6.+.+.+.' ( 6.7.6.1.4.4.4.4.t.t.t.t.7.6.t.t.t.e.6...4.| } ..7.7.` ` 7.#.$.7.7.@.+.+.} { +.7.t.%.t.i.t.t.7.t.i.t.t.a.a.t.7.t.t.a.t.7.4.7.t.e...| t.t.t.t.t.t.#.&.+.{ 4.#.#.+.| ..| | 4.e.6.$.#.+.7.$.+.#.7.| [ [ _ Q } 6.+.} ' ..@.e.#.6.7.@.+.} 4.7.#.| +.7.7.e.+.+.7.7.q.t.t.t.$.7.6.7.t.t.7.7.#.t.p...#.i.t.d.t.a.a.t.d.+...p.e.r.4.9.4...6.t.i.i.t.t.u.i.t.s.s.7...1...|  .u.i.$.$.u.u.i.;.i.u.u.u.$.+.t.d.i.u.v.d.u.t.i.n.v.v.v.n.M.M.P.M.M.M.m.n.M.Q.P.P.D.u.n.{.+X.X.X+X.X X+XD.a.W.[.d.j.k.s.Z.W. XQ.Q.Q.Q.Q.Q.Q.Q.[.U.k.s.j.p.d.[.[.g.D.}..X[.oXoX[.[..XD.t.Z.[.N.P.W.W.Q.Q.P.M.W.P.M.n.M.M.M.n.n.g.v.M.P.M.n.Q.g.e.d.M.M.n.M.n.n.m.d.e.a.M.J.s.r.j.p.s.D.J.M.M.n.v.n.n.M.J.n.e.7.7.6.7.g.n.a.e.s.M.M.v.Q.M.v.v.a.7.g.n.t.i.n.c.v.d.c.d.v.i.t.t.t.a.g.i.i.t.t.d.n.c.d.n.a.#.t.d.v.i.M.n.d.d.d.7.#.i.d.e.9.0.r.9.p.a.d.t.a.i.t.t.d.t.s.t.6.1.4.4.6.t.d.7.4.t.d.t.a.a.i.i.d.6.6.d.n.d.d.s.t.i.d.i.i.d.c.i.t.d.d.t.t.$.t.i.t.e.#.7.t.6.+.e.t.t.i.t.t.*.#.} { +.@.+.} [ ..} } 4.#.+.+.@.#.#.$.t.e.6.| ( ) _ ' #.6.| } +.+.#.+.+.+.] ` ( ( { | { | +.+.+.{ | { +.+.| { | 6.+.....{ _ { { _ } | R U Q _ Q Q [ Q ) Q E U R S F M M n M U W U W S B V E S U E W Z B B M M F W B B U U R U U B x ",
"S S c b U b H U T c c b H T R T ( R _ | | +.{ ( | 1.{ +.4.| | | ..4.6...| _ 4.7.7.#.#.+.@.+.| _ @.7...1.4.<.6.e.t.7.t.t.t.7.$.t.t.7.7.4.| { } ' +.@.` } 6.#.#.@.#.+.+.@.{ _ 6.7.%.t.t.i.t.q.t.t.t.t.a.s.e.7.t.7.t.t.7.6.#.e.t.7.| { 7.i.t.q.t.t.7.7.+.{ 4.e.@...| } | @.6.7.#.$.@.$.7.7.$.#.@.4.| ) ) _ { 4.o._ | @.+.#.#.6.@.7.4.{ 4.7.#.7.#.#.+.+.@.7.7.t.$.t.t.t.t.7.@.#.@.6.+.#.7.a.t.| 6.i.t.d.d.d.t.i.t.4...e.t.7.4.4.4.6.t.u.t.i.i.t.t.t.i.d.d.s.7.| ..+...&.t.#.$.u.*.*.-.;.t.d.*.7.+.t.i.i.i.d.d.g.i.d.g.n.v.v.v.M.m.M.M.M.P.M.M.P.P.M.Q.M.u.n.{..X X X.X.X X.Xn.a.W.W.d.j.s.n.W.W.Q.Q.Q.Q.Q.Q.W.W.W.Q.[.T.d.s.j.s.P.oXd.g.}.[.{..X[.[.[.[.D.p.D. XM.P.P.W.Q.M.P.Q.Q.P.n.n.M.M.M.c.d.g.M.M.M.M.M.D.a.e.v.M.n.n.n.n.n.n.d.7.a.P.g.r.p.p.s.C.D.n.J.M.n.n.n.M.n.n.M.g.e.6.7.6.t.n.t.#.d.n.v.n.n.v.v.i.d.$.a.n.i.i.d.n.v.n.n.d.c.d.d.t.d.n.c.c.d.t.t.i.c.v.c.d.t.#.a.d.i.x.v.c.d.i.n.7.#.d.a.6.0.9.9.t.d.a.i.d.d.t.t.t.t.i.d.d.a.+.<.4.4.7.a.4.4.a.a.t.a.t.t.i.a.7.4.s.g.g.d.t.a.a.d.i.d.i.i.y.y.d.d.t.q.7.t.t.t.7.t.t.e.4.@.7.t.*.t.t.t.$.#.| ` +.6...} | } | 6.@.+.@.6.@.+.#.%.%.t.t.#.{ Q ` { +.7.| ` +.+.+.+.+.+.` _ _ ! { _ R _ +.4.4.@.@.+.4.4.| _ } | | +.{ { } ( _ { { } U U [ ) Q Q [ Q W W U V U U S m d f F U W R R U U F U Q Q U S F B M B m V W V l U U U U V x V ",
"V S c S T b U S x s x U T K ( ( _ ( } +.+.+.} { 4.4.{ +.+.| | +.7.6.7.4.| } 6.q.7.@.@.@.+.@.#.} 4.6...<.4.4.e.t.t.t.t.t.t.t.7.t.t.$.t.7.4.} | _ ..6.| ..@.#.#.@.@.+.6.@._ _ 6.7.t.i.t.y.t.t.t.t.e.t.a.t.6.q.s.t.7.t.7.7.t.t.t.e.....t.t.*.$.7.7.7.t.7.+.6.t.6.| | | +.7.7.7.#.$.$.t.q.#.#.@.@.7.+.} _ } ..6.4._ +.7.+.@.#.#.@.e.4.{ 7.7.$.t.#.+...+.$.t.q.t.*.*.t.i.i.y.7.7.@.#.#.t.t.t.t...7.y.i.d.a.u.t.d.a.9.4.e.a.7.+.4.6.s.u.i.t.i.i.u.t.t.i.a.t.t.e.4...4...$.i.&.#.t.*.-.-.f.i.i.u.t.#.e.d.g.i.d.d.v.v.n.v.M.M.v.n.M.M.P.M.v.M.M.M.Q.M.P.Q.D.u.J.{..X.X.X[..X{..Xn.d.W.W.d.s.g.T..XQ.Q.Q.Q.Q.[.T.T.W.W.T.T..XU.d.s.d.J.oXg.n..X{.{.[.[.{.[.[.D.a.J.{.N.Q.P.Q.Q.M.M.N.Q.P.M.M.M.M.M.v.d.n.M.M.M.M.n.M.s.t.M.M.n.M.n.n.m.n.g.e.d.P.d.r.r.s.D.P.M.D.M.M.n.n.n.n.M.n.M.M.d.7.7.7.t.n.d.#.d.n.v.n.n.n.v.d.g.7.a.M.g.i.d.c.n.n.n.c.c.v.M.d.d.v.v.v.M.i.i.i.d.v.c.d.t.#.s.d.i.v.c.i.d.d.n.t.7.n.a.7.0.7.p.V.n.a.a.v.g.u.t.t.t.s.t.t.t.t.7.+.4.7.s.7.6.s.a.i.d.t.i.t.d.7.4.t.i.u.i.a.d.a.a.i.i.t.t.t.d.d.i.t.i.t.t.t.t.t.i.t.t.6.6.q.t.t.t.t.*.$.e.+.` @.7.| } } { @.7.#.@.#.#.#.#.#.$.t.q.%.t.#.} } | +.7...| @.+.+.O.+.@.| | } Q { ..| ` { { | +.+.o.4.| } { | } | | { { | _ _ } { { U U [ _ _ R Q W U Q E V U W B f M U W V U E U W Q E W W E V U S B B F M B W V l W U S U V V S ",
"S x V S S U U c s s S H H H R { { | 4.+.+.{ | } 4.4.} { | | @.@.7.6.6.7.| } 7.7.7.@.+.+.@.4.+.{ 6.6...| 4.t.u.t.t.t.t.q.t.t.7.t.7.t.7.7.7.4.{ } +.6.{ | 6.@.@.+.+.@.4.4.{ _ +.7.t.t.t.t.t.t.q.t.7.t.t.7.t.a.t.t.7.7.7.t.t.t.t.e...4.t.&.e.t.$.#.7.t.6.| 6.e.#.| } @.t.$.7.t.#.+.$.t.7.+.+.@.@.#.6.+.{ | 6.6.@.` 4.7.+.@.+.@.@.7.4.{ 4.t.t.$.#.+.| @.7.7.t.t.t.t.t.i.u.t.7.6.e.t.q.t.t.t.e...7.t.i.i.t.t.t.a.s.6.+.t.t.+.| 6.7.u.t.i.i.u.t.u.&.7.e.e.#.7.e.e.+.| | 7.i.$.#.t.=.*.*.i.;.u.f.t.#.t.d.d.d.i.i.v.M.M.M.n.M.M.M.M.M.Q.M.v.n.P.M.Q.Q.P.P.n.u.D..X.X.X.X[.[.[..Xg.d.[.Q.a.d.W.{.M.Q.Q.Q.P.Q.Q.Q.P.Q.T.W.W.Q.[.G.s.s.J.oXg.n.oX{.[.[.[.[.Q.[.J.u.D..XM.M.N.Q.Q.Q.M.M.Q.P.M.M.Q.Q.M.M.M.M.M.M.M.n.n.D.s.t.M.M.m.n.n.n.n.M.d.e.d.J.d.7.p.D.P.M.M.M.n.n.M.M.n.n.M.M.n.v.n.s.7.6.t.n.d.7.a.M.n.v.n.d.c.v.a.7.s.n.d.d.d.i.M.n.i.i.v.v.v.g.d.d.d.v.d.d.d.d.d.i.d.d.t.@.s.d.i.d.d.y.i.v.d.t.7.d.s.7.4.t.g.d.d.v.v.a.d.i.t.t.t.7.7.#.e.a.p.4.@.t.s.6.t.d.i.i.d.d.t.t.s.7.4.e.t.e.t.d.d.a.a.t.t.t.u.t.i.c.i.t.t.a.t.t.t.i.t.t.t.#.@.t.t.%.t.%.%.t.t.+.| #.#.| { { @.#.@.#.+.@.$.#.7.6.#.$.#.#.$.$.#.{ ' #.6.| { 6.@.] ] @.o.+.@.{ R | 7.6.@.+.| | ` { { | +.| { } ..| { } { { | { ( _ R U ) <._ _ ) W U W W F V U U B Z E E E b V c S U E U F V V V S S S V B l l E V x U E U U U V x ",
"V c U S V c U S s x R U H H K T [ { | { { } ..{ } } _ } 4.+.7.@.@.6.6.6.} | 7.6.6.@.+.@.@.@.| } 7.7.| +.e.t.t.#.#.7.7.q.t.t.t.7.#.7.t.$.t.7...| @.7.| ..7.@.+.+.@.@.@.6.} _ 4.7.#.6.7.t.y.t.t.t.7.t.t.t.t.i.t.a.7.7.t.t.t.t.t.7.6.4.7.t.t.q.7.e.q.t.+.| 7.t...{ 4.7.t.*.q.t.#.@.#.$.+.+.@.#.+.#.$.@.+.+.6.7.4.' 4.7.#.@...@.#.7.7.{ | 7.$.#.7.#.+.@.#.7.*.t.%.*.t.u.7.#.+.#.t.t.q.t.t.t.7...7.a.t.t.t.a.t.a.s.6.+.s.t...| t.t.*.&.i.i.t.t.t.$.#.#.7.e.t.t.u.7...| e.a.e.#.i.u.*.*.u.i.u.d.t.#.u.u.u.u.i.d.M.M.P.M.M.n.M.M.P.P.P.n.v.M.N.M.P.Q.M.P.n.u.D..X.XW..X.XQ.{.[.d.d.[.M.g.P.{.Q.N.Q.N.M.M.J.J.P.M.P.T.W.W.P.Q.W.Z.s.n.}.g.n.oX.X{.[.[.W.Q.[.J.u.M..XM.M.M.). XQ.N.M.M.Q.M.M.Q.N.M.M.P.m.m.M.M.v.M.P.d.t.M.M.n.n.M.v.n.M.g.t.d.D.a.p.n.P.M.n.n.v.v.n.M.M.M.n.M.M.v.d.v.n.t.#.i.M.d.7.a.M.v.d.M.d.n.g.a.7.s.D.d.d.v.d.v.n.i.i.M.v.v.M.d.d.n.d.a.i.i.n.c.i.d.a.p.6.a.c.d.i.d.i.i.d.d.e.7.d.t.7.7.d.n.d.d.d.d.d.g.i.t.t.t.e.t.7.u.a.a.7.7.t.d.7.t.d.g.i.d.a.a.y.s.7.4.t.u.t.i.t.a.d.u.t.u.t.i.t.i.d.d.t.t.t.t.t.i.i.t.t.t.#.#.t.t.%.t.t.%.*.t.+...#.#.| { +.$.$.@.#.+.+.q.7.7.7.@.+.#.#.@.&.7.+.| @.7.| { 6.@.] o.@.| +.6.} R +.7.@.6.6.@.+.} { +.+.4.4.} } +.+.{ } ( } } ( ( _ R W [ <._ _ ) W Q ) E A c Q S c Q ) U W U x V S V F S x V E S c S W S B l x E F x S W U V U V B ",
"B E U c U G U U x z U T T c H U ) Q ( ( } } | } | { { | +.4.#.@.#.@.@.4.} } 6.7.#.+.+.6.7.+.' ' 6.7.6.7.t.7.#.#.#.6.e.7.7.e.t.q.t.7.t.t.$.t.7.+.#.7.| +.6.+.+.@.+.+.6.4._ _ 4.6.6.#.+.e.t.t.t.7.t.t.t.t.t.t.a.t.#.7.t.t.t.e.t.t.4.+.t.t.t.7.t.t.q.6...| 7.7...| 6.t.t.t.t.7.7.7.@.#.#.q.@.+.+.+.@.7.6.@.+.7.4._ +.6.@.#.+.@.t.4.| { | @.+.7.6.7.#.#.+.#.6.7.$.e.t.*.$.6.@.6.#.t.t.t.t.t.7.| 6.t.t.t.t.i.i.a.7.6.+.t.t.$.t.i.*.*.$.t.7.t.t.$.$.t.e.t.t.u.t.t.i.t.6.e.d.$.+.t.u.u.&.=.i.f.u.e.#.t.t.i.u.d.n.M.M.P.M.M.n.n.M.Q.Q.M.v.M.P.M.M.M.M.M.M.n.u.D.[..X[.[.W.[.W.T.d.i.Q.N.M.Q.N.N.N.N.M.N.Q.M.M.M.Q.Q.Q.Q.Q.M.M.P.T.n.M.W.g.n.W.Q.W.W.W.[.W.P.D.s.M..XN.N.M.M.Q. XQ.P.Q.P.M.n.n.M.M.M.M.M.M.M.M.M.P.P.d.t.n.n.n.M.n.n.M.v.d.t.d.P.d.d.P.M.M.v.d.d.M.M.n.M.M.M.n.g.g.d.d.v.d.i.d.v.d.7.a.d.d.v.v.v.M.i.t.7.t.n.g.d.n.v.v.d.d.d.d.v.n.c.n.d.c.d.i.y.d.c.v.d.d.d.a.4.s.c.c.i.d.i.v.d.a.7.7.d.a.7.d.d.d.d.d.d.d.d.d.i.t.7.t.t.a.d.d.i.i.t.t.t.s.7.7.s.a.i.a.t.d.t.t.4.+.a.n.d.d.a.d.d.t.$.t.i.y.i.d.d.y.t.t.t.t.i.i.u.u.t.t.#.@.7.t.t.%.t.t.%.#.+.| #.t.+.| 7.$.#.$.@...+.@.7.7.6.+.+.#.$.@.#.#.#.| +.7.| { +.@.+.| | +.#.4._ ( +.4.@.+.+.| | | | | +.| 4...| ......} ( _ ( ) R Q _ W Q [ _ _ W Q Q [ Q B x Q U U W R Q Y U F V V S F V V F U V B z S W W x S W V x F V V B Z V F ",
"z U Y U W H U z c c U R T b b ) [ ) R ( <.| <.1.4.| | | | 6.#.#.#.+.@.4.} } 4.#.6.@.6.6.@.{ { ' 6.7.t.t.t.7.7.7.7.7.t.7.6.7.q.t.i.t.q.t.$.7.7.#.t.q.| ..+.+.#.6.+.@.7.+.) } 4.7.t.7.#.t.t.t.t.7.t.t.e.t.t.t.a.t.7.#.7.t.t.&.t.u.6.4.7.e.t.t.t.t.7.+.+...#.7.#.#.e.e.$.t.$.#.e.t.$.$.t.t.$.#.@.#.#.t.7.7.#.#..._ ....+.7.@.7.7.+.} 1.+.@.7.t.#.7.e.7.@.@.+.#.e.t.t.t.&.t.t.7.6.t.t.t.t.a.e.+.@.7.t.y.i.a.a.e.@.6.@.t.u.d.d.i.*.%.t.t.$.t.*.*.t.a.t.t.e.t.t.t.a.a.7.t.u.#.+.#.t.u.=.i.i.d.&.7.#.e.d.n.g.n.n.M.P.P.M.M.M.M.M.Q.Q.M.M.Q.P.M.M.M.M.Q.J.D.u.D.J.Q..X[.W..XP.n.d.d.N.{.N.N.N.N.N.N.N.Q.Q.Q.M.P.Q.Q.Q.Q.P.Q.N.P.Q.Q.N.Q.g.n.P.P..X[.Q..XD.n.D.s.n..XN.N.M.M.N.).Q.Q.Q.M.M.n.n.M.M.M.M.P.M.n.M.P.Q.P.s.t.g.i.n.M.v.M.v.t.t.e.d.Q.n.n.M.v.v.v.g.g.M.M.m.M.M.v.d.d.v.d.d.d.n.n.v.n.d.7.a.t.i.v.v.v.n.t.t.e.t.n.n.d.v.v.n.c.v.d.v.v.M.v.M.n.c.v.y.y.v.d.n.v.d.v.a.6.p.a.d.c.c.i.v.i.t.7.7.a.d.s.Z.n.d.a.v.d.n.i.i.i.t.7.a.t.p.s.i.t.a.i.i.i.d.7.7.t.t.d.d.a.d.t.6.4.+.s.n.d.g.i.d.c.t.$.t.i.t.i.g.d.t.t.i.t.d.i.i.i.u.*.t.#.@.+.t.t.t.t.t.$.+...` 7.t.$.#.$.#.+.$.#.@.+.+.7.7.@.+.#.7.$.@.@.7.$.+.#.7.| ` { @.@.| ..#.6.{ Q _ +.@.6.+.| | | | } | +.| ..+...} ....| { _ } } R _ } W W Q ( _ _ [ W ) E M B Q Q W U Q Q E W Q V V F S V U U U V z x V U E V U E l x U B B V Z B V ",
"l h W R W k z x x x U R U U W ( [ ) _ _ [ | 1.<.4.+.+.{ | +.@.+.@.+.@.6.{ } +.] @.6.7.@.| | ..' +.e.t.t.t.t.t.7.t.7.e.t.#.#.7.t.t.i.y.q.t.$.#.7.t.t.{ { @.| +.4.7.6.6.| Q <.7.7.e.e.7.7.t.t.t.e.7.t.t.e.t.t.y.t.t.7.7.7.t.t.t.t.6.4.6.#.q.i.t.7.@.#.6.+.6.t.$.7.7.7.#.#.6.7.7.t.t.*.*.=.t.$.+.+.#.7.t.e.@.@.| { 4.+.| @.7.7.+.+.1.<...7.7.t.7.#.7.7.7.6.+.@.t.d.i.t.*.t.t.e.7.t.t.t.t.t.t.+.@.#.@.t.a.s.7.#.7.7.@.u.=.=.i.t.*.t.t.t.t.t.&.t.t.t.q.t.t.t.7.t.q.t.e.t.e.$.+.7.#.t.t.g.u.&.#.7.#.t.v.n.n.M.n.v.P.M.M.M.M.M.M.M.M.M.M.Q.P.M.M.M.P.M.Q.D.t.Z.D.g.P..X[.J.g.J.d.i.N.N.N.M.N.N.Q.N.N.N.Q.Q.Q.Q.Q.{.Q.Q.Q.Q.M.Q.Q.Q.{.Q.d.g.U.n.M..X.XQ.i.n.D.t.n..XN.N.N.M.M.M.Q.Q.P.P.n.v.m.m.m.M.M.M.M.M.P.P.P.T.s.t.Z.u.u.M.P.g.t.t.d.#.d.P.M.M.M.M.v.v.n.v.n.n.M.M.n.d.x.c.n.g.d.i.v.M.v.n.t.7.a.u.t.i.P.n.s.7.s.7.t.D.v.v.n.d.v.v.v.v.M.v.v.n.n.c.v.d.d.d.d.v.M.v.d.i.p.7.s.e.t.c.n.c.d.e.a.t.6.d.D.c.g.d.d.a.n.d.d.d.d.i.t.e.7.t.7.#.t.y.d.a.i.d.d.6.7.t.7.t.d.a.t.#.7.7.+.t.d.t.u.u.i.d.a.t.e.t.u.i.d.d.u.t.a.d.i.i.d.i.*.*.t.@.@.$.#.t.i.t.7.+.@...' +.t.t.$.#.$.@.@.#.#.+.+.#.#.+.@.t.7.@.$.*.$.$.$.7.6.{ { | | +.@.6.4.| _ _ _ +.6.+.| o.@.+.| | } | +.| | | | | { ..{ } { _ } } _ U W [ E W } [ R W F V l E [ ( E W W W E W U F B V V S W U c F V V z U c c V f l F S U F Z f M ",
"B e U H c y y U b h U R T U _ Q _ { } { } } { _ } 4.+.| { o.+.| @.6.4.4.} { 6.| +.+.+.{ +.5.4.| +.t.q.t.t.t.#.7.t.7.q.t.7.@.t.t.t.t.t.t.t.7.t.$.7.t.| ..e.| | +.6.@.+.} } 4.t.7.7.t.t.7.t.t.t.t.e.t.t.7.7.t.i.t.i.t.%.7.t.y.i.i.6.4.t.#.@.t.t.#.#.i.t.| 6.t.$.t.t.7.#.@.7.e.#.7.*.*.%.t.t.$.+.+.@.#.7.6.#.6.+.{ 7.7.] ..4.6...7.7.| ..a.e.7.@.+.#.t.t.a.q.7.t.t.t.7.t.t.t.t.t.t.t.s.i.t.t.+.7.e.+.r.t.t.#.e.d.e.@.i.=.$.u.t.t.u.*.i.i.t.$.$.t.t.t.t.t.t.7.e.7.t.e.e.t.#.#.p.#.$.$.p.7.+.t.t.#.i.v.v.M.M.v.v.v.M.M.P.M.M.n.M.M.Q.M.P.Q.m.n.Q.P.M.Q.J.t.D.}.d.s.U.T.d.g.[.g.u.M.N.m.M.M.N.N. XQ.N.Q.Q.Q.M.M.Q.Q.Q.Q.Q.M.Q.Q.M.{.Q.d.g.oXJ.d.J.W.v.d.Q.D.t.M.[.M.Q.Q.M.M.M.M.M.M.Q.n.n.Q.M.m.M.m.n.n.M.W.P.P.T.d.e.J.n.&.d.n.t.%.M.n.7.s.M.n.M.n.M.n.v.M.n.v.c.n.M.v.d.n.v.g.g.d.d.d.d.n.M.t.7.n.d.e.e.g.d.e.t.n.7.t.D.d.v.v.d.v.x.M.M.M.n.d.d.d.n.c.d.n.d.d.v.v.d.d.d.a.6.j.s.7.7.z.d.t.$.D.a.6.g.n.d.Z.d.n.a.a.t.a.c.v.y.a.t.7.t.7.#.t.d.g.a.i.d.a.6.e.j.6.4.p.a.e.@.s.t.+.e.t.t.t.u.i.i.d.u.t.t.i.i.d.d.u.t.a.i.i.i.d.i.*.t.t.+.$.t.#.+.t.t.+.| 6.+.` +.$.#.+.#.*.$.@.#.$.@.+.#.#.+.7.q.7.$.$.*.$.e.e.7.@.{ | o.} | @.6.| _ ..| ( ..@.| ..+.@.+.+.+.| ..| { { } ....{ | ..| { } | } Q S Q ,.W W Q [ ) U Q W x U Q W W U U Q U U U U V S V U W S x V z S V F S U V B f V U F B n M F ",
"U V V V h l V W U h U U Q R R _ { ` { { | { Q W } 3.+.| { | +.| | 6.@.4.{ } 5.6.6.| ` } 4.7.+.} 6.q.q.7.t.7.7.7.7.t.t.t.$.#.#.t.t.t.t.t.t.q.7.7.t.t.| +.t.6...} ..| 4.+.4.4.#.e.t.7.q.t.t.t.t.t.$.7.t.t.q.t.t.u.i.i.t.t.$.t.i.a.@.@.a.t.$.+.+.6.q.i.q.| @.t.t.t.t.#.@.@.6.7.7.$.$.$.%.t.$.@.#.7.7.#.@.$.#.7.4.{ 7.t.6.+.| +.4.7.t...4.a.e.6...+.7.t.t.a.t.q.7.7.$.t.t.t.t.t.t.t.t.t.t.t.t.+.7.d.t.7.6.e.t.a.u.e.@.t.*.*.*.u.t.=.i.t.y.t.$.e.t.t.t.t.e.t.t.e.7.e.e.u.t.#.7.t.i.&.+.6.7.$.d.t.#.u.n.n.v.M.n.v.d.M.M.M.M.M.n.M.M.M.M.P.P.P.M.P.W.Q.Q.J.u.n.W.U.d.g.g.n.Q.[.d.u.M.N.m.m.M.M.N.Q.{.{.M.M.M.P.M.M.Q.{.Q.M.M.Q.Q.Q.N.Q.d.d.}.oXn.d.g.M.W.W.M.t.n..XN.Q.Q.Q.Q.M.M.M.M.m.M.m.M.M.M.m.M.M.M.M.P.P.W.T.d.e.n.J.a.t.t.e.c.n.c.t.t.M.v.v.n.v.n.v.v.g.d.d.n.n.v.d.d.v.d.d.v.d.v.i.n.M.t.$.n.Z.d.e.t.e.d.d.d.t.t.D.d.v.v.n.v.v.M.n.n.d.d.i.d.c.d.i.d.d.v.d.v.i.i.n.s.6.s.V.a.7.a.e.e.a.Z.a.6.s.n.n.d.d.g.a.7.t.d.d.d.d.a.a.t.t.t.7.7.a.d.d.d.i.d.6.7.k.t.6.6.4.7.q.a.a.+.7.e.&.t.t.u.u.i.i.t.t.u.i.i.t.t.t.t.i.d.i.t.7.*.t.t.+.+.t.t.] +.@.+.@.@.+.` +.#.O.@.$.#.#.#.+.+.#.#.#.#.7.$.$.7.e.#.#.$.$.#.#.@.} } 5.6.' { ..| o.+.| _ | +.| +.@.o.+.+.+.4.4.} } _ } | | | | } } | | { [ Q U W [ { W S Q W W [ W S U U W U W F U U S V U U c V W B N z V c R W U x S W Z B F z l t y M F ",
"V W U E x S Q R H x b T _ R Q ` { _ { { } { } } 4.+.+.+...| 6...` ..| 6.| { 6.7.t.4...| +.#.+.} +.7.t.t.t.t.7.7.t.t.t.t.#.#.#.e.t.t.t.t.t.t.t.t.t.t...| 6.q.#.| +.6.6.6.6.+.+.7.t.7.e.t.7.6.7.7.t.t.t.t.t.t.t.t.t.t.t.t.t.t.d.a.#.@.a.v.u.@.+.t.y.t.7.+.@.t.t.i.q.@.7.7.6.t.7.#.$.t.*.t.*.$.$.t.t.t.q.t.#.t.7.{ 4.t.t.7.+.6.7.6.7.+.6.a.7.7.7.e.7.t.t.t.6.#.q.t.%.t.e.t.t.t.7.e.t.t.t.a.t.+.#.i.n.t.6.t.d.a.7.7.#.t.*.u.=.u.t.u.u.t.y.*.u.i.t.u.t.t.t.i.t.t.t.7.t.i.u.7.#.t.g.d.#.#.d.d.i.t.#.t.n.n.v.M.M.n.v.M.M.M.m.M.M.N.M.M.M.Q.P.Q.M.M.P.M.P.J.a.n.P.Q.Q.g.g.Q.{.P.d.u.M.'.m.m.M.M.M.N.N.Q.M.M.M.M.M.M.Q.Q.Q.Q.M.M.Q.Q.Q.Q.d.d.W..X[.n.d.[..XP.D.i.n..XN.N.Q. XQ.M.M.M.M.M.M.M.P.M.m.M.M.M.P.P.P.Q.Q.J.d.e.d.M.M.n.u.d.M.i.d.t.t.J.v.g.n.d.v.c.i.d.d.n.m.n.n.d.d.d.c.g.v.d.v.d.v.n.t.$.d.n.P.d.i.i.J.i.a.t.t.D.v.d.n.v.v.v.d.n.v.d.d.a.n.d.d.d.d.d.v.g.n.d.d.M.d.6.a.Z.c.d.p.7.d.n.s.t.7.s.d.d.n.d.s.t.t.k.D.d.a.i.t.a.t.t.s.e.7.a.a.g.i.i.g.7.e.k.s.t.7.6.a.i.a.a.@.7.e.e.u.t.t.u.u.u.d.i.i.i.i.t.t.t.a.d.i.t.$.7.t.t.t.+.@.t.i.#.+.| 7.e.+.+...#.#.O.$.$.@.$.$.+.+.$.$.+.#.#.#.$.$.#.+.+.#.$.+.#.7.| { 6.t.@.} 4.t.#.+.| } +.6.| +.@.+.+.| | +.4.4.1.{ | } | | } _ } { { Q [ [ W U [ } _ U W W [ [ W S E Q _ E W S V U S Z U E S U E V z U W U E U Z f x U Z V U B V M B M Z ",
"x E I E S x U Q c l U U Q Q _ _ ` _ { ( } | 4.4.7.@.5.@.+.@.6.{ { { | 7.| | 6.+.7.6.7.@.+.@...{ @.7.i.i.y.t.t.t.q.t.y.t.e.#.7.$.&.e.t.t.t.t.t.7.7.7.| +.#.+.#.@.7.t.@...6.| +.#.7.t.7.6.7.6.@.6.e.t.7.7.t.t.t.t.7.$.q.t.t.i.c.a.6.6.t.t.i.t.t.a.t.$.$.+.@.*.$.$.@.#.6.t.7.q.$.$.#.*.u.t.$.$.%.*.$.t.t.t.7.7.7.| 4.6.$.t.t.a.$.#.t.6.@.a.t.t.t.t.t.a.t.7.@.7.t.t.t.t.t.t.t.t.t.t.t.t.t.i.s.+.7.t.i.i.7.a.i.e.7.7.@.i.=.=.u.u.t.t.i.i.t.t.t.i.t.y.t.t.t.t.u.t.t.t.u.i.i.7.#.t.t.a.t.i.n.t.*.i.@.t.d.n.M.M.n.M.M.m.M.M.M.M.n.P.P.M.m.M.M.M.M.M.n.M.P.Q.d.n.Q.n.Q.Q.J.Q.n.M.g.i.M.N.N.N.M.M.M.M.M.n.M.M.M.M.M.Q.Q.M.M.M.P.Q.Q.Q.Q.W.d.d.W.M.M..XW.W.M.M.D.u.n..XN.Q.Q.Q.N.P.M.M.Q.Q.n.c.P.Q.m.M.P.Q.P.M.P.Q.M.D.d.e.g.v.i.M.M.n.i.t.a.t.u.D.c.v.v.g.d.d.g.i.g.M.n.n.n.v.f.i.d.n.n.d.d.n.n.n.t.@.d.d.d.d.n.n.d.*.i.7.t.n.d.d.d.c.v.d.c.c.c.n.d.s.a.d.d.d.v.d.d.g.v.n.M.M.d.6.s.d.a.c.d.a.M.i.p.a.7.s.a.d.Z.s.t.r.k.Z.g.d.i.t.a.7.7.t.t.t.7.e.a.a.t.u.d.e.e.s.7.7.d.s.u.t.d.e.+.e.p.t.t.t.u.t.t.i.i.i.i.a.i.t.t.i.g.d.t.$.t.t.$.*.t.@.@.$.t.t.#.7.i.$...+.| +.#.+.@.$.$.@.#.@...+.#.#.o.+.#.$.#.+. .+.$.#.#.7.6.| | @.6.6.+.6.e.+.#.+.{ 4.@...+.@.6.+.{ { { +.4.4.| } { { { { { _ ) _ _ [ _ Q E ) ( { } ) W _ } U S Q [ ) Q U F F F U Z U Z U W U V Z V W V B F F l l B V f B V E E F M M ",
"x c I E W h b W x c Q U R R R ( } { _ { | | { } 4.6.6.+.+.6.4.} | +.4.7.} ..4.| @.6.e.@.+.+.| | 7.7.q.t.q.t.i.t.7.7.t.t.t.$.$.7.$.7.t.t.t.q.7.@.7.7.| +.#.] #.t.7.#.| { 4.| #.7.#.7.7.7.7.7.6.#.7.e.@.4.s.i.7.7.$.7.t.t.7.t.a.t.6.7.t.$.t.i.d.y.@.@.7.+.#.u.$.@.$.t.q.t.t.%.u.t.$.*.=.$.@.$.t.*.7.t.t.t.7.7.7.| 6.@.+.t.a.s.@.@.a.7.@.t.t.t.t.t.t.t.t.t.t.a.a.7.7.t.y.t.t.t.i.d.t.t.u.i.t.#.e.$.@.t.t.d.t.#.t.t.#.d.u.=.d.d.t.t.i.i.t.d.i.i.i.t.i.i.t.t.i.i.t.i.d.i.d.e.7.e.+.e.t.n.a.#.&.d.#.t.d.v.f.v.d.n.M.M.M.M.P.d.t.d.P.Q.M.M.M.M.M.M.M.Q.Q.P.i.n.J.d.v..XW.v.u.M.g.i.N.N.N.N.M.N.Q.M.M.M.n.M.M.M.M.M.Q.N.M.M.Q.W.W.Q.Q.W.a.g.W.g.i.[.#XJ.d.M.J.i.M.[.N.Q.M.M.M.Q.M.M.Q.P.s.p.n.Q.M.P.P.M.n.n.M.P.M.J.d.e.n.n.e.d.Q.v.t.t.d.t.a.M.v.d.v.n.d.v.v.d.n.v.v.n.n.M.n.d.v.g.d.d.v.n.M.M.d.$.g.i.$.t.n.M.t.$.d.7.t.c.d.d.i.v.v.c.v.d.v.n.a.7.a.n.c.i.v.d.v.d.n.M.M.v.a.6.k.d.t.a.D.c.d.7.a.s.t.a.d.a.s.p.e.s.D.n.d.a.t.t.d.t.7.t.7.a.7.7.s.t.u.t.d.7.e.a.@.6.d.g.s.7.t.e.#.u.d.t.t.u.a.t.d.d.i.d.u.7.t.a.y.u.t.y.t.t.i.y.$.*.t.@.#.#.$.$.t.i.t. .+.6.] +.$.@.#.$.#.+.@.7.@.] #.$.+.@.$.$.@.+.@.#.$.#.$.t.6...+.@.| +.7.t.+.| 7.@.| 4.4.@.+.4.4.+.| } { 1.| { { } | { { ..{ _ _ _ { } _ W Q ) U _ | } U _ [ b U >.[ ) Q U F W U U U E B U Q W I Z f B l z W E V V U B f n B U E Z M n ",
"x l B W E V c S x c W R T H R ( { { _ | 4.[ Q W [ 4.4.+.+.+.4.| { 6.+.7.| } 4...| 6.6.{ ' +.| ..6.6.#.#.q.q.t.t.t.#.#.t.t.t.t.7.q.t.t.t.q.6.#.6.q.e...+.7.]  .t.e.] | | ..| 6.t.@.#.p.a.t.t.6.6.e.6.+.+.7.a.t.7.6.q.t.t.7.$.t.t.6.7.a.#.7.y.a.7.+.@.q.+.#.t.$.*.i.t.t.t.*.y.i.t.%.$.$.@.$.t.q.*.t.t.7.7.#.t.7.| 7.7.@.7.t.7.@.7.t.7.#.t.7.t.7.7.t.a.a.y.d.d.7...4.7.t.t.t.y.y.a.i.i.y.i.t.+.t.t.#.7.t.u.7.7.t.e.#.d.i.u.u.i.u.i.t.i.d.v.v.d.t.t.t.i.i.i.d.i.t.t.v.d.d.$.7.t.$.#.$.i.7.+.t.d.7.i.M.v.i.d.d.v.v.M.M.M.g.a.t.a.d.P.P.P.M.Q.M.P.Q.Q.{.Q.i.n.J.d.u.G.P.i.u.D.g.i.M.N.N.N.N.N.N.N.M.n.v.M.M.M.M.M.Q.Q.Q.M.Q.Q.W.Q.Q.Q.d.d.U.n.s.D./.g.i.J.D.i.M..XN.N.M.M.P.P.M.Q.P.d.s.s.a.n.T.P.P.M.v.g.n.M.M.D.d.7.d.n.e.a.n.d.e.u.d.t.t.J.v.g.n.v.v.d.v.v.v.d.v.n.n.n.M.v.v.d.d.d.J.n.M.M.g.$.d.d.$.7.a.g.$.e.d.7.t.c.d.i.v.v.v.c.d.c.v.s.t.7.t.a.d.g.d.c.n.d.d.n.v.d.s.7.k.k.7.t.Z.d.e.7.s.p.e.d.g.a.p.7.s.Z.g.d.d.a.i.a.d.a.t.7.t.t.t.6.7.s.i.d.d.6.7.s.6.+.7.a.t.6.a.7.7.a.d.i.u.t.t.d.d.i.v.d.7.+.6.u.i.*.t.t.t.y.y.u.t.t.t.+.7.6.+.+.7.t.@.{ #.6.` ..7.$.#.+.+.+.@.$.#.+.@.7.$.#.#.#.#.#.#.#.#.e.$.7.7.| +.4.{ | 7.t.| | 7.4.{ 5.7.6.@.+.+.+.| } | <.{ R R [ | } } | | } ( _ _ { { R ) [ U U ) W U Q Q S U [ } Q U E U U Z U Q W V V U W W V f M B U V E x V E l M B M l Z M f M ",
"B f l F E U z S b x W ( K R ( Q _ { | 4.<._ [ [ [ _ 4.7.+.+.7...| 4...7.| } 4.| ..6.1.) ( ....| ....6.7.t.7.7.t.t.7.7.t.t.7.t.t.t.t.t.a.t.6.t.t.t.7.| +.7...] e.e.] ....} _ +.7.6.7.t.7.t.t.6.t.a.4.4.4.4.7.a.t.t.q.t.t.t.$.i.a.#.7.a.#.7.p.7.6.@.#.7.+.@.t.@.%.u.t.%.%.y.i.y.i.*.@.$.$.t.t.t.t.t.t.7.$.7.a.7...p.e.#.6.6.4.4.t.a.e.7.7.$.e.7.7.t.a.a.a.a.7.1.4.4.4.t.i.t.d.y.i.d.d.t.i.y.O.t.u.#.#.e.e.#.t.t.7.#.d.d.f.t.i.i.i.t.d.y.c.v.i.i.i.t.u.i.d.i.t.t.u.d.d.g.$.$.s.e.#.#.$.#.$.t.d.e.g.m.n.v.d.v.n.v.M.M.v.t.a.a.a.a.n.P.Q.P.Q.M.Q.Q.Q.{.Q.i.n.D.d.s.d.g.d.i.J.g.i.M.'.N.M.N.N.M.N.N.M.M.M.n.n.M.Q.N.Q.Q.Q.Q.Q.[.Q.Q.T.d.g.U.Z.d.d.z.d.d.J.D.i.M..XM.M.M.M.Q.J.Q.T.d.s.j.k.p.s.D.P.P.M.n.M.D.D.P.D.a.7.d.D.t.t.s.t.t.a.d.e.t.n.v.M.n.v.M.v.v.d.d.v.c.n.n.v.M.M.v.g.n.M.P.M.n.M.g.e.d.g.e.7.p.a.#.e.d.7.e.M.d.d.n.v.n.d.i.v.a.e.a.s.t.e.d.D.M.n.n.d.d.g.d.M.Z.7.j.k.7.r.j.a.7.r.s.t.e.g.Z.d.d.s.d.n.g.d.d.d.n.d.d.d.t.7.a.t.a.7.6.t.t.a.a.4.e.s.7.+.4.e.#.#.a.7.7.s.i.i.t.t.t.t.i.d.d.t.7.6.6.7.u.i.i.t.t.t.t.t.t.t.*.] 6.6.+.| 1.7.+.| 6.@.' +.6.#.O.+.$.@.+.@.t.$.+.+. .+.+.+.$.$.#.$.7.7.$.7.7.| ..7.+...+.4.| +.6.4.{ 6.6.@.+.+.4.4.| 4.4.} _ _ ) [ [ <.| | | { _ { _ _ } R E ) U U U S U Q Q U S W Q R W Q W W S E E Y W V V W E Z V E U U V F x V F l B F M B V M m B ",
"m f l M F S S U x c W R R R _ Q _ { 4.4._ Q [ [ [ ) | 4.5.@.6.+.4.+.+.6.| } 4.| ..6.| ( [ } } ' ..| 6.6.t.t.t.t.t.t.7.t.t.t.t.y.t.t.t.t.t.7.t.a.a.6...+.#...| 4.6.| | ...._ { 7.7.t.e.4.6.7.t.t.7.4.4.6.4.4.6.a.i.t.t.t.t.t.t.d.t.6.t.7.7.q.7.6.@.7.7.+.$.t.$.$.*.t.t.t.t.u.i.t.%.$.$.t.t.t.t.t.t.t.t.t.q.a.7.+.t.7.6.4.6.7.4.7.s.7.t.a.t.e.7.e.t.a.a.s.7.1.1.4.4.4.6.t.i.i.i.d.y.u.u.d.i.O.t.t.$.#.6.e.7.e.t.t.@.d.v.d.d.d.u.i.t.t.y.i.y.d.i.d.t.t.t.i.t.d.u.t.d.i.i.#.6.t.e.#.+.6.#.7.$.u.t.d.n.n.n.n.n.m.m.M.a.a.a.a.a.a.s.d.d.P.Q.M.M.Q.Q.{.Q.M.i.n.D.d.s.s.s.d.d.D.g.i.M.N.M.N.N.M.m.M.M.M.M.n.i.v.M.M.M.M.N.Q.Q.Q.Q.Q.Q.W.d.d.G.g.a.d.d.s.d.D.J.i.M..XN.M.M.P.P.W.U.g.s.j.j.s.k.s.s.D.Q.M.M.D.D.M.M.J.s.e.Z.d.e.p.p.t.a.s.d.t.e.n.n.n.M.m.m.M.n.d.d.v.M.v.v.n.M.n.v.d.M.P.M.n.M.n.d.7.a.d.e.7.e.e.7.e.s.e.t.n.v.v.v.v.v.d.g.a.t.e.a.p.p.e.a.d.D.M.d.i.d.a.d.J.D.t.k.s.e.p.p.r.r.t.s.p.e.d.g.g.n.n.g.d.n.d.d.d.c.c.d.a.t.t.t.a.a.7.6.7.$.$.t.+.7.s.7.4.6.4.6.+.e.7.6.u.u.t.t.t.t.t.i.i.t.6.7.7.7.6.7.i.d.t.t.t.t.t.t.t.*.+.+.6.+...4.4.+.+.+.4.| +.@.O.+.#.#.#.+.$.$.$.#.+.+.+.#.#.@.$.e.t.t.7.#.$.6.| | 4.4.| } | | ..+.4.{ +.@.+.+.@.4.+.+.4.| } _ } [ _ ) } ..4.{ { _ { } { _ T U Q U E U F c W ) S S W U Q Q Q E E W W E E E U U Q B B F E V S U Z l V Z f M C B C n M M M ",
"m f M f B B S W x c R R ' _ ` { } _ { _ Q Q } ) [ [ _ } 7.@.4.+.+.@.6.6...} 4...| +.} ) } _ ) ' +.7.e.6.7.t.t.q.t.t.t.t.t.t.t.t.t.t.a.p.t.t.7.t.t.6.+.#.6...' | ..| ' | 4._ ..t.7.e.7.4.7.7.t.7.1.4.4.4.4.<.<.7.a.i.t.q.t.y.t.d.t.6.t.7.6.7.7.6.4.7.7.+.$.y.u.t.$.t.t.t.t.y.y.t.t.t.%.t.t.t.i.t.t.t.y.y.t.a.t.4.s.7.4.4.7.t.4.7.a.7.t.n.a.s.t.t.t.a.a.e.1.<.4.4.4.4.4.7.y.i.i.i.t.t.u.x.i.O.t.t.#.#.#.e.7.7.t.p.#.i.i.u.f.d.i.t.$.7.i.t.t.c.i.d.t.$.$.i.t.d.i.t.i.y.y.7.#.e.7.+.+.7.@.7.#.t.t.u.n.n.m.N.m.m.M.d.t.a.a.a.p.a.a.a.a.n.J.M.M.M.Q.Q.Q.M.u.D.D.a.a.s.s.d.d.D.d.i.M.m.m.N.M.M.m.m.m.n.M.v.f.M.M.M.M.N.M.Q.Q.Q.Q.P.Q.W.d.d.G.d.s.z.d.s.d.Z.J.i.M..XM.Q.Q.M.P.T.Z.s.s.k.j.s.k.k.s.d.D.P.M.n.J.M.n.J.s.7.d.s.7.p.t.t.a.a.d.s.t.P.M.v.H.M.m.n.v.n.n.v.m.v.n.n.M.v.c.d.n.n.n.n.M.n.g.7.s.d.e.6.7.7.e.7.a.e.t.M.v.v.v.d.c.v.d.t.t.e.p.t.p.p.e.t.d.n.d.i.d.d.v.n.n.t.z.s.r.p.p.0.t.0.t.s.7.s.d.n.M.n.c.d.n.d.d.a.a.d.a.t.a.t.t.t.a.7.6.e.7.$.s.4.6.s.7.4.6.4.7.+.7.6.+.t.t.t.u.t.t.t.t.7.6.5.7.6.7.7.#.7.y.i.t.*.t.t.y.t.t.#.5.6.| ..6.1.1.+...4...+.@.+.$.$.#.#.$.$.$.@.@.#.e.$.#.$.#.#.$.e.$.$.$.#.7.+.| 6.4.} [ } ....| 1.{ +.#.@.@.6.+.+.@.| _ { } } { [ Q Q { } | { Q _ { { _ W R [ U U E U c W W S U W W ) Q ) W Q Q U U R U U V V l M Z U V U S B f B Z f n C B B M n m B ",
"M d M M M l B E x x R Q ` { { | } R R R _ ) ) [ _ _ [ { 4.6.+.| +.+.@.7...| 4.| ..| [ ) [ _ } ) ..a.t.7.7.7.e.t.t.t.t.i.t.7.q.7.q.t.a.a.t.6.7.t.t.7.+.#.7.| ' } | | ' { o.{ 6.a.7.@.6.5.7.t.6.4.4.4.4.4.4.4.2.<.7.a.y.t.t.t.y.i.7.6.t.7.7.6.7.7.@.$.t.+.$.u.y.y.t.t.t.t.t.t.t.t.t.t.*.=.t.y.y.t.t.t.t.t.y.d.t.4.s.6.+.7.7.0.7.7.p.6.t.c.d.d.a.t.a.s.7.+.4.4.4.4.4.6.4.#.7.a.a.i.t.i.t.d.d.+.t.e.+.7.#.7.7.7.t.r.#.i.u.u.u.i.i.t.$.t.e.y.y.y.d.i.t.7.7.t.u.a.d.d.t.t.i.7.6.t.+.+.+.6.7.6.$.t.$.t.n.m.M.M.N.M.d.t.a.a.t.t.a.a.s.d.d.d.d.D.M.M.M.M.{.M.i.M.J.a.p.s.s.s.s.D.d.u.M.N.M.m.N.Q.N.m.v.n.n.n.M.M.M.M.M.M.P.Q.Q.Q.Q.M.N.W.g.g.D.d.s.d.d.d.s.D.D.u.n.[.Q.Q.Q.Q.T.n.s.s.j.s.s.j.s.s.s.p.s.D.J.M.M.M.M.D.p.7.s.t.e.p.a.t.t.s.d.t.g.Q.m.M.M.M.M.v.n.n.n.v.n.m.n.v.v.v.M.g.v.g.M.n.n.M.d.e.s.s.7.6.r.7.r.7.t.7.e.M.v.d.v.v.n.i.t.t.a.7.7.t.t.e.t.t.p.a.n.d.d.d.d.n.n.t.k.s.r.p.r.0.r.0.s.p.6.a.g.d.c.c.c.d.d.d.d.t.7.q.t.t.t.t.t.t.t.q.t.t.7.t.s.4.7.a.6.+.6.4.6.+.7.+.+.e.t.t.t.t.a.t.7.6.7.7.6.6.7.7.7.@.7.t.i.t.t.t.t.y.%.#.t.4.| ..1.....| ..+.| +.$.$.@.@.t.7.#.#.$.+.+.#.$.#.$.#.$.#.#.#.#.7.$.7.7.| | 6...[ } <.} | 4.| ' 6.6.@.6.@.@.@.| { ) _ } { _ [ Q Q W ) { { ( Q Q _ [ W W [ R c U E S U W S S Q [ Q W Q ,.>.W V V W W F B f M Z B V S V B B x B V B n M M M n n n B ",
"M M B M C f B B f l ) ( R ( } _ _ W Q Q [ Q Q _ [ _ <.} | 1.4.| 6.+.@.7.+.....| ..[ } ) ) [ | ) ..t.t.t.t.6.t.t.t.t.t.i.$.7.a.7.7.t.a.a.t.7.q.7.t.e.+.$.$.] { } | } _ { 4.} o.7.#.@.7.t.7.6.4.3.4.4.| 1.4.4.4.4.7.t.a.a.t.t.t.y.7.7.t.7.6.6.7.7.@.7.t.+.*.i.*.t.t.$.t.a.y.t.t.i.u.t.t.*.t.i.t.t.t.i.t.t.d.c.t.5.s.7.4.7.6.6.7.7.t.7.t.s.d.d.a.s.a.t.4.4.7.6.4.4.6.6.7.6.4.t.a.a.t.i.t.u.g.+.e.e.#.e.#.6.6.e.e.r.#.y.d.i.u.g.i.t.t.t.t.d.y.i.d.y.%.t.t.t.u.t.d.d.t.i.d.#.#.t.#.7.+.+.e.6.#.t.$.i.c.M.m.m.M.g.t.p.a.a.t.t.t.t.s.g.d.d.a.g.P.M.M.M.{.M.i.D.D.s.p.s.s.s.s.D.d.u.M.N.M.m.M.M.M.v.v.m.n.n.M.N.M.N.N.M.Q.Q.P.M.P.Q.Q.P.d.d.J.d.s.s.k.d.s.D.D.i.n.[.Q.Q.Q.T.n.s.s.s.s.s.s.s.s.p.s.s.p.s.J.P.M.n.M.n.p.7.s.t.e.p.p.t.t.u.d.t.g.P.m.M.M.v.v.M.M.n.v.v.v.n.v.v.n.v.M.v.n.g.n.n.M.J.d.e.s.s.7.9.r.7.7.r.e.#.e.v.v.d.v.d.a.t.t.a.a.7.7.e.t.r.a.a.t.p.d.Z.D.d.d.M.n.t.k.s.r.r.r.0.0.7.s.t.6.d.M.c.d.d.d.d.d.d.v.i.t.q.a.t.t.t.t.t.t.q.a.t.$.i.a.+.+.e.4...7.6.4...7.6.6.t.u.t.t.a.d.t.6.7.7.6.4.7.7.7.6.6.7.7.t.i.i.t.t.i.%.+.7.4...1.1.1.1.} } | | +.$.$.#.$.7.@.] @.e.#.+.#.@.#.7.6.@.@.+.@.t.t.7.t.7.| | 4.1.} <.1.} | 4.} } 6.6.4.5.@.6.+.{ _ _ _ _ [ ) Q [ [ Q Q ) [ } _ R ) { R W _ T c E W S U Q U S [ [ ) E W W Q E V V U U U B B Z F B V V V M Z V V V F M M B B f M d M ",
"B B Z M M l l V x x Q ( U R _ R R R Q Q ) ) _ Q _ [ } } [ { ..4.6.@.@.7.@.| 4.| | [ ) ) ) _ | } | #.t.t.t.t.t.t.y.t.y.t.$.7.a.t.q.q.a.t.t.t.7.7.t.t.@.#.#.| { { | } _ ' +.` | +.+.7.t.t.4.| <.4.4.4.4.4.4.4.4.7.7.6.q.a.i.t.t.y.7.7.a.6.4.7.7.7.@.7.q.+.q.i.t.t.t.t.t.t.t.t.t.i.i.u.t.t.t.i.i.t.t.i.t.t.i.d.t.5.s.r.6.4.6.7.4.7.t.6.7.s.t.a.a.d.s.4.4.7.6.7.4.4.4.6.7.7.6.6.7.s.a.i.t.u.d.+.7.e.#.7.6.6.6.7.t.e.#.d.d.d.d.c.d.d.t.i.d.i.i.d.d.t.$.t.t.u.t.i.i.i.i.a.d.#.+.t.7.@.4.6.6.#.#.e.$.i.c.v.n.m.d.a.a.s.s.s.s.a.t.t.d.d.d.g.d.d.g.U.P.M.Q.M.u.D.n.t.p.s.s.s.s.A.s.a.P.M.m.M.n.v.f.v.n.m.n.n.v.M.N.N.N.N.N.Q.Q.P.Q.N.N.Q.d.g.U.z.s.j.k.s.s.C.J.u.n.[.Q.[.T.g.d.s.s.s.s.s.s.s.p.p.s.s.p.a.d.D.J.M.M.M.s.7.g.s.e.p.p.s.t.t.n.u.i.P.M.M.M.M.n.v.M.m.n.v.n.v.v.n.M.v.n.n.n.n.n.n.J.D.s.7.s.s.7.6.r.r.6.7.p.6.e.v.v.v.n.a.t.t.a.t.p.t.r.7.e.p.a.p.a.p.p.a.D.n.n.D.n.t.k.t.r.r.r.r.9.7.j.s.7.g.D.n.n.d.a.d.c.d.d.d.a.t.t.t.a.i.t.$.t.t.t.t.t.i.a...+.7.+...4.6.4...e.7.6.a.i.e.t.s.t.6.7.9.7.7.6.7.7.6.6.7.7.6.e.a.d.i.t.u.t.] +.4.| 1.1.<.| } | +.| @.$.@.@.%.#.X.] @.7.$.#.@.#.#.#.6.#.@.@.q.t.q.7.7.6.| | 6.| } <.<.| } ..| ` 4.4.+.+.4.+.{ { { [ ) Q ) ) [ [ [ [ ) Q [ } [ _ _ [ W W Q b S U W W W Q b W [ [ ) U F V U U W S V B S V F V S V B B V V F x x V B B V l B M m f B ",
"Z C B M m M l W W c Q ( ( ) ) W W Q Q W Q _ _ Q _ } [ _ ( ( | ..6.7.#.7...| 6.] ' ' ) ) ( ' +.....+.#.7.s.a.7.#.t.y.d.t.t.7.7.t.7.t.t.t.p.t.t.t.t.7.+.+.e..._ | | { ` | +.| +.+.#.7.7.4.| } <...1.1.1.1.<.4.6.6.7.7.6.7.a.a.i.i.7.e.a.7.6.7.7.7.@.q.p.@.$.i.t.t.i.i.t.t.t.t.i.y.i.i.t.u.t.i.y.t.t.i.y.t.t.d.t.6.s.a.7.4.7.0.4.7.a.6.7.d.t.a.d.s.7.4.4.7.4.4.4.4.4.0.e.7.7.6.6.r.a.a.i.d.d.+.7.t.#.6.6.6.6.7.d.t.7.M.c.v.v.d.i.i.t.d.d.i.i.c.i.t.t.t.i.i.t.i.t.u.e.t.y.+.+.t.7.+.4.6.6.#.e.u.$.t.c.v.n.n.s.a.a.d.s.s.a.d.t.a.d.d.g.d.d.a.a.D.P.M.Q.n.u.M.n.t.a.s.s.s.d.G.a.d.P.M.N.N.M.v.v.m.M.n.M.v.i.v.N.Q.Q.Q.N.P.Q.Q.Q.M.N.Q.g.g.T.D.s.k.k.s.d./.U.i.n.[.W.U.g.d.d.d.s.p.s.d.s.s.s.s.s.p.s.s.p.d.J.P.M.n.s.e.n.d.e.a.p.s.t.a.D.i.i.M.M.M.M.M.M.v.v.M.m.n.n.v.n.n.M.n.v.v.n.M.M.n.v.n.u.7.d.d.e.6.7.r.6.e.d.7.t.n.n.d.a.t.t.s.t.t.p.p.t.r.e.p.a.t.a.p.t.e.s.D.M.M.d.e.d.p.r.r.r.0.7.e.k.s.t.d.n.d.d.a.d.d.v.d.i.i.y.t.t.y.y.i.t.$.t.t.t.t.t.y.7.+.#.e.@...1.7.@.+.p.7.#.a.u.t.s.t.6.6.7.7.7.6.7.6.6.6.t.e.7.7.7.7.t.i.i.u.t.] #.#.| 1.1.| } | 7.4.| #.$.@.$.$.$.$.$.$.#.$.#.@.$.$.#.7.t.$.q.t.q.7.@.#.7.| ..7.| } <.<.| { 4...` +.@.@.+.4.{ ` } 1.[ [ Q Q } } _ [ <._ W Q _ [ { } Q c U R b b U U W Q Q U W [ Q U U U U U U Q U F B x U U V Z V V B B F U x x V B A Z f M l n M Z ",
"Z A m d m f S Q R U Q Q _ Q R W R R Q W W ) _ _ _ { [ Q ( _ | { +.e.$.7. ...7.+...' [ ) ) | +.| +.+.#.6.a.a.#.+.t.t.y.y.t.t.t.7.t.t.t.t.q.t.a.y.t.7.] +.t.@.' } | ` ` @.5.| @.7.#.#...} | | | | | 1.4.1.1.4.4.4.7.0.7.4.6.a.c.d.e.7.a.t.6.5.7.4.6.a.t.@.t.i.t.i.i.d.a.t.7.t.u.t.t.i.i.u.i.i.t.t.t.y.t.t.i.d.7.6.s.s.7.6.4.6.4.e.s.6.7.a.a.a.t.7.4.7.7.6.6.4.4.4.7.0.r.r.7.0.7.7.7.s.d.i.d.@.e.d.$.#.7.6.6.t.d.a.e.d.v.n.c.d.i.d.d.i.d.d.i.i.i.i.t.y.y.t.i.a.t.t.$.t.t.+.+.t.e.+.| 6.@.7.t.a.7.y.v.M.n.a.a.a.a.d.s.d.a.s.a.d.d.g.d.d.d.d.d.d.n.J.Q.v.t.M.J.d.t.s.s.s.n.^.s.a.P.N.M.m.m.m.v.b.b.b.n.v.v.M.m.M.Q.Q.Q.Q.Q.Q.P.M.M.Q.g.g.W.R.d.s.j.d.D.oXG.d.J.+XT.g.s.k.d.d.d.s.s.s.s.s.j.s.s.s.s.s.s.s.g.J.J.J.s.e.n.n.u.p.s.t.t.M.D.u.i.P.P.M.M.M.P.M.v.f.m.m.n.n.n.n.M.n.n.v.n.n.M.v.n.n.s.e.d.n.s.6.7.r.e.i.D.t.t.m.v.u.e.t.a.t.t.t.t.t.p.t.t.t.p.a.a.t.t.7.e.a.n.D.i.7.z.s.0.r.r.9.7.s.Z.a.t.g.a.t.i.d.d.i.i.i.i.i.q.@.$.i.t.q.t.7.q.i.i.$.$.t.t.@.@.e.7.| | 6.+.#.a.6.#.t.t.t.e.6.6.6.7.7.7.6.6.6.6.7.e.t.t.7.7.7.7.t.y.i.i.+.@.7...| 1.| } @.q.@.| #.t.$.$.@.$.t.t.$.$.t.$.@.$.7.t.7.7.t.t.q.t.#.+.#.7...| 6.4.} } <.} ..6...{ +.@.#.4.| { } { { <.} ) _ [ [ } <._ R W R W _ _ _ R c c R U c S E S R _ W U Q E E W Q U E W U W U x x V U U U U F B S V V c V V x B F B f f M f F ",
"F F M f M f U ) U U Q ) Q U E W Q W ) Q W Q [ { [ _ [ ( _ { ..| ..@.@.7.+. .7.#.' ( [ ) ' 6.+.| +.@.t.t.t.t.$.6.s.t.t.t.7.7.a.t.t.t.a.t.t.a.a.t.7.7.| +.t.t. .' } ' ' 7.6.` 6.7.| | | | +.+.} } } 1.4.4.7.6.4.9.0.7.7.7.+.6.a.d.t.7.d.d.7.5.7.6.t.n.t.@.t.a.y.a.i.d.d.t.t.t.t.u.t.u.u.i.i.t.t.t.i.t.t.i.d.d.t.6.s.a.a.7.4.4.6.s.s.6.7.s.a.t.6.4.4.7.7.7.6.7.4.6.e.p.7.r.7.0.0.0.6.r.a.a.d.$.t.g.t.#.6.6.#.a.n.t.$.d.d.d.g.d.i.d.d.d.v.d.y.t.t.i.t.i.t.i.d.d.t.t.t.i.t.@.@.t.t.#...6.@.t.g.a.$.d.n.d.t.t.s.d.a.a.d.d.d.s.d.d.d.d.d.n.d.d.d.s.d.v.Q.M.t.M.W.n.t.s.s.a.P./.s.u.J.N.n.v.v.m.v.v.b.b.v.m.m.m.m.M.N.Q.P.Q.Q.M.M.M.N.Q.g.g.T.}.z.s.p.z./.oXD.d.T.+Xg.s.s.d.d.s.s.d.s.s.s.s.s.s.s.j.s.s.k.s.s.d.n.P.s.e.n.P.d.t.s.e.d.Q.D.t.d.Q.J.M.M.M.P.M.n.v.M.n.n.v.v.m.n.v.M.v.n.n.g.n.M.M.d.t.d.J.d.7.7.7.e.M.n.q.y.Q.i.e.t.t.u.t.a.a.p.t.t.p.a.t.p.a.a.t.t.t.e.e.g.D.t.6.Z.k.r.r.r.7.7.Z.D.p.e.d.t.t.t.v.v.i.i.y.d.i.$.O.@.t.t.%.t.$.$.u.y.$.$.t.t.@.@.t.p...| 4...e.d.#.@.e.t.r.7.6.7.6.6.7.7.6.6.@.7.7.e.p.7.6.6.7.7.6.q.i.i.#.@.t.@.| 1.} | 7.q.o.| 7.t.$.$.@.$.t.%.$.%.t.q.6.@.6.7.#.6.7.7.t.q.#.#.7.7.+.+.7.4.} } ,.} @.7.| | 6.4.| } { } | { } | } { [ [ [ [ [ W W Q ) W ( ( ! _ S S Q U c c F S R [ W S U E ) Q ) W W U U U S V x B F U U F S V U V V c U Z B x U B d y m f F ",
"U U F M M B W Q U b Q ) U x S Q Q Q Q Q Q W ) _ [ _ _ ) _ } | ..| ` +.q.+...#.+. ._ ( [ ..#.#.....e.t.t.t.7.t.t.t.t.t.7.q.7.7.t.a.p.t.t.a.a.t.7.7.t.....t.u.$.' ' | +.7.+.` 4.6.` } | o...4.1.} } <.4.7.7.7.0.9.7.7.7.0.4.+.7.d.e.7.d.d.t.4.4.e.d.n.t.@.t.d.a.i.d.d.i.i.i.i.t.t.t.t.*.i.u.t.t.t.i.t.t.t.y.d.t.6.a.i.d.t.4.4.p.d.s.@.6.a.a.7.6.7.4.6.6.7.7.7.7.7.7.e.7.7.6.7.0.r.9.6.7.a.a.#.t.g.i.e.4.6.t.n.n.7.#.i.i.d.i.d.i.i.d.v.d.d.t.t.t.t.t.t.i.v.d.i.t.t.t.t.u.@.+.i.t.7...4.7.t.v.u.#.d.d.t.e.a.s.d.a.a.d.d.d.a.d.g.d.d.g.g.g.d.d.d.a.d.Q.M.t.n.[.W.d.t.t.Z.T./.s.u.M.M.n.M.v.v.v.v.v.v.v.m.m.M.N.N.M.N.Q.N.M.M.M.M.M.T.g.g.W.}.T.z.s.G.}.oXD.d.T.}.g.s.d.d.d.s.s.s.s.s.d.d.d.a.s.s.s.j.s.s.s.t.d.J.d.e.n.P.n.s.e.s.D.P.M.t.d.P.J.P.P.M.M.M.J.M.n.n.v.i.d.M.n.v.v.n.n.n.v.n.M.P.d.e.g.M.g.e.6.7.i.M.n.#.i.Q.d.e.p.t.t.t.a.a.a.t.t.a.s.a.s.t.t.t.t.r.r.7.d.M.s.@.d.C.d.e.7.7.s.D.n.t.e.a.i.t.t.i.d.d.d.u.u.t.t.@.@.#.t.t.y.t.t.e.t.*.t.7.7.+.@.t.t.7.+...#.t.a.#.+.t.t.6.6.7.7.6.7.7.e.e.7.7.7.7.t.e.6.4.6.6.7.6.6.t.t.@.@.t.7...{ | @.$.7.| | t.$.$.%.$.$.#.@.7.%.t.t.6.@.@.#.#.6.#.7.t.q.7.7.7.7.+.+.q.6..._ } | 6.7.| } 6.| _ ) [ [ { | <._ _ } [ _ _ Q Q W Q ) Q Q ) Q _ { T H Q Q T c c S _ [ U V E U T W _ _ E c b c S S S B V V Z l V F V z V V S U B l U F B y d Z U ",
"Z E W Z Z U Q U U c R _ S V S E ) ) Q Q ) W R W _ } _ Q Q } { ..| ` +.q.+. .@.@.$.+.| ..7.+.#. .#.t.7.t.t.7.t.t.t.a.q.q.i.t.7.6.6.7.t.t.t.p.t.7.t.t...| &.*.$.....+.$.7.| _ +.6.{ { ..+.| 4.4.<._ | 7.7.7.0.7.7.7.7.7.0.7.4.e.d.e.#.a.v.d.7.6.a.v.d.t.@.t.d.d.d.a.a.t.t.i.i.t.i.t.$.$.t.t.t.t.d.y.a.t.$.7.s.t.+.a.a.t.s.7.e.d.d.7.+.6.a.t.#.t.t.6.+.6.6.7.7.7.7.6.7.6.4.6.7.6.6.9.4.6.s.d.#.e.d.d.t.6.e.n.n.d.6.#.u.d.d.i.d.i.i.d.v.d.d.i.i.q.t.t.t.d.c.i.t.*.i.t.t.i.@.+.u.u.t.#.@.t.d.d.t.+.i.d.t.t.s.s.a.d.d.a.s.a.d.d.d.d.n.g.g.g.d.d.d.s.g.P.M.t.v.Q.Q.m.i.a.W.W.Y.s.t.M.P.n.M.m.v.v.v.;.;.v.M.n.m.m.m.M.Q.Q.M.M.M.P.M.Q.[.g.d.W.[.}.T.G.}.[.[.n.s.U.}.g.d.k.d.d.s.s.s.s.s.d.d.s.p.t.p.s.s.s.a.p.p.a.J.g.e.n.P.M.n.s.n.Q.M.n.t.d.Q.P.D.D.n.n.M.P.M.M.M.v.i.d.d.n.v.d.v.M.n.M.n.n.P.d.$.d.n.n.a.e.t.M.v.n.#.i.Q.g.t.s.t.t.t.t.p.p.a.a.a.s.a.t.7.e.t.a.r.0.7.s.n.a.+.s.C.D.a.t.s.J.g.g.e.7.s.d.t.t.t.i.d.i.y.=.*.y.t.$.$.t.*.t.t.t.t.i.y.t.$.e.+.+.t.t.u.7.+.t.t.s.#...s.t.+.4.6.6.7.7.6.7.e.t.7.7.7.e.7.6.4.0.6.7.7.@.#.t.#.+.t.t.@.@.#.t.$.$.| | 7.%.$.t.*.@.+.+.7.%.q.t.6.+.+.7.7.6.7.#.#.7.7.#.7.t...| 7.t.7.| | @.7.6._ _ 4.| _ { } _ { { ) R [ } } _ _ Q W ) [ Q Q Q W ( { _ Q U R _ _ U U W } Q c S W U U E R W U b c S U c U V z U U x V V V z U c c U l l S E U x B E E ",
"V U W W W U W E S b ) ( U V F W Q ) Q ) [ [ _ ) } } _ W Q _ } { | } ..7.+.] #.%.t.$.7.+.+.#.+.] 6.t.t.t.t.7.7.t.u.t.q.7.t.a.a.7.@.#.e.7.7.7.q.t.t.t.+.] &.$.#.#.7.$.#.7.+._ 6.7.` { | | | +.4.| } <.4.7.7.5.4.7.7.7.7.7.7.7.t.d.t.@.t.v.c.a.a.d.i.d.t.@.t.a.a.d.t.t.q.t.t.y.i.a.t.$.e.i.t.t.y.i.i.t.t.t.t.t.7.+.t.i.t.u.t.u.i.t.7...#.a.$.$.t.e.7.6.4.6.4.7.6.6.6.6.6.6.6.7.6.6.4.4.6.s.d.#.7.d.i.i.i.d.v.d.d.#.6.a.i.i.d.d.d.d.d.d.i.d.d.d.u.t.t.i.i.i.*.%.t.i.t.t.t.+.+.t.u.i.e.$.i.i.v.e.+.a.n.a.a.d.s.s.d.d.s.a.a.d.d.d.n.Z.z.g.s.d.a.s.d.d.M.D.t.g.M.M.P.M.D.Q.Q./.s.t.M.M.M.m.m.m.n.i.=.=.i.v.n.n.n.M.Q.W.Q.Q.P.N.Q.Q.Q.W.g.d.T.[.[.}.}.[.[.[.n.s.G.}.D.z.k.s.s.s.s.s.s.s.s.s.a.p.s.s.s.s.a.a.s.p.a.J.d.e.g.M.M.H.M.D.M.M.n.t.d.Q.P.M.n.d.M.P.M.M.M.n.d.i.d.d.v.d.v.g.n.M.M.M.M.D.s.#.d.M.n.g.d.d.v.v.c.#.i.P.g.t.a.a.t.t.t.t.a.a.a.s.s.s.r.7.t.p.a.t.t.7.t.n.d.+.s.d.n.d.d.n.v.f.d.6.7.a.u.t.u.t.t.t.t.*.=.$.*.$.t.*.$.O.$.%.t.y.y.i.i.t.t.6.6.6.e.t.t.e.u.u.t.+.+.d.t.+.4.4.6.7.7.7.7.e.t.e.e.7.7.6.6.6.4.6.7.4.#.$.t.#.#.%.*.*.t.t.t.%.$.{ { $.*.$.#.+.@.@.#.#.$.t.t.6.@.5.7.7.7.t.6.@.$.e.6.#.6.| | 6.7.t.6.@.@.7.+.( } 4.| } } } { _ R R [ <.{ } } [ Q Q _ _ ) ) E E R } | ( T ( ( _ _ Q Q ! T x F E S U R U b U c S S b c S U W E S c V x U U V x V V M l U F U U E U U ",
"S V U Q Q U W W c U } _ W V E ) Q Q _ ) [ [ _ [ <.} R W _ ( | } | { | 7.+.] 7.$.$.$.@.| ..#.] ' 6.t.u.7.t.t.7.7.t.q.t.t.t.y.a.p.t.6.6.e.7.6.t.t.7.t.6.] $.$.@.#.7.e.+.7.4.{ r.a.| } | | +.+.1.1.1.4.4.7.7.6.6.4.7.7.7.7.9.7.e.d.t.#.t.a.i.i.y.a.i.a.t.@.t.a.a.s.t.t.t.t.t.t.t.t.q.$.t.i.t.&.t.i.i.t.t.t.a.d.t.@.7.t.u.t.t.i.t.7.7...#.d.$.e.7.7.7.7.6.7.7.7.6.6.7.e.7.e.6.6.7.7.6.7.6.s.d.#.e.d.i.d.d.v.d.d.i.6.7.d.u.u.i.i.i.g.u.t.t.d.i.a.t.t.e.i.t.t.*.i.t.i.t.u.t.] +.t.=.i.t.u.u.i.v.e.#.v.d.d.s.s.s.d.a.d.a.d.a.d.d.n.n.Z.z.d.d.d.s.s.d.i.M.D.t.i.M.M.M.M.P.P.Q./.s.t.D.M.n.n.m.N.v.v.;.u.i.d.v.v.n.Q.Q.Q.Q.).Q.P.Q.[.Q.Q.g.d.Q.oX[.T.[.Q.[.[.n.d.R.}.D.Z.k.d.d.s.s.s.s.a.a.s.s.s.s.s.s.s.s.s.j.p.a.J.d.e.g.P.m.m.P.J.M.M.d.t.g.J.D.P.M.n.M.M.M.M.M.n.d.d.g.n.d.M.n.d.g.n.M.J.P.M.s.$.d.D.g.v.M.n.d.n.d.#.a.P.i.t.a.a.a.a.s.a.a.p.s.d.s.s.p.t.s.t.t.t.t.7.t.n.a.@.s.a.n.d.d.g.i.f.d.6.6.s.i.t.u.t.*.t.t.$.$.@.$.$.=.=.*.@.$.t.i.y.y.i.d.t.6...4.| e.#.t.t.t.u.7.+.7.s.s.7.6.6.7.6.7.7.7.7.7.t.t.7.7.7.0.7.4.4.6.4.6.t.i.@.@.%.t.*.q.t.@.$.t.{ | #.+.+.+.+.$.$.q.$.#.*.7.6.7.7.6.7.e.t.#.| 6.e.7.#.@.{ ..6.#.e.7.#.+.$.+._ ..4.| | } { } } _ [ } } [ _ [ [ Q [ Q ) Q Q W U U _ <.R b R _ R R _ R Q S x U E c S T U U W c U c V U U S U Z z S c V U V l x U B C f F S U E W F F ",
"E V U U W W R U S W { } T S E Q ) Q ) ) ) W Q ) [ ) Q W ) _ } | ..| | 7.| | #.$.$.@.+.| ..+.| ' 6.t.7.7.t.t.e.6.7.t.t.t.t.t.t.t.a.7.e.e.7.7.e.t.t.t.+.| 7.$.+.#.$.#.#.7.4.| 7.a.4.| <.| ....| 4.4.4.4.4.7.7.6.9.7.7.7.7.6.6.e.d.e.@.t.i.t.t.t.y.i.d.7.+.e.a.t.t.t.t.t.t.t.t.%.t.$.+.t.t.$.e.t.y.t.t.t.t.t.a.a.@.e.u.t.t.t.t.t.t.7.+.e.a.e.#.7.7.6.7.7.7.7.7.4.6.7.e.e.7.7.7.7.7.7.7.e.a.a.#.$.d.i.i.y.i.d.d.d.7.e.d.i.t.t.u.i.i.t.t.t.i.a.t.@.6.t.s.y.i.i.u.t.t.i.t.t.] +.t.*.y.i.x.i.d.d.t.#.d.c.d.d.s.a.g.d.a.a.a.a.d.g.D.D.Z.d.g.d.d.s.s.d.d.P.M.&.d.M.M.M.M.P.P.Q./.a.t.P.M.v.v.v.m.v.i.i.v.i.x.v.v.M.Q.Q.Q.Q.Q.Q.W.W.Q.Q.W.d.d.T.[.T.T.Q.Q.[.[.n.a.G.[.n.k.z.k.d.s.s.s.s.a.s.s.s.s.s.s.s.s.s.s.s.p.a.J.d.e.n.M.M.m.P.M.M.M.a.t.g.P.H.P.M.M.M.M.M.n.n.n.d.d.v.v.n.v.M.n.v.d.n.D.J.J.d.e.d.n.v.v.v.c.v.d.d.#.y.P.i.t.t.t.a.d.s.s.s.a.s.s.d.s.s.s.s.a.p.e.r.7.t.v.d.@.s.n.g.g.d.a.i.i.s.6.@.t.i.t.t.t.t.t.u.$.@.@.*.*.*.%.t.y.u.*.=.y.d.y.*.#.+._ | 4.6.#.e.t.t.e.e.6.7.d.a.e.7.7.7.7.r.6.6.6.7.e.t.e.7.7.e.7.6.4.6.7.@.y.d.+.@.t.t.*.$.+.+.@.7.{ { @.@.O.+.#.+.@.$.$.#.#.7.7.7.7.7.#.$.7.6.@.6.7.7.6.4.| | 6.7.#.@.+.+.#.@.| | @.+.| } | ..} _ [ } [ _ _ _ [ [ [ Q Q W Q W W U Q _ b S ) _ R R W T ( S V U U S S b U R T U b S S U S x x l V V c U S l B B V F B f F U W U U V F ",
"W W U U W W R E U W { _ U S E Q ) Q W Q _ Q ) W Q R [ Q ) ) _ | } } | +.| +.#.$.$.$.6.| ] +.+.} +.+.| 7.t.t.7.6.7.q.7.t.7.q.t.q.t.t.t.7.7.e.7.t.t.e...| e.t.+.#.#.@.7.e.6.<.6.t.+.| 1.1.| | | 4.4.4.4.6.4.7.0.0.7.7.6.7.4.4.t.d.7.+.t.d.i.t.t.a.i.d.q.+.7.s.t.7.q.t.t.t.t.t.t.i.$.@.t.y.t.t.t.t.t.t.t.i.t.t.t.+.t.d.t.t.t.t.t.t.6.4.7.a.$.+.7.7.#.7.7.7.7.4.6.7.4.7.7.7.6.6.6.7.6.6.e.a.a.#.#.i.d.i.t.i.i.i.n.t.7.d.i.t.e.u.d.d.i.a.t.t.v.a.$.e.a.t.t.v.i.t.t.t.t.t.i.#.+.$.=.u.y.d.d.d.d.u.$.d.v.d.a.a.s.d.d.t.t.a.d.g.d.z.Z.d.d.g.d.s.d.s.s.i.M.n.$.g.P.M.H.P.H.T.W.R.s.t.P.Q.n.v.v.b.v.;.i.v.x.v.v.n.M.Q.M.N.M.M.Q.Q.W.Q.N.Q.d.g.W.[.Q.T.J.T.[.T.D.a.G.}.g.s.k.s.s.s.s.s.s.s.s.p.s.a.s.s.s.s.j.s.s.p.a.J.d.t.D.M.n.M.M.m.M.n.g.t.g.Q.M.n.M.M.M.M.M.n.M.v.v.d.v.i.v.v.M.P.M.v.n.n.J.U.g.t.d.M.v.v.d.c.n.d.n.#.t.P.i.t.t.t.s.s.a.s.s.s.s.s.s.s.s.s.a.a.t.e.r.7.t.d.d.#.d.D.d.n.g.a.g.u.s.7.6.e.&.*.t.*.u.*.t.*.*.*.t.=.*.%.y.=.u.*.t.u.y.%.$.t.7.{ 4.a.6.7.7.t.t.$.t.7.6.d.t.7.t.7.7.6.6.6.4.4.e.7.e.e.7.7.0.7.7.7.7.7.@.t.i.#.$.t.*.t.q.@.6.$.7.| ` 7.$.+.$.$.] ] #.q.#.@.q.7.6.7.6.@.7.7.7.7.@.7.6.6.7.| ` 7.#.+.+.+.+.@.@...| +...' { <.} _ W ) <.{ { [ [ [ [ W E W Q ) W R U R Q b U [ Q R _ U U R U U S S c b b T b S c z U U V x x c B F h c U V V U x c F B f V U E S V V U ",
"W Q W E W U W Q T U } R b U Q Q ) W W W Q [ _ Q Q Q ) [ ) Q _ _ } _ ` +.| @.t.$.$.7.#.+.+.+.| | ..` | 6.t.t.e.7.7.t.q.7.7.7.t.t.t.t.7.7.e.7.t.t.7.7.+...7.%.$.#.6.#.6.e.0.<.4.6...| ..<.| | 1.4.4.4.7.6.4.0.p.r.0.6.4.4.4.6.t.d.e.#.s.g.i.a.a.i.i.d.e.@.t.t.q.7.e.t.t.t.t.t.t.i.t.@.q.a.u.u.t.t.t.t.y.i.u.s.7.+.e.a.y.t.t.t.t.t.t.+.6.a.+.+.6.6.6.7.4.4.4.4.4.6.4.7.t.7.4.4.6.7.6.6.6.t.d.#.$.d.d.i.i.i.i.v.n.e.7.i.i.i.t.u.i.v.d.d.y.i.v.a.t.t.a.t.t.i.d.g.i.d.*.=.d.7.@.t.*.t.t.i.u.i.v.y.$.g.v.i.t.a.d.s.t.t.a.a.a.d.d.d.d.d.d.d.d.a.a.s.s.i.M.n.&.d.P.m.M.M.H.P.W./.a.a.P.Q.M.m.n.n.v.f.;.u.v.v.n.m.M.M.M.M.M.M.M.P.P.M.N.Q.d.d.W..XQ.T.Q.T.W.W.D.a.J.}.g.a.s.s.s.s.s.s.s.s.s.a.p.p.s.s.s.k.k.s.p.t.a.P.d.t.n.P.M.M.M.M.M.M.n.t.d.M.n.v.n.n.M.M.M.M.n.v.v.d.u.u.i.v.M.n.P.J.M.M.P.D.d.e.d.M.v.d.g.d.v.v.n.6.t.P.i.e.t.t.a.t.t.t.s.s.s.s.s.s.s.a.p.e.t.t.0.e.u.v.d.#.s.D.n.n.n.d.i.d.d.7.#.t.e.#.t.y.t.*.t.*.*.u.t.%.*.y.=.*.=.t.i.u.e.+.#.i.p.| +.t.t.#.7.7.$.e.a.6.$.t.t.7.7.7.6.+.6.4.4.6.6.t.t.7.7.7.7.6.e.t.0.6.+.$.t.#.#.t.t.7.7.7.#.%.t.| { 6.#.#.$.$.+.' +.6.#.#.6.q.q.7.6.#.6.7.7.#.t.t.6.6.e...{ 6.@.+.+.+...@.+.` | @.| { } } _ R W Q ) ,.| } [ } [ W W Q R Q R W R _ Q S S _ { _ _ U b R W S z z l S S H b c f h V S V V V V Z V S c V V S U c c V B f F F S V F V F ",
"W Q Q U W E W ) U S Q U b S ) W Q ) _ W Q ) [ _ _ Q [ _ _ _ _ _ | ` ` 6.o.@.q.$.$.@.6.+.@..._ { ..| 6.6.t.t.a.t.7.t.q.#.t.t.7.t.t.e.#.7.e.7.t.t.7.6.+.@.6.$.$.#.7.6.6.t.9.} +.6.+.| } | | | 4.4.4.4.4.6.7.0.0.r.0.6.6.4.9.7.t.d.t.6.s.g.i.i.a.i.i.a.7.4.a.t.e.t.t.t.t.t.t.t.t.y.t.+.7.a.t.t.t.t.t.i.y.a.d.d.q.+.7.a.a.i.t.a.t.q.7.| +.i.$...4.6.4.4.| | 4.9.4.6.7.7.7.6.4.4.6.6.6.6.@.t.u.#.$.g.i.i.a.i.d.M.a.7.e.i.i.v.i.u.t.i.u.i.i.d.i.i.t.t.i.i.t.t.c.v.i.t.t.y.i.#.#.a.t.t.t.t.y.y.d.t.#.d.c.t.t.a.a.a.t.a.s.a.s.s.d.d.d.z.d.s.s.s.s.s.u.d.M.D.t.d.P.M.m.M.P.P.W.U.a.d.P.M.M.Q.M.v.f.i.i.;.u.v.n.M.M.M.P.m.M.Q.Q.P.P.Q.N.Q.g.d.Q..XQ.W.W.Q.[.W.n.d.J./.d.p.s.k.s.a.s.a.s.s.s.s.p.s.s.s.s.j.s.p.t.t.a.D.d.t.n.M.M.n.M.M.m.M.d.t.i.v.v.M.M.g.v.n.M.v.M.v.d.u.u.i.v.v.n.v.P.J.P.P.D.d.t.e.d.g.g.d.n.d.d.n.d.6.t.M.t.7.a.t.t.t.t.t.s.a.s.d.s.s.s.s.p.t.p.t.t.p.u.v.d.$.a.D.M.g.n.g.d.d.d.7.@.u.t.$.t.t.y.t.u.%.*.u.t.O.t.i.u.*.t.t.d.t.#.+.@.t.q...+.t.e.#.7.6.@.e.a.@.@.s.u.6.7.7.6.6.4.4.7.6.6.t.t.7.7.7.7.7.7.r.6.+.@.$.i.#.+.t.t.$.7.7.+.q.t.} } 4.6.#.#.6.+.| +.@.@.#.@.7.t.7.7.7.@.7.#.#.e.t.q.7.7.4.` @.7.@.| +.+...| ( _ +.@.} ) [ { _ ) Q W [ { [ { [ [ Q _ _ R Q Q R W _ } T S Q ` R ( U c W U x x z c c z c U S x x l c S S z B E U c c S U c V c z V x f F F z V U V V ",
"U Q Q Q W W ) Q S b W U S U Q ) ) Q ) ) [ ) [ R Q _ [ [ [ { { { } { o.7.+.+.#.#.#.@.#.+.| _ _ _ | +.7.6.6.t.t.t.t.7.7.6.7.t.t.t.t.7.7.7.7.t.t.q.7.7.+.@.e.+.@.t.t.7.t.r.4.} 4.7.+.| | | | 4.4.4.4.4.4.6.0.0.0.0.7.7.7.7.9.0.t.d.e.7.t.i.d.i.i.a.t.t.6.@.t.i.i.u.t.u.t.t.t.t.t.t.t.@.t.a.t.e.7.t.t.y.d.d.a.d.t.@.e.t.t.a.a.t.7.7.6.{ +.a.7.+.4.4.4.1.} } <.4.6.7.6.7.4.4.4.4.4.4.7.6.+.e.s.#.7.i.i.d.t.d.d.d.t.7.7.i.d.d.g.g.t.*.&.u.y.i.i.i.#.t.d.g.t.t.i.i.y.t.*.t.i.#.#.t.y.u.*.t.u.d.t.t.#.y.i.t.t.t.a.a.a.s.a.a.s.a.s.d.d.k.d.d.s.s.t.s.s.i.M.D.t.d.M.m.n.M.P.W.D.D.a.d.P.N.n.P.M.d.i.v.v.f.f.n.n.M.M.Q.P.P.Q.Q.Q.Q.Q.N.Q.Q.g.d.J.P.Q.W.Q..XW.D.n.d.J.[.a.t.j.k.s.s.s.s.k.k.s.s.s.p.s.j.j.a.r.p.s.t.i.D.d.t.v.M.M.M.M.m.d.u.d.t.u.M.M.M.M.v.v.v.M.M.n.n.d.t.u.n.n.d.d.v.M.D.P.D.g.u.t.t.g.d.i.n.v.v.v.d.a.6.t.M.y.7.t.t.t.t.p.a.a.a.s.s.s.s.s.s.p.a.p.t.s.s.u.d.g.$.a.n.n.n.n.g.n.d.a.7.#.i.i.u.u.t.t.u.i.t.=.i.t.O.%.i.u.y.i.t.t.t.7.@.+.+.7.} ..6.@.7.7.@.t.t.7...@.d.t.7.6.7.7.6.4.6.7.6.6.7.e.7.7.7.7.7.7.6.6.6.6.t.i.#.@.t.t.$.$.#.7.t.5.} { 5.$.#.#.@.@.#.7.6.@.+.#.6.7.7.7.7.q.t.$.@.#.7.t.q.7.+.` @.#.#.@.@.+.| _ ( _ +.+.} Q _ [ [ ) Q ) Q W _ ) ) Q [ _ _ _ _ Q R T ( } R S W R R Q U H U z x V U b b k c c S U S x x x V c V F V f l W U c z x c U x f A U V V F V F ",
"U V W ) Q R Q W c b _ W c S E ) [ R ) ) [ ) W U E Q [ [ } _ } _ } { 4.7.| | | +.#.#.@.| _ _ } ` | 6.7.6.6.6.7.7.t.7.t.7.6.7.t.t.t.t.t.t.q.a.a.7.7.t.@.#.t.+.| t.s.t.a.6.<.<.7.t.+.| | | ..4.4.4.4.4.6.6.4.0.0.6.7.7.7.7.7.7.s.a.e.7.t.e.i.d.a.a.7.#.7.6.t.i.i.d.a.u.t.e.u.i.t.i.7.+.t.a.7.7.e.t.t.i.d.d.t.i.t.+.a.s.#.i.a.7.@.6.e...6.a.#.+.4.| 4.4.4.1.<.1.6.6.4.6.+.4.+.6.+.4.7.6.+.7.d.#.7.&.t.d.i.d.a.$.t.a.#.d.d.i.f.g.i.u.t.i.i.t.d.t.$.i.c.i.$.$.i.%.u.d.t.*.d.$.O.7.t.y.y.i.t.t.#.7.$.i.i.i.t.t.a.a.a.a.a.a.a.a.s.d.d.d.d.d.a.s.s.s.a.i.P.J.t.v.f.d.v.M.P.J.i.g.d.a.P.N.n.M.M.f.v.n.n.n.n.v.m.M.M.Q.P.P.Q.P.Q..XQ.N.{.Q.g.g.n.g.J.W.Q.}.J.d.n.d.n.W.a.p.j.s.s.d.s.s.j.s.p.t.p.p.s.s.s.p.r.p.s.t.u.P.d.t.n.i.d.P.M.d.t.t.d.t.i.P.M.M.J.M.d.d.M.M.n.v.t.*.t.i.u.t.t.g.M.n.M.g.i.d.d.t.n.u.t.n.v.c.d.t.t.7.t.M.i.7.q.t.a.t.s.a.p.a.s.s.d.s.s.a.s.a.a.a.s.t.t.d.g.$.s.d.n.M.M.g.n.t.e.7.$.t.i.i.i.t.&.$.t.y.u.t.t.@.$.i.t.y.u.t.t.7.t.7.+.+.4.) ' +...@.t.7.t.e.+.| 6.s.t.6.+.6.e.6.7.6.6.7.7.6.7.7.7.7.7.7.7.6.t.e.7.t.i.7.@.#.t.t.$.#.t.#.| { } @.#.@.@.+.$.q.7.$.7.#.@.@.+.@.7.q.q.t.@.+.7.7.7.7.6.+.| | +.7.7.6.| { _ ( ` 4.| _ Q Q [ } Q ) [ Q W W W Q Q [ Q ( _ _ W U U Q _ R U b U _ R T H U c c U W H T H b x c c S c x l B x c B f l x V S c S x S S B d M U U V F F W ",
"U c V V W U U S S S _ ) U S U W ) ) Q Q Q E W W W W Q [ [ } } } } { +.6.{ o...` +.7.@.` ` { } } +.6.7.7.7.@.6.7.t.t.t.7.7.6.7.7.t.t.t.t.a.a.a.t.e.t.#.@.t.@.| 6.a.t.+.4.8.4.6.p.4.| | | | 4.4.4.4.4.6.4.4.6.6.6.7.7.6.7.7.6.t.a.7.7.s.7.e.d.d.e.#.q.7.+.t.d.u.d.d.t.t.t.i.i.y.u.7.6.a.a.t.7.t.t.i.i.t.i.t.a.q.+.a.s.#.7.t.6.+.e.p.@.7.a.7.+.| 1.| 4.4.4.| <...4.+.4.+.4.4.6.4.4.4.6.6.t.s.#.@.7.#.u.d.d.e.&.d.e.7.i.d.d.i.i.i.d.i.a.i.d.d.i.t.g.d.$.$.i.t.t.i.d.t.t.d.$.+.t.$.#.t.i.e.+.$.t.#.y.g.t.t.p.a.a.s.s.a.s.s.s.a.d.d.d.d.d.d.a.a.a.d.d.P.J.*.v.d.*.d.Q.Q.i.i.C.d.i.M.M.M.M.M.m.n.n.n.M.n.M.M.N.N.P.Q.M.M.P.Q.Q.Q.Q.M.P.g.d.C.g.d.P./.J.d.d.Z.u.n.T.s.p.s.p.s.s.s.s.p.r.p.p.r.r.p.r.p.t.a.p.a.p.s.P.d.t.D.a.*.M.M.t.t.n.d.t.d.P.M.M.M.M.g.d.f.v.n.i.*.$.t.e.$.t.d.n.M.v.n.d.d.n.a.$.d.d.&.d.M.c.&.&.s.7.i.m.d.q.q.q.p.a.a.a.a.p.s.a.d.s.s.a.a.a.s.p.t.7.e.g.g.7.a.n.g.g.M.M.t.$.a.t.#.y.i.i.i.t.t.#.$.e.t.y.i.$.$.t.i.t.e.$.t.$.t.7.#.@..._ } 4.+.] 6.t.7...| | 6.a.e.....4.6.7.7.6.7.7.6.6.7.7.7.7.7.7.7.7.q.e.t.t.i.7.@.6.$.$.t.t.7.| | 4.} +.7.+.@.@.#.$.$.$.q.7.#.+.+.@.7.7.7.#.@.5.e.t.6.#.#...| 4.| | @...{ | } ( _ 4.| _ ) ) Q ) [ ) W W E U E W Q Q Q R ( Q W U S R ) U U U b T Q R b b U b c U U R T U c x x c c x l l x V B V V S z U U U S c x M f M l V F U U F ",
"W E x x U c W U Q U _ } W S S S Q Q Q Q ) W ) } } Q R ) _ } } } { _ +.4.{ @.7.` ` +.| _ ..+.{ } @.6.7.e.e.7.6.t.a.t.6.e.7.6.7.7.t.t.7.t.a.a.a.t.t.7.+.| e.t.o.| 7.6.+.7.r.| @.a.4.| } } ..1.1.4.4.4.4.4.4.4.9.9.6.7.6.6.6.@.t.d.7.7.d.t.7.a.a.7.7.d.7.+.t.i.i.d.i.u.t.d.d.i.i.t.t.t.t.t.i.t.t.a.i.t.t.t.i.a.7.+.t.d.t.+.7.6.7.a.t.#.7.u.$.| | } | 4.| <.<.| | 4.6.+.+.4.6.+.6.4.+.7.7.u.t. .#.u.#.7.t.u.$.d.d.7.6.u.f.i.i.i.u.d.d.a.u.a.i.i.t.t.t.t.y.v.y.d.i.i.t.u.i.#.+.a.7. .#.t.$.#.t.a.+.t.d.t.t.a.t.s.a.p.s.s.p.a.Z.n.s.a.d.d.a.d.d.s.a.g.Q.M.*.v.P.i.t.M.n.u.P.W.s.u.M.M.N.N.M.M.M.M.n.n.M.N.M.M.Q.M.M.P.M.Q.Q.Q.Q.M.M.Q.g.s.W.U.u.g.G.g.d.P.J.t.n.W.a.t.p.s.p.p.s.s.p.r.d.Z.p.7.r.p.t.p.s.t.p.p.i.M.d.e.M.D.u.i.n.t.d.P.d.&.d.M.M.M.n.M.M.d.f.v.v.i.d.t.t.t.*.i.D.v.v.n.g.d.M.n.t.#.a.M.e.&.n.a.$.d.Z.6.i.m.i.t.7.7.t.p.p.a.s.p.s.s.s.a.s.s.a.s.a.t.7.7.t.g.n.7.t.n.g.7.d.g.$.t.M.7.#.i.i.t.t.t.i.t.t.#.7.t.i.t.#.u.i.t.$.*.t.$.7.7.t.@..._ { t.6._ ..6.+.| 7.4.@.a.6.| 1.4.6.6.6.6.7.6.4.7.t.#.4.0.t.7.7.7.7.7.7.t.d.$.#.t.7...#.7.4.+.7.7.{ +.7.@.@.#.#.$.t.$.$.t.e.#.7.t.$.7.$.#.6.q.q.t.#.+.7...| t.+._ | } { 7.+.( ( | } _ [ [ R Q Q W E U E [ Q E W Q ) ( W R R R S W ) H R ) H U W W c S R c x U R U U T c c c c x x f f x S V W S U U S c B c h V l f C f l V U F m ",
"W W S x S S Q ) ( T { ` T S S S E W ) W W ) } | <._ Q Q [ { } ) _ { +.4.' +.q.@.+._ _ ' @.#.{ _ +.7.e.7.t.t.t.a.t.7.$.7.7.7.7.e.t.t.7.6.7.a.s.t.t.6.| ..$.t.7.4.4.6.7.r.7.| 6.p.o.{ } } <.1.1.1...4.t.p.7.4.9.9.7.6.6.6.+.@.t.a.7.6.a.a.t.7.4.7.i.d.t.+.t.d.d.d.i.i.a.d.d.u.t.t.t.t.i.a.t.t.t.a.t.e.t.u.t.i.t.+.t.a.t.7.4.t.i.a.t.#.t.t.+.| | | | 1.| <.} | @.7.7.@.....+.....4.+.4.6.t.e. .#.u.t.e.#.e.u.d.t.e.#.u.i.u.u.d.d.i.i.d.t.7.u.i.t.t.t.i.y.i.i.i.d.d.t.*.t.#.@.a.y.#.| 6.t.a.a.t.@.t.a.t.e.p.p.a.a.a.a.p.s.n.W.D.a.u.s.d.a.a.s.d.s.d.P.M.&.f.Q.M.i.i.i.M.W.J.d.u.n.M.N.Q.M.M.M.M.M.n.n.M.Q.Q.M.n.n.M.P.Q.Q.P.M.M.M.Q.g.s.T.oXn.d.z.D.U.W.J.u.n.Q.d.p.p.s.p.p.s.p.p.a.J.P.g.t.7.r.p.p.p.p.t.e.i.P.d.7.n.M.M.d.i.d.Q.M.d.t.d.M.M.n.n.v.M.M.M.n.v.v.v.d.i.e.t.d.v.v.n.v.n.v.v.M.a.+.a.n.a.7.i.t.a.M.d.6.i.M.a.7.7.q.q.t.p.p.s.s.D.P.d.t.a.a.s.s.a.p.t.e.t.n.n.$.u.M.n.7.p.t.u.d.n.7.#.i.i.t.i.t.i.u.a.t.e.t.t.t.7.t.t.i.y.t.y.t.t.t.e.#.#._ } e.7...| } @.7.t.@.@.7.6.....4.6.4.6.6.7.6.#.t.a.7.4.7.7.7.7.7.7.7.#.u.d.$.@.i.a.+...+.6.7.7.4.} +.6.@.#.#.#.$.t.*.t.7.$.t.t.$.7.7.+.#.7.t.t.7.@.+.7.| ` 7.7.} _ ..6.4.| ) ( { _ _ { [ _ Q U W U W _ <.{ E U W R Q R R T W T ( Q H R _ R R U S c W Q c l S W U U U S S c c x x h l x c V S S S V c h x l x V l d Z F f f F B n ",
"S W U h x R R W S U { _ b S W S F W ) W Q | ..{ { | ) Q [ _ _ _ } _ 4.6.{ | @.q.t.| { | +.@.` _ 4.7.7.7.e.7.t.t.7.#.e.7.e.7.7.t.t.t.7.6.e.t.t.t.7.7...@.7.7.a.t.6.7.p.6.4.| 7.t.| { | | } 4.4.....t.d.a.a.t.6.7.7.6.7.6.+.@.t.d.7.4.t.d.d.t.6.a.d.y.q.@.i.d.i.d.i.i.d.d.s.t.u.i.t.t.t.t.t.t.i.i.7.7.t.a.t.u.t.+.p.e.t.d.7.s.i.t.7.#.t.t.#.@.| 4.| | | | { | 7.*.#.6.| { | 4...6.+...#.*.t.#.#.t.v.u.#.e.g.u.e.e.#.t.u.f.u.i.i.u.u.d.t.7.t.i.d.g.t.u.t.t.i.d.i.t.$.$.i.$.+.q.i.t.@.7.a.n.t.e.#.t.d.t.e.p.a.t.a.s.p.t.n.P.M.M.M.a.t.a.a.u.s.d.u.i.M.M.*.d.M.Q.M.d.n..XP.d.d.i.n.N.M.M.M.N.M.M.P.M.n.n.M.P.M.M.v.v.M.M.Q.M.M.M.N.P.d.d.P.oXW.n.D.[.[.P.n.i.v.Q.d.a.s.p.p.s.p.r.s.J.P.M.M.n.t.7.r.r.p.p.t.e.i.P.d.t.n.g.M.M.d.M.Q.d.t.t.d.M.M.n.v.n.M.M.n.x.i.v.v.i.u.t.t.a.d.n.n.v.M.g.d.M.a.+.a.i.c.d.d.a.v.d.a.6.t.M.a.7.q.t.q.t.a.t.a.n.Q.W.P.d.a.p.d.s.a.a.s.t.t.n.n.&.t.n.n.a.p.t.n.g.a.7.#.i.i.i.d.y.i.t.a.g.t.$.t.t.t.t.t.t.i.y.y.i.i.t.q.7.#._ } @.@.7.@...7.t.7.#.+.7.7.+.4.4.4.4.7.4.4.6.t.i.i.t.7.4.6.7.7.7.6.#.e.y.d.t.#.i.v.t.+.@.t.q.+.4.{ +.7.@.7.7.+.#.$.t.t.$.#.%.$.7.e.7.#.#.7.7.7.@.@.$.6.| _ +.6.{ { 4.6.| ( R _ _ ( _ ! { [ Q W W U [ 3.{ { Q E W W ( R R U U R _ Q b U _ ` ( V c b ) U x l S W T U b U E c c S z x V x x c V c S z l x S z S B M f F U B y M M Z ",
"S U W U U R W c V b { ) U S E S E E R ) | | | { | { _ ) _ _ _ _ } _ +.r.| | +.+.$.#.5.o.| ` _ _ +.6.7.7.7.7.e.7.7.7.e.t.t.7.t.t.t.t.7.7.e.7.t.t.7.e.+.7.t.+.7.t.t.7.6.4.4...7.t.| | 4.1.4.4.4.4.r.s.a.y.d.a.7.6.6.7.6.6.+.+.t.d.7.6.e.u.d.t.a.d.t.t.t.#.t.d.t.t.u.i.d.a.t.t.u.a.t.t.7.t.t.t.u.t.7.t.a.t.t.a.e.+.a.7.#.a.d.a.t.t.#.#.t.t.$.@.5.4.+.+.| | | 4.$.$.@.$.@...| | 4.4.4.4.+.t.u.#.+.t.i.i.e.i.i.&.e.t.#.t.d.d.i.i.t.u.u.d.u.7.7.d.d.d.d.i.t.t.t.i.t.t.t.t.i.$.@.e.$.t.t.i.d.u.&.t.4.t.n.t.a.s.p.s.a.a.t.d.D.P.M.M.M.n.a.u.t.a.s.s.u.i.P.J.*.d.v.M.M.m.P.P.d.d.d.s.M.Q.M.M.M.P.M.M.M.M.M.n.v.M.M.M.M.n.v.n.M.M.H.M.N.P.d.g.J.J.J.U.}.}.n.n.n.i.M.W.d.a.s.s.p.p.p.s.D.P.M.M.M.M.d.t.7.r.t.r.p.t.i.Q.n.t.n.d.i.n.M.M.d.t.i.a.i.M.n.n.n.v.n.n.d.i.d.d.v.i.t.t.t.d.g.i.d.M.n.n.v.M.i.+.a.i.u.d.D.n.i.u.d.#.a.D.i.t.q.t.t.t.t.t.d.P.Q.m.Q.J.d.s.a.a.a.a.a.t.u.n.n.e.u.s.u.i.d.g.n.u.a.7.#.i.d.d.i.i.d.d.d.d.a.e.t.t.t.t.t.q.7.7.t.7.t.t.t.#.@.} | +.] @.7.7.7.@.6.@.@.e.7.6.7.7.6.6.6.4.6.t.d.i.y.i.a.6.6.6.7.6.6.6.e.u.v.t.$.t.i.y.7.t.a.@.@.4.{ 6.t.+.6.7.#.#.$.7.$.$.#.#.7.t.e.7.6.6.6.@.@.6.#.$.7.| _ | { { +.4...{ ( _ { { Q ) ) _ _ _ Q R ) } | { ! { { R T ( R U U U U _ _ U U R R ( U U T R S x x S W R U U U U U U S U c V V c x V V S V x B V c x U Z f B V F l B Z A ",
"b x S ) ( U b c U b Q ( W U U U W U ) { +.{ { +.| { | _ ) _ | { } } +.0.} ..| ` +.@.#.` ( T _ ( { @.e.7.6.e.t.t.s.t.t.t.7.q.t.t.t.t.a.t.t.t.t.7.t.t...7.t...| 6.t.6.| ..0...6.t.+.| <.4.4.4.4.t.s.a.a.a.t.a.a.7.@.$.@.#.+.+.t.a.7.7.e.7.t.a.d.s.#.*.t.+.%.i.*.t.u.i.u.i.u.i.t.t.t.e.t.t.t.i.t.t.t.a.t.t.i.a.7.+.s.t.@.t.d.t.#.7.6.+.7.t.#.+.4.4.+.+.| | #.q.@.@.$.$.t.e.+.....4.6.#...t.s.#.@.$.7.t.t.d.e.#.t.e.+.t.d.t.i.t.i.i.u.i.a.6.6.g.i.d.d.a.t.t.t.t.t.v.i.i.t.#.@.7.@.7.t.d.t.$.#.s.6.t.n.t.s.s.p.s.p.a.d.P.m.M.m.m.m.M.n.a.t.u.s.s.t.a.D.P.t.d.g.i.d.J.J.g.t.g.d.t.D.M.M.M.M.M.M.M.m.P.P.M.n.n.n.M.M.n.v.M.M.P.Q.M.M.P.d.g.J.d.s.D.+XT.u.d.d.t.J.W.a.t.p.s.p.t.s.D.W.M.P.M.M.n.D.s.7.0.0.0.s.t.a.T.d.t.n.d.e.d.J.g.t.e.c.i.u.M.n.n.M.v.v.n.v.v.n.d.d.i.t.t.i.d.v.i.d.d.n.M.n.v.t.@.d.a.t.t.D.n.e.p.g.7.a.H.a.t.t.q.a.t.t.a.H.M.M.M.M.M.J.d.s.a.a.p.p.p.a.n.g.$.u.u.e.t.J.M.d.$.p.7.#.d.i.i.g.a.i.i.y.y.d.t.t.t.a.t.t.t.t.t.t.6.7.7.7.@.4.' | #.' ' t.t.#.| +.4.#.t.7.6.7.4.7.6.4.6.a.d.i.i.i.y.a.a.6.4.7.4.7.6.6.d.n.t.@.q.t.%.t.d.7.| 6.4.{ 6.t.$.7.7.7.e.@.+.e.$.#.7.e.t.$.#.7.6.@.+.#.7.@.#.7.| ` | _ { 4.4.{ R _ { _ } Q R _ _ Q _ Q Q } | [ { [ | .._ U T U U U W U ) [ U E U b R R R U c x S V S W W U T S S U U V V c S U x x V F V z S x x x z U V f f B S x W Z f ",
"S x x W E c b S E b Q _ T W Q W Q ) } | | ' { +.@.+.4...[ _ [ | 4.| 4.7.} 1.| ' ' +.+._ R R } R ` +.6.7.7.7.t.a.s.t.t.#.@.t.t.t.t.t.a.a.a.t.7.e.t.t.+.#.e.+.| 4.7.4.| 4.6...6.a.+.} | | 1.6.t.a.a.a.a.a.a.a.s.a.$.@.#.6.+.@.t.d.e.7.p.7.7.a.a.6.#.t.t.+.$.y.=.t.t.i.i.i.i.i.i.i.i.t.t.t.i.i.t.t.t.i.t.t.t.a.6.@.s.t.6.e.e.6.#.e.7.+.#.t.#.| | o.+.+.+.7.%.%.$.$.$.$.&.t.e.7...4.4.+.#.t.s.#.+.7.#.$.u.t.6.$.t.e.+.e.t.u.u.d.d.d.i.d.i.t.t.d.i.i.a.i.d.a.t.t.t.d.c.v.d.#.+.e.$.#.#.p.7.#.7.s.6.u.n.a.p.s.a.p.p.d.H.M.M.M.m.M.m.M.M.n.u.t.a.d.a.d.P.P.t.g.n.i.t.z.g.s.t.g.d.u.M.M.M.Q.M.v.f.n.M.M.M.Q.P.M.v.n.M.n.n.M.P.Q.Q.M.M.M.i.g.D.g.s.d.U.D.s.d.d.t.M.Q.t.t.p.p.p.s.D.P.M.Q.P.M.M.M.M.D.s.7.0.r.p.p.a.P.g.t.D.d.e.s.g.u.e.t.d.a.u.n.n.m.n.n.v.v.n.v.v.v.d.i.i.i.g.i.d.d.d.a.n.D.g.v.t.#.d.a.t.e.d.a.7.s.D.e.a.H.d.q.t.t.t.t.i.n.m.M.M.M.M.M.P.D.g.a.s.p.a.p.a.n.g.$.u.t.e.e.Z.d.e.7.s.7.$.i.i.a.g.d.u.t.i.y.d.i.d.u.t.t.t.t.d.d.t.a.a.7.#.$.6.{ ..7.| } 6.7.....6.6.@.t.t.+.1.4.6.4.7.y.d.d.i.i.i.y.y.a.a.6.4.4.6.6.7.d.v.$.#.t.7.@.t.d.6.| 7.4.{ 4.t.t.e.6.7.#.+.#.#.$.t.t.t.7.6.7.e.e.7.7.7.7.7.7.#.{ { +.} ( | 1._ ( _ ) R { } _ { { Q ) R _ } | | } [ { } [ ( T U U S U T Q [ U W U c U U S x c V U z V W R U U S U W S x z c U S x x F V V z c x x l V U l f M f f B E B t ",
"A x x l g l E U S S _ ( S U W E Q | +.| { ' { { @.@.+.7.4._ _ | 4.} +.7.| | 4.} ( | } R K ( { R ..+.+.#.q.q.a.t.t.a.a.6.+.t.a.t.t.t.t.a.t.7.t.e.7.t.+.@.7.+.+.1.4.| | 6.4.| 6.p.+.} | } 4.t.a.y.a.a.a.t.a.a.a.d.t.#.@.6.+.@.t.d.e.7.s.r.6.t.r.4.7.t.7.] %.i.u.d.t.t.t.t.d.a.i.d.d.i.t.i.i.i.t.u.t.i.a.t.e.t.7.4.s.t.7.7.6.4.6.t.7.+.6.a.#.} | | | +.7.t.#.#.$.7.@.7.@.7.t.t.6.6...4.#.t.t.+.#.7.#.#.e.7.#.e.t.7.@.t.t.f.u.n.x.d.d.i.d.d.v.d.t.t.d.v.i.d.i.i.t.u.v.i.d.@.+.t.e.#...+.7.7.7.s.#.u.M.i.p.a.p.e.d.P.M.m.N.n.d.d.m.m.m.M.v.u.t.a.s.u.P.P.t.g.n.a.t.d.s.t.t.d.d.t.n.Q.M.P.Q.n.f.n.M.N.M.P.Q.M.g.v.n.M.M.M.Q.Q.m.M.P.M.i.g.D.d.d.s.k.d.s.z.k.t.M.Q.t.7.p.0.s.P.Q.M.Q.Q.n.s.g.P.M.M.n.t.0.r.t.p.t.P.n.t.z.d.t.t.a.t.e.t.a.a.t.v.n.M.M.n.n.v.v.v.x.n.v.u.d.d.d.d.g.v.n.d.d.a.f.M.u.@.d.s.t.7.e.p.7.s.z.e.d.T.d.7.t.q.q.t.n.n.n.M.n.i.n.P.M.J.J.s.p.p.p.p.u.n.g.$.d.t.t.7.p.p.7.t.s.7.#.i.v.i.d.d.t.t.d.i.d.i.d.a.t.e.a.a.i.t.t.a.d.7.#.t.t.| +.7.+.| +.#.....7.4.@.u.u.+.| 1...+.y.d.a.d.v.i.t.y.t.y.a.t.4.4.4.4.7.i.i.#.7.i.7...6.7.4.+.7.4.} 4.t.7.#.#.#.@.7.#.#.t.t.t.7.+.7.t.7.7.t.7.#.7.t.#.+.| { 4.} T R ) _ _ ) R R { | { ) _ _ W Q { { | | _ T W ~ ~ { ( U U S S W ! Q b Q W b S V x x U W W V V W W S S S U U c x V c U S l B U z c z z B S l x V y f B f f f l f t ",
"V V A l f f S E S b ( ) S V S U { o.+.| | ` } _ _ +.@.5.7.4.} { } { +.e.| | 1.} } _ _ T R R _ ` | +.+.+.6.t.t.t.a.t.a.t.$.e.t.t.t.t.t.q.7.7.t.t.t.e...+.7...4.4.| | | 4.6.| 6.a.@.| | 4.t.a.y.i.d.a.7.7.p.s.s.d.d.t.#.@.+.@.t.d.e.7.s.t.7.7.7.6.7.t.7.] %.d.i.d.i.u.t.t.i.a.u.i.i.i.i.i.i.i.i.i.y.i.y.t.t.a.7.6.s.e.7.0.4.6.4.t.t.4.6.a.7.{ <.+...7.t.q.@.4.| | | +.6.7.#.t.t.7.....+.e.e. .#.7.#.$.#.6.6.7.t.7.7.d.d.d.f.v.x.d.u.d.d.f.v.d.e.t.i.d.d.v.v.d.t.t.t.u.i.$.$.t.t.#...+.7.6.e.s.$.i.M.t.s.t.e.a.D.P.m.N.M.i.t.t.v.m.m.m.M.g.t.t.a.a.J.P.t.g.D.u.t.s.s.s.e.d.d.t.n.N.M.Q.Q.M.M.M.M.M.M.M.M.v.i.v.M.M.M.M.M.n.M.M.Q.P.i.g.D.d.s.j.s.s.s.z.z.t.M.Q.t.7.0.p.D.W.P.Q.W.g.a.t.a.D.P.M.M.n.t.7.r.e.u.P.n.t.g.a.e.t.p.t.t.t.d.s.&.v.n.n.M.M.m.n.n.v.v.v.v.i.d.v.v.v.M.v.n.i.i.t.g.M.u.#.d.s.e.7.e.e.e.p.z.e.d.W.a.7.7.7.t.d.M.n.M.M.a.t.a.P.P.M.P.D.d.r.p.t.s.n.n.e.s.a.t.e.e.7.t.t.t.t.#.d.n.d.d.i.t.t.a.d.c.d.d.t.t.t.d.a.t.t.t.d.t.7.$.t.t.#.#.7...] .... .+.6.6.#.a.t.+.4.} 4.t.i.i.i.d.a.e.7.a.a.t.u.i.7.4.1.1.6.t.i.#.7.a.t...4.4.4.4.6.4.| 6.7.+.@.7.#.7.t.e.e.$.t.t.#.+.6.7.7.#.@.+.@.6.6.@.@.| } ..{ U W ) R ( ) Q T { } T W Q Q ( [ { { | _ R W W _ [ [ { ( W S U U Q R b R R S V V V V S V U U E U U W W U W S S V U U U V x F U U c z U S S x x B l l B l l y M y n ",
"B V F V B f x W U b ) ) b S S ( ..] | | _ Q } Q R _ 6.+.6.7.6.} _ { 7.0...| 1.} } ( R U ( T _ ' | 4.....#.7.t.t.a.t.t.t.t.7.t.t.t.t.t.7.t.t.t.t.t.e.....e.+.....} } | 4.0.| 6.a.+.| +.7.t.t.y.a.t.6.4.6.7.t.d.a.y.d.t.@.| @.t.d.t.7.a.p.e.7.7.7.6.t.7.X.t.f.y.i.d.i.i.i.t.i.i.t.i.d.y.i.i.i.t.t.a.d.t.t.t.a.7.#.d.7.6.0.4.6.4.7.a.7.#.a.7.| <.4.6.t.7.$.7.6.} _ | { 6.t.#.e.7.+.......$.e.#.#.7.#.#.+.#.6.#.u.e.$.d.i.d.v.d.d.u.i.v.d.d.n.i.7.t.a.d.d.i.i.i.i.t.t.g.i.$.7.t.e.#...6.6.6.e.s.$.g.n.t.p.e.t.J.P.M.M.M.i.7.t.t.t.M.M.n.M.n.d.t.e.a.J.J.t.g.n.p.p.p.p.s.e.s.u.t.n.M.M.M.n.M.M.N.M.M.M.M.M.v.v.M.M.M.M.M.v.d.M.P.Q.D.a.g.D.d.s.j.s.s.s.k.z.s.M.Q.t.7.r.Z.W.P.Q.Q.n.t.t.s.a.s.J.M.n.M.n.t.7.e.i.D.g.t.g.s.7.p.p.t.t.e.d.t.$.d.v.v.n.M.M.m.n.v.n.v.d.i.d.g.v.d.v.g.v.d.i.i.v.n.u.#.d.a.7.r.e.7.e.e.k.e.d.T.d.7.6.q.c.n.n.n.M.t.t.p.t.a.P.m.M.P.D.s.e.e.d.n.n.e.t.d.e.e.e.7.t.7.p.t.7.t.d.d.i.t.a.t.t.d.i.v.d.t.i.a.y.i.d.t.t.a.t.7.t.q.t.#...#.` ' ..| ..+.4.4.#.a.t.@.4...7.d.y.t.d.a.6.+.7.e.d.a.t.t.a.7.1...6.t.d.7.#.a.#...4.4.7.4.4.4.| 6.7.@.6.t.t.t.$.t.$.$.t.t.7.7.#.#.t.$.@.@.7.6.+.@.@.{ _ } ) W ) ) E R ) R T { _ b W Q W { { { { { R W Q ~ _ } R { } R S U U R Q H T W S x S S V V l B V U W ) W W U G U W S S S V x V U U S x x S U c S x V F l x l f f B f m ",
"V B B M B f B W U b _ _ T S T ' | | | ( W _ Q Q Q Q } 4.6.6.e.4.} } 6.t.4.1.4.| } ) R R R R } ( | +.....6.6.t.t.a.t.t.t.t.t.t.7.t.t.t.a.s.a.a.7.7.e.+.+.7.+.| | | | | 4.9.| 6.t.| } | 6.t.t.t.7.4.4.6.7.5.6.t.a.a.u.i.t.+.+.t.g.t.7.s.t.7.7.6.7.6.t.#.O.t.x.u.i.i.d.d.d.d.d.i.i.u.i.i.i.v.d.t.t.i.d.i.i.y.d.q.#.a.7.6.7.7.4.4.7.p.6.@.s.7...<.4.t.t.7.7.7.4.} } _ <...7.e.7.6.+...6.| e.t.#.7.7.#.+.+.6.+.$.p.7.$.t.*.i.n.v.d.d.d.v.v.v.v.d.t.t.d.g.i.i.t.y.y.t.t.d.n.e.#.t.$.#.+.6.6.6.7.s.$.f.n.t.e.t.n.M.m.N.M.i.e.t.t.t.t.i.M.m.v.n.M.d.e.t.J.J.t.g.g.p.p.p.p.s.e.a.u.t.v.M.v.n.v.M.M.N.M.N.M.M.M.M.M.M.M.M.M.M.v.v.M.M.P.D.u.g.D.s.s.s.j.s.a.k.z.t.M.Q.u.t.d.U.P.Q.Q.g.a.p.p.t.a.p.a.P.M.n.M.v.t.7.i.P.g.t.d.a.e.t.p.p.t.p.d.e.e.n.n.n.v.d.v.x.n.M.v.f.f.d.d.d.v.c.d.d.M.v.g.d.v.n.u.#.d.t.7.e.e.t.e.t.d.e.d.W.d.$.t.d.n.v.n.n.u.e.t.t.t.t.d.M.M.M.P.D.a.t.a.D.n.t.d.s.7.7.r.7.e.7.t.t.#.t.t.t.i.t.a.t.t.t.i.d.d.d.a.i.d.d.d.t.t.7.t.t.t.t.t.@.....| } ..| ....6.+.+.i.t.+.+.e.a.t.y.i.a.e.6.4.0.7.e.a.i.t.t.a.e.+.@.t.d.7.7.t.#.+.6.6.6.4.6.1.| 6.t.$.7.7.t.t.t.t.t.t.t.t.t.t.7.e.t.q.7.6.6.6.@.@.+.} _ } Q Q Q ( W R ) R R { _ U W ) { { ` { { Q R R W W W Q _ _ _ Q S c S ) Q H R Q V B V V V U B l M U W R W b l z b U U S h x l V U V x B l x B S c c S S S F l f d f M m ",
"V V l f B f l S W U R _ R R } ` ` { ( T W ) _ [ { R Q | 6.4.5.7.7...4.r.4.4.1.| } R ) ) U ( } R ` +.7.@.6.7.t.q.p.a.t.7.t.a.a.t.e.t.t.a.a.s.t.7.t.t.+.+.7...| | ..| } 4.4.| @.7.| { | 6.t.t.6.+.4.6.4.4.6.6.4.7.a.t.y.x.t.$.t.g.t.7.s.t.e.0.6.6.7.t.6.+.t.d.i.u.i.d.i.i.d.d.d.d.t.i.d.d.c.i.t.t.g.d.i.d.y.d.a.@.a.7.4.7.4.6.4.6.0.+.@.s.#.{ o.6.t.$.7.7.1.<.| } [ | | +.t.#.$.t.@.6.+.t.t.+.7.#.+.#.+.r.+.7.t.#.e.u.*.i.v.v.d.v.d.f.v.n.v.d.t.a.d.d.v.d.i.d.y.i.*.t.g.e.#.t.$.7.+.6.7.#.$.s.$.i.n.t.e.a.P.n.n.M.i.e.e.s.t.t.t.e.a.M.n.v.m.m.i.t.M.J.t.d.g.t.e.p.p.p.e.d.s.$.g.M.n.M.M.M.M.M.N.Q.M.M.M.n.n.M.M.M.n.M.M.M.M.n.P.P.u.g.D.a.p.j.j.s.p.k.g.t.M.Q.u.a.P.Q.M.Q.M.a.t.s.p.t.s.a.t.d.P.n.n.M.n.t.i.P.d.t.s.s.e.r.t.p.r.s.d.t.t.P.n.v.n.v.d.d.v.n.v.d.d.v.d.d.M.v.v.v.n.n.M.g.d.M.a.#.s.t.e.7.p.p.e.s.g.e.d.P.i.t.d.m.v.v.n.a.e.e.p.e.p.e.7.d.M.M.M.M.D.a.a.D.n.7.d.t.7.6.r.7.6.6.p.7.#.e.7.t.d.i.u.i.t.t.d.i.d.i.a.a.d.y.t.t.7.@.e.t.#.t.i.7.+.+...} | ..| } 7.@...t.t.+.4.i.t.t.a.a.7.6.r.7.6.7.4.6.u.t.t.t.a.7.#.t.d.7.q.t.6.+.9.6.4.4.7.1.| 6.t.$.7.7.$.t.t.t.t.t.t.t.t.7.#.$.@.7.t.7.@.6.$.#.+.{ _ { _ ) W ) R U Q ) R ` { Q W [ } _ ! _ Q W W ) E U E U ) R Q [ Q U c Q Q b R ) c V B V U U S l Z E U U E W S S x S U c V S l x A x V F B x x S x S U V c Z l d y y m m ",
"A B l g B l l V U H _ _ L ( ' ` ` R R W Q W | | _ ( ) _ | +.6.6.7.6.6.e.+.4.4.| } ) _ _ R ( } R { 5.7.0.t.7.t.t.a.s.t.7.e.t.a.a.a.t.t.t.a.t.t.t.t.a.6.+.e.+.| ....| | 4.4.| +.7.+.| 6.7.7.4.4.4.4.4.4.6.6.6.6.4.7.a.i.i.x.i.t.i.t.7.s.t.e.0.9.6.7.a.t.#.t.d.u.d.i.i.i.i.i.d.d.g.i.i.c.d.i.i.t.a.d.d.c.c.i.d.a.#.a.t.4.6.4.6.4.6.7.+.#.a.#.| 4.t.7.7.6.+.| | } | | { | ..@.$.#.t.u.t.$.*.t.+.$.$.+.#.6.7.6.$.t.$.t.d.u.i.i.v.v.v.v.v.v.n.v.c.i.a.d.n.g.v.d.d.v.g.y.t.t.e.7.t.$.7.6.6.7.#.t.d.$.i.v.u.i.n.n.M.M.s.e.r.t.t.a.t.t.t.t.i.M.m.n.M.M.i.M.M.t.g.g.t.r.p.p.p.e.d.s.7.u.n.n.M.P.M.M.M.Q.M.M.N.M.n.v.M.M.M.M.M.M.M.M.M.P.D.i.g.D.s.p.h.j.s.p.z.z.t.n.M.i.n.P.M.Q.D.s.p.p.p.a.a.t.a.a.t.g.M.M.n.M.v.d.M.d.t.d.d.e.r.p.t.t.d.Z.t.a.P.M.M.M.n.v.v.M.v.d.d.v.n.v.d.v.M.M.v.n.v.n.v.v.n.u.#.a.s.7.7.r.p.t.d.z.t.d.H.u.d.n.n.n.v.u.e.r.e.e.t.t.t.t.e.d.D.M.n.M.n.d.M.g.e.a.u.6.7.0.0.4.6.p.#.#.t.t.t.t.a.i.i.i.a.d.d.d.i.d.a.s.t.7.t.t.6.6.7.#.7.t.7.+.7...| { ..} | 7.6.+.t.$.#.t.t.t.i.s.e.7.6.7.7.7.#.6.@.#.t.u.*.t.y.t.t.a.7.7.t.7.6.6.7.4.4.7.4.| 7.7.e.t.e.#.@.7.t.t.t.t.t.#.#.6.#.+.@.7.7.7.#.@.#.6.{ _ { | ) R Q W T [ _ R ' | _ _ [ ! _ ( W U R Q W R W U U U R W _ { _ W _ _ T ( [ U S W W E F B B V U W U c W Q W c S V V U F l x B V V F V V B c V S E x h B x d y n y m ",
"F x B f M l S W b c _ ( R R ` ' _ R Q Q Q Q +.@._ ) Q _ _ } 6.4.7.7.7.7.| 4.7.| _ _ ) [ R _ | R _ 7.7.7.7.6.t.p.p.t.7.#.t.e.t.a.a.t.7.t.a.7.t.t.7.s.6.+.e.+.| 1.1...| 4.6.{ +.7.#.@.7.7.+.| 4.6.4.+.t.a.5.4.7.4.6.a.d.i.d.x.i.i.t.7.s.d.e.0.9.4.r.d.a.@.t.d.i.i.i.t.i.i.i.d.i.i.t.t.d.i.d.c.d.n.i.d.d.d.d.v.a.6.a.s.4.4.4.4.4.e.t.4.4.t.e.7.7.q.7.7...1.<.| } 4.6.{ | +.| e.#.#.u.u.@.&.t. .$.t.+.#.7.6.#.&.a.$.t.v.u.u.i.d.d.d.v.n.v.v.d.n.i.t.v.v.d.v.v.d.v.v.v.d.i.7.#.t.e.7.6.6.7.$.i.d.$.i.v.i.v.n.n.M.a.r.r.p.t.t.d.d.t.r.t.t.i.n.n.M.m.v.M.n.*.v.n.t.r.p.p.p.t.d.t.$.t.g.v.v.M.M.M.N.M.M.M.M.m.n.n.M.M.M.M.Q.M.M.M.M.m.H.a.g.T.d.p.j.j.p.p.Z.Z.t.n.M.n.P.M.P.J.a.t.p.t.t.Z.D.u.a.s.a.t.n.P.M.M.n.v.M.d.t.n.g.e.7.p.t.p.D.Z.t.a.D.v.M.n.v.M.M.P.n.i.f.M.n.v.i.d.M.v.v.M.d.g.n.n.g.t.7.n.s.e.e.7.p.t.g.z.t.d.M.d.v.n.n.n.u.e.7.r.7.7.d.t.7.p.e.p.d.D.n.M.v.v.M.d.&.d.s.7.6.9.0.+.7.a.#.@.a.u.t.t.t.i.t.d.i.i.d.d.i.a.a.t.t.t.t.a.7.5.q.$.$.t.+.+.7...} | 1.} ..7.4.+.t.$.7.t.7.u.t.6.4.6.4.6.a.t.+.7.4...#.y.u.u.i.t.t.a.6.$.a.q.6.6.9.4.6.s.7.| 6.t.t.t.7.@.+.#.q.t.t.t.#.@.@.7.7.+.+.@.7.7.@.+.#.@.{ ( | +.) W R W Q | _ K ` | ` { _ Q _ W E U U W ) ( Q U U S W W W _ _ { } Q U Q ~ U U Q Q U B B V x F R U c U E V c S V U c F V x V U V S U U z B V c E c x U l t d m p m ",
"U V B l M c R _ K c R R R ` ' _ ( _ ) W R ..@.+...Q Q ) _ _ | 4.r.7.0.r...4.t.+.} ) [ R R | o.( { 4.6.| | 4.e.a.t.7.7.#.t.t.e.e.t.t.t.t.a.t.t.t.t.a.#.+.t.7...1.4...+.7.7.{ @.7.7.t.7.@.| ..4.4.4.6.i.v.t.4.7.0.7.7.a.d.d.i.x.v.t.7.d.g.t.9.6.0.s.Z.a.+.t.d.t.t.i.i.i.i.d.d.d.i.t.t.i.d.d.d.d.v.d.d.i.d.d.n.d.6.a.d.7.4.4.6.6.s.s.6.7.a.t.t.t.t.6.+.1.1.} } +.7.7.#.| | 4.#.e.7.*.*.&.$.$. .$.t.#.+.7.#.+.t.i.e.t.d.t.u.d.d.i.i.d.n.v.v.v.v.i.u.g.v.v.v.d.v.d.d.x.v.v.7.#.a.u.$.6.7.#.t.n.d.&.i.d.v.M.M.M.a.r.r.r.p.t.d.M.M.d.t.7.a.t.i.n.M.m.m.N.M.t.n.M.g.t.p.p.e.u.Z.t.$.d.i.f.v.v.v.M.M.M.M.M.M.M.n.M.Q.M.M.Q.Q.Q.P.M.M.P.P.s.d.W.D.p.s.j.p.d.U.g.u.M.Q.M.P.Q.D.s.t.p.t.p.d.P.Q.M.a.a.s.p.u.n.M.M.n.n.M.n.t.n.D.s.e.p.t.d.J.D.t.d.P.n.v.v.v.v.M.M.v.d.v.n.n.n.d.d.d.n.M.n.v.n.g.d.d.s.e.n.g.s.7.r.r.a.D.Z.t.g.P.M.M.n.n.i.e.r.r.e.e.d.M.d.e.t.s.p.e.g.D.M.n.n.M.v.t.d.d.u.6.r.6.6.t.s.#.#.i.i.t.t.t.t.i.i.i.i.d.d.i.a.t.e.t.a.t.t.7.7.6.7.t.7.| | 6.+.} | 4.| 6.t.+.@.t.$.7.7.t.e.#.1.1.1.4.t.d.i.7.4.4.4...6.i.c.c.d.u.a.7.*.i.t.7.6.4.4.t.d.7.+.7.t.t.$.6.7.#.#.@.7.t.$.@.6.7.7.7.#.+.@.7.#.#.@.+.@.{ _ | 4.) U ) R _ 4.{ R ` ` ` ` { { W U Q F F W _ _ ) E E W U T W W Q Q { ) c W _ b V U U V S B B x S E U U U c l x U V b S U V V S U U U U S S V c U U V Z E B y f m M Z ",
"W U B M M V Q [ R H R R _ _ ` T W Q Q W _ 4.@.+.+.{ _ Q _ _ ) 1.4.r.7.0.4.4.t.7...) ) W ( @.+.( } 1.{ { 4.7.t.q.t.t.t.7.7.t.e.#.t.t.t.t.t.t.e.7.t.e.....a.t...1.4.| 6.t.4.{ @.7.q.t.4.| | +.4.1.7.a.y.i.d.7.4.0.7.7.e.a.d.c.d.n.t.7.d.z.s.7.4.r.Z.Z.t.+.t.a.*.t.d.v.d.d.d.d.v.d.i.i.d.n.d.d.g.d.d.i.d.v.i.c.d.@.a.d.t.4.4.4.t.d.a.+.t.d.t.t.a.e...<.1.1.} ..7.$.@.$...| 1.| 6.@.$.u.*.@.$.O.$.u.e.#.+.+.#.i.i.7.+.e.e.*.i.d.i.f.i.d.n.M.v.d.t.t.d.n.v.v.d.d.x.v.i.i.d.#. .d.d.e.#.7.#.i.M.a.t.i.d.n.M.M.a.r.r.s.p.e.d.M.n.v.n.d.t.t.t.t.i.m.M.m.N.M.u.g.Q.M.t.r.r.r.g.T.t.7.n.i.u.v.d.n.n.M.M.M.M.M.M.M.M.M.M.N.P.Q.Q.M.M.M.P.P.s.d.T.T.d.p.h.s.G.W.d.u.Q.[.M.Q.Q.d.r.p.p.0.d.Q.M.m.N.M.a.s.s.t.s.M.P.m.n.M.n.t.v.Q.g.t.r.t.Z.P.n.t.d.m.n.d.g.M.M.n.n.v.v.v.v.v.M.v.i.c.M.d.n.n.v.i.i.d.a.7.g.D.d.7.r.e.d.P.Z.e.n.T.M.M.M.d.7.r.r.7.7.g.N.v.M.i.t.p.p.p.t.d.P.M.M.M.M.t.a.n.g.6.9.1.7.g.s.+.7.i.t.i.i.t.t.y.i.t.i.i.i.i.a.7.6.p.d.t.t.e.7.7.7.t.7.| } 7.e.' } 4.| 7.t...+.t.$.#.7.7.+...4.<.} e.d.t.y.t.4.1.1.| +.7.d.c.n.d.a.7.&.i.a.7.4.1.6.i.a.6.4.t.7.#.$.#.t.t.@.#.7.7.#.#.t.t.6.7.7.5.@.6.7.7.+.O.#.{ _ +.+.R S Q ) ' | { _ ` ` _ { } Q R W U F W Q R Q _ R E U U U U W ( W [ ( b Q [ U x Z F V E B B B V E U V V z V S U c S S S z F B F U U V F S V S W Z y f F E f d n C E ",
"W Q U l B W Q Q R H _ _ } W W U E E W ) <.{ | | +...| _ _ _ _ _ | 4.6.7.| 4.t.t.7.| ) ) ..@...( } | | ..0.t.t.q.t.t.t.t.e.t.t.7.7.t.t.t.t.7.t.t.7.7.....a.t.4.| ..4.7.a.7.| @.t.t.5.| | ....+.7.a.i.y.u.d.u.7.7.7.7.7.7.a.n.c.n.a.7.d.D.Z.r.6.s.Z.g.e.+.t.a.t.t.d.v.v.v.d.c.d.d.d.d.d.v.v.c.g.d.i.d.d.c.d.d.a.@.a.n.d.0.4.7.d.d.p.+.7.d.d.d.t.4.| 1.1...+.6.&.$.+.+.#.6...| { ..#.t.*.*.$.+.$.i.u.#...#.t.i.a.@.+.e.t.t.t.d.g.v.d.v.v.v.v.g.t.t.g.v.v.v.d.d.d.f.i.u.u.#. .d.g.p.+.#.e.d.n.u.7.i.g.M.M.d.e.p.p.p.t.a.n.n.x.v.n.M.a.p.p.t.t.d.M.N.N.M.u.v.N.M.g.e.e.d.M.Q.i.&.n.g.u.f.v.v.n.M.M.M.n.n.M.M.n.n.M.Q.Q.P.M.M.M.M.M.P.d.d.T.W.D.a.s.G.W.Q.d.t.P.{.{.W.g.t.r.p.r.s.D.M.M.m.M.M.n.s.a.s.p.s.J.Q.n.M.n.t.n.Q.M.a.t.d.H.M.n.t.n.n.f.v.n.M.M.n.n.v.M.v.n.n.M.v.d.v.M.n.n.d.d.i.i.d.i.7.g.D.d.e.7.s.M.M.n.e.d.P.Q.P.d.t.0.r.r.e.d.n.n.x.v.n.d.e.r.r.p.t.g.Q.M.M.n.t.d.n.n.a.8.6.a.d.d.+.#.i.i.i.d.t.t.t.d.i.i.t.i.t.t.7.6.t.i.i.t.7.t.a.t.e.e...| 7.a...} | 6.t.t...+.6.7.t.t.4.1.1.1.1.7.a.i.t.i.t.t.4.| | 4...7.d.v.c.d.$.*.d.d.t.6.4.t.i.t.+.+.t.7.+.7.q.7.t.t.7.$.7.#.q.t.t.7.7.#.6.7.7.t.t.#.#.@.{ _ +.+._ T ) _ { | Q R ` | ` ! Q W Q W S Q } _ R U _ _ W V S F S U ) _ [ Q U ) } ) U V F U U U Z x U W F B l x U c S U U x x V V V B B S F F V F U U B d y Z E B y p F E ",
"W [ W V V ) _ U b b { _ T U F U W U ) [ | _ _ _ ..| | | _ Q } _ } { 6.6.{ { 7.t.t.+.} | +.+.` ( } | 6.4.7.t.7.7.t.t.q.t.t.7.t.e.7.t.a.t.t.7.t.t.t.t.....7.t.7.....t.q.t.6.{ +.t.7.| { | ..| 4.u.d.t.y.y.t.a.s.7.6.7.7.7.7.a.d.d.a.7.a.n.n.s.a.g.d.d.e...a.d.i.i.i.i.d.d.d.d.d.v.i.i.d.c.M.c.d.d.d.d.y.a.d.a.7.4.s.d.n.a.5.t.g.i.e.+.7.a.d.s.4.| 1.1.} +.7.e.#.+.+.+.$.t.@.| { +.| #.t.*.e...#.u.u.t.$.e.d.t.u.#.6.u.i.t.t.u.i.g.c.v.d.v.v.v.y.i.v.v.d.v.v.d.i.u.*.t.i.e...u.v.i.$.#.a.d.d.t.7.g.v.M.d.t.r.s.p.r.a.M.v.d.v.n.v.n.M.g.e.s.t.t.v.m.N.M.t.g.M.M.n.a.i.M.M.m.u.$.n.v.-.d.v.f.n.m.m.M.n.n.M.M.n.n.M.P.P.M.n.M.P.P.M.P.s.d.P.W.T.n.Z.W.Q.P.d.t.D.{.[.D.p.r.p.0.s.C.D.n.M.m.n.M.H.d.a.s.s.r.d.D.M.M.d.t.n.P.M.D.d.D.M.M.n.t.n.M.d.M.M.n.n.n.v.v.M.v.n.v.v.v.v.d.n.M.d.i.d.v.v.d.u.7.d.n.n.u.t.g.M.v.g.7.d.P.P.n.t.e.p.e.t.d.M.v.v.v.i.v.n.s.p.7.s.e.t.n.M.P.g.7.d.g.n.d.r.p.n.i.a.+.+.t.d.t.u.i.t.t.u.i.u.t.i.t.i.t.t.t.t.t.t.e.t.t.t.7.t.4.| 6.t.t.1.} 7.t.7...+.7.t.t.6.1.1.} | 7.s.t.t.t.t.t.a.t.7.1...4.4.t.t.d.d.#.$.d.d.u.a.a.t.t.7.| { 7.t.#.7.7.#.$.t.$.7.$.$.q.6.q.q.7.5.7.t.7.@.@.@.@.4.{ _ { @.| | } R } } T T { | _ U E Q R U ) { } _ R W R Q Q W U V U U W R Q Q U E { { R U E E U Q U x S U V z c x V l x S S f f V U x x l S V V V E S B B A d M E Z x B Z Z ",
"Q Q ~ R ~ _ { Q z c ! R S U W U W Q } | { { { _ } | +.| } _ ) [ } } +.6.| { 7.7.7.#.@.+.] ] ` ( | 4.+.@.7.7.e.7.t.#.6.q.t.t.t.t.t.a.t.e.t.a.a.7.t.p.+...7.t.t.6.7.t.q.7.| _ +.6.| ` | | | 4.t.t.i.i.u.t.t.t.t.a.r.6.6.0.9.7.a.n.t.e.d.d.d.c.d.d.d.d.7.+.a.g.i.d.d.d.u.i.d.x.d.d.d.i.i.d.v.d.d.d.d.d.a.a.u.a.e.4.s.d.d.d.a.d.i.u.t.+.7.d.t.6.| <.<.+.+.7.$.$.+.+.+.e.$.e.e.7...| ..#.&.*.t.+.#.t.*.t.t.i.u.u.t.#.7.s.t.i.t.t.t.i.d.d.g.n.g.d.i.i.d.v.x.v.d.d.t.&.t.u.d.e.+.i.f.v.i.u.d.i.u.t.7.d.n.g.t.r.p.s.p.a.n.M.v.v.v.n.v.n.M.J.d.p.p.p.i.n.N.P.t.i.M.m.n.v.v.M.n.M.t.&.v.v.i.i.v.v.v.m.v.v.n.M.M.M.n.n.M.M.M.n.M.P.Q.P.Q.T.s.d.P.Q.Q.W.T.P.M.P.a.t.M.Q.n.a.r.p.r.s.D.P.M.M.M.n.M.M.m.J.d.a.j.s.p.d.M.M.d.t.n.P.M.P.H.n.n.m.g.t.n.M.n.M.M.M.n.v.n.n.v.n.n.d.v.v.g.a.d.d.d.d.n.v.v.v.d.7.g.g.M.n.n.M.n.n.d.#.g.P.n.t.e.r.r.e.d.M.n.v.v.i.v.i.v.M.d.t.t.t.t.t.g.M.n.7.s.g.v.c.d.a.d.d.d.@.+.t.i.u.t.t.u.t.t.t.t.t.i.i.d.d.d.t.t.t.u.e.7.6.$.7.e.4...@.7.t.t.7.7.$.t.| +.t.e...} [ _ | 6.t.s.t.7.$.t.t.t.a.s.7.4.4.6.4.7.i.d.#.$.i.d.i.d.a.t.$.t.+.{ 6.t.t.t.q.#.#.#.7.7.7.7.7.7.7.7.7.7.7.#.+.| | | @.6.} _ | +.+.@.| ` _ _ R T } } T U W W W W | | Q Q { ) Q R _ { W U R W U S W W U U Q R R T W R _ _ W S U W U V U c c x x x V l B B F V B B S V U U F x V B C f B U E U U Z E ",
"Q W R [ [ R _ _ k b } R U E W U Q <.{ } [ } +.} { { | { 4.} [ ) { ..| 7.4.} 6.#.e.#.+...` ` ` ( 1.@.+.#.7.7.t.q.$.7.#.#.t.t.t.7.7.t.7.#.a.a.a.t.7.t.....7.#.q.t.t.7.7.6.{ _ 6.7.` { ..{ ..t.i.t.t.t.t.t.t.t.7.a.a.e.6.7.7.6.p.Z.t.7.d.a.d.n.d.d.d.d.7.@.a.d.i.d.v.d.t.t.d.v.d.d.d.a.i.d.d.a.d.n.d.d.d.i.s.g.a.4.s.d.a.d.d.d.t.t.t.6.7.d.7.| } 4.| 6.7.*.+.@.@.@.+.#.@.+.$.&.#.....+.+.*.t...#.$.$.u.*.u.t.u.t.+.7.s.t.u.i.t.t.t.u.g.d.v.i.i.i.i.d.v.v.v.i.u.t.u.t.i.d.e.+.i.i.f.u.i.i.u.t.s.7.u.M.d.7.p.s.t.a.D.n.v.v.M.x.v.n.M.M.M.J.s.p.s.t.g.M.M.*.u.n.m.v.n.n.n.M.n.&.t.d.n.v.i.i.f.v.v.v.v.f.n.M.M.M.v.d.n.v.n.P.Q.P.J.Q.T.s.s.P.Q.P.P.W.M.n.P.s.7.n.M.t.r.p.r.s.J.P.n.M.M.v.n.n.n.M.M.D.d.s.s.p.a.n.M.d.7.n.Q.M.M.P.n.v.m.d.t.n.M.n.M.M.M.d.d.M.M.n.n.n.d.x.v.d.y.t.d.v.n.n.d.d.M.d.7.d.n.M.M.M.n.v.n.d.#.d.P.i.e.s.r.7.g.M.n.v.v.v.i.f.x.v.v.n.g.t.t.p.7.d.v.v.7.u.v.v.a.g.i.i.i.d.6.6.t.t.i.i.t.d.t.7.t.i.t.u.d.i.i.i.t.i.t.t.7.@.+.e.6.7.4.| 6.7.#.t.t.$.$.7.| +.e.#.{ | } [ 6.a.t.t.t.#.#.t.t.t.t.t.a.r.4.4.4.4.t.d.#.@.y.d.i.u.a.t.#.t.4.{ @.7.t.t.t.#.+.7.7.6.7.7.6.7.#.6.7.7.7.@.+.#.4...+.+.} } o.] +.o.o.` R _ R b _ _ U W ) U U _ { ( ( _ } { _ R Q _ _ Q W S V S ) U S U U U W K R U Q Q V V W U S B V V V b S x U F B l V V l F U V U S l f V B M m x U E I E V E ",
"W Y Q Q _ [ { Q b T { R R U E ) <.| } _ } | ..| 4.{ | +.o.4.4.} { | ..6.4...6.#.&.#.+.' ' ` _ ( <.4.@.@.e.t.t.q.q.7.7.7.7.t.t.7.7.7.7.e.t.p.s.t.e.7...+.7.#.#.7.7.7.$.6.| } 6.7.| | ..+.e.t.t.t.t.t.t.i.a.t.t.t.t.a.t.6.7.e.t.g.t.7.d.d.d.d.d.d.i.d.t.6.s.d.d.g.d.g.d.y.i.d.d.d.d.i.d.d.d.d.i.d.d.a.d.d.d.d.s.t.a.d.d.d.i.t.t.t.t.6.t.d.e.4.<.4.4.t.t.$.@.@.#.e.#.+.+.$.#.@.@.e.....| $.t...+.$.$.t.e.t.t.t.t.+.6.t.i.i.t.u.t.t.i.d.d.d.i.y.i.d.d.d.v.v.d.d.c.n.i.u.i.t.#.d.d.u.*.u.i.i.u.t.6.a.n.p.e.s.e.s.D.M.v.v.v.n.v.v.v.M.M.M.J.D.e.e.s.g.M.M.&.u.n.b.b.M.v.n.n.v.t.t.n.M.v.v.i.u.d.v.v.v.f.v.m.m.n.v.d.g.g.M.P.P.P.J.M.P.d.d.P.Q.M.P.M.m.M.P.t.e.Z.n.s.r.r.s.D.Q.M.M.n.n.n.n.n.M.M.M.P.D.d.s.s.p.g.Q.n.t.n.M.M.m.M.n.n.M.d.t.n.M.M.M.M.n.v.v.g.v.M.v.v.d.v.n.d.y.i.v.n.v.n.g.d.v.d.e.d.M.n.n.n.v.v.n.d.7.d.M.g.u.a.e.d.M.M.n.n.v.v.x.x.v.v.d.n.n.n.t.e.t.i.n.g.$.d.n.g.d.d.i.i.i.a.t.7.a.u.u.d.f.n.g.i.t.u.d.g.t.t.7.t.i.d.t.t.t.7.7.e.e.7.4.| 7.e.@.7.t.$.$.6...+.6.7.+.| | 6.t.i.t.y.t.7.e.t.t.t.t.t.s.s.9.1.4.6.t.a.+.#.i.i.i.s.a.t.$.t.6.} 4.7.#.t.t.#.#.7.7.q.t.7.4.@.7.7.e.7.6.+.+.7.6.@.+.| | { o.+.+.] | ` ` _ W H ( _ T W Q U R { ( W { { _ { } Q U R _ ( U x V U Q W S S U U R W W U W U l x U z l B x h x U U V V S B l V x B F S F V l l M V B M d B U U V U U U ",
"W E ~ Y Q Q Q U c W _ Q W U W | 4.} } { 4.| | +.+.{ | +.| 4.7.4.{ _ ..4.4...e.6.#.#...' | { ( Q } 6.@.@.t.t.#.7.t.7.a.t.$.t.7.7.t.q.7.t.7.a.a.t.7.6.| +.6.$.$.#.t.7.+.q.4.{ 4.7.+.| +.$.t.%.7.t.t.t.t.a.a.t.t.t.t.u.d.e.6.7.t.d.t.6.d.n.i.y.d.d.y.d.t.@.t.g.d.d.d.d.d.d.i.i.v.d.d.d.d.d.a.i.d.a.i.d.a.d.d.a.d.a.a.d.d.i.i.t.t.d.e.@.p.a.e.7.| +.t.t.t.t.$.t.#.7.#.#.t.t.@.#.@.$...} | 7.6.| ..t.7.$.e.t.t.$.t.+...7.t.t.t.t.t.i.i.i.d.i.i.i.y.d.i.i.d.d.v.M.x.i.u.t.i.t.#.u.i.t.u.g.i.d.g.t.#.d.d.e.p.r.p.J.n.g.d.d.n.n.n.v.v.M.M.M.M.P.d.r.a.d.M.P.$.i.n.v.b.n.v.M.n.v.t.t.M.n.v.m.f.;.v.m.v.v.v.v.v.m.v.n.g.d.g.P.M.P.P.M.M.J.u.d.U.m.M.N.M.M.M.M.t.7.Z.D.s.0.r.Z.J.M.n.n.v.n.M.n.n.n.M.M.M.P.Z.s.s.s.g.Q.n.t.M.M.M.M.M.v.M.M.s.e.d.M.v.M.n.M.M.v.g.d.v.v.d.d.M.v.d.d.n.M.n.v.v.v.d.i.a.e.n.v.f.M.n.x.n.c.d.7.d.D.d.p.e.s.D.M.M.n.n.v.x.x.v.i.v.n.n.v.n.d.e.e.u.M.d.$.n.n.d.g.i.u.d.u.a.7.7.d.i.t.i.d.d.v.d.t.i.d.i.t.t.7.a.i.u.t.*.t.d.a.t.a.a.+.4.7.6.7.7.e.#.$.7.| | 7.7..._ ..t.t.t.t.y.t.t.t.t.t.t.t.t.t.a.r.1.4.6.t.a...7.a.t.t.y.t.t.7.7.4.} 4.t.6.6.7.t.$.#.7.q.7.7.@.4.7.7.q.7.@.@.6.@.6.6.o.| | ` +.+.] +.| _ { { E b Q } ( U U W _ | _ ( { ` ` { _ R W R R R ) S B F W Q b S W U R U T R R S x V W c x U F f f S S I V l B V Z l B l x U S B F B B B B d C U I U I B F ",
"W W W R W U W U c U } ( U R } | +.+...| | +.4.| | { | | +.#.6.+.| } { 7.| ..r.7.#.+...' | { _ R } | @.6.7.7.#.#.t.t.t.t.t.e.7.e.t.t.t.7.t.a.a.7.7.7.....7.7.7.7.7.7.$.t.4.{ 6.#.] +.e.t.*.*.*.$.e.i.i.y.i.y.t.t.y.i.a.a.7.4.e.g.t.7.g.n.d.i.i.i.i.g.a.6.t.g.i.d.g.g.v.n.v.v.d.d.d.d.i.i.a.d.d.d.i.d.d.d.d.d.d.a.d.d.y.i.d.a.u.d.t.#.e.a.7.@.+.7.u.t.$.t.t.t.t.$.#.$.t.*.*.t.$.$...| +.e.7.| 6.t.t.t.e.e.#.t.u.@...7.@.$.t.t.t.i.i.d.i.i.i.i.d.i.i.d.t.i.v.v.u.t.t.i.i.e.6.u.u.u.i.g.g.n.M.d.7.d.D.t.r.r.g.J.n.g.a.v.M.v.x.n.n.v.M.M.M.P.P.g.t.d.M.Q.&.d.n.v.b.v.v.n.N.v.t.t.n.n.v.m.v.i.v.v.b.b.v.v.m.n.M.M.n.g.n.M.M.P.M.M.M.D.u.d.T.M.M.M.M.M.P.P.t.7.n.J.t.6.d.T.M.n.v.g.n.n.n.M.M.v.n.M.M.M.P.D.s.p.n.W.Z.t.M.M.M.M.M.M.P.M.s.e.d.M.n.n.n.n.M.M.M.f.f.d.v.g.v.M.d.d.n.n.n.n.v.d.d.d.d.t.n.v.v.n.n.v.n.n.d.7.n.J.u.e.s.D.M.n.M.n.n.v.v.x.v.v.n.v.n.f.n.M.d.#.t.M.g.$.n.M.v.d.d.a.d.d.d.6.6.a.i.i.d.d.i.y.i.u.d.i.i.t.i.i.d.i.a.t.t.t.a.d.d.d.a.4.6.s.t.t.t.7.$.t.t...| 7.7.' ` 6.t.t.*.t.t.q.t.t.y.t.t.t.t.t.t.a.r.4.4.a.a...7.a.t.t.t.7.e.e.6.| } 7.t.7.7.7.t.q.7.7.7.6.6.6.4.4.6.7.7.#.#.q.7.6.@.+.+.| | +.] ] +.| ` ....R H _ | _ U U _ +.| { } } _ { ` R Q _ W R _ _ ( E c R Q U U Q ( Q Q R U R U V V W U U E W z h h c U c l z U B l B l l z U U S V V B B f B U U U U B F ",
"E W U W E U Q W c W { ( R { +.{ | ....{ { | ..} { | +.| | 4.o.| 4.| | 7.| | 6.7.#.+.+.` ' } _ W ) _ @.6.7.#.$.#.e.t.7.t.t.%.t.t.7.t.t.7.t.a.t.7.e.t.| | e.7.#.7.7.#.t.7.{ | 7.+.] $.t.$.#.7.$.#.7.t.i.t.t.i.t.a.d.i.i.d.t.#.e.n.t.7.d.v.d.a.i.i.i.n.a.6.e.d.d.g.d.d.d.d.a.i.i.a.t.t.u.u.d.M.d.d.d.d.d.d.d.g.a.t.a.a.y.a.a.a.a.a.t.@.7.t.@.+.t.i.t.t.*.q.t.t.e.#.#.$.$.t.t.t.@.#.7.t.7.7.7.| 6.t.t.t.7.7.#.e.t.+.+.6.+.e.t.t.t.t.i.i.y.i.d.c.d.d.i.i.t.t.i.u.=.d.i.i.i.e.6.a.t.i.i.i.v.n.n.s.e.d.D.t.e.d.D.n.v.d.d.n.c.n.v.v.v.n.n.m.M.M.N.P.d.d.M.P.*.i.n.v.v.v.v.n.M.d.t.u.v.n.v.v.v.v.v.v.v.v.v.M.n.n.v.n.M.n.n.n.M.M.M.M.M.D.a.a.P.Q.M.M.P.M.P.M.t.7.g.n.u.d.D.M.n.n.v.v.n.n.M.M.M.g.d.n.M.n.J.P.g.a.n.W.Z.t.M.Q.M.n.M.M.m.n.s.e.a.M.n.v.n.v.v.n.n.n.v.i.g.v.v.n.d.d.n.v.n.v.n.d.d.d.a.e.d.v.v.d.M.n.v.v.a.7.n.M.i.d.D.n.M.v.n.n.v.v.n.x.i.v.v.u.d.d.v.n.n.t.u.M.g.$.d.M.v.d.d.a.a.d.d.6.@.s.i.d.a.i.d.t.d.t.t.a.u.t.i.d.t.i.t.e.t.7.7.t.a.t.a...4.a.a.q.7.7.t.q.7.| | 6.6.+.@.7.7.$.*.$.%.t.7.7.t.q.t.t.7.7.7.u.a.4.+.t.a.@.7.y.i.t.7.7.7.7.4.} 1.7.7.t.7.@.@.7.7.7.7.6.q.q.5.@.7.7.7.7.#.7.#.| ..#.+.} | +.] ` { | X.o.{ R R ' { _ T W } | ` { | { ` ` _ _ ` } R R _ _ } R U W R S S ) _ R R U S T W S B U U T c E S h l S I S x B Z f l F V l l U U V x S l B f x U U V V B Z ",
"E W W W E U R W U ) } _ { { | | | | | | | { { { | ..+.| ..| +.+.6.+.@.7.4.{ 6.#.#.+.+.+.| ( ( W _ } ..@.t.t.t.7.t.t.t.7.e.t.t.t.t.t.t.t.a.s.a.t.7.t.+.+.7.q.q.#.7.t.q.+.{ o.7.@.#.t.t.$.$.$.e.t.7.t.t.y.y.a.d.a.t.u.i.d.a.t.t.g.s.6.a.d.d.y.d.d.t.d.t.@.t.d.d.n.g.d.a.i.t.t.t.t.t.u.i.g.v.n.v.v.d.d.g.g.d.g.a.7.p.d.d.a.a.d.d.t.6.6.t.t.$.t.i.i.y.y.t.t.#.7.#.$.#.$.t.d.t.&.$.$.t.u.*.s.7.| @.t.t.7.6.t.7.7.6.+.+.7.7.t.7.u.d.t.7.t.i.d.i.c.x.v.d.u.t.y.t.t.i.v.d.u.i.t.6.s.a.f.d.n.v.g.t.s.t.n.D.a.s.D.M.n.g.g.n.n.n.M.n.v.n.m.M.M.M.m.M.P.P.n.M.J.*.d.v.f.n.v.b.M.n.i.t.u.v.n.v.v.v.n.v.v.v.v.v.d.i.d.d.v.P.M.M.M.J.P.D.g.n.D.s.d.J.M.M.P.P.Q.n.d.u.e.d.n.g.M.M.v.M.n.n.n.n.M.M.M.v.v.v.g.n.M.M.P.J.M.M.Q.D.s.n.n.v.M.M.H.D.d.s.t.i.M.M.M.M.v.v.v.n.M.n.f.d.v.n.d.d.n.n.v.v.n.M.v.g.u.s.7.d.i.d.n.M.M.M.i.a.t.d.M.v.M.M.v.v.v.v.d.d.n.n.v.d.i.d.u.d.f.n.v.v.n.v.n.v.$.d.d.d.v.c.a.d.a.a.6.+.a.d.i.d.u.d.d.d.u.t.t.t.7.e.e.t.u.i.t.t.t.t.e.t.t.s.4.+.t.t.#.6.7.t.@.| _ | 6.#.#.t.$.$.$.$.$.7.t.t.#.#.7.t.t.7.7.q.t.a.t.7.a.d.6.7.t.t.t.q.t.p.#.4.<.4.7.t.t.7.+.@.@.7.7.7.7.7.t.q.7.7.t.t.q.7.@.+.+.+.@.6.{ _ | +.] ` +.@.{ Q R ( { { ' _ { [ { ` } } | } ( _ { ` ` _ _ ( _ Q ) R W Q T U ) Q R U R T T U F l V U T U U b c x S U U c B B l l B V V z c U E S V F A l V U S z V V F ",
"F V W ) R U U R T T { _ ` { { { | } } | | { +.| +.| | +.+.{ +.+.4.7.@.7.| { 6.+.#.#.@...' R ) R <.} { +.7.t.#.#.#.t.t.7.t.7.q.t.t.7.e.p.t.7.e.p.t.t.+.+.6.#.q.7.7.t.+.{ | | #.$.t.$.@.7.*.*.t.t.7.$.t.i.d.a.t.t.t.t.i.t.i.i.y.g.t.6.a.e.t.d.a.a.6.t.p.+.t.g.i.n.g.i.a.d.d.d.i.i.v.d.i.v.d.d.v.d.g.n.d.d.n.n.p.6.t.s.t.d.d.a.t.6.7.@.7.t.t.d.t.y.i.i.t.t.7.#.7.t.#.7.t.t.$.$.t.t.$.t.u.u.@.' 6.+.+.t.&.t.7.] 7.6.| t.t.t.$.t.g.t.@.7.t.i.u.d.c.d.i.u.y.c.i.y.i.i.i.u.a.7.6.e.t.d.M.M.d.t.t.g.e.d.H.M.n.M.M.v.g.M.n.v.M.n.v.m.n.v.M.M.n.M.n.M.P.D.J.M.$.d.d.*.v.n.m.M.u.u.t.t.v.n.v.n.v.n.M.n.v.n.v.f.f.i.v.M.J.J.J.M.n.n.g.d.n.n.s.d.n.u.n.Q.P.P.t.a.a.$.d.M.v.n.n.M.n.n.M.v.M.M.M.M.v.v.v.n.J.M.M.J.Q.P.P.P.g.t.g.a.i.M.M.M.s.s.Z.t.i.M.n.M.v.v.v.v.n.v.M.v.d.v.v.i.g.M.n.f.f.v.g.g.i.a.t.7.d.t.i.n.M.M.d.e.d.t.i.M.n.v.n.v.d.v.n.d.n.d.n.v.;.i.g.d.v.g.v.f.n.n.n.M.g.$.d.u.e.g.d.d.g.t.7.7.+.t.i.t.v.i.t.u.t.u.t.t.i.t.7.7.i.t.i.t.i.i.a.t.t.t.a.4...4.@.#.t.q.@.] @.| } @.#.@.$.$.$.$.#.$.$.t.7.#.#.t.t.q.t.7.$.7.t.i.a.d.t.@.e.7.6.t.a.a.t.+.6.4.| 7.t.7.7.6.7.6.@.6.7.7.7.7.t.7.6.7.7.7.t.@.6.7.+.O.6.| T R | +.| | { R Q ) U ` ..` _ _ R ( } | { | ` K _ { _ _ { ( U U U R U ) W U V S U ( R R T b c S l V x S U b c S x c V c x x B B l l V F z z S U S x F A f l V U V Z B Z ",
"F B S ) R H H ( R b Q _ ` _ } ` } { ..{ | | +.+.+.+.+.+.+...+.+.6.6.@.7.{ } 6.@.+.+.4.) T _ } ( | | ..+.7.#.@.+.@.e.t.t.t.t.t.t.t.t.a.t.7.4.7.e.t.t.+.+.6...#.t.t.@.o.4.+.{ #.$.#.#.#.$.t.t.t.t.t.t.t.i.i.t.t.t.t.u.t.a.i.i.d.n.7.#.a.7.7.d.d.6.@.a.a.+.t.g.g.g.d.d.d.n.n.d.i.d.c.d.d.d.v.v.d.d.c.n.n.n.n.c.t.6.a.p.#.s.d.a.$.$.t.6.4.t.i.i.i.i.y.i.d.t.7.$.7.7.7.t.$.#.@.t.t.t.$.t.e.7.#.| 6.#. .$.i.e.+.+.u.e.+.t.t.t.t.i.d.7.4.7.e.u.d.d.i.d.t.y.i.n.d.i.t.i.i.i.u.7.6.p.e.t.d.g.u.t.a.Z.t.d.P.M.n.n.g.n.n.M.M.m.n.c.v.n.n.n.v.v.v.v.M.M.P.P.Q.M.$.v.v.&.i.m.N.i.*.g.u.u.v.n.v.n.n.n.M.n.n.v.v.n.g.g.n.P.P.T.P.n.d.d.n.M.D.D.s.d.G.d.u.J.W.i.t.M.d.$.g.M.v.n.n.n.n.M.M.n.v.v.n.n.M.v.n.M.M.P.J.J.P.M.M.Q.d.t.n.n.t.d.J.u.e.g.D.t.d.P.v.i.d.v.n.v.M.n.M.n.v.v.d.v.M.n.n.n.g.d.i.i.i.v.a.7.k.d.*.g.J.d.$.t.Z.e.g.M.n.v.v.g.n.n.n.n.n.v.M.i.i.d.v.v.v.v.f.v.n.v.v.n.i.@.g.d.&.p.n.n.d.&.t.t.#.t.i.i.d.i.t.e.t.t.t.i.d.i.t.u.v.d.i.t.t.i.i.t.u.i.a.....7.+.#.i.u.] ] t.| ' #.e.#.@.#.$.#.$.t.t.7.#.@.7.t.t.t.t.t.7.q.i.i.i.t.7.6.t.7.6.6.p.d.7.+.e.6.+.7.t.7.7.t.t.t.6.@.6.7.q.e.7.4.+.@.6.q.q.7.7.7.+.+.6.{ R Q _ | | | Q R _ _ T _ | _ R R Q [ } | | | _ R ( { { { R R U W W R Q _ W S S V x W W S x c V S V V l V V b b S b V h l l B V V l x V V z V x B V V B M f f l S F Z M m ",
"W F V F U b U [ R b Q { { ` | _ ) { { } +.{ +...| +.@.| @.+.| 6.4.@.#.6.{ { 7.6.+._ ) W ( | } R { 4.+.+.@.@.e.#.#.7.7.t.e.7.t.q.p.t.p.e.6.4.e.7.7.t.| +.p.+.] 4.6.+.#.t.| ` @.@.+.@.$.7.7.t.t.t.t.t.t.i.t.t.i.a.y.t.t.a.t.t.d.d.#.#.d.t.7.t.t.6.t.Z.t.+.t.g.d.d.v.n.c.g.d.d.i.i.d.v.d.d.v.v.i.i.d.g.n.n.d.d.t.6.a.d.$.+.e.u.t.i.t.@.@.t.t.u.i.i.t.t.y.t.7.7.$.7.t.t.$.$.t.i.t.t.&.$.$.t.7.{ 6.t.+.+.7.+...t.i.6.@.t.&.u.*.t.i.7.6.t.7.t.i.i.i.i.t.t.i.d.d.d.i.d.i.t.d.7.6.z.e.+.e.s.7.d.c.d.e.d.M.d.g.d.d.n.g.n.M.M.v.n.x.v.n.n.x.n.v.v.n.n.M.P.Q.M.$.d.M.u.&.g.n.-.u.n.u.t.v.M.v.n.n.n.M.M.n.f.f.n.n.M.M.M.P.P.P.n.d.n.J.M.P.U.s.s./.T.u.d.d.t.v.P.u.&.v.n.n.M.v.g.n.v.v.M.v.n.n.n.M.v.v.M.M.P.M.n.n.M.M.m.a.e.D.T.d.e.p.t.n.n.d.t.d.P.v.i.d.v.M.d.v.m.n.v.n.d.d.n.n.v.n.n.v.g.g.i.g.M.a.6.Z.U.t.t.u.7.t.d.d.7.g.M.v.n.v.d.n.v.v.n.v.M.n.i.;.v.v.d.v.v.v.v.v.v.d.v.t.#.d.n.t.7.d.u.e.&.g.a.@.i.g.i.i.a.t.t.g.t.7.i.d.t.d.d.i.u.$.t.d.t.i.d.t.t.t.| +.s.+.| t.e.] $.q.' _ 6.t.@.$.#.$.@.@.7.t.7.@.@.t.t.t.t.t.7.t.t.t.t.t.7.7.4.t.a.a.+.4.6.6.7.t.4.+.7.t.7.7.7.7.y.a.@.5.7.t.7.6.5.+.@.t.7.#.7.7.@.| +.@.` _ | ) T _ } R _ } Q U Q _ _ R W } | { { | | { } R _ ` _ R R _ _ W ! } Q W k U Q c S V l x U U x B U S c x b x x S x x x B F x x x B x V x V z V V S V M f A M M l B l B ",
"Q ) Q x S H ( } R b _ { | | | } } _ { } | +.+.+.+.@.@.@.@.@.@.6.6.@.@.7.| { 7.6.7.} ( _ | ..{ R } +...+.5.#.t.t.t.$.t.t.$.#.e.t.t.t.t.e.7.7.e.7.e.7.| +.t.6.o.` +.6.6.7.+.' @.#.#.#.7.7.7.q.*.t.t.t.u.t.t.t.d.d.t.t.i.i.i.i.i.d.7.#.d.d.i.7.@.t.d.d.a.+.p.d.a.d.d.n.n.v.d.d.v.d.d.v.v.d.d.d.d.i.i.d.d.d.d.d.t.7.d.n.y.7.t.d.i.d.t.@.#.i.*.t.t.u.t.u.t.t.7.t.e.$.t.i.t.t.*.t.t.t.$.&.&.t.e.{ #.t.#.$...6.e.t.t.#...t.t.t.t.t.e.t.e.u.t.t.t.i.i.i.t.t.t.i.c.v.d.c.i.t.v.t.#.Z.s.e.6.e.a.g.d.d.e.t.n.n.d.d.g.n.d.v.d.c.n.M.d.v.v.v.v.v.M.M.v.n.P.P.P.M.&.d.M.n.i.u.t.d.n.n.u.t.n.M.n.n.n.n.m.M.n.v.d.n.M.M.n.J.P.Q.W.P.M.P.P.M.M.P.s.s.G.W.D.a.t.n.P.M.i.t.n.M.v.n.v.v.n.f.d.n.M.M.M.M.n.v.v.M.M.M.M.n.n.M.M.P.d.e.g.P.P.a.t.D.P.n.g.t.d.P.M.v.v.v.n.v.n.n.M.n.n.f.v.n.n.n.n.v.v.n.n.v.n.n.d.#.a.P.d.t.t.t.n.v.a.7.g.M.v.v.v.v.c.v.M.c.d.v.n.i.i.v.v.i.f.v.n.v.v.d.v.v.i.#.g.v.g.t.e.$.u.i.g.u.$.d.g.i.i.t.t.u.d.u.t.t.i.d.d.t.t.$.$.t.i.u.d.i.t.$.t...+.t.e.......#.t.e._ ` 6.$.*.t.t.t.#.+.+.@.#.$.q.t.t.t.7.6.7.t.t.t.t.i.i.p.4.7.a.a.t.+.| t.t.t.4...6.7.e.e.5.@.7.t.7.6.7.7.7.q.q.6.7.7.t.e.7.7.6.+.+.@.} ) 1.} ( ) ( ( | | R H T _ ` Q _ | o.{ _ _ { | | ` { ` ( R Q _ _ Q { ` _ U c S W U W x x S W W x h E E S V U b c c c c V V V z x l B z U U E U U z V F l f F Z B f M B F ",
"U ) ) U U S _ { U c [ ` ` { ` { ..{ | ` | @.| | @.+.6.4.+.4.7.5.6.@.@.7.| | +.@.e.+.4.| _ { } R } | | | 6.#.#.t.t.$.7.t.#.+.t.t.7.t.7.7.t.t.7.7.t.6.| 4.6.#.7.@.6.7.@.7.@.{ @.t.t.$.#.7.t.e.7.t.t.t.t.t.y.i.u.a.a.t.t.a.d.i.i.d.7.6.p.s.d.t.7.d.i.t.p.+.t.d.d.i.t.a.g.d.d.n.d.d.a.i.d.v.d.c.d.i.d.d.i.i.d.c.t.7.a.i.i.v.d.d.t.t.i.@.4.a.u.t.t.t.t.t.$.$.7.t.7.#.7.t.t.t.%.t.*.t.t.i.7.$.7.{ +.#.t.t.#.t.t.@.7.4...t.$.$.t.t.7.u.t.t.t.t.t.t.t.a.t.t.t.i.d.v.i.i.y.i.d.t.@.s.d.s.t.t.d.d.t.a.e.t.D.n.n.n.d.d.v.n.d.M.n.n.d.d.d.M.v.v.M.M.v.v.M.M.M.M.$.d.v.v.n.g.i.n.v.v.t.u.n.M.n.n.n.n.m.m.n.n.v.n.n.v.M.M.P.W.P.M.J.M.J.J.M.D.s.s.D.n.J.D.n.P.v.v.d.t.v.M.n.v.v.n.M.d.i.n.M.n.J.n.g.g.v.M.M.n.v.M.M.n.n.P.d.t.d.n.J.M.D.D.d.d.n.t.i.P.v.M.M.d.g.n.M.v.n.n.n.g.M.n.v.n.v.v.n.v.n.n.v.d.u.#.t.n.d.g.M.n.n.i.a.$.i.M.v.d.v.v.d.v.M.d.=.d.M.i.;.v.v.d.d.d.v.v.x.x.n.d.d.#.a.d.n.d.d.d.n.u.t.t.$.a.d.d.u.t.u.t.t.a.t.t.i.d.i.t.t.q.i.t.t.i.d.t.*.$.p.+...7.t.#.+.+.t.$.#.{ { #.$.7.t.t.q.#.@.+.#.#.t.t.q.t.*.#.#.$.7.t.i.i.d.d.t.4.7.t.a.a.t.t.a.t.7.4...7.a.7.t.t.#.6.t.t.6.6.7.5.7.7.7.6.7.t.7.6.@.@.@.+.+.| R { 6.+.} ( _ | _ U U R _ _ _ { { | { Q ( _ _ { | ` ! R R _ R _ ` { Q _ W U V U U W U W c U U f f U U U S c c z x S x V B x c x l V U S U V V F B V F f d Z W V f B F F ",
"U U W R R T R Q U S _ { ` ` ` { | | | | +.+.{ | +.+.7.4...| 6.7.6.@.6.q...| 4.| +.#.6.} R { { R | | +.#.7.#.7.t.t.$.t.7.#.6.t.t.t.t.t.e.t.t.t.7.t.7.| 4.7.] 7.a.t.#.#.7.6...e.t.*.*.$.7.t.t.t.$.e.y.t.t.i.i.i.d.d.t.t.a.a.i.d.c.e.7.p.t.a.d.d.d.t.t.a.@.t.d.a.d.i.i.i.d.n.n.n.n.a.7.t.d.d.d.i.i.i.i.i.d.d.c.t.7.d.t.q.n.v.t.#.e.u.6.e.d.i.i.t.u.t.*.$.t.t.u.t.e.@.7.t.t.*.t.t.*.t.u.t.t.7.| +.$.#.t.d.d.t.#.#.6...e.#.7.$.t.7.e.t.t.t.d.a.t.t.d.d.t.i.d.i.d.t.t.t.i.v.t.6.d.t.t.d.D.n.u.e.a.e.u.n.n.n.M.d.d.g.M.M.M.m.v.d.d.d.v.n.P.M.v.c.n.n.n.P.M.&.d.g.i.v.M.M.n.v.v.i.i.M.M.m.M.M.M.n.m.m.M.M.M.d.u.M.P.D.M.n.v.n.J.J.M.M.P.s.s.D.d.d.U.}.J.u.g.n.t.v.N.n.n.v.M.M.d.i.v.n.M.n.g.g.d.n.J.M.M.n.n.D.M.M.D.d.t.d.g.i.n.Q.n.t.d.n.t.i.M.n.n.M.v.v.n.n.v.M.M.n.i.a.v.n.v.v.v.n.v.g.g.f.d.d.7.s.n.t.t.J.M.a.u.g.7.i.M.n.n.M.n.v.v.v.d.d.d.v.i.i.d.v.v.f.u.i.d.v.v.f.n.d.e.s.i.d.d.M.n.d.e.e.e.e.d.i.u.i.u.d.t.t.t.t.t.d.e.t.t.i.y.d.u.i.i.i.t.t.t.a.6.+.t.$.7.t.t.t.+.#.@.+.7.t.@.#.#.6.7.e.e.t.t.t.t.t.7.7.$.t.t.7.u.d.d.i.t.y.7.7.t.t.t.a.d.t.#.7.6.1.7.a.t.t.t.t.t.t.t.6.7.t.6.+.4.5.#.7.7.$.7.@.@.@.+.#.| _ { +.+.| | } ( U E R ( R } +.+.| | _ _ { { Q ( ( _ _ _ R Q R _ { [ _ ( W E S R b U _ Q U U V f f U W S x f e l V V V S c B x S S E U U x l l Z S F Z d f Z F B x W F M ",
"F V U W R E b W S U _ _ _ ` { ` { | { | +.| ..{ | 4.4.4.| | 6.4.6.6.6.7.{ } 6.{ ] +.+.) T ( R T | | | @.@.7.t.$.#.$.q.6.@.6.7.t.u.t.7.7.7.t.t.7.7.e.| @.7.` +.t.6.| @.7.+.| t.t.$.t.t.q.q.t.t.#.7.t.y.y.t.i.d.d.t.t.t.t.t.d.d.d.7.7.t.6.e.d.d.t.+.t.t.+.a.d.d.n.d.i.i.d.n.v.D.s.7.4.6.t.c.d.i.i.u.d.i.c.i.d.t.7.d.e.#.i.d.7.#.7.t.6.a.n.t.a.y.t.t.t.i.d.t.t.d.t.7.t.t.7.$.t.t.t.t.t.t.$.7.{ 4.e.+.e.t.a.6.+.e.4.| t.t.7.#.e.e.#.7.$.u.i.t.4.6.i.d.i.i.d.d.t.t.d.a.t.v.t.#.g.$.$.d.J.a.#.t.g.e.t.n.D.v.n.n.d.u.v.M.M.n.v.d.v.c.d.v.n.v.x.c.M.M.v.M.M.7.d.n.u.t.g.Q.n.t.v.i.u.M.n.M.M.M.m.n.m.m.M.M.n.i.t.d.J.D.n.n.v.n.P.J.n.M.P.s.s.D.s.t.n.U.g.e.g.n.t.g.M.n.M.M.M.M.v.d.v.v.M.n.n.n.n.M.M.M.M.n.n.D.D.M.D.d.e.g.d.e.a.P.g.e.d.n.t.u.n.v.v.g.n.n.v.n.n.N.d.t.e.e.d.n.d.v.v.d.v.d.i.g.v.v.$.a.n.7.7.d.D.7.e.d.7.d.n.v.v.v.c.v.d.v.v.M.d.x.d.v.d.v.d.d.i.d.d.n.d.d.v.g.$.t.t.7.u.M.g.e.#.a.t.$.d.i.i.g.i.i.d.d.i.d.7.7.4.+.e.d.u.y.y.t.t.t.t.i.t.t.@.#.t.+.+.t.i.#.| 6.@.6.7.7.$.@.#.t.7.t.t.t.t.t.t.7.+.#.t.t.7.t.t.t.i.t.q.t.6.6.a.7.#.t.c.7.+.e.7.+.e.t.t.t.t.q.t.t.5.#.6.7.+.} <.7.t.#.#.#.+.@.6.+.+.#.| _ | { _ { .._ H W ) R R Q { { +.4.| | ..} | _ R Q { ` ` R Q Q Q _ _ _ R U U U Q c b U U U k V x f V E c x f f x V c U U x f l F W E V V x x B Z B x B f d Z B B V U B f ",
"F V U W U V S W W T { _ _ } ..{ | { } ' | 4.4.| 6.6.7.5.4.+.6.4.7.e.6.6.` | 4.| | | } R T R ) ) } | +...| +.7.6.6.t.7.+.+.+.@.7.t.#.#.7.t.t.t.t.t.7.| 6.7.| | 4...| +.7.6.| #.t.t.%.q.7.t.t.t.7.7.t.i.i.t.t.d.d.i.t.t.a.d.i.y.a.7.7.p.7.6.t.t.6.@.a.p.+.t.d.g.g.d.i.a.d.v.n.d.t.7.7.7.7.t.c.d.u.i.d.c.c.d.d.t.7.d.t.7.t.t.7.7.e.7.6.a.n.d.a.t.t.t.i.i.d.u.i.i.i.t.t.t.t.e.e.t.d.s.t.$.$.7.| +.7.#.#.#.7.+.#.t.6...t.t.t.e.7.$.t.#.7.u.t.#.7.7.t.y.v.i.i.t.y.t.d.i.t.c.t.7.d.t.$.t.g.t.7.t.g.t.e.n.M.M.M.n.d.a.d.a.n.v.v.v.n.v.v.d.c.d.v.m.m.M.M.P.M.e.d.D.s.e.t.g.i.t.M.d.i.n.M.n.n.M.M.n.m.M.N.M.i.s.s.a.d.P.P.n.M.M.M.P.M.M.J.s.s.A.d.p.s.z.s.t.g.n.t.g.M.v.M.M.n.v.v.v.M.M.n.M.M.M.n.M.P.J.M.n.n.D.M.D.P.d.e.g.d.e.p.d.p.e.d.n.t.u.M.v.g.n.v.n.g.M.M.n.t.0.t.r.a.d.v.v.v.g.i.d.d.v.v.d.t.a.g.e.6.r.s.6.t.g.e.d.n.g.i.d.d.v.v.v.f.n.v.n.v.v.n.M.d.d.v.v.d.v.v.v.n.i.$.t.p.6.e.d.a.7.7.g.u.$.d.v.f.n.v.v.i.v.v.d.6.4.4.4.6.t.d.i.t.7.e.i.t.t.t.t.@.#.t.6...6.7.+.| 6.+.@.q.t.7.7.7.t.q.t.t.q.$.t.t.t.#.6.7.6.7.t.t.t.t.t.t.y.6.6.a.e.#.t.a.#.@.t.t.6.7.t.t.t.7.#.7.7.5.t.7.| } <.3.5.t.t.#.@.@.6.7.6.+.+.} } +.| R _ | ( U ) ) T _ | _ T _ { o.| | | 4.| ( R { | { ` ` _ _ ! { R Q Q b U _ U c B S x V U V h S c c c V z V z U U S l M f l F W U V V E V F l l l M d B B F B M d m ",
"F V V E S x S Q ) U ( ` { _ { | { { | _ ` 4.4.4.4.7.6.+.7.4.+.6.6.6.@.@.{ { +....._ R U ( W _ _ _ { 6...+...+.6.7.7.4...4.4...+.7.7.7.$.6.q.7.7.t.7.| @.7.+.| | ..| | 7.4._ ..7.t.q.$.t.t.%.7.t.t.y.y.i.i.t.t.a.a.i.d.k.t.$.t.d.6.6.s.r.4.7.7.4.6.a.t.+.t.v.d.a.d.d.a.d.n.d.e.7.0.7.7.7.7.a.d.d.i.d.d.d.v.d.t.7.s.t.7.7.e.e.6.e.e.6.e.d.d.a.t.t.t.d.y.i.i.i.t.i.t.$.t.i.t.$.7.s.u.e.#.t.7...+.7.#.+...4.4.#.7.7.| e.i.u.*.t.#.$.&.t.t.7.+.t.e.7.7.d.i.i.t.a.y.i.g.i.d.6.7.d.t.7.7.e.7.t.t.a.t.t.d.n.n.v.c.n.c.d.i.i.d.M.v.v.n.v.d.n.n.D.H.M.D.M.P.n.e.g.z.s.r.e.t.t.t.n.d.t.n.M.n.n.n.M.M.n.M.M.d.t.t.a.a.a.n.U.M.M.M.M.P.M.n.n.u.d.D.s.p.p.p.s.a.g.Z.t.d.M.g.d.d.g.v.n.M.v.M.J.M.M.M.v.n.P.M.n.n.M.D.n.M.P.d.e.d.d.p.r.e.e.t.a.g.u.t.M.n.v.n.g.v.v.M.n.a.e.t.t.p.7.s.n.n.d.i.i.d.d.n.d.a.t.s.s.7.6.e.r.6.t.d.$.t.n.i.d.v.v.M.d.f.d.v.v.v.d.x.v.n.n.n.d.d.v.v.n.n.f.t.$.s.p.e.6.e.e.7.t.a.t.$.g.n.d.d.d.g.i.v.d.7.6.6.6.7.+.6.e.t.7.t.t.i.i.t.u.t.@.#.e.6.....+.+...6.+.| 7.7.#.t.t.6.t.t.e.7.t.*.t.i.i.q.t.i.y.t.t.#.7.t.t.t.6.@.a.e.+.4.7.@.+.7.0.6.7.a.t.7.#.e.7.6.t.7.+.| <.4.4.| 6.t.7.@.#.6.7.6.+.+.| _ ..} R ( ) R R ) R U _ | ` R T _ +.{ | +.+.| _ R { [ Q Q Q [ { Q Y R _ Q c U Q c x V l f S z x l c b b l S U V c U F f M C M d f U U V V F V l x x B C f M M M f f y M ",
"F S F A S B V Q ( R _ ` } ( ) _ { | 4.{ } { 4.6.6.+.| | 4.@.+.| @.+.#.#.` } +.| | ) R W R Q | ) _ | 6.7.6.@.4.7.t.6.<.4.6.4.4.4.+.7.t.7.7.7.t.t.t.t.+.@.6...| ..4.+...6.4.' +.$.t.t.t.t.t.t.t.y.y.t.t.a.a.t.t.t.y.d.d.s.e.e.a.d.6.7.s.r.6.9.6.6.6.a.t.@.t.n.i.i.a.d.d.g.s.e.e.r.r.r.7.e.t.t.i.v.d.i.i.d.c.n.t.e.d.p.e.e.r.r.7.e.p.6.7.n.i.d.i.t.y.i.i.i.u.d.i.i.t.t.t.t.e.7.7.s.t.t.7.t.t...4.6.+.#.4.6.4.#.t.e...e.t.u.u.t.e.*.u.u.7.6.6.e.e.t.7.e.t.a.i.i.i.u.d.u.d.#.7.d.t.7.7.7.6.t.t.a.t.t.d.d.i.v.n.n.n.M.n.d.n.M.n.M.v.v.n.n.n.n.M.P.H.n.m.M.t.Z.z.p.t.p.t.a.t.g.d.t.M.M.M.M.n.n.n.M.M.d.s.s.s.a.s.s.s.n.P.P.M.P.M.n.M.M.s.d.D.s.t.p.p.p.p.g.D.t.d.N.v.d.d.n.M.M.M.M.M.M.M.P.M.M.n.v.n.M.M.D.H.D.M.P.d.t.z.s.e.r.t.e.e.t.d.u.i.M.n.n.n.v.v.M.D.a.t.p.t.t.p.t.p.a.n.d.i.i.g.g.v.n.i.7.a.p.6.7.r.r.7.u.d.&.u.d.d.v.M.v.v.v.n.v.v.d.d.f.v.i.d.v.v.d.d.v.M.d.f.i.i.$.s.s.e.6.r.6.7.t.d.u.&.f.g.i.i.t.i.v.d.t.7.7.e.#.6.7.7.@.7.t.a.t.y.t.t.u.t.#.7.t.7...+.+.6.+.6.@.+.#.#.#.7.7.7.7.7.7.7.t.t.*.u.i.t.y.i.i.a.t.7.7.t.t.a.7.7.a.7.+.6.4.4.+.7.4...e.a.q.t.7.6.6.t.a.6.| 4.4.4.4.4...+.6.6.+.+.+.| | +.| _ | } ) ) ) R R ( ( T ) { { ` } } | +.4.+.| { { { } Q U H Q _ { W E U R Q S S W l x S x l x B l l U U b c V x l S U l f M A B M f M x z x x B B x V S B l B f d d m f n ",
"V F V B F B x W R R { ( _ ( ( Q | | o.+.{ _ | 4.+.| | +.+.+.+.| #.+.$.#.` { @.| ' ( _ R U _ | _ _ +.@.7.6.@.7.6.4...<.<.1.4.4.4...+.6.7.t.t.t.t.7.7.+.+.4.| +.| <.4.| ..4.{ #.t.$.$.t.t.t.t.i.t.$.$.t.t.a.d.t.t.t.a.a.t.t.a.d.a.7.6.s.r.6.4.0.7.6.t.p.@.t.d.i.i.i.d.g.d.e.7.t.t.0.r.e.e.t.7.7.u.d.i.i.d.i.n.a.t.d.e.e.r.7.r.7.r.p.+.t.g.y.d.a.t.t.i.d.i.u.i.d.i.t.t.t.7.7.e.t.s.7.t.t.7.t...4.#.+.#.+.7.+.+.t.t...e.$.*.t.t.t.u.t.t.6.6.6.6.7.p.t.6.6.a.d.d.y.i.i.t.d.7.q.a.t.6.6.6.6.e.e.d.t.t.d.i.d.n.n.n.n.M.n.M.M.n.n.M.n.M.n.n.v.M.M.M.v.v.m.D.7.Z.g.t.t.s.e.a.t.d.a.i.M.M.M.M.n.v.n.M.g.s.a.s.s.s.d.k.s.d.D.P.M.M.M.v.n.M.a.d.D.s.r.p.s.r.r.z.g.$.d.P.M.M.M.M.M.M.M.M.M.M.J.M.M.M.n.g.g.n.M.M.J.D.M.D.d.e.d.s.7.t.p.0.e.p.d.t.d.M.v.M.n.v.M.n.a.t.t.e.t.e.7.t.t.7.s.i.i.i.g.f.f.v.i.7.t.e.7.7.r.r.e.t.d.e.t.n.n.d.d.v.d.n.n.d.i.g.v.d.v.g.i.i.g.v.v.v.i.i.u.d.d.7.t.d.7.6.r.#.6.7.d.t.&.i.u.u.t.t.a.d.t.7.t.7.7.6.@.7.7.6.#.t.i.i.y.t.d.y.t.6.#.t.6.+.@.@.6.+.+.@.@.7.t.$.6.@.7.@.@.7.t.$.*.*.t.*.t.t.e.t.t.q.t.7.7.t.a.7.7.t.+.+.7.4.4.4.7.4.| 7.t.7.t.7.+.7.t.6.+.4.4.1.| 4.4.| | +.@.@.+.{ ..+.| } } | ) R R W ) Q W ) R H U R _ | _ { | | { { { | ` } { R R { [ Q Q Q c U W x V W h x S B f f B x h U b h c V h z S B f d M B M Z M M B U V V B F l x F l B M f d d m d y ",
"V Z V V A V S W U U Q { _ ( _ } +.+...| | | | } | | | @.+.+.+.+.+.#.#.7.' { +.| ` _ _ ( R _ | } { +.#.| +.6.7.+.+.4.4.1.| 4.6.4.6.+.+.6.t.t.7.#.#.7.+.@.6.| ........| +.4.| 7.t.t.7.7.t.t.t.t.t.7.t.t.i.a.d.a.t.t.i.i.y.i.a.i.a.7.7.s.r.4.6.9.7.6.u.t.@.t.n.d.d.d.n.d.p.7.0.r.t.t.r.e.e.r.e.7.e.t.d.c.f.v.n.u.e.d.e.e.r.r.e.e.p.p.7.a.d.d.n.d.y.t.d.d.i.i.d.i.i.t.t.e.e.7.u.n.d.t.t.u.u.t...+.6.+.#.6.7.6.#.t.t.+.t.&.$.$.t.e.e.#.7.7.e.7.6.e.t.e.e.7.7.t.n.i.d.i.d.v.7.t.d.e.@.6.7.6.7.t.a.e.t.d.d.d.M.n.n.n.M.m.M.M.M.M.M.v.v.v.n.n.D.D.n.d.v.m.D.t.Z.n.t.t.p.p.t.u.d.a.s.J.Q.n.M.M.n.n.d.s.s.s.s.s.k.k.k.k.s.s.D.U.M.M.n.M.M.d.d.D.s.p.p.p.p.p.d.d.&.g.P.M.P.M.M.v.n.M.n.M.M.M.M.M.M.M.v.v.n.M.D.J.M.M.P.a.t.d.s.e.r.p.t.r.s.g.u.d.P.M.n.M.J.n.a.t.t.t.e.e.r.t.p.a.p.t.t.d.d.v.d.M.v.u.7.a.7.e.7.7.r.7.t.g.t.u.M.v.d.v.d.g.d.d.i.d.v.v.i.n.M.g.i.d.d.n.d.d.i.=.v.d.e.a.d.6.6.r.7.6.#.u.u.&.i.i.u.u.d.g.t.e.e.t.t.e.6.#.#.7.7.7.#.t.c.d.u.d.d.i.$.$.t.7.+.+.6.6.+.#.@.+.t.t.t.t.@.7.t.#.@.t.$.t.t.7.$.t.t.e.@.#.t.t.t.7.t.a.#.@.6.+.4.6.6.4.+.7.4.| 6.t.t.7.#.7.7.4.+.6.6.4.| 1.1.4.4.| { 4.6.@.@.+.@.6.| } | _ R Q W W R _ _ R K T R R ( _ _ R _ { { | o.| { _ _ _ { [ _ { _ W R U l U W x x V B h l z c x c x f x c S W S f g C M B M B B B B F U U S V x c S l l M f d f d f f ",
"V x S B B V c R c U } _ _ ( } o.| } } ` | | | { +.{ { +.| | #.+.o.#.@.6.` { ..` | ( ) Q R { | ( | ..+.+.7.6.+.+.6.6.7.4.4.6.4.6.6.6.4.@.@.7.7.#.t.t.{ +.6.| | 1.| | | 6.4.` @.y.t.7.7.t.t.t.q.t.t.t.t.u.a.a.d.a.a.t.a.d.y.t.t.a.@.6.a.7.6.7.6.6.7.t.t.@.t.d.d.c.n.n.a.7.0.r.7.t.t.0.7.r.7.e.7.7.t.n.M.x.v.n.t.#.a.e.7.t.r.r.e.t.d.e.p.n.c.d.y.t.t.u.d.d.i.d.u.t.u.d.t.t.t.t.n.a.7.#.t.a.t.] #.e...+.6.+.6.#.t.7...$.$.*.*.t.$.#.#.6.6.e.6.6.e.7.7.t.7.#.$.a.v.v.y.d.n.7.7.a.7.6.+.r.6.#.t.s.$.t.v.M.n.n.n.n.n.n.M.M.v.v.M.v.d.d.v.M.n.M.M.n.v.M.M.M.7.d.d.t.t.t.p.t.t.n.s.t.M.P.M.P.Z.a.s.s.s.s.s.p.p.s.s.j.j.s.s.d.Z.U.M.M.M.M.i.d.n.a.p.p.s.s.p.d.a.e.n.P.M.M.M.v.g.d.d.n.M.n.M.M.M.M.M.M.n.v.M.J.J.M.M.H.a.t.n.a.7.r.r.p.e.a.n.t.u.M.M.M.J.n.s.t.t.t.e.t.7.t.a.t.p.a.t.e.t.d.v.v.v.v.t.t.s.7.r.7.0.r.7.s.d.$.t.n.d.v.d.d.n.d.i.i.M.n.d.d.c.n.n.d.d.u.x.v.n.u.i.d.a.7.i.t.#.7.7.6.7.#.u.t.$.i.f.u.f.d.d.7.7.e.e.7.e.#.@.4.7.7.e.7.e.t.d.x.u.d.i.#.$.t.#...4.6.@.+.7.+.+.t.t.t.t.#.t.a.#.+.6.7.t.e.#.#.e.t.7.@.@.7.t.t.7.t.t.+.+.6.+.4.4.6.4.+.e.7.| 6.a.7.7.7.6.4.+.4.6.6.+.| | | 4.4.<.| | +.7.7.+.@.7.| _ { } Q W Q W ( | ( H R _ } _ } 4.{ _ _ | ..{ { ` Q R ! _ ! ! _ R Q _ Q E V V E h B x l l h B z l z l V h S U S l B V Z f M B M l V M f l B V V x b V f f V y t d r n d ",
"V B F S U V S Q S W } { | { | { } _ { { | | ..| ..| | ` | +.+.o.+.+.#.7.` } +.| } ( ( ( ( } } ( { | @.7.r.4.| 4.6.6.4.6.5.6.7.6.6.6.6.4.6.4.#.7.t.a...+.6...| | 1.| | 7.7.| 6.t.t.t.t.t.t.t.t.t.u.t.t.u.a.a.a.a.i.a.a.i.i.t.t.u.6.6.a.e.6.9.6.6.7.u.t.#.t.d.d.n.g.s.r.0.r.r.7.e.r.e.r.p.t.7.7.r.e.a.n.M.v.v.t.$.d.p.e.r.r.r.e.d.n.t.a.n.i.t.t.y.t.t.i.n.d.d.i.i.u.i.i.i.t.i.i.u.e.e.7.t.t...7.t.+.#.#.6.+.#.t.e...$.t.d.t.7.#.6.+.6.#.7.7.7.7.e.7.t.e.e.7.7.d.n.d.g.D.e.7.a.e.6.6.7.7.$.t.s.$.t.n.M.n.n.n.M.M.M.M.n.d.n.n.v.i.i.g.n.v.M.M.M.n.M.m.M.7.d.d.t.t.t.p.t.i.n.d.u.n.Q.T.D.d.p.s.d.s.s.s.p.r.p.s.s.j.j.s.s.d.D.P.Q.Q.M.i.d.M.d.p.j.j.p.s.D.d.t.n.Q.M.M.M.n.M.d.d.n.M.M.n.M.M.M.M.M.M.M.M.M.M.M.M.M.d.t.M.d.e.r.p.r.p.d.n.t.u.M.M.P.M.t.e.s.s.t.t.t.t.p.a.a.s.a.a.p.t.t.n.M.v.v.t.t.d.p.7.0.r.0.7.s.d.$.t.g.g.v.n.n.M.d.d.d.v.M.v.i.c.c.n.c.v.i.d.f.v.d.v.n.i.#.t.d.7.7.r.7.7.&.i.*.&.i.i.v.M.d.e.e.t.e.e.7.7.6.7.6.7.7.7.7.7.7.t.v.i.i.u.#.$.t.#...4.6.@...7.#.+.7.t.$.t.t.t.t.t.@.@.t.e.+.@.7.t.7.e.$.6.6.e.t.$.t.t.+.@.t.4.1.4.4.4.@.t.t.+.6.t.t.t.7...| 4.4.4.4.4.| } <.4.4.4.1.| | +.#.7.7.4.} { +.{ _ [ [ ) { | ( K _ | | +.6.+...{ } +.| { _ R R R ) Q _ _ _ W W H U W V S R b c V M l x U z l S z c V V f f M F V V B B B M B Z B f t f V U c c V f f V f t t y t y ",
"F V V F U S T W T T Q } } { } { _ } | | { | | ` | @.+.` | +.+.| +.+.+.#.` ` 5.+.` ( ) R ( ' ` ( } { 7.7.+.| ..1.4.6.7.@.@.6.6.6.6.4.@.4.4.+.@.#.$.t.| | 7.+.} } 1.| ..t.6.{ @.t.t.t.t.t.7.q.t.t.e.t.t.t.a.s.t.t.d.a.i.a.y.i.t.t.t.6.a.a.4.9.9.6.6.u.t.#.t.g.d.d.p.e.r.r.7.7.e.e.7.r.t.t.r.7.7.r.0.e.s.d.v.n.t.7.g.d.e.7.r.7.7.g.n.e.t.a.u.t.t.d.y.t.u.d.d.i.i.d.u.u.d.i.t.t.i.t.u.a.t.t.t.+.7.a.$.+.+.6.+.$.t.7.+.u.i.u.t.#.#.7.6.+.+.+.6.7.7.t.7.e.t.a.7.7.t.d.n.d.D.7.#.a.t.@.4.7.7.#.t.i.@.u.v.v.n.n.n.D.M.M.n.v.n.d.d.g.i.t.d.n.M.M.n.M.D.v.M.D.7.d.n.t.r.p.t.e.g.P.a.t.n.P.D.d.s.d.a.a.s.s.s.p.r.p.s.k.j.j.j.j.s.d.D.P.Q.P.d.d.J.g.p.j.j.p.a.U.d.7.n.Q.M.v.v.M.P.M.v.v.M.v.i.v.M.n.n.M.m.m.M.v.M.P.M.M.d.t.n.M.t.7.p.r.t.M.n.t.i.n.n.n.a.t.a.a.s.u.s.a.s.t.p.s.s.t.p.a.a.t.u.d.v.n.i.t.d.s.6.0.0.9.7.d.d.#.t.v.v.d.n.v.v.v.v.d.g.M.d.t.i.M.c.i.v.v.i.u.v.n.d.n.t.#.u.g.e.6.7.r.#.t.i.*.&.u.i.v.d.t.e.t.t.7.7.t.7.e.t.7.#.7.6.7.t.7.$.t.y.i.t.+.#.t.7.....7.+.O.t.6.] 7.*.#.t.t.7.t.t.@.@.7.#...@.7.q.$.e.e.#.e.7.$.t.t.q.+.@.t.6.| 4.4...@.p.t.+.6.a.a.7.+.1.1.4.4...4.4.| 4.4.+.+.4...| } | +.@.@.| _ | 6.} ) } } ( ' | ( R { _ ` +.+.{ { | o.| } _ R T R Q ) R Q W R Q W c U E z V R b x S B f c W c h U S l S x a d B x l B M M M B l M C f y f M V b x S f f B M r 9 y r t ",
"U U S x B V R { R U ) R _ { | { { | ..| | ..{ { | +.@.o.+.+.#.@.@.+.+.#.' { 7.@...R ) W R } } R | +.+...| | 4...4.6.6.#.6.4.6.6.+.+.6.+.+.4.+.+.$.q.' | p.6.} } 1.| @.s.6.' #.t.t.t.q.$.#.q.t.t.t.t.t.u.a.t.t.t.a.a.a.a.d.i.t.a.e.6.d.d.7.6.7.6.7.d.a.#.t.n.i.e.7.t.t.r.7.e.t.p.t.p.t.r.7.7.r.r.r.r.7.t.n.M.a.e.n.n.p.e.7.7.t.n.n.7.e.a.t.i.i.d.i.i.u.i.t.t.i.i.u.i.d.a.t.i.t.t.u.a.t.u.t.+.7.v.t.+.6.6.#.t.i.e.+.f.d.*.#.7.$.$.#.7.+.@.#.7.e.e.e.t.t.a.t.t.7.t.d.v.D.#.#.d.t.7.+.7.6.7.a.d.#.u.v.d.v.M.n.M.n.n.d.n.n.v.u.d.d.g.d.n.v.n.n.M.M.D.m.D.t.g.D.a.e.p.r.t.M.Q.d.t.D.M.s.s.s.d.s.s.d.d.s.s.s.k.k.k.k.k.j.j.d.d.s.g.Q.Q.i.g.W.D.d.s.j.p.n./.d.e.n.P.M.n.v.n.M.M.v.n.M.d.i.v.M.n.n.M.M.P.M.v.M.P.M.P.d.t.M.P.a.e.r.t.i.M.M.t.u.M.v.d.t.a.d.s.s.a.a.a.a.t.s.t.p.p.a.a.a.a.t.t.v.m.a.e.n.g.r.9.r.6.e.D.d.e.i.n.n.v.n.v.v.v.n.d.n.v.i.t.d.n.v.d.v.M.d.u.v.n.d.i.t.#.d.v.a.#.6.6.e.u.d.*.&.d.f.t.e.t.a.t.t.e.e.7.t.e.t.t.7.6.6.7.e.7.t.7.t.d.i.+.#.t.t. .+.6.+.#.d.#.| 7.t.$.t.t.t.t.7.7.#.#.#.+.7.#.#.t.t.$.t.t.e.t.t.*.t.#.@.t.e.+.1.4.| #.a.7.+.e.a.6.+.4.8.4.1.1.4.4.4.4.4.4.4.+.+...| { ....| +.| } 4.7...) W Q R | ..( ( | { _ _ { { { +.o.| } Q W R ( W Q _ Q E W W Q W Q W V c ) S B B M f U Q b z E U S S B f M l l l M d f M B M C l M m M f B c c U f t V B d y t t M ",
"U W S h S U R _ H W _ R R ( { ` { { { | | | { { | o.| +.+.o.+.@.@.| +.@._ { @.$.#.( W R _ } _ ( } ..| | 4.4.1.4.4.+.4.6.@.6.7.@.#.@.@.4.+.+.....7.t.' } t.t.4.[ } 4.7.a.+.` 7.t.7.t.t.7.t.q.7.t.t.e.t.u.s.t.t.7.t.a.a.y.d.t.t.t.6.4.s.Z.p.4.4.e.d.n.t.6.t.g.u.7.e.t.0.r.r.r.r.t.t.t.r.7.7.r.0.r.t.r.7.e.a.n.d.7.d.M.d.p.6.e.g.n.a.@.r.s.t.i.t.i.x.u.y.i.t.i.t.u.i.i.i.i.t.i.t.i.t.t.i.i.t...7.v.u.#.+.6.e.u.i.t.+.t.t.$.$.e.#.#.7.7.#.6.7.7.e.e.t.u.t.a.t.t.e.e.t.d.d.+.#.a.a.s.+.+.+.t.d.t.+.t.n.v.v.n.d.d.d.n.d.v.n.d.t.i.v.M.v.n.v.d.v.M.M.M.M.M.t.d.P.M.t.e.e.d.M.M.a.t.D.n.s.s.d.s.d.s.s.s.s.d.k.k.d.s.k.s.s.k.d.s.a.a.M.P.d.g.T.W.D.p.p.d.P./.d.t.n.M.v.M.n.v.n.v.d.v.n.v.g.d.v.M.n.n.M.P.M.g.v.n.M.P.d.e.v.P.n.a.7.t.n.n.v.t.u.M.v.u.t.s.a.a.a.s.s.a.s.t.t.t.t.p.a.t.a.a.t.t.d.D.a.e.d.J.s.4.9.6.s.n.a.t.n.v.d.d.d.v.v.d.v.v.v.d.g.i.d.d.g.d.v.n.i.=.i.v.d.i.d.#.t.M.g.$.4.+.t.i.i.*.$.d.i.e.7.p.s.t.t.7.6.7.t.7.7.e.e.6.e.7.7.e.t.7.7.t.a.+.+.t.t.@.+.+.7.t.a.+.{ t.t.#.7.t.t.#.t.#.#.+.$.#.@.#.#.t.t.$.7.$.t.t.#.#.t.#.+.7.t.#.| <...q.i.6...t.t.+.| 4.6.4.| | 4.+.+.+.| 4.4.+.+...| ..| ..+.+.+.} | 7.6.( E W _ | { ( U } | _ ` | { | | o.| ` Q R U W W Q _ Q U U U Q W R U h z W U U l g x W E c c U c S V B B V f l B B B B f M B M d f m M f l l S F y t l x F l B f x ",
"W W U S ) R Q ( T U ) Q _ Q _ { ..| | } { | | } | +.+.@.@.` { { | +.@.#.' _ @.$.#.' R _ | | _ ) ..| | +.4.4.4.4.4.+.6.6.@.+.4.6.7.6.6.+.+.4.+.+.7.y.+.} t.i.t.4.| 7.t.t.+.| p.i.t.t.t.t.t.t.t.t.t.t.t.t.t.i.t.t.t.t.i.t.t.t.t.t.7.@.a.D.d.7.7.a.v.v.t.7.t.v.t.e.r.t.t.e.p.r.7.7.7.r.r.0.7.r.r.p.r.r.e.r.t.n.i.e.d.n.v.d.t.u.n.v.a.4.r.d.i.i.i.i.d.u.y.d.v.v.d.i.u.d.d.u.t.i.i.i.i.d.i.i.t.+.7.d.d.t.#.7.u.i.d.t.+.*.$.&.$.$.$.$.$.7.e.7.7.e.7.t.t.t.t.t.e.e.e.e.7.u.d.@.6.s.d.d.e.6.6.i.f.t.+.e.v.M.v.d.i.i.a.g.c.n.n.n.i.d.n.M.M.M.c.d.c.M.M.v.M.M.t.d.M.N.d.t.a.D.N.M.u.t.J.D.s.s.s.s.s.s.p.p.s.d.s.s.s.d.s.s.s.k.d.s.s.s.n.P.g.g.W..XT.z.s.D.Q.W.d.t.v.M.n.M.n.n.n.v.g.v.v.n.v.g.n.v.n.M.P.P.n.v.n.n.M.M.d.e.g.M.M.n.d.v.m.b.v.e.u.P.n.s.s.s.s.a.d.s.s.a.a.s.a.t.s.s.a.a.s.a.p.a.d.H.g.e.g.Q.n.7.6.e.n.v.p.e.n.d.i.u.d.n.n.v.n.n.v.d.d.d.g.d.v.d.n.d.i.u.i.u.v.v.g.7.i.M.v.t.7.e.d.i.d.&.&.d.u.e.e.t.s.a.t.7.7.7.t.e.t.7.e.7.t.t.t.t.t.e.7.t.a.+.+.t.i.t.7.7.d.d.y.| | t.t.7.e.7.7.t.t.e.6.#.$.$.t.#.@.#.7.7.t.t.t.$.+.@.t.#.+.7.t.7.4.4.t.t.t.6.+.t.t.+.4.4.4.4.| o.4.4.@.+.| | ..+.4.+.+.+.+.+.| @.6.} | t.7.| ) ) } | | ) b _ } ` _ ` | +.| } { { { ) U W { _ _ Q U U S U c k c x x Y Q Q U U b R U c x E U x B F x B B V x x V B f M B M f m d f M M f x V y w f x U S S x V ",
"U U Q R T _ R Q T c E _ { Q Q _ | } _ _ ..{ | } } +.5.+.+.| ` } 4.@.+.6.{ _ +.+.@.] | +.` | ` _ 4.| { 4.1.4.4.+.4.4.6.+.+.+.@.4.6.6.@.+.4.+.+.+.#.y.+.} 7.t.t.7.6.7.t.t.{ { 7.t.t.q.t.t.t.t.t.q.t.t.t.t.t.i.i.t.7.t.i.t.t.t.t.t.6.@.t.n.c.a.a.v.i.d.t.#.a.g.t.r.p.t.t.p.r.0.7.7.r.p.7.r.7.0.p.t.e.r.7.e.t.g.i.$.d.v.d.g.d.g.f.d.a.4.p.d.i.y.u.d.i.t.t.u.c.d.d.t.t.i.i.t.t.d.i.u.i.a.t.t.a.@.#.t.i.u.7.u.u.=.f.$.+.t.*.*.#.#.$.$.#.e.7.e.6.7.7.e.7.7.t.e.7.t.7.e.7.t.s.+.6.s.u.d.i.t.t.u.f.t.O.t.d.v.n.d.a.d.d.a.n.c.v.M.v.n.v.n.n.M.c.v.g.n.M.M.n.D.t.a.M.M.n.d.n.M.m.M.t.t.C.D.s.p.s.s.s.a.p.p.p.s.s.d.s.a.p.s.s.s.s.s.p.t.g.J.s.g.T.Q.Q.P.D.P.M.P.d.t.v.M.n.n.n.n.n.d.i.n.n.g.g.d.g.f.n.M.M.M.g.n.D.M.v.M.d.e.d.M.m.M.M.n.v.b.v.e.d.J.g.s.a.d.s.s.a.a.d.a.s.a.a.t.s.s.p.a.a.p.s.p.a.J.g.#.u.M.v.d.t.a.v.d.7.6.d.n.d.i.g.d.g.v.n.d.d.d.v.i.g.v.d.d.v.t.=.i.i.t.u.n.d.7.i.n.v.v.v.i.i.u.d.$.$.d.u.6.e.e.t.t.7.7.7.7.7.t.t.$.7.e.7.t.t.7.7.7.t.i.a...+.t.y.i.n.c.d.=.t.| 4.t.t.t.7.#.e.t.7.7.t.7.+.6.e.#.+.@.7.7.7.7.$.+.#.%.t.@.+.#.q.q.t.q.t.t.7...+.7.t.6...1.4.+.4.5.4.4.o.+.4.+.....o.+...+.@...{ @.6.| ' +.@...| } _ | | T c U _ { ! _ { | _ R R { } ) ) _ { { Q E Y R V B S c U F l U T R _ W c H W x x E S V M B f d M B V S x B x l M l f l y f B M t f B f w M x S V z V S ",
"W T R T W ( R _ R c T R ` _ } R _ R _ _ | | ..{ } | +.+.+...| | @.#.6.t.| ` +.+.@.+.+.] _ | ' } 6.+.| ..4...+.+.4.6.6.+.+.+.4.+.+.+.+.4.4.4.+.+.$.a.+.] 7.7.t.t.7.7.t.t.| | 7.#.#.e.t.t.t.t.@.#.t.t.t.t.t.t.q.t.t.y.a.t.t.t.t.a.7.4.t.d.d.c.c.d.i.i.t.6.a.g.p.7.r.t.a.s.t.0.r.t.p.p.t.e.7.0.e.p.p.r.7.e.t.n.i.7.d.n.v.v.d.d.d.v.a.4.s.d.u.d.i.x.i.u.t.i.u.u.t.t.t.i.t.t.t.d.i.t.e.t.u.d.t.+.#.t.*.i.i.g.u.u.u.&.#.u.u.&.#.#.#.&.e.t.7.e.7.7.7.7.7.e.7.e.e.e.t.t.e.e.u.+.6.u.t.u.t.i.i.u.i.t.O.t.d.v.v.v.v.Z.g.v.c.v.n.n.n.n.n.n.g.v.n.M.v.M.M.M.M.M.t.a.M.m.n.M.M.M.m.M.t.t.U.D.s.p.s.s.s.p.a.s.p.s.k.d.s.a.p.s.s.s.s.a.p.p.g.J.s.u.P.M.N.P.Q.M.m.M.d.t.n.M.n.M.M.n.v.v.f.v.n.f.i.u.d.n.n.n.n.v.n.M.M.M.M.M.d.e.g.M.M.M.M.n.v.m.v.e.d.P.g.s.a.d.s.a.d.d.d.d.a.s.a.a.a.s.s.p.s.a.a.p.a.D.d.#.a.g.v.d.d.d.d.i.t.#.a.M.d.d.v.n.g.i.i.a.g.d.v.d.g.v.c.n.d.i.t.g.g.t.u.i.a.$.i.v.v.v.M.x.d.;.d.$.$.d.i.e.7.t.t.7.7.7.t.7.r.e.t.t.t.t.t.7.7.7.t.7.t.i.n.+.+.y.i.i.v.c.i.=.t...6.p.t.e.7.e.t.q.t.t.t.#.#.@.6.7.@.#.7.*.t.t.$.@.t.t.t.@...$.t.t.t.q.@.$.t.4...t.a.e.6.1...+.7.7.4.4.+.4.4.4.4.......| | | | | +.7...' { | ..| | { | ` T b T ( _ _ ` _ ( R R T Q Q U Q _ Q _ R W U W S S V S Q S x W U U Q E S U W x x W U B M m f l f l B S F A B M f l l l B B B M f f B f M A x V x V S U ",
"W T U T R U R _ W x R H _ ` _ R R _ | _ { | { { | { | +.o.| 4.+.| @.7.7.` ` #.+.+.+.' ^ ' | _ | +.+.| | 4.....4.4.4.4.+.6.@.+.4.+.+.4.4.4.4...+.7.t.| _ #.$.7.7.#.7.t.7.| { 7.t.7.7.7.t.y.t.7.#.7.t.t.t.q.$.q.q.t.t.t.t.t.t.q.t.7.@.t.a.i.v.d.d.i.i.t.6.p.d.t.7.0.r.p.t.r.7.r.p.0.e.e.0.0.7.7.t.r.t.7.7.a.n.i.7.d.M.v.x.f.u.i.v.7.4.s.d.t.v.i.i.d.i.t.u.d.u.t.i.i.i.t.e.t.a.d.u.t.t.t.u.t...7.t.&.i.i.f.d.=.u.t.+.u.u.$.$.#.@.e.t.t.7.7.7.7.6.6.7.e.7.7.7.7.e.t.7.t.d.7.#.t.u.u.*.i.u.;.;.u.O.$.v.v.d.n.n.c.n.d.d.n.c.v.v.v.v.v.d.v.v.n.M.H.n.n.M.M.t.a.M.n.n.M.M.n.m.M.t.7.U.n.p.p.t.p.s.s.a.a.s.s.s.d.s.s.s.s.s.s.a.t.p.p.g.P.t.t.D.Q.M.M.P.M.n.Q.d.t.n.M.n.M.n.M.n.d.d.d.v.d.t.i.v.n.n.v.n.v.M.M.M.M.D.M.a.t.n.n.n.M.n.n.v.v.v.7.i.P.d.t.s.s.d.a.d.s.a.d.t.a.s.a.s.s.s.t.e.p.r.p.a.Z.d.#.a.n.f.i.d.v.i.i.s.+.t.n.d.d.d.M.d.i.i.s.g.d.d.i.i.d.d.c.d.i.v.d.d.i.t.u.d.#.t.v.v.d.v.v.x.;.i.#.#.a.u.e.7.r.t.7.p.7.r.e.7.7.t.t.t.7.7.6.7.6.e.7.7.i.d.+.@.d.d.t.i.d.t.y.a.+.+.s.t.#.t.t.t.t.t.e.6.@.6.$.7.#.$.$.$.%.t.$.+.#.t.t.t.+.| 6.t.t.7.$.$.t.t.4.} 6.t.6.1.| ....1.4...| 4.4...4.4.4.{ ' | } | ..` +.7.| ' | ....` | } ` { W c W W Q R R _ R { } R Q Q c U _ R R Q W I b U U x S E V x U R U U U U R E S h E S f M B M B f B f B F A f f f M f B B B f f d l l f M M f l x U F Z ",
"W R R H W T ( _ T c W R _ ` ( R ( ( { } | { { } 4.| +.| +.+.+...+.+.+.@.{ } @.#.+...` _ | ] | _ 4.+.| 4.4.4.4.4.6.4.4.4.6.6.4.6.4.4.6.4.4.4.+.+.6.7.} } 6.$.#.@.7.e.q.t.4.| 7.t.t.q.t.t.t.i.t.t.t.t.t.t.7.q.a.y.y.t.t.t.t.t.t.t.6.4.p.i.i.c.d.i.u.i.t.+.p.g.e.6.0.r.e.7.0.r.r.r.7.e.7.0.t.7.7.t.p.p.0.r.s.M.d.e.g.M.v.v.d.d.f.n.a.7.s.d.c.M.i.u.u.i.t.i.i.d.i.i.i.g.i.t.u.v.d.g.a.d.t.i.t.+.e.i.u.u.u.i.u.u.f.t.@.i.u.$.$.7.7.e.e.u.t.t.7.e.7.7.7.e.e.e.7.e.e.e.7.t.D.t.e.s.u.u.u.u.t.=.v.t.O.&.d.v.v.c.n.D.d.d.i.i.d.v.d.v.v.v.d.n.c.v.n.n.D.J.n.n.t.a.M.M.n.M.M.M.m.P.t.e.D.n.s.p.p.p.p.s.s.s.s.a.s.s.d.d.s.s.s.a.p.p.p.p.n.T.s.u.P.Q.N.M.P.M.M.Q.n.t.n.P.M.n.M.N.n.v.f.f.d.i.t.d.M.M.n.M.M.n.M.M.J.P.D.M.d.t.n.M.n.M.n.n.n.M.n.e.u.Q.g.a.s.s.d.a.s.s.a.s.s.a.s.s.s.s.p.e.t.t.r.p.a.D.d.7.a.n.g.d.g.d.d.d.d.@.e.d.d.d.d.g.c.d.n.d.g.g.d.t.t.d.n.d.n.i.x.v.v.d.i.i.d.e.t.n.v.v.v.v.x.v.c.$.$.v.i.e.t.p.t.p.a.p.p.a.t.7.7.e.s.t.7.6.7.7.7.7.e.i.d.+.6.d.d.u.i.i.t.u.d.4.6.t.*.t.t.t.s.t.7.@.+.6.t.y.t.7.#.$.t.%.#.#.#.#.7.t.7.....7.t.t.7.7.t.t.s.6...6.e.+.} ..+.| | | | ..4.+.+.4.6...} { } | ......@.7.| } 4.+...| | ` _ } R b R Q R T R ( _ } { _ | { c U _ R T _ Q U H U U U W E S c W U U S U U W Q U f S l d C B f B B B x V x l f f M M f m t f d f f l l f w t f B V E U F ",
"W R W U ) T U ) U c E ( R _ ( R { Q Q { | { | | 4.4.| } { +.| | @.| | 6.} { +.+.+.] | _ _ | ' ( | +.4.+.4.4.4...4.4.4.4.4.6.6.4.4.4.4.4.6.4.+...#.7.| | 7.@.#.@.#.t.7.t.+.{ 6.t.t.t.$.t.t.t.t.t.7.7.7.7.t.a.t.t.t.7.t.t.t.t.i.t.+.+.a.d.y.i.d.i.t.g.t...7.d.7.6.r.0.7.7.0.r.0.0.e.7.e.t.0.r.7.0.p.t.0.7.t.M.a.7.n.M.v.x.d.v.d.v.a.7.a.v.d.d.u.=.i.d.t.=.d.x.u.i.i.i.d.d.i.i.d.d.i.d.i.t.t.+.7.g.u.t.u.u.*.i.d.7.#.d.u.*.#.e.e.$.7.t.t.t.e.7.7.e.7.7.t.t.7.$.$.t.7.t.D.e.e.g.u.u.u.u.=.=.x.t.O.$.d.v.d.v.n.n.g.i.y.d.d.d.i.d.d.v.d.a.d.n.a.d.g.n.d.d.t.s.M.M.M.M.v.M.M.M.e.7.Z.n.p.p.p.r.t.p.s.s.a.s.s.s.s.s.s.s.p.p.p.s.p.p.n.T.s.s.H.M.M.M.M.M.M.Q.c.t.n.Q.M.n.f.g.M.M.d.d.d.t.t.d.n.n.n.n.n.M.M.M.J.J.n.v.s.e.n.M.v.v.n.g.n.M.n.7.t.D.u.t.s.s.s.s.a.s.s.a.a.p.p.s.s.s.t.t.t.t.s.t.d.D.a.7.d.n.d.d.d.i.v.i.s.6.7.g.v.i.d.i.d.d.n.n.i.n.d.t.u.n.d.d.i.t.t.d.v.i.n.d.i.$.i.n.d.v.x.i.i.v.c.#.#.v.t.7.s.r.p.e.t.a.a.a.t.7.e.t.t.t.7.6.7.7.6.7.$.t.c.+.6.d.y.i.i.t.i.i.a.| +.t.a.q.t.t.t.e.7.+.4.6.t.t.$.#.#.#.$.$.#.#.t.%.#.$.#.| ..7.$.#.t.t.7.t.t.4...6.t.+.| +.+.+.4.+.+.1.| 1.+.+.4.| | } } ..| | | @.6.` ' 4.+.| ..` _ ` _ R c R _ R R Q R { _ { { | } b c Q R H Q R U c c W U T V f c R b c V W c S Q S f x l l B B f l B B V x l l l B f f f y t t f M y f V f f l B E V V E U ",
"Q W U W ( R W R U S R Q ( _ ` _ _ _ _ ( } { } } | { _ _ { | +.+.4.+.+.6.} { 4.+.] ] .._ ` | _ R | +.+.4.4.4.+.+.4.4.4.1.4.6.6.4.4.4.4.4.4.4.4...7.a.4.| 7.t.7.#.6.7.t.t.+.| #.t.u.t.t.t.t.t.t.t.e.7.#.7.t.a.t.t.7.7.t.t.t.t.a.t.+.+.t.d.i.t.y.i.i.d.e.| 7.d.7.7.r.0.7.e.0.0.r.r.0.e.r.t.t.r.r.e.e.e.e.e.t.M.a.$.d.M.v.d.d.x.v.n.t.7.s.d.u.d.u.i.d.c.y.t.i.i.v.f.i.d.v.v.u.t.t.d.d.a.i.i.t.+.e.d.i.u.*.u.u.i.i.$.#.v.v.y.e.t.e.t.7.7.7.t.t.7.e.t.t.t.t.t.7.$.e.t.e.t.g.$.7.a.d.d.u.u.u.d.u.t.@.*.d.d.d.M.M.D.n.d.d.n.v.d.i.d.c.n.g.a.i.v.v.d.a.d.d.d.t.s.n.M.n.M.v.M.M.n.e.7.D.D.a.r.p.t.r.r.p.s.s.s.s.s.s.s.p.t.p.p.a.a.a.u.v.W.d.u.P.M.n.M.D.P.M.Q.g.t.M.Q.M.M.d.u.i.d.f.d.d.u.t.u.g.v.v.g.M.M.M.M.M.M.v.n.d.t.n.M.v.v.n.v.M.M.g.7.t.n.t.e.s.a.s.p.s.s.a.a.s.a.a.p.s.a.a.p.p.s.a.a.d.D.d.e.d.M.f.d.i.d.n.d.a.7.t.n.v.c.i.a.d.i.d.d.d.n.d.i.a.v.n.i.t.t.u.u.d.v.v.v.a.7.u.v.d.d.d.i.x.x.v.#.#.i.t.7.t.p.p.t.t.t.t.t.t.t.s.t.a.t.t.e.e.6.7.7.$.t.n.#.7.d.d.i.y.t.d.d.t.| | t.d.y.u.t.t.6.7.6.7.@.6.@.+.@.7.7.7.#.$.t.t.*.t.$.6.| ..$.*.$.7.7.t.t.t.6.| 7.t.@.| ..6.4.4.4.4.+.1...+.+...| | +.4.+.+.+.] @.7.] | 6.+.| { ` ' | ` W K _ _ R R _ ( _ { | +.o._ U S R T T T R c c S U S S x y x W U c z U c S W F l V S x B V l M M V S x f V x x l l f y t d d f f l V d f U U U U E E U ",
"U R Q T W R ) S x S W R _ Q _ ( _ { ` Q | } _ _ | { | { | { { +.4.4.@.@.` _ | | +.` ' ( _ ( R W 1...} 4.4.| 4.4.4.4.<.4.4.4.4.+.6.4.4.4.4.4.4.4.7.s.4.} 6.e.7.#.7.7.q.e.| } t.t.t.t.t.q.7.t.7.7.t.t.t.t.7.t.t.7.t.t.t.t.t.t.t.e.+.4.7.t.d.t.t.u.i.t.4.| e.d.7.7.7.0.7.6.7.0.r.0.7.r.r.0.s.t.7.7.t.t.7.e.a.n.a.7.t.a.c.v.i.d.M.d.6.7.a.i.v.d.d.v.d.d.d.=.t.v.d.d.d.g.i.a.t.e.t.u.i.t.t.i.t.+.7.t.i.t.*.u.u.u.t.7.+.d.v.t.e.7.7.t.7.e.7.e.7.t.7.e.t.a.t.t.7.t.$.e.e.t.u.#.#.t.i.i.=.u.y.d.&.$.#.t.i.n.v.v.n.M.n.M.M.v.M.d.t.u.d.d.a.i.a.M.M.v.s.a.a.d.t.s.d.M.n.v.n.M.v.n.t.e.D.D.s.r.r.p.t.r.p.p.s.s.p.p.p.t.r.r.r.p.p.p.p.u.n.W.s.t.n.v.f.M.M.M.M.n.i.t.v.M.M.M.M.f.u.u.i.i.i.u.t.i.d.d.d.M.n.v.M.M.M.n.M.n.d.e.d.n.M.v.g.n.M.d.s.e.t.J.d.e.p.s.s.p.s.s.a.s.a.a.p.t.p.t.a.p.a.p.p.s.d.D.d.$.a.v.v.i.d.d.v.d.e.6.u.v.v.d.t.d.n.a.a.d.d.i.n.d.i.v.i.t.d.a.d.u.g.v.i.g.a.#.e.i.v.u.i.u.v.i.t.@.+.i.u.7.6.t.t.t.e.e.p.e.t.a.t.a.t.e.t.t.e.7.7.6.t.i.c.#.6.y.i.y.i.y.i.d.#...+.6.t.a.t.t.t.7.t.q.#.6.+.| 7.7.7.#.@.+.#.t.*.*.i.7.#.+.| @.t.$.#.$.t.t.@.+...6.e.+.| ..| ....| 4.+.4.+...| ..| | 4.+.| | ..| +.6...{ +...` { { ` | _ H R _ _ ` R ( _ _ _ { { { U U W W c b U U S S U U W F x l y V U c x V S S l f l E V l A B f f l V x l l l l l x l y f f f y y f x B w f U V V U W U V ",
"U W Q Q R R W x l V R Q ( R R ( _ _ { { +.o.| { { | 4.+.@.+.+.+.4.| | 4.{ _ } ` +.| | _ ) W W ) 6.1.| | 1.4.4.4.6.4.4.4.4.1.4.4.4.4.4.4.4.4.4.4.7.a.6.| ..#.e.t.t.7.6.4.{ } e.t.t.t.t.t.e.t.t.t.y.i.i.t.t.t.t.q.t.t.t.t.i.t.t.t.4.4.6.e.i.i.t.i.t.e.4.4.t.a.7.6.7.7.6.6.7.t.e.r.r.0.e.p.r.r.7.7.r.t.7.7.a.D.a.7.t.t.i.d.d.n.d.t.t.p.a.d.d.d.d.v.d.n.v.i.d.v.d.d.i.i.u.a.t.t.t.a.a.a.i.d.t.+.e.$.*.i.u.u.u.t.$.e.#.d.i.e.7.t.e.e.e.t.7.e.e.t.7.p.e.e.7.7.7.t.7.e.$.t.u.#.7.e.$.t.t.f.d.t.#.$.#.t.d.n.v.d.u.c.n.M.v.M.v.t.e.d.d.y.u.v.n.M.v.n.d.d.d.d.t.a.i.v.n.M.n.d.*.n.a.t.D.P.s.t.t.p.t.p.t.p.s.s.p.p.p.r.r.t.t.p.a.p.p.s.n.T.u.t.n.t.u.M.M.M.g.u.t.t.v.M.M.M.M.n.v.g.i.i.i.t.i.v.v.v.v.v.n.M.M.M.M.n.M.P.d.e.s.i.M.M.v.n.g.t.s.s.i.T.d.p.s.s.a.p.a.p.s.a.s.p.p.p.p.p.a.t.s.t.t.t.d.J.d.$.u.i.d.i.v.v.d.e.e.7.u.v.v.i.i.d.n.g.g.d.d.n.d.i.g.g.t.y.g.d.d.i.g.d.g.d.t.#.t.t.d.d.v.u.d.t.7.6.@.d.a.7.7.7.p.t.t.t.p.t.p.e.t.t.t.t.t.t.t.t.t.$.%.i.n.7.7.y.t.y.d.i.i.t.6.4.7.#.t.t.t.t.t.t.q.7.t.t.+.+.e.*.7.+.+.#.*.@.$.*.t.t.#.+.+...+.7.t.t.7.+.+.4...6.e.+...1.| } } { 1.4.....| ....| ..} } } } ....+.6.+.{ _ ` | | +.{ _ T H R ` { { ` { _ { ..} Q U W R T W S b W U c U W U R W V l y l x S S F c c y d f F S S V B f f l B x x l l f l l l f f M f d d d l B t t V U W U E F B ",
"S V W Q R U S l V z Q W R T T R _ Q _ | | 4.| [ { { | +.o.+.4.| { { +.4.{ } 4._ } ..} ( R Q ) _ 4.7.| } 4.<.4.4.4.4.4.1.2.1.<.1.4.4.4.+.4.4.4.4.7.t.+.| ..| #.7.7.@.6.7.{ | 7.t.i.t.t.*.t.t.y.a.t.t.y.t.y.t.t.t.q.t.t.t.a.t.t.t.@.4.r.6.6.a.i.t.#.$.t.4.7.i.7.4.7.7.6.7.7.7.r.t.0.7.7.0.7.7.7.r.7.r.7.6.a.D.t.7.d.s.7.t.a.d.t.7.d.s.t.g.i.i.i.i.d.v.v.d.u.d.d.t.t.u.i.i.i.d.a.i.y.d.t.u.t...t.t.O.t.t.t.7.$.7.7.#.i.d.$.t.t.7.7.t.t.t.t.7.e.t.7.7.7.6.e.7.7.7.7.#.$.t.6.#.e.#.$.$.u.u.e.+.e.#.&.d.n.d.u.i.d.d.v.d.v.d.t.t.a.d.i.d.M.n.c.v.n.d.n.n.s.7.d.n.t.i.m.M.t.*.D.a.e.D.M.t.p.p.r.p.p.t.p.p.t.s.p.p.p.r.p.p.t.p.s.p.t.n.J.e.t.g.e.$.g.M.n.t.t.d.t.d.M.n.g.i.i.g.i.i.g.u.t.i.g.v.v.v.d.n.M.M.n.M.M.M.M.d.t.g.g.u.n.M.g.t.t.n.t.d.U.d.a.s.p.p.p.p.e.a.p.a.p.t.e.t.a.t.a.t.s.a.t.i.D.i.$.d.t.e.t.d.n.t.#.p.7.e.n.d.i.d.a.d.d.n.i.d.v.d.u.d.i.t.d.d.i.d.d.d.d.g.i.7.7.d.7.7.d.d.i.t.#.t.7.+.d.t.7.0.6.7.7.p.e.e.t.t.7.7.7.t.t.e.t.t.t.7.#.#.u.c.6.7.a.$.7.t.d.d.#.7.7.+.7.7.#.t.t.t.t.q.#.t.t.+.| 7.t.+.....#.t.$.%.$.@.t.@.| #.| ' +.7.e.+.' @.4.` @.t.+.| 1.| } | } } | 1.| | 1.| | | _ ( { } { } @.6.| _ R R _ } | | R H W K ` | ` o.| | 4.6.+._ U W Q S V U _ _ W z U Q U R E x f B B y A S B B x V Z d V W c B f l B f l B x f B l d t f f M y f f f t f V f t l S U U V x B ",
"Z V U F W S S U U S Q Q W R ) R _ _ _ | | { } { } _ } | { +.6.| { { 4.7.[ } 4.<.} ) _ Q Q [ } { 4.4.<.<.4.4.4.4.4.4.4.1.4.4.<.<.4.4.4.4.4.4.4.+.7.t.+.+.7.+.+.+.@.@.7.t.+.| t.i.i.i.t.t.a.i.i.t.t.a.y.t.t.a.a.t.t.t.t.t.t.t.t.t.6.4.t.t.#.6.t.7.+.t.t.@.7.i.7.4.7.6.7.7.7.0.7.7.7.t.7.7.7.r.7.r.7.e.0.7.s.M.a.7.d.g.t.e.t.s.e.a.Z.p.t.d.i.d.g.d.g.g.d.d.i.i.t.t.t.d.d.i.i.d.d.g.d.i.u.u.t...t.t.$.#.#.t.7.7.u.e.+.d.d.t.e.p.t.t.t.a.t.t.7.a.s.e.6.7.e.e.7.7.7.6.#.7.p.7.#.e.e.6...e.7.t.t.t.#.t.d.d.i.d.d.g.d.d.v.g.d.a.g.n.v.v.v.n.n.n.v.n.n.n.D.Z.7.a.D.d.t.M.n.*.d.D.a.t.D.M.u.p.p.t.t.p.p.s.t.t.d.d.p.p.s.s.p.p.p.s.p.t.g.M.e.u.D.a.&.d.n.i.t.n.g.t.g.M.f.i.i.g.d.t.t.u.d.d.d.d.v.v.v.v.m.M.M.v.M.M.M.M.d.e.n.U.p.u.J.d.t.d.n.t.d.W.g.p.a.p.p.p.a.p.t.e.t.s.t.e.p.p.a.a.t.a.p.t.a.n.i.t.n.d.e.#.d.g.t.7.s.e.t.v.d.d.v.d.g.i.d.d.d.n.g.u.g.i.i.v.g.d.d.v.M.n.d.d.e.7.z.t.7.$.a.u.*.#.g.t.+.d.d.e.r.6.7.7.a.t.p.t.e.7.7.q.t.t.t.t.7.7.#.#.e.t.c.#.6.a.t.@.7.d.t.@.t.7.+.7.e.7.t.t.t.t.t.$.t.t.$.+.7.$.+. .@.7.*.t.t.#.+.q.6.| +.4...} ..4.+.+.7.#.' @.t.+.| } | | ..| } ....+...{ | 1.} _ _ } | { ` @.6.} _ _ R R ( | { R Q ( K ` ` ` | +.5.4.4.4.{ _ Q ) U c W | } ) U T T Q R E B h V W F B l B d V W U h F W V l l x B f l l l l V V f t d M l y d f m t l F l f B l B B B x Z ",
"E E V B A x S [ R V E ) U R _ R R _ _ _ { ! { { } { { { @.+.4.+.| 4.+.6.} [ <.4.4.Q Q W Q <._ R 4.4.} <.<.4.4.4.4.<.<.4.7.t.4.<.<.4.4.4.4.4.4...7.t.| ..p.t.#.{ | 6.7.7.@.| t.a.t.t.t.i.t.t.t.t.t.t.y.t.e.t.a.t.t.t.t.t.t.t.i.t.+.+.t.d.t.+.+.+.+.t.7.+.7.i.6.+.6.7.6.7.q.7.6.6.a.d.a.7.6.r.7.7.r.r.7.7.p.n.t.7.a.d.d.e.6.e.t.n.s.7.7.a.d.i.i.g.d.d.d.g.i.a.t.y.t.a.a.i.i.d.g.v.a.u.i.d.t.| 6.t.t.$.+.6.7.t.t.7.@.a.a.t.7.t.a.a.t.s.7.7.t.i.d.t.6.7.7.7.7.7.#.7.7.7.t.#.+.s.u.#...6.6.i.u.e.@.$.d.t.i.n.d.i.d.d.i.v.d.i.g.n.d.v.d.v.n.M.v.M.n.d.M.D.7.a.M.M.$.a.a.i.D.d.a.t.D.D.a.0.p.p.0.p.p.p.r.a.M.M.s.r.p.p.t.p.p.r.r.t.d.D.t.t.D.M.i.t.t.i.n.M.u.e.d.g.i.i.v.M.M.d.t.d.n.d.d.d.d.x.v.M.m.n.v.v.M.n.M.M.d.7.d.W.n.p.d.d.v.d.d.t.d.P.d.p.p.a.a.r.a.p.r.7.i.M.a.7.7.a.p.t.s.t.t.e.y.D.t.#.d.M.t.+.7.a.u.i.a.#.t.g.g.i.d.v.d.i.d.a.d.n.d.i.i.i.n.i.d.d.d.d.v.n.i.a.7.6.a.d.t.+.t.#.&.q.a.7.+.d.a.7.6.0.7.7.0.p.p.7.7.a.a.t.7.t.t.7.7.6.e.7.#.t.d.@.@.a.a.@.@.7.7.7.t.@.| q.a.t.q.i.t.q.t.%.$.t.t.@.+.@.+. .$.$.$.t.$.@.7.q.@.{ ..@.7.@...| ..7.#.+.` +.7.+.} { | | | ..| ' +.6.@.} } } } _ } } } ..` ..4._ { | _ T T R ( { { Q K _ ` ` ` | 4.+.o.| | { Q R W W Q Q _ Q W R U Q T b V B f U R z f l f V Z B h S S l l x f l l f f l x x V l y d M M y f y y y x V l l V f d t y V Z ",
"E ) Q Z Z U ) ) W S Q R R ( } _ [ _ _ R _ _ } { | } _ { +.4.6.4.+.@.6.7.<.[ <.} 4.<.[ R ) } ) R ..6.<.,.<.2.4.4.4.1.<.7.t.t.7.3.| 1.4.4.4.4.4.+.e.s.+.| 7.q.7...+.q.6.6.6.4.t.q.$.t.t.i.i.t.7.e.s.a.a.t.t.t.7.t.t.t.t.t.t.t.i.u.6.@.t.i.a.e.4.7.t.u.7...7.d.7.+.7.7.6.7.7.7.6.t.d.d.d.t.6.7.e.r.e.r.7.7.t.J.i.7.s.g.g.s.7.s.d.d.a.6.7.d.d.d.d.n.v.v.v.d.g.g.i.d.t.d.t.d.d.n.d.d.i.i.d.d.t...7.t.t.i.7.7.d.d.t.e.6.a.d.a.e.p.t.a.a.t.e.a.d.v.i.d.t.e.7.t.e.7.7.e.7.t.u.7.+.t.i.u.#.@.t.d.*.e.#.e.u.i.d.n.v.g.i.i.d.n.g.i.i.v.v.v.v.M.n.n.v.M.M.v.M.D.7.s.d.M.d.t.a.M.M.s.a.t.D.J.t.r.0.p.p.s.p.r.s.M.M.M.n.s.r.p.p.p.r.r.r.t.n.P.p.t.D.P.n.u.t.n.M.v.i.&.i.g.i.v.n.m.M.n.v.n.M.d.d.d.d.g.v.M.n.v.c.n.M.M.v.M.d.e.g.M.Q.n.s.n.Q.v.g.u.d.P.g.p.p.a.s.a.s.p.p.i.n.M.M.a.e.t.a.a.a.t.t.7.a.D.u.#.s.d.d.7.6.s.v.g.a.6.t.M.n.d.d.d.g.d.g.u.g.d.d.i.i.t.g.d.d.d.n.t.d.i.u.d.t.6.s.d.a.t.e.@.d.i.y.7.@.v.a.7.4.7.r.6.r.7.e.t.d.n.M.a.t.7.e.7.7.7.e.7.$.t.d.#.#.a.t.t.7.+.t.y.t.+.+.a.a.t.t.t.t.t.t.t.t.t.t.#.#.+.+.#.$.$.$.$.7.7.7.t.7.| +...@.t.7.+.7.t.#.4.| @.q.+.| | ....| | ..{ +.7.6...} _ } | _ } 4.+.| 4.4.' ` +...} _ W _ | ` _ L ` | ` ` { o.+.@.| ` ` [ ( Q } { R U _ ( ( W W U U U S l V V V l l U S l l x U V l V x l l l B l x c c x B l M f B B M f d f c U l f Z V M y B E F ",
"V E W E E W _ E S S ) E R ( _ { | { Q Q _ { | { | { { } | @.+.{ 6.4.+.7.<.[ [ _ { 4.<.Q R [ R R 4.4.<.>.<.<.2.1.<.1.7.t.q.%.t.4.1.| 4.4.1.6.7.+.7.s.+.| ..+.7.7.t.7.| #.7...6.7.#.t.i.t.i.u.t.t.d.a.a.a.i.t.t.t.7.t.7.t.a.y.t.s.7.@.7.#.7.p.t.a.7.7.6.| e.d.7.6.6.4.7.7.7.6.t.d.d.i.i.a.t.6.7.t.7.7.0.7.t.D.a.7.a.u.t.n.n.k.t.t.a.6.e.g.i.g.d.d.n.n.d.g.d.d.t.t.d.a.i.d.d.g.d.u.u.g.d.d.s...t.e.$.t.t.a.s.e.#.7.+.d.d.t.t.r.7.p.e.e.t.n.d.d.i.i.d.t.6.e.7.7.7.6.e.i.u.e.6.7.t.i.7.u.t.a.#.e.7.$.t.i.d.d.n.n.d.d.d.d.n.d.u.i.v.v.v.M.n.d.c.M.M.n.n.g.7.d.a.d.M.n.n.M.i.s.s.t.n.M.t.r.0.0.p.p.t.p.n.M.n.n.M.n.p.r.p.p.r.r.r.e.n.U.a.t.a.u.d.n.P.M.i.i.i.$.t.g.d.v.n.n.M.m.n.v.v.i.u.d.g.d.d.v.v.n.M.v.n.M.n.n.t.e.g.d.i.M.M.J.M.d.n.t.u.P.d.t.s.p.a.a.p.e.a.M.n.v.n.n.t.7.p.p.t.t.e.7.t.D.a.#.t.t.a.t.a.n.d.t.a.6.e.g.d.i.i.g.n.d.d.s.t.n.d.t.t.t.d.d.v.d.d.i.t.t.d.t.r.4.s.e.t.t.t.y.d.$.t.t.#.d.s.7.6.7.6.6.r.7.7.a.n.d.d.v.u.#.6.7.7.7.7.7.t.t.a.@.4.t.t.a.a.t.d.a.6.4.@.t.t.7.@.7.s.i.t.t.t.q.#.$.t.#.$.@.+.$.$.@.e.t.@.t.q.| 4.....4.@.t.a...+.7.{ +.7.| { +.| | +.| } | +.@.@.@.4.} _ } _ } | 4.4.+.4.| R { +.+.} } | { _ R ` | ` ] | { { +.+.{ _ _ _ R _ { { ( R _ Q R R H U W c S U z h S c U V x l V x S x f B x B B M l l x S c h x B M f M B B l M t z S y y l F F B E Z M ",
"V B E ) Q F U S S F ) ) ( Q _ { | { R ( | { | | | { +.{ 4.| | | 4.4.6.7.} [ <.[ _ } ,.W W [ Q ) 4.4.1.[ <.<.<.<.<.7.t.7.7.7.q.t.4.1.4.4.6.7.4.4.7.a.@...4...@.t.y.6.| 6.7...6.e.7.t.i.i.i.a.u.u.a.a.i.u.t.t.a.y.t.t.7.t.u.i.i.a.7.4.7.+...7.a.t.+.@.7.+.7.d.t.4.5.7.6.7.7.t.d.d.i.d.i.d.a.t.7.7.7.r.0.r.d.D.a.7.s.p.e.g.G.s.$.t.a.6.t.d.d.n.i.i.i.g.v.M.d.i.t.i.g.d.d.i.u.d.i.u.d.n.d.n.s.+.t.e.#.7.t.a.6...7.e.+.d.g.t.7.r.e.t.e.a.n.n.c.c.i.i.v.d.e.7.7.e.6.7.6.i.g.t.e.e.+.t.t.v.a.e.#.t.e.$.i.g.d.v.v.v.v.n.n.J.M.n.i.i.d.M.n.g.d.d.v.M.M.M.D.g.e.d.d.t.i.P.n.d.t.d.s.t.M.P.a.p.p.r.p.p.s.n.M.n.n.M.M.P.D.p.r.p.p.p.r.t.M.P.s.p.s.e.t.n.P.d.#.d.d.$.a.n.f.v.n.M.m.M.M.v.d.u.i.n.g.c.v.v.n.m.M.M.M.n.n.d.t.e.n.d.e.g.Q.g.t.u.M.u.i.Q.g.p.s.p.p.p.t.d.J.n.n.n.n.n.n.s.t.t.p.7.7.e.u.M.a.7.a.7.7.7.g.Z.7.$.s.7.7.t.t.t.n.g.n.v.d.d.d.d.d.i.d.n.n.d.D.v.n.d.i.i.i.a.e.4.s.7.7.$.d.v.t.O.t.q.7.d.d.e.t.t.p.t.t.t.d.c.v.d.c.x.d.t.7.6.t.e.7.7.7.t.n.#.6.a.#.7.d.c.a.6.7.6.6.t.t.#.@.7.t.t.t.t.q.@.+.@.7.t.t.$.7.t.t.7.t.t.7.t.6...6.4...| 6.i.7._ ..6.| #.7.} } | ..| { | +.@.$.@.+.#.7.4.| _ { | | | | +.7.4._ _ } ` | 6.4._ R _ ` +.+.+.+.o.+...| } _ Q Q _ | { { { ) ( Q Q W U W Q U H R S B S V S l f B F x V S l f B f f y y d A S S x x V S l d d l x l f l x f d M M Z U U n y ",
"C M F Q E B V U U V Q _ ( R { _ } { _ _ } { { | | { | +.| ` ' | } 4.6.7._ Q ,.>.R ) W U Q _ [ [ | 4.4.[ [ <.[ ,.6.7.7.7.7.#.7.7.7.4.1.4.6.4.4.+.q.a.+.| 6...| 7.t.+.| 7.4.| e.t.7.t.t.i.i.t.t.t.t.u.a.t.t.t.t.t.u.t.t.t.t.u.d.a.@.+.0.6.| 4.r.4.| 6.7...$.d.t.@.4.7.5.6.t.d.a.a.i.i.y.a.a.a.t.6.7.r.7.7.d.D.a.6.s.s.7.t.a.7.7.t.a.6.7.d.n.g.d.i.i.n.v.g.d.d.t.i.i.g.i.t.d.c.i.g.d.a.n.v.t.+.7.7.+.4.6.p.6.4.7.7...i.d.t.7.r.t.7.t.g.n.c.v.d.d.v.i.d.i.7.@.7.7.#.6.i.v.$.e.t.+.+.t.i.t.@.#.i.$.@.d.v.d.v.v.M.v.g.M.M.d.n.d.i.i.d.v.v.d.n.n.d.M.n.n.n.e.d.g.t.7.d.d.p.e.d.s.e.M.J.a.p.h.p.t.t.n.P.M.v.n.M.M.M.P.D.t.r.p.p.r.p.M.J.t.s.d.e.e.p.d.e.7.g.d.#.d.M.d.d.n.M.M.n.M.v.i.i.v.c.v.v.c.n.m.n.M.M.M.v.i.s.t.7.g.d.$.t.n.t.#.u.n.t.i.P.g.p.p.p.p.e.a.M.M.v.n.n.n.v.M.n.a.7.e.7.e.7.a.n.i.6.s.7.6.4.a.s.4.7.s.+.7.d.t.a.n.d.d.n.D.i.i.i.d.v.M.d.i.d.d.M.v.a.g.i.t.g.p.+.e.e.4.+.t.t.+.| t.4.#.n.i.e.t.7.p.s.t.t.n.c.d.d.d.i.d.d.t.6.7.7.7.6.#.t.n.#.6.a.@.@.a.a.4...7.4.+.s.i.t.t.7.7.q.t.e.7.@.+.| +.7.t.t.t.t.t.7.6.7.t.7.+.| 6.4...} ..6...{ | 4.] @.7.| [ } | ..{ +.7.7.@.@.@.@.+.6.6.| ` } | } { +.+.| Q W R R { 4.} R Q _ _ +.#.o.+.@.+.{ { } Q ( { { ` { _ { Q Q Q Q U W U U H H V E c f l l h x x V x z S f y a t r t m f x V V c S x V x y y d M f f x S B d m f B Z B n n ",
"B B F E F V F W U S ) ( { { | { | { | { | { { { { | 1.| | { { { 4.4.4.6._ ) ,.,.) W W W Q [ ,.[ 4.7.4.<.<.,.<.4.t.t.q.t.t.6.7.7.t.e.6.1.| | 4.4.7.a.+...6.+...+.4.+.+.7.4...7.t.t.t.t.u.y.u.u.t.t.t.t.u.i.a.u.t.t.y.a.t.t.i.d.a.+.4.r.6.4.4.4.4.4.7.7.+.7.d.t.4.6.6.4.7.a.d.d.d.i.i.a.a.a.v.d.a.7.r.0.r.d.D.s.6.s.s.e.e.e.7.e.t.a.7.7.d.g.M.n.d.g.n.v.g.i.v.d.a.i.v.d.i.g.n.c.g.d.n.i.i.t.+.t.7.+.6.6.0.4.4.7.7.+.i.d.t.r.t.p.t.d.n.v.v.v.d.d.n.i.d.d.y.6.6.6.7.6.d.n.t.$.t.7.#.#.t.7.7.7.u.$.@.d.M.n.n.g.v.g.g.d.i.i.n.M.n.i.d.d.v.n.D.M.M.M.n.M.n.t.g.g.t.7.s.s.p.t.d.s.e.D.D.s.p.h.p.p.n.P.M.M.P.n.D.D.M.M.J.g.e.r.p.r.s.M.J.p.s.d.t.e.r.p.e.e.n.d.7.g.M.v.v.n.n.M.M.M.v.d.v.M.M.M.v.v.n.m.M.M.P.M.g.d.s.e.e.d.d.7.t.s.e.$.u.g.t.i.Q.g.p.s.p.p.s.M.M.M.M.n.g.n.n.n.M.n.p.7.7.e.e.a.M.i.7.d.a.7.6.0.7.6.e.s.#.e.d.d.d.g.g.n.d.d.t.t.u.d.i.v.y.t.t.g.d.n.v.d.d.i.n.s.+.r.e.7.4.7.7.+.+.7.6.#.a.t.t.p.r.p.e.a.n.n.v.n.d.i.d.d.d.d.y.t.#.e.7.$.t.v.t.7.a.6.+.7.7.+.4.7.4.6.t.t.i.i.t.t.e.t.7.7.7.7.+.| +.t.t.t.7.#.7.t.t.6.7.7.| 4.6.+.....4...| 4...| #.t.+.....| ..@.q.7.7.7.6.+.4.4.4.5.5...{ } } } +.+.{ R W R ( { } R R } _ R | @.+.| | { { } _ { { | | _ _ _ Q ( { _ ) W U W E x c V E c f f l x c l B x U U M y d d f B F x c x c S F F S S M f d d M f c S B M M M M M M m B ",
"C B B F Z B E W F F W Q { { _ | | { { { { { { { { | | { | { | | 4.+.4.4.[ Q [ ,.) U W E E [ [ ) 4.4.} <.<.{ 4.7.7.$.t.7.4.| 4.t.q.7.t.6.| { <.4.7.a.+.| 4.4...| | 4.+.6.6.| #.t.t.t.t.t.t.y.t.t.t.t.a.t.t.a.t.&.t.t.t.s.t.t.s.t.+.4.0.6.4.4.4.| 4.7.7...7.d.7.4.4.4.7.s.a.a.d.d.t.7.t.d.d.d.d.d.s.r.6.7.s.g.s.7.s.a.e.7.e.e.7.t.d.7.7.d.i.n.d.g.d.d.g.i.i.n.d.u.d.g.d.g.d.d.d.g.d.d.t.u.t.@.7.7.+.6.4.4.4.4.7.6.+.d.a.e.r.0.7.a.g.v.d.n.d.q.7.a.c.i.i.c.i.7.@.7.7.t.n.*.$.s.7.@.7.6.+.e.#.t.7.$.i.d.v.v.d.n.d.d.d.i.v.M.n.n.g.d.i.d.v.n.D.P.n.M.M.d.t.d.d.e.e.p.0.p.t.s.a.e.Z.n.t.p.r.r.d.P.M.M.P.n.p.p.Z.J.n.n.J.g.e.7.r.s.M.Q.s.a.d.t.e.p.r.e.q.d.a.$.d.M.v.M.v.v.n.M.v.n.M.M.M.M.v.v.v.d.v.M.P.n.g.g.n.s.7.7.d.s.7.6.6.7.7.e.d.t.i.J.d.p.s.t.s.M.M.M.M.M.d.t.a.n.n.c.M.g.t.6.7.t.t.n.d.#.s.a.6.7.7.6.7.7.t.6.7.d.g.d.d.g.n.d.a.t.d.d.y.t.i.d.v.d.g.a.d.g.d.a.i.n.p.+.a.6.7.4.4.o.4.4.6.6.@.a.t.6.0.7.7.7.d.v.d.v.n.t.7.a.g.i.i.x.i.7.7.6.7.y.c.%.q.p.@.4.7.4.4.4.4.4...e.a.t.t.t.t.7.#.#.t.t.7.@.+.7.t.t.t.7.$.7.t.q.6.t.7.| | 4...| 1.| 4.+.4.| ' 7.7...1...} | 6.7.@.6.7.+._ { 6.4.o.@.@.} _ } } | 4.| { } Q R [ R T R } ) K ` { | ` _ { } _ [ } | } ) R R _ _ Q _ ) U F W R W B h F V f f S B f l l l f S S f M f f S c z S c l B f B E S V F l f d d f S c B B B y M n n n C ",
"C B Z Z F V U Q U S Q _ } R T ( { } } } } { { { | { | | | | 4.+.+.4.6.7.[ ) ,.[ R U Q W W [ [ ) 4.4.} [ <.4.7.7.7.7.e.4.>.[ <.7.t.e.t.t.6.} | +.7.p.....6.4...| 1.4.+.6.4.| e.t.t.t.t.t.t.i.i.d.a.i.d.u.t.u.t.t.a.i.i.a.i.t.t.t.4.4.w.6.4.4.4.4.+.7.e.4.7.i.7...1.7.p.a.a.d.a.t.7.6.7.s.d.d.d.g.g.s.7.7.a.n.a.7.s.s.7.7.e.e.7.e.s.e.7.d.g.d.i.i.i.d.i.d.d.v.v.d.d.d.n.v.d.d.g.n.g.u.t.d.a.#.e.t.6.6.6.4.1.4.r.7.+.g.d.e.7.r.t.d.n.v.n.g.t.4.4.7.a.d.d.c.d.a.$.#.7.u.g.e.$.s.t.7.7.6.4.7.7.t.t.t.t.t.t.d.g.n.v.v.v.d.n.P.M.M.M.v.g.v.d.v.n.M.M.M.M.g.t.z.d.r.r.t.t.p.p.k.s.t.D.n.e.p.p.d.P.M.n.M.n.s.e.0.a.D.J.n.M.J.g.p.e.a.M.T.a.s.g.t.e.p.t.t.e.d.d.$.v.M.v.M.M.v.n.n.M.M.M.M.n.d.n.n.n.v.v.n.M.n.v.v.n.g.e.7.g.d.$.6.6.6.7.e.d.t.i.Q.d.p.p.s.g.M.M.M.P.d.t.7.t.s.n.n.n.n.d.7.7.7.s.M.d.e.a.p.6.6.0.6.7.7.s.#.t.g.g.d.g.d.d.d.n.d.n.n.g.t.t.d.n.d.n.d.d.d.g.d.d.g.p.@.a.e.6.4.6.4.6.+.7.@.#.a.t.+.7.6.7.t.v.d.v.g.s.7.6.7.a.d.d.i.f.u.$.@.7.i.v.t.t.t.@.4.7.4.4.+.6.4.| 7.t.t.t.t.t.7.7.t.t.i.t.#.7.i.i.t.t.t.t.7.7.t.t.a.t.| 4.6.| } 1.| ..+.6.+.| 7.t.| } | ..6.q.#.7.e.4._ ( { 1.4.4.4.4.4.{ _ { 4.@.| { { _ _ ) R R ) _ _ R _ } { ' ' { | | { { { _ W U ) } _ ( Q E V B W W V F B S U f f b x h x B l f S V f d f f c z V B h x x f l B F S E S S f f f b U B B B M n n n n M ",
"B B A B F V V Q U S [ Q ) Q T Q _ ( Q _ _ _ } { { { { { +.o.+.4.4.4.+.7._ _ <._ W U W U U Q _ ( | 4.1.} 4.7.6.5.7.7.1.<.>.>.1.+.6.t.7.t.t.4.{ | 7.t.| +.7.+.| | 4.4.| @.6...7.t.t.t.t.t.t.t.i.a.d.d.a.t.i.y.a.a.t.i.i.i.y.t.u.s.4.4.w.4.<.<.4.4.| 6.e.+.#.i.$.| 4.t.a.y.d.d.e.7.0.7.4.7.s.d.d.d.d.d.t.6.e.Z.s.6.s.p.6.7.7.7.7.e.p.e.t.n.i.d.i.i.d.v.i.v.d.d.v.g.i.d.d.d.g.v.d.v.d.u.u.d.a.@.e.t.6.6.4.6.....t.7.+.d.d.7.6.7.d.n.d.n.n.a.7.9.7.7.6.s.d.d.d.d.i.7.#.u.i.e.$.t.t.7.4.6.+.4.e.a.$.$.i.t.t.d.d.d.v.M.d.v.M.n.M.n.v.M.n.v.v.d.d.M.M.n.P.g.t.d.s.p.e.p.t.e.p.k.a.e.D.g.t.t.d.P.M.n.M.n.a.t.p.p.t.p.D.J.n.M.J.n.t.t.M.T.s.u.d.t.e.r.p.0.e.d.i.$.v.M.v.v.M.n.d.d.v.n.M.m.d.d.v.m.n.n.n.g.g.v.n.d.g.n.p.7.d.u.#.#.6.@.@.t.i.e.i.P.u.e.p.g.M.M.M.M.n.t.0.t.t.7.a.n.c.d.g.a.6.6.a.n.a.7.s.7.4.7.r.6.6.7.s.+.e.g.a.d.g.d.d.d.n.n.d.M.g.t.t.i.d.i.d.v.i.t.d.d.i.g.s.+.t.e.+.6.7.+.+.4.7.4.#.d.t.+.4.7.d.c.d.i.d.a.7.7.0.4.7.d.x.i.i.u.t.@.#.u.v.7.7.7.4.4.4.4.4.+.7.5.| 6.e.t.t.t.t.q.q.a.t.y.t.@.7.a.y.*.t.t.t.7.7.t.t.a.7.} ..4.} } 1.| } ..6.4.' 6.7.| } } +.7.7.@.6.7.<._ _ } _ | 4.+.@.4.{ Q _ +.4.} Q ) _ ) W R W R _ _ R _ | _ R } | | ..` { { [ R W ) [ ) _ Q E U Z V V E c l B V f f l l x x l l f x h g t d x x z V y y f x x M f V S S U S B M f x F x l M M y i m n n ",
"B A F F F S S W S U [ { _ Q ) _ | Q R R _ _ } } { | { | +.+.4.@.4.+.+.+._ ) <.) Q E E U S Q _ _ | 7.4.4.7.6.7.7.7.4.<.,.<.<.1.<.4.6.7.7.t.7.@...7.t...+.7.4.| ..4.4...@.7.@.e.i.t.t.i.i.i.t.t.t.i.i.a.t.t.a.a.i.i.i.i.a.t.t.a.s.6.4.0.6.1.2.4.1.| 6.7.+.$.i.t.#.e.a.i.d.d.p.7.0.0.6.7.7.6.a.d.d.d.g.d.e.t.D.a.7.s.t.6.7.0.7.6.e.s.t.t.M.d.g.d.d.n.n.v.v.v.v.n.d.d.n.d.g.g.v.n.n.d.d.a.g.a.#.t.t.#.7.6.6.1.4.p.7.#.n.n.t.e.s.n.n.n.n.s.p.r.r.6.0.7.e.a.n.v.c.i.y.7.t.d.e.$.u.e.6.6.7.6.6.t.s.$.$.g.d.i.v.d.d.v.d.d.v.M.n.n.n.v.M.M.M.v.v.v.M.M.M.P.g.t.d.s.p.r.p.p.e.t.d.a.t.J.M.i.g.P.M.m.M.n.a.t.t.p.p.p.r.s.D.J.M.M.J.n.i.n.Q.p.u.g.p.r.r.p.r.e.g.a.&.d.M.n.v.v.v.v.d.d.n.Q.M.d.d.M.M.m.M.M.v.v.v.n.v.n.J.a.7.d.t.#.6.6.@.@.7.i.t.i.Q.d.t.d.M.M.M.M.n.p.t.p.p.s.w.e.a.n.v.v.d.t.e.t.n.d.7.a.7.6.0.r.7.6.e.s.#.t.g.d.d.g.n.n.d.n.v.v.d.d.d.i.a.a.i.d.d.t.u.d.n.i.n.s.6.s.t.@.6.7.4.+.@.7.6.7.d.a.7.7.a.v.d.x.d.t.7.0.7.0.7.7.7.i.d.i.u.i.e.#.u.n.7.q.q.5.4.4.4.+.4.0.7.@.7.s.t.t.t.i.i.a.i.i.y.t.t.t.t.i.u.t.t.a.a.t.e.7.t.7...1.4.| | 1.| } | 6.6...@.6.+.| 1.e.t.7.6.7.4...| | } [ } ..+.o.o.{ _ _ } | { ) _ [ Q Q ) T R | } R _ | ' ` { | ` _ { { | } ) ) _ { _ _ _ Q [ U V U { W f f V h h l l h g f x h V S x f l S x x l f f f l l B B V U V l B V F l V x l B B m n p M M m ",
"B B Z F F V S U F c Q } Q _ { _ } { _ W _ _ _ } } { | { | @.@.4.+.o.o.{ Q Q [ W W E F F V ) [ Q 4.4.| 6.7.4.7.7.1.,.2.[ <.<.<.<.1.1.6.6.6.7.7.+.6.t.| +.7.+.| | 4.4.+.7.7.@.7.y.i.i.i.d.i.t.t.t.t.i.d.t.t.i.t.t.i.t.i.t.t.t.t.a.7.| 7.4.1.4.2.2.| 4.6.| #.t.e.t.t.y.i.d.t.6.0.0.4.6.4.9.7.7.s.d.d.d.d.d.u.d.a.#.a.e.6.7.7.0.7.e.d.e.u.n.n.v.d.v.d.v.n.d.i.v.d.d.d.d.d.g.i.d.d.d.a.g.i.i.d.#.7.s.7.7.7.4.4.+.a.7.#.n.d.t.a.n.d.v.n.s.0.7.0.0.7.7.7.6.7.d.d.i.i.d.t.t.d.t.#.p.7.+.4.7.7.6.t.t.#.t.i.a.a.i.d.n.i.g.d.d.n.M.v.v.d.i.d.n.c.M.M.M.M.M.M.d.e.d.s.t.p.t.p.7.t.Z.t.e.J.n.v.N.M.n.m.v.a.7.r.s.r.0.p.p.r.s.n.M.M.M.M.d.v.J.t.t.g.t.0.0.r.0.7.n.a.$.d.M.v.n.n.M.M.v.v.M.M.M.d.d.M.n.n.M.M.M.n.d.g.n.v.n.s.$.t.e.#.4.#.@.+.7.s.7.i.Q.d.g.D.M.n.M.n.p.t.p.p.0.p.t.7.7.a.d.d.d.n.a.a.n.i.$.a.e.6.0.0.0.6.7.s.@.t.d.d.s.a.g.d.d.g.d.i.i.c.y.d.t.t.a.a.t.i.t.t.n.d.d.s.7.a.7.4.+.7.7.+.+.t.#.#.d.t.$.i.v.i.d.d.t.7.7.7.6.7.7.7.6.e.i.i.u.d.a.7.t.d.#.q.p.4.4.4.4.4.4.7.5.@.t.t.t.i.t.t.i.a.t.t.t.u.e.7.t.t.t.t.t.t.t.e.6.7.6.7.| 1.4.} | <.1.| { 4.4.` +.e.+...6.t.7.+.4...} | | [ [ } } _ { +.o.o.+.{ { { ( Q ) Q Q Q ) R Q } ( K R _ } ' _ Q _ _ } Q _ } ) W Q } { _ Q Q _ Q W U R S f l x y l f l f f l l f B S V B A l x l f l l y y M m M B F x l V x V x S x f B V f f n n B n ",
"Z M B B A Z F W W z W Q Q _ { } | ..} _ { { } { } | | { | +.4.+.+.+.+.| [ Q [ Q U F U Z F [ [ ) 1.4.+.6.7.7.6.1.>.<.1.<.4.0.4.<.4.1.1.4.7.e.e.7.7.t.+.4.7.6...1.4.4.4.t.t.4.q.t.i.d.a.t.t.t.t.t.i.i.y.t.t.a.a.t.t.t.t.y.t.i.t.a.6.+.7.6.4.4.2.2...6.7.+.#.u.t.t.y.i.d.p.7.9.9.6.7.s.0.4.9.6.7.s.d.i.a.d.d.n.t.7.a.a.7.7.0.0.7.a.n.t.d.n.d.v.n.n.v.n.d.i.u.d.D.d.u.d.a.d.i.d.t.i.d.n.d.g.d.#.t.g.&.6.7.7.4.e.s.7.#.g.d.i.d.v.v.v.t.7.7.r.7.t.d.t.7.7.7.r.a.d.i.d.i.i.i.t.6.e.7.6.6.6.+.#.7.e.#.t.d.d.t.t.t.a.d.v.d.n.n.v.v.v.d.u.u.d.M.M.m.M.M.M.M.d.e.d.g.a.t.p.p.e.d.H.u.t.M.n.n.M.M.M.v.t.7.t.r.e.s.a.r.p.p.r.a.D.P.M.M.M.n.M.u.u.n.a.e.0.0.7.t.D.d.*.g.n.n.M.M.M.M.M.M.M.M.M.n.v.M.n.n.M.M.v.d.g.g.d.n.n.t.7.u.e.#.6.4.+.+.t.a.$.i.n.g.J.P.M.P.n.t.t.s.t.t.s.s.t.0.7.7.t.c.d.v.d.n.n.u.#.a.s.7.9.r.0.9.p.s.#.d.D.d.t.u.s.a.g.g.t.t.d.d.d.d.i.i.d.g.i.d.t.u.a.i.n.a.4.t.e.6.7.7.6.#.e.a.7.#.a.t.t.i.d.x.i.t.4.7.9.4.7.a.7.7.7.6.7.i.d.d.d.i.i.d.@.t.a.6.4.5.4.4.6.a.7.6.s.a.t.t.t.t.t.t.t.t.t.u.t.t.t.#.7.a.t.t.7.6.6.7.7.7.1...6.+.| 1.1.| +.7.+.} 6.#.+.7.t.t.4.| } | | _ | 4.} ) ( R ) { o.4.7.6.7.4._ Q _ _ R Q Q R R Q W T _ ( T R R Q _ ( } _ } _ R Q ) Q _ ( _ Q Q _ R c x l x F S h l l B f l S S f l f f B V V B f l f l y f Z m y M M Z B U V B S W S M M Z B f n n B M ",
"Z B f f A B V Q Q B U W Q R ) { | { | | } } | _ } } } | { { | 4.4.+.| ..Q W >._ S V E V U } ( Q } +.6.4.4.6...[ <.<.} | 7.7.6.| <.4.| 1.7.7.7.7.7.t.+...7.7...| 4.1.+.a.7.+.t.t.t.t.t.t.t.t.a.i.t.u.t.t.i.a.i.t.t.t.t.t.t.t.u.t.4...t.7.<.2.2.<.4.p.7.| #.t.t.t.t.i.t.5.9.9.4.4.p.d.s.7.4.7.7.7.a.n.i.u.d.n.t.#.a.s.7.7.r.7.7.n.n.q.d.M.d.v.v.n.n.v.d.d.a.n.Z.d.s.u.a.d.d.d.s.u.d.d.a.v.d.#.t.n.t.6.7.6.4.s.d.6.#.d.i.i.d.v.g.t.6.7.7.7.t.n.M.d.6.7.7.7.7.d.d.i.i.i.i.e.#.t.t.+.4.6.+.#.t.e.+.t.d.d.i.t.7.u.d.d.d.n.n.d.d.M.n.n.a.d.n.n.M.H.n.g.M.d.7.d.D.s.e.s.r.t.M.H.t.t.n.N.n.m.M.M.y.q.7.t.0.a.M.P.s.7.p.p.0.s.D.J.M.M.N.J.t.t.Z.a.7.0.0.6.a.P.a.$.v.n.n.M.M.M.v.n.M.M.m.M.n.n.n.n.n.v.v.n.g.d.g.d.v.g.e.#.d.t.+.@.6.| +.d.u.#.t.n.n.n.M.M.M.t.7.p.a.7.s.J.d.7.7.7.6.7.a.d.d.d.v.d.t.@.a.d.e.6.r.7.6.d.s.+.d.D.d.a.t.t.d.u.d.i.i.t.i.d.t.i.n.d.g.u.t.t.u.t.u.g.t.+.e.7.7.+.7.6.@.t.s.6.#.t.u.t.y.i.c.t.4.4.0.4.4.d.v.q.4.7.7.4.e.i.i.i.d.i.a.#.7.a.t.+.4.5.+.7.s.6.5.s.p.7.t.t.t.t.t.7.t.t.t.7.t.t.@.@.t.t.t.7.t.7.4.7.7.| ..0.4.| 4.1.} 4.t.@.' +.7.#.@.q.6.{ | | } _ } 4.7.4.) W ) ( Q | +.+.5.7.+.( [ | } W W ) U R } R H _ } b K | } R R _ _ } W S E R U T Q _ R T R U U S V W V U U h l f l S U V c x l V x V S l f l f d l U U B y y n B Z S V S x U F f B V V m y M M Z ",
"E F B M A V U Q Q S E Q _ W ( ( { _ } { <.[ _ R _ } <.} } _ } ..4.4.4.+.{ W } [ W F W U R { ( R | +.6.7.7.4.| [ <.| } 7.t.#.7.7...| 4.1.+.6.t.t.t.a.+...p.t.4.1.4.4.6.a.7.+.p.t.&.7.t.t.a.d.y.i.i.t.t.t.t.u.i.u.i.t.t.t.t.e.e.t.7.+.a.p.1.<.1.4.e.a.e.+.#.u.u.i.d.t.7.7.9.9.4.t.d.i.i.a.6.4.7.5.7.a.d.g.d.n.a.7.d.n.t.7.7.0.t.D.n.t.d.n.v.v.g.g.d.v.n.n.n.n.n.n.u.i.g.n.d.g.a.d.d.g.g.g.d.#.t.n.u.7.7.r.e.d.d.7.#.d.d.g.n.n.t.6.6.7.6.7.n.n.v.n.a.7.7.7.7.t.a.g.d.d.d.t.#.u.t.7.4.6.6.t.d.t.#.u.i.c.c.c.d.g.d.n.v.n.v.d.d.n.n.J.n.g.g.v.M.M.i.i.M.g.e.g.P.D.t.r.r.d.M.P.u.t.M.N.N.N.n.t.7.t.t.t.a.M.M.P.U.s.r.s.s.p.s.J.W.M.Q.P.s.a.J.g.e.r.0.7.n.Q.i.e.n.M.v.M.M.n.M.M.M.M.M.n.M.M.M.M.n.M.M.n.n.n.M.n.v.g.t.$.d.d.$.+.#.+.t.v.i.#.t.n.n.M.P.n.t.e.p.t.p.d.H.M.M.a.7.7.w.7.t.i.n.v.v.v.t.#.d.Z.s.e.r.7.7.Z.d.#.d.n.D.d.a.a.g.d.d.d.i.t.a.i.i.i.d.u.t.e.t.u.i.i.i.d.t.+.7.t.p.+.7.9.t.a.g.7.$.a.u.t.c.c.t.4.4.4.4.4.a.d.d.i.7.4.0.7.6.e.a.c.d.d.d.+.$.d.a.6.6.4.4.t.d.7.6.t.7.q.a.t.d.s.t.t.t.t.t.e.t.t.6.#.7.t.t.t.a.t.7.7.6...+.7.7.+.| | 4.q.a.7.+.7.7.#.t.7.+.} ..| _ | 6.@.+.4.4._ Q _ _ { | 4.+.4.| _ { 5.| ) Q ) W ' 4.( T } | R T _ ` { _ ( R R E S E W U U R _ ( R U W W W E U S R W l f f l T E V z U U U V U x l l x f f c U c F B M n M B F U S V S B f B U Z C d M n E ",
"U W F B B F W W S z Q Q Q ) ) W ) _ Q R ( _ _ Q _ } { { | { } } | 4.4.4.Q W { <.[ U U Q ( { Q R | | 4.7.4.} } [ [ } +.7.7.@.6.7.6.} <.<.| +.7.a.a.a.....t.t.t...| 7.a.a.5.+.7.t.t.t.t.a.y.y.i.i.t.t.i.t.t.t.i.i.t.a.a.t.7.$.e.a.4.4.a.t.6.} } 7.t.t.7...6.t.t.d.t.6.7.0.4.4.7.a.i.t.i.d.t.@.4.7.4.6.a.n.n.n.t.7.d.n.d.a.6.7.d.M.d.7.d.n.g.n.d.i.d.n.c.n.v.c.M.n.i.g.n.d.i.a.d.g.i.g.g.i.a.@.t.v.d.t.6.e.d.i.d.7.7.g.i.n.J.s.6.7.6.4.7.d.n.v.d.n.d.7.6.r.7.6.e.d.v.i.i.t.#.t.d.a.@.@.t.a.i.e.#.i.i.u.i.c.M.n.a.d.c.v.i.c.d.i.v.d.n.g.d.v.v.v.d.u.d.d.e.a.P.Q.s.6.a.M.n.M.s.t.M.M.M.M.t.t.t.a.t.t.n.M.M.M.P.T.a.t.s.s.t.d.U.P.P.M.t.d.D.D.d.0.7.d.M.n.t.e.v.M.v.g.v.M.M.M.M.M.v.n.M.M.n.M.M.M.v.g.v.n.n.n.d.v.t.#.i.n.u.@.+.$.d.u.t.$.a.g.g.J.n.t.7.t.p.7.s.P.n.d.n.M.y.6.w.7.7.7.d.n.d.v.a.@.a.n.d.t.7.7.k.Z.a.@.t.n.g.d.d.t.a.n.d.t.i.t.i.t.i.i.t.7.t.7.t.t.a.a.t.t.7...+.a.a.6.4.4.d.a.s.7.e.d.t.u.v.i.6.4.9.2.<.q.i.t.y.d.y.+.7.0.6.#.t.d.y.i.d.@.#.a.d.t.4.4.7.a.a.6.@.t.a.t.q.a.a.t.6.t.t.t.t.7.7.7.t.7.6.6.7.q.7.t.7.@.6.| | 6.a.@.| | 6.t.7.....6.@.#.e.+.{ { } } { +.6.+.+.+.@.| _ _ _ _ _ | | +.4.{ { 4.4.} W ) } +.| R K ! { _ T R { } _ R ( ( U U S U W W U ( Q T T Q S U W V x W S l f l l U S y f V V x S x f l f l f l c c c z Z F M M M B U V S U l M f Z U Z f y B Z ",
"U Q W Z V W [ W x B Q _ Q R W Q [ } [ W ) } <.{ | } +.{ { | | { | { { | Q Q | +.<.Q W _ _ | ( R | +.4.<.} [ | <.[ 1.e.6.#.6.7.7.7.4.} [ <.+.6.7.q.a.+.+.t.i.t.6.+.t.a.t.6.+.7.t.t.t.i.t.t.u.u.i.t.y.i.i.u.t.t.t.t.i.d.a.t.7.t.a.6...t.a.t.4.4.p.t.e.7.+.7.i.i.t.6.7.7.7.4.0.d.i.u.d.d.d.d.t.6.7.6.6.7.s.Z.n.a.7.a.n.v.g.p.s.M.M.d.7.a.M.v.n.d.d.d.n.c.v.v.v.v.v.v.v.n.d.i.d.v.g.d.d.i.d.d.#.t.g.d.d.t.a.M.d.d.t.7.D.n.D.s.7.7.r.7.7.d.n.d.v.v.v.g.d.p.7.7.e.7.a.d.d.d.t.7.u.f.g.t.t.i.d.d.e.#.u.i.i.i.d.n.M.v.d.i.d.d.n.d.g.d.d.i.d.d.n.g.n.d.a.d.g.e.a.M.Q.D.a.n.M.n.M.u.t.D.Q.d.t.7.t.a.t.t.n.M.M.M.P.M.M.D.s.t.s.a.p.z.M.P.D.t.s.J.M.M.s.a.M.n.v.t.e.n.M.v.i.d.M.M.M.M.M.n.M.M.M.M.v.n.M.M.v.i.i.g.g.v.n.u.#.i.n.v.t.t.u.i.;.t.7.a.n.n.g.t.7.t.7.e.a.H.n.v.n.n.v.n.s.7.7.e.7.t.a.n.n.d.#.a.v.v.d.p.s.D.g.a.+.u.v.i.t.t.t.s.u.y.a.y.t.d.u.u.t.t.t.d.t.d.7.t.7.$.t.e...#.u.c.a.t.t.g.d.d.$.e.d.i.i.i.7.6.4.4.1.e.t.u.=.y.t.i.t.7.4.7.6.7.t.i.i.d.#.$.i.v.d.e.6.d.v.a.#.+.s.g.t.a.a.7.#.#.t.s.t.t.e.7.7.t.t.t.7.7.#.6.4.@.@.7.+.| 6.t.t.t.7.7.t.@.} { 4.7.6.@.| { } { { @.7.@.@.@.+.| 4.4.{ { } _ } | 4.4.{ | 6.7.+.[ } +.6.| W U _ } ` } } Q R U Q } ` ( Q U W _ R W _ ) R R Q W T Q S x W ) S l M V U V f f V l l f x V V l f x U c l B S V U F Z M B B E S U U A M F U U B M Z E ",
"E E U V E W ) S B B W W _ Q ) Q { } [ _ } | { | ..| { | ..{ | ..| } _ { [ W | | | R ) Q ( } R W } 4.} ) >.[ [ [ 1.4.6.+.+.@.7.@.4.7.4.[ } 1.4.4.7.t.+...e.t.t.e.t.a.t.t.@.| t.t.q.t.t.t.t.t.t.t.y.i.y.i.i.t.t.t.i.i.t.t.t.t.7.t.7...7.t.t.7.7.t.$.$.7.+.7.a.t.4.4.7.4.6.t.s.a.u.t.i.i.i.i.i.7.4.4.7.4.t.d.Z.a.6.a.d.d.n.g.n.v.v.d.6.a.n.v.c.n.n.d.d.c.d.x.v.c.d.v.v.d.i.i.n.d.d.d.d.i.g.i.@.t.d.u.d.d.n.v.i.v.7.6.d.Z.d.7.r.7.6.7.d.v.g.d.c.v.d.i.n.d.s.6.r.7.6.e.d.a.e.7.i.t.i.t.i.u.u.d.@.+.t.i.i.u.i.d.n.n.d.u.i.c.d.v.d.d.d.i.d.d.c.v.d.d.n.v.d.7.s.n.M.M.M.M.n.n.M.t.t.M.M.t.6.7.a.t.t.d.m.M.n.M.P.M.n.D.d.0.p.s.r.r.g.n.g.t.t.n.M.M.n.n.n.d.g.e.7.n.M.v.d.d.v.M.M.n.n.M.n.n.P.M.g.d.n.n.d.i.i.d.g.n.d.p.#.t.d.i.x.v.t.*.i.t.+.t.n.g.p.7.0.r.7.a.n.M.v.v.n.v.d.n.n.a.6.7.6.@.7.g.c.i.#.t.v.d.d.g.d.d.d.t...t.a.i.a.d.y.t.i.d.t.a.d.a.t.t.e.a.d.i.n.a.7.6.#.t.7.6.| +.7.i.d.n.i.t.i.i.#.#.t.i.u.7.4.6.1.<.7.i.*.*.*.t.*.i.i.t.4.6.7.@.6.t.i.i.+.#.i.c.c.d.a.d.i.i.@.+.a.a.a.t.t.t.6.6.7.7.t.t.7.7.7.t.7.t.7.#.6.6.+.7.6.5.| | @.7.t.t.t.7.7.7.| } 4.6.+.} _ } } _ | 6.@.@.+.+.+.+.+.@.| } { _ _ } 4.4.{ { 6.@.+.+.+.| ..) c E ) W _ _ { { ( R ) Q ` } ) R _ W Q Q W Q _ E W R W E l B Q W U U E V U z f f B B B f l x B f l c U x f B F B V F F V B M Z Z F S F Z F B U U E U F ",
"W U E U [ ) W F F Z W E ) _ | { } ) _ } { ` | | { { { | | | | +.4.| } | } Q <.4.{ ( ) W ( _ T R | 1.} [ ,.} [ <.7.6.+.+.+.6.7.6.6.7.7.4.| | 1...7.a.@.+.t.t.t.t.t.t.t.t.6...t.t.t.t.t.t.t.t.t.t.i.i.t.i.d.t.t.t.i.i.t.t.u.t.t.s.7...7.e.7.7.#.e.7.e.7.+.7.a.e.4.4.9.4.r.d.d.i.u.i.u.t.a.i.i.t.7.6.0.7.7.s.D.a.6.s.g.i.g.v.n.d.v.d.6.a.n.c.v.D.D.v.n.d.d.v.v.c.v.v.M.d.d.d.n.v.v.i.d.d.g.i.@.t.g.u.d.d.n.d.i.g.e.7.g.d.t.0.r.7.7.a.n.d.d.d.v.d.v.d.d.v.n.a.e.7.e.7.a.a.e.$.d.i.d.u.d.t.i.u.+. .t.d.g.i.d.i.M.m.v.x.v.d.v.v.v.n.v.d.v.d.d.d.d.v.M.v.d.7.s.n.M.M.M.M.v.n.M.t.t.D.v.7.7.7.t.e.d.M.M.n.M.n.n.M.n.M.D.s.r.r.r.7.s.D.n.p.p.d.v.n.M.M.v.d.g.p.7.n.M.n.n.n.M.M.n.M.M.M.M.M.J.M.v.d.g.n.v.g.g.n.n.n.v.t.$.u.u.u.v.v.t.=.d.t.#.s.d.s.r.0.r.7.a.n.v.v.v.n.g.v.v.v.v.v.t.7.6.6.7.a.d.u.#.t.g.g.i.n.g.i.i.t.+.t.a.i.d.g.d.d.d.d.i.d.v.a.e.t.a.d.i.d.v.n.t.t.t.d.7.6...6.t.i.t.i.t.u.u.y.#.7.i.u.7.4.4.4.1.0.t.u.t.t.*.*.t.i.t.a.a.7.5.7.4.t.u.i.#.#.t.d.d.n.c.d.y.i.6.4.t.a.t.t.a.a.e.7.7.t.t.t.e.t.t.q.#.7.t.e.6.6.7.7.7.7.| ..7.7.#.7.t.t.t.a.6.| 4.6...} { } _ | 6.@.@.6.@...+.7.+.+.6.+._ } | _ | 1.} } 4.@.+.+...| | W S W ) Q _ { | | | | } _ _ Q Q R _ Q _ _ W _ [ Q W U E W x S [ W Q R W S U F M f Z F V l B f f x W U U V B B F Z F S Z V B M B B E U B l B V U U Q U E ",
"W U U W ) ) U Z E B W W W Q _ Q ( R _ { } _ _ | ..{ { { { | | | ..{ | | Q W { { } R W Q _ R R W | } [ >.>.[ | 4.4.@.+.+.7.6.4.4.7.6.6.7.<.[ <.1.4.p.+.+.t.t.t.t.t.7.t.t.4.+.7.t.t.t.7.t.i.t.t.t.t.i.i.y.i.t.t.t.t.u.i.t.t.t.t.t.6...7.t.$.+.6.7.#.t.6...e.t.6.4.8.4.r.d.d.i.i.i.t.t.i.i.t.t.i.a.7.7.9.7.s.d.t.@.s.g.i.g.d.d.v.d.s.7.a.c.d.M.n.n.v.v.d.v.d.v.v.d.d.v.d.d.d.d.v.i.u.i.d.i.i.@.t.g.u.i.d.d.d.n.a.e.6.Z.s.7.r.0.7.d.g.g.d.v.d.d.d.g.d.d.i.d.n.a.4.r.7.t.i.e.$.t.i.u.t.t.u.d.t.#.+.d.i.i.d.i.d.d.v.n.n.v.x.d.c.n.x.n.c.v.v.i.i.d.M.v.v.c.7.t.n.n.n.M.n.M.v.M.t.t.D.d.7.t.7.7.a.M.M.v.n.n.g.g.n.M.n.D.D.d.7.9.0.p.D.n.7.t.a.g.n.n.M.n.d.d.r.6.n.M.d.M.M.M.M.M.M.n.M.M.M.n.n.M.n.d.d.n.v.d.n.n.f.n.e.#.u.i.-.t.u.=.i.u.t.@.t.s.p.0.r.7.t.n.n.d.d.v.v.v.v.d.g.d.c.v.t.@.7.7.t.v.t.O.a.d.d.d.d.d.t.i.p.+.e.d.v.i.i.x.c.y.c.i.u.n.i.t.g.n.y.t.d.d.i.t.d.a.e.#.6.| 6.t.t.$.e.t.u.t.a.6.+.t.7.4.0.4.1.7.a.t.t.t.u.t.t.t.t.t.y.i.a.+.6.7.7.t.d.+.7.t.t.g.d.d.i.t.i.#.+.a.t.7.t.t.t.t.@.#.t.t.7.7.t.t.#.@.t.q.q.6.6.t.@.$.t.| | e.7.6.t.7.t.t.7.4.} +.7.{ _ } _ _ @.#.@.@.@.+.7.6.4.4.+.+.6...) } _ { 1.} _ | @.+.{ | ..{ W U U Q } _ { | ` { { ) ( T R ) T R _ { Q U _ _ _ W U U F S F R R U U E W S S B y B S f f l f V c S c U S F B B F V U N B F M M M V U l f A V V F Z F V ",
"U U W Q W U W U F F Q ) E b U U R ( } ` { { } } | +.+.{ | | +.| | } | +._ T ) } | ( W Q _ } _ R | 4.[ ) [ | 7.6.6.4.+.4.7.6.7.6.6.@.6.7.4.} <.4.7.p.4.+.t.t.t.t.e.7.t.i.6.4.t.t.t.t.t.t.t.t.u.y.t.t.y.d.i.t.t.t.t.i.i.i.t.e.&.e.7.4.7.t.7.#.7.t.t.t.7.+.q.a.6.4.7.7.d.n.d.d.i.a.a.d.d.d.i.i.i.d.a.t.7.0.a.d.a.6.a.g.g.g.d.d.d.g.d.7.a.v.v.M.M.v.i.d.v.v.d.n.v.d.d.d.v.v.i.g.a.i.i.a.i.d.d.6.t.d.f.d.d.g.g.n.n.p.r.D.g.t.7.r.a.M.v.g.v.v.d.d.g.n.d.g.d.d.v.n.t.7.7.s.d.e.7.i.i.=.t.t.i.d.i.7.e.d.i.d.d.v.d.d.d.n.d.v.v.d.d.d.v.n.n.M.n.d.u.v.M.v.n.d.7.t.g.M.v.n.n.n.n.D.t.t.n.d.t.t.t.d.n.M.v.v.n.d.g.n.n.J.J.M.P.U.s.7.7.a.D.D.e.p.d.n.n.n.M.n.n.n.e.6.n.M.v.M.M.M.M.M.M.n.n.n.n.n.n.M.M.v.g.g.g.v.n.n.n.g.e.#.i.v.i.*.*.t.i.v.u.#.t.d.p.0.7.p.n.v.g.f.d.d.d.n.n.d.v.x.x.v.d.e.7.e.i.v.a.+.i.n.d.d.d.u.t.d.a.@.t.c.n.x.v.c.d.i.i.d.v.v.d.d.n.n.d.i.i.d.c.t.t.7.6.#.e.+.e.t.t.t.t.t.i.i.d.7.@.a.7.4.9.4.7.a.i.t.u.t.t.i.d.t.t.t.i.t.i.t.4.4.t.i.d.@.#.i.i.d.d.i.i.u.d.6.@.a.t.t.t.t.t.t.7.7.7.q.t.t.t.7.#.7.t.q.t.7.7.7.7.t.t.| | e.7.7.t.t.t.t.t.4.| 6.7.| { } { +.6.#.7.7.+.@.7.6.4.6.6.4.7.6.} [ _ | 6.1._ | +.+.| | ..| _ ) W { ..) U Q { Q U U U T ) { R R ( | Q U _ [ [ } _ ) S S U ) U S U E U U U Z f V V y y B S U h f x U U E V V U F B Z B F B M f Z F l M F S W Z V M Z ",
"W U S ) W F W F B F Q ) U U W R _ ) ! } { { { _ { | | +.| | ..} ' | | | _ T <.<.{ ( W W R } _ W | +.) Q ,.4.#.@.4.| { +.+.7.7.@.+.@.6.@.7.4.[ <.7.7.+.+.t.t.t.$.t.q.t.a.4.@.t.t.t.t.t.t.*.t.i.y.t.t.y.i.t.t.7.t.t.t.t.u.t.e.t.t.+.+.e.$.e.7.#.t.t.t.6.o.7.a.6.| 7.a.d.i.a.t.t.y.c.d.a.d.d.i.t.a.v.a.7.6.p.Z.a.6.d.g.d.d.i.d.i.g.a.7.a.n.v.n.D.d.i.d.n.n.v.v.g.d.d.v.d.n.d.d.i.i.i.d.i.d.a.@.t.v.d.d.i.n.g.d.n.p.7.g.g.e.7.t.n.v.v.v.d.d.d.v.v.g.g.i.i.d.i.g.d.#.6.d.d.$.$.i.u.*.*.i.t.t.i.t.7.u.d.d.i.d.i.d.d.d.i.d.d.d.i.v.n.v.n.M.d.i.d.v.v.v.v.u.#.a.d.v.v.n.v.d.n.M.t.t.Z.d.7.7.d.Q.n.v.v.v.d.M.n.d.n.M.M.J.M.M.J.a.4.p.D.n.7.a.D.d.v.M.n.g.n.M.7.6.d.M.n.v.v.M.M.n.n.n.g.d.g.n.n.v.M.n.d.i.g.v.n.v.f.d.e.$.d.i.u.*.t.*.i.f.t.#.u.d.e.7.7.d.M.d.d.d.d.d.n.d.v.v.d.d.x.d.v.t.#.7.d.d.t.+.d.v.u.d.i.t.i.t.t.@.t.y.u.c.m.x.c.y.y.i.v.d.d.d.d.c.v.y.i.i.a.e.6.6.t.t.e...6.t.t.$.u.t.t.i.t.7.7.a.p.4.4.6.a.t.t.t.t.t.t.i.t.t.e.t.u.t.t.t.6.| 7.i.i.#.$.t.i.t.i.t.i.y.t.7.@.t.i.t.t.t.e.7.t.#.6.7.t.t.t.#.t.t.6.q.q.6.6.6.7.t.7.` +.7.7.7.7.t.7.7.t.4.| 6.4.| } { { #.7.6.@.+.+.+.| +.4.6.7.6.@.6.4._ ) 4.6.} { +.{ | ..| { } { W Q | _ T U R | } { _ W Q ) _ _ W R { T U _ _ ~ } { Q E x S Q S x F W c S U B f S l t y x c c h B V U z F V S U Z l V B B S B M l V B l S U U F B M B ",
"W W W Q W U Q W V S Q W Q U ) Q _ ( ` } { | | } | } 4.{ } _ } { } +.+.+._ R 1.4.| ( W W R [ ) W 1.1.R ) 4.@.@.+.| | ..| +.4.+.@.+.6.7.6.e.6.+...6.t.+.+.e.t.*.t.t.t.t.t.@.@.a.y.t.t.t.t.t.t.t.t.t.t.d.i.i.i.t.u.u.u.u.u.t.t.u.a.7.#.7.t.t.&.e.t.t.t.6.+.t.d.e.6.t.d.d.i.t.t.t.t.y.d.d.d.a.i.a.d.v.n.p.6.a.D.s.7.d.n.d.i.i.d.i.g.s.7.a.M.v.M.D.n.d.v.c.v.v.n.d.d.g.n.c.n.v.d.i.d.d.d.d.v.a.6.t.M.d.d.g.M.n.g.n.s.r.n.n.t.s.n.v.n.v.M.v.g.d.v.g.v.v.g.d.g.i.f.v.i.t.d.n.t.&.d.d.;.u.d.u.i.d.t.$.u.d.v.g.i.i.i.i.i.d.v.i.d.d.v.n.M.n.v.d.v.v.n.v.v.g.u.$.d.v.v.v.n.v.n.n.M.t.t.D.i.$.v.P.M.n.M.M.v.v.M.M.n.n.n.n.D.M.M.P.D.r.e.D.D.e.s.J.M.n.M.n.n.M.n.t.7.n.P.n.n.v.M.M.M.J.J.M.g.g.n.n.v.M.n.d.d.g.n.M.v.d.v.e.e.v.d.i.u.u.u.i.f.i.7.d.d.t.7.d.v.v.v.n.v.n.v.v.v.v.g.i.d.d.v.v.d.t.7.i.v.u.+.a.v.i.u.i.i.d.t.e.#.t.t.t.y.c.n.c.i.i.i.d.v.d.d.c.d.d.i.d.a.t.7.6.t.t.t.r.4.e.t.t.t.u.u.i.u.u.7.e.g.d.7.4.t.d.i.t.$.e.t.d.i.t.$.t.s.a.t.u.d.a.6.e.i.d.@.t.d.d.u.u.t.i.u.a.6.@.a.d.t.t.t.t.t.t.t.t.*.t.u.t.7.e.e.7.t.t.6.6.t.t.7.7.` +.7.t.t.7.q.t.t.e.4.| 7.6.| { | 6.#.@.+.| | @.@.| | 6.6.+.@.@.$.7.1...6.7.| | 4...| ....| | } ) R _ Q T Q ) Q } { } ` ` _ | | Q Q { W W } [ Q ) W W Q S F Q U S W W U U U B f U x f B E l x S W V U U S x x Z U S V x x F V f V W V V W S U F U F F ",
"Z W W E W U E E B U Q U R W T W W _ { ` } { { { { | 4.| ..{ _ } 4.4.| 4.[ E _ 4.| Q W U R ( W U } <._ } 4.+.| | ..{ +...| +.6...@.@.@.#.#.7.6.+.6.e.+.+.@.#.t.$.7.t.t.#...+.t.y.t.t.t.t.t.t.y.t.t.a.y.i.a.y.i.t.i.a.t.q.t.y.t.t.7.+.#.e.t.%.t.t.#.#.7.| 6.d.t.t.i.i.u.i.i.a.t.t.t.t.i.t.t.u.i.i.i.d.d.a.a.d.s.6.a.d.i.i.i.d.d.a.t.7.a.v.v.M.n.n.d.d.v.n.g.n.d.d.d.d.n.n.g.d.i.i.d.d.d.n.a.6.a.v.c.d.v.n.n.n.d.p.7.g.d.g.n.M.d.v.v.n.d.d.i.d.n.v.c.M.d.i.d.i.d.v.d.u.v.t.&.t.i.f.u.u.d.v.t.7.#.t.d.g.d.v.i.t.u.g.d.x.d.x.x.x.n.M.d.i.d.n.v.v.v.d.d.s.7.i.v.n.x.d.d.n.n.n.7.t.M.d.i.M.M.n.n.n.n.M.M.n.M.n.v.v.M.n.M.v.M.P.a.t.D.D.e.p.n.M.n.v.v.M.M.s.t.t.Z.M.v.M.n.v.M.M.M.J.J.n.g.g.n.M.v.v.n.d.d.n.v.d.d.d.t.$.i.n.i.*.t.f.v.i.t.7.t.M.d.d.v.v.v.v.n.d.d.i.i.v.g.i.d.u.d.c.d.v.d.t.u.d.u.+.t.d.i.=.u.i.d.7.#.@.7.a.i.*.i.c.i.i.c.i.i.v.i.y.d.d.d.i.a.i.e.6.t.t.7.t.t...@.t.t.*.t.i.g.e.$.e.@.d.i.t.t.i.t.*.&.#.$.t.t.i.e.$.t.a.t.t.t.t.i.a.t.y.d.+.7.d.u.u.i.t.d.t.7.6.@.t.t.i.t.t.t.t.i.t.t.t.t.q.t.7.6.7.t.7.7.7.@.7.7.@.6.{ ..4.7.q.6.7.a.7.4.| } 7.6.| +.@.+.+.| +.#.@.4.4.@.4.+.| | ` +.@.@.6...+.6.} Q 4.6.+.{ | +.1.R U W _ { } { _ W Q R W _ ` _ ` { _ ! Q Q _ [ { [ W T R E F c U U R S U U T S f l V b U c c f f S U c c T S l x F F S V x x B B f c W V B S U S B F S E ",
"Z F W W Q U F Z Z U R T W W ( T W R _ ` | ` } _ { 4.+.4.6.+.| | 4.+.+.4.} W ) } | { ) U W R Q W | 4.+.4.+.| | { | +.+.+...@.@...@.+.#.$.#.7.7.7.7.7.+.+.+.+.$.t.t.t.#.@.+.+.t.y.t.t.t.t.t.y.i.i.i.t.i.u.t.t.i.d.a.e.$.t.t.i.t.t.7.+.6.$.t.i.u.t.+.#.e...6.t.$.t.d.i.i.d.d.d.d.a.t.t.t.t.i.u.t.t.y.d.v.d.i.n.d.7.a.a.u.d.g.d.d.u.t.e.a.c.v.M.M.J.v.g.v.n.M.M.M.v.g.n.v.M.g.a.i.d.a.n.v.v.d.7.s.i.d.M.n.M.n.g.i.s.e.g.d.M.v.n.v.n.d.d.d.d.d.d.n.v.n.M.n.v.i.d.v.n.x.d.n.t.&.t.u.d.i.v.u.u.&.e.#.i.v.d.v.M.d.i.i.v.v.n.n.v.v.v.n.M.d.i.g.n.v.n.d.i.v.a.7.i.v.v.v.M.n.n.v.v.t.t.n.n.n.n.n.M.n.v.n.M.M.M.M.M.n.M.Q.Q.n.n.M.M.n.g.M.D.t.p.g.i.v.M.M.M.n.a.s.p.n.P.M.M.M.n.n.n.n.n.M.M.g.g.n.M.n.M.M.M.v.i.d.f.v.g.t.6.t.u.u.i.f.d.u.*.t.e.p.n.v.d.d.d.v.v.n.d.u.t.i.f.v.v.d.i.v.d.v.v.v.g.i.d.i.+.t.u.i.u.i.i.u.#.#.#.t.d.d.t.i.i.d.i.v.i.i.d.i.u.d.d.v.i.i.y.t.t.t.t.e.t.e.+.+.7.t.*.i.i.t.+.7.t.#.t.i.t.t.t.u.%.t.t.u.$.u.u.*.7.y.i.y.t.i.t.d.i.i.i.i.@.t.t.$.u.g.d.d.$.7.7.7.t.a.t.t.7.7.y.d.i.t.t.7.7.t.q.$.t.t.t.t.t.t.q.#.#.6.| +.@.#.t.t.7.7.@.+.....6.@.+.7.7.+.+.+.@.6.#.+.@.e.6.+...| +.@.#.#.7.+.#.7.} ( | ..+.4.4.} _ W U R } { } } } [ ) E W R { | { { { { _ _ } { } { Q Q ( ) W S U S R W R b b c h l S S T c l h b c c b U U U b U W U z U S F V V c U E B f M S U U U B B ",
"B M V W U U V B A V W R W U R T R U T _ _ { } _ } | 4.+.@.@.+.{ | o.+.+.[ E ) W _ ) Q F F ) [ R { 4.+.+.4.| ..{ { | +.| +.+.| +...| +.@.7.@.7.7.#.6.| { 6.] +.7.t.#.+.7.6.| 7.y.t.t.7.t.a.t.t.a.i.t.t.t.t.t.a.u.t.7.#.t.t.t.t.t.+.+.6...@.t.i.6...7.7.} 4.t.$.7.t.i.d.i.t.i.a.a.t.t.t.a.u.u.t.t.i.i.i.d.d.v.t.@.p.a.#.t.n.v.t.t.a.7.a.n.d.n.M.M.M.d.d.n.D.M.n.v.v.n.v.v.d.d.i.a.d.g.n.d.d.6.s.t.*.M.M.D.d.t.d.p.7.g.d.d.g.i.g.v.d.d.n.n.d.g.d.n.n.n.n.u.u.d.d.g.c.f.g.$.$.u.$.t.u.u.t.$.&.t.#.t.d.n.d.v.n.v.i.d.n.n.n.v.d.v.n.v.i.f.d.d.c.v.i.u.d.t.#.i.d.t.i.M.n.i.=.v.t.t.n.m.n.M.n.M.M.v.f.n.P.M.M.M.M.P.Q.J.n.g.v.M.J.n.D.Z.7.r.d.t.e.n.P.n.t.a.s.e.n.P.n.v.n.n.v.g.v.v.v.d.d.d.n.n.M.M.M.g.d.u.i.i.g.d.e.6.e.#.$.u.i.u.#.$.s.@.e.g.d.d.u.t.d.v.d.d.i.i.d.i.d.v.f.d.d.n.c.d.v.d.i.i.t.+.t.&.$.i.d.t.+.+.e.+.7.d.i.i.t.i.d.i.a.i.i.t.i.t.i.n.a.d.d.t.7.t.e.#.7.7.4.| 6.| #.t.u.7...| t.6. .t.i.*.u.7.#.$.t.t.e.7.t.q.t.7.t.i.t.t.i.u.i.t.t.u.t...7.t.$.+.u.d.e. .t.q.+.a.a.t.a.t.#.7.t.i.t.$.t.7.7.7.7.#.7.t.t.y.y.#.+.#.6.{ +.#.` 7.t.7.4.| 6.4.{ +.+.#.#.#.+.+.#.@.+.@.@.@.@.@.] ` 6.6.+.@.@.+.@.+.4.| [ } ) _ } | ) T ) ) T _ { _ _ } <.[ _ [ E R } { _ } Q R W _ } { _ ) W Q [ S x F l x W R c x S l y S c b U b U R c S c c U W H U W V f V E c U W c S V f M C y B F Z B B ",
"B M A V E F V F U V W W R R R ( _ R Q R { _ { { ..| 4.+.+.6.+.| 4.+.+..._ Q >.[ W F V B U [ } R } 4.| +.4.@.6...| } | +.@.+.| | ..+...` | @.7.7.$.7.| | 7.@.+.@.#...+.t.7.| 7.y.t.7.q.t.t.y.t.t.u.i.t.t.a.a.y.d.i.t.t.t.t.t.u.t.#.6.7.6.#.t.t.+.#.t.7.{ +.t.t.t.t.t.i.i.t.i.i.d.i.t.a.d.i.d.d.i.d.d.d.g.g.d.t.+.a.d.7.e.t.a.7.i.n.e.a.M.g.n.n.n.n.n.n.n.n.D.n.M.n.v.d.d.v.v.v.v.g.n.d.n.d.7.s.a.&.g.M.d.t.u.M.s.r.n.v.d.i.d.g.n.v.v.v.M.v.g.g.M.n.v.i.i.i.d.d.v.d.v.d.$.e.a.$.e.t.u.e.$.i.d.$.t.n.M.v.n.v.v.d.g.d.v.c.v.v.n.M.v.d.n.v.d.f.v.d.u.i.t.#.i.d.t.7.g.v.t.t.P.u.t.n.M.n.M.n.M.M.M.v.n.M.M.M.P.M.M.M.n.g.n.n.n.n.M.P.D.r.p.Z.s.e.s.D.u.t.Z.d.e.g.J.v.d.d.n.M.v.v.n.M.g.g.g.v.M.M.v.n.i.u.i.d.d.d.g.t.7.t.t.#.&.f.e.+.t.a.#.e.d.g.g.u.t.u.d.f.f.d.d.g.d.g.d.d.d.d.d.u.i.g.i.g.i.e.+.t.u.#.&.f.e. .e.a.O.t.a.t.t.t.a.d.i.a.c.c.d.d.i.d.d.d.c.i.7.7.7.7.@.6.7.4.4.7.| ....#.....4.t.#.] 7.t.u.i.$.$.+.$.$.+.$.t.u.t.q.t.t.i.i.i.t.t.t.i.i.t...7.d.t.+.7.t.+.#.n.t.#.a.a.i.d.t.t.e.t.t.t.t.t.t.e.6.@.#.7.$.t.t.$.#.+.6.7.{ 6.7.] +.t.t.4.| r.6.{ #.+.+.7.#.@.6.e.#.@.#.#.@.+.4.| ] 6.7.#.7.6.+...@.4.| } 1.| ) R } ) R | } U _ | { { [ [ { | <.) ) [ _ } | R U U ) [ [ [ [ W W W V B W S l l U U b S M l U b S b U H U T U b b b U T R U l l V V U V V c S B f Z E M g M F M F ",
"B B B M Z B V U Z V U U R T H R _ ` ` Q _ _ _ } | { { | @.o.| { | 4.| | ) W [ <.Q m n C ) Q ) ) } | ..| | +.+.4.| _ } +.4.+.` { +... .' ] ..+.$.#.@.} { 7.e.7...' +.q.t.4.o.7.t.t.t.t.t.t.y.t.t.t.t.y.a.t.a.d.i.i.i.t.t.t.u.t.t.6.+.p.t.@.4.4.@.6.t.6.} 4.q.7.t.t.e.7.t.i.y.t.i.y.t.t.i.g.i.i.d.i.d.g.d.i.g.a.+.a.d.d.t.@.7.t.n.a.7.a.c.d.v.d.g.d.n.c.c.n.n.v.n.c.d.i.d.d.d.v.v.d.d.v.n.a.#.a.n.i.u.a.s.t.M.d.a.e.g.v.g.d.v.d.d.n.v.v.n.g.d.n.v.M.v.g.v.i.i.c.v.i.d.d.#.e.g.i.t.$.e.&.t.i.d.$.i.n.g.n.g.d.n.d.d.i.d.i.d.v.v.v.v.f.v.f.v.d.d.g.d.y.t.@.t.d.M.7.7.e.v.n.n.t.t.n.v.n.M.n.n.M.M.n.f.n.M.n.v.n.M.n.M.n.v.n.d.g.n.n.g.e.r.z.D.s.e.r.s.Z.Z.p.e.d.n.d.n.M.n.v.n.M.n.n.M.n.n.n.n.v.v.d.g.g.a.d.d.i.g.t.#.u.n.t.#.e.#.t.d.e.+.7.g.d.d.d.t.t.u.f.i.d.d.i.v.v.i.t.i.d.i.i.u.i.d.u.t.7...t.g.$.#.t.#.@.u.7...#.t.e.7.a.a.s.d.n.d.n.d.a.d.a.d.n.s.#.+.7.#.@.$.t.7.| | q.7.+.{ +.| 7.7.6.#.] t.t.*.t.u.$.@.$.#.e.7.&.u.t.7.t.t.i.t.t.&.t.t.t.t.a.+.#.i.d.t.7.#.t.i.d.t.#.t.d.t.t.d.i.$.t.t.t.t.q.t.t.7.4.@.@.@.t.7.@.@.#.#.4.` | 7.@.` 4.7.| +.7.| ..6.+.+.7.@.] @.6.@.7.#.+.+.#.@.+.+.| @.7.@.+...| ....[ [ 4.4._ ) Q W ) ) [ ( { } _ _ Q } { Q [ [ R _ { _ _ R U W ) Q { _ Q U S U V x Q Q V f x z W V f S W b h c T c c H H U U V V U T U x V U B U c V b S x f B F U V d M M E ",
"B E U V B B U W V x U T ( T U b E _ _ Q ! { | _ { { } | +.+...} { | { } [ W [ <.[ Z B W ) R ) Q { 4.4.| | { { | +.| { { +...' ` +.+.@.@.@.+.#.#.+.#.| { 6.$.7.+.| 6.t.q.6.+.7.t.t.t.t.t.t.t.t.t.t.t.y.t.a.a.y.t.t.i.i.i.t.t.t.t.6.+.s.i.7.| 4.t.t.t.6.| 6.t.t.t.t.t.7.t.a.i.i.i.t.i.d.d.u.t.t.i.i.u.i.i.d.g.s.4.a.g.d.d.t.y.d.d.u.7.a.d.v.n.n.M.v.M.n.n.n.n.v.n.d.d.d.g.i.d.i.d.d.v.v.n.d.6.t.M.m.v.t.t.M.M.d.a.t.n.d.v.v.v.g.n.g.M.v.v.n.v.g.M.v.M.v.M.d.d.d.i.d.v.v.7.e.g.v.d.$.7.t.v.t.d.t.d.n.d.a.g.g.n.g.d.u.u.i.d.d.n.M.v.d.n.n.n.v.v.v.v.v.d.#.t.d.n.d.q.i.M.v.n.t.t.n.v.v.M.M.M.M.M.M.n.M.M.n.g.g.n.M.P.M.n.v.v.g.d.n.D.p.p.z.D.n.p.p.J.P.Z.p.t.g.n.g.M.M.M.M.M.M.n.M.M.d.a.n.n.v.n.M.M.M.v.n.g.g.n.s.7.u.d.d.7.#.u.v.u.7.+.7.g.d.d.v.i.u.u.d.d.d.d.f.n.v.u.t.i.v.g.n.d.g.i.u.u.e. .e.i.t.$.e.#.i.d.7...7.t.e.t.a.a.s.n.d.a.t.t.s.t.p.s.d.7.+.#.t.#.e.e.t.t.+.{ 7.i.t.6.4.e.a.$.7.4.| u.i.t.t.*.t.t.t.*.i.*.u.d.i.t.t.t.t.&.t.t.i.t.t.u.d.@.6.y.i.u.t.t.n.y.t.q.$.d.a.i.u.t.t.i.t.t.i.t.t.t.t.t.7.@.7.q.t.7.#.#.#.$.6.' | t.t.#.7.@.@.7.7.} | 6.#.$.7.@.| ..6.+.@.#.+.+.@.+.6.@.+.@.+.+.+.@.+.| | | _ 1.4.| } } } _ _ [ ( } | _ Q _ } | [ [ Q Q } | Q ~ ) Q ) { _ } [ Q S U W S V W R W U B x W U x c W b x c b U U U H b U V F V E U F S E V b U U c c Z M f Z E U M n E E ",
"B B U ) U l U E h x W U T R H H W W Q ( | { ` _ } { | ` { | } } | { ..} ) Q Q _ _ W Q W E W ) Q } <.4.1.} { +.{ | ..` | ..` ` ` ` +.+.+.+.@.#.| +.#.{ { #.+.+.@.7.7.+.7.#.| 7.t.t.t.t.t.t.t.t.t.q.y.t.7.t.d.a.t.t.t.t.i.t.t.t.t.4.4.7.t.t.7.t.a.#.6.4.{ 4.t.q.t.u.t.7.7.e.a.d.u.i.i.d.i.t.t.i.g.i.i.i.g.d.c.a.+.s.a.q.i.n.M.y.t.s.6.p.M.d.n.n.v.M.n.n.n.d.v.c.t.a.v.d.d.d.i.i.d.g.n.d.n.g.6.a.d.v.v.i.D.n.d.t.a.t.n.d.v.v.g.d.d.g.g.g.n.v.v.d.v.v.v.v.d.d.i.d.g.d.d.n.$.e.d.i.d.t.d.a.i.$.t.e.u.n.d.u.d.d.d.d.a.a.t.d.d.t.d.n.d.d.v.M.n.n.n.d.d.v.d.$.s.a.t.i.v.M.d.t.g.t.t.n.n.v.n.M.M.n.M.n.n.J.M.d.d.d.g.n.n.M.M.g.g.g.g.n.z.p.s.d.s.d.Z.Z.Z.d.d.s.t.d.M.v.g.n.M.M.M.v.v.M.d.t.e.s.M.v.d.n.v.g.n.v.d.g.g.t.7.u.t.t.i.i.d.u.#.6.#.$.i.d.d.d.d.d.t.u.d.f.i.f.v.d.u.i.i.a.g.d.d.d.i.i.t.e.+.$.t.&.t.g.t.t.t.6...7.7.t.t.t.a.d.a.a.t.t.t.a.6.+.7.d.#.+.6.e.&.u.$.$.t.7.` 4.7.t.@.7.e.4...7.+.| t.t.t.*.$.u.*.*.t.*.d.f.d.i.*.t.t.t.t.i.t.t.t.t.u.a.+.@.t.t.%.y.y.u.#.t.7.#.a.t.t.t.q.t.t.i.t.*.t.d.7.@.q.t.t.t.t.$.@.$.#.+.#.7.` | #.7.t.y.t.a.6.| { ..+.+.7.#.| +...| 6.+.| | @.#.+.+.#.#.+.+.#.+.6.6.+...| ( } 1._ | 6.4._ R ) W } 4.{ { } [ _ | ) F W } _ U Q } ) W _ { { _ W W W U V x S Q U U Q U S x l B S c T c b c S E b c S U F B B U U c V U U V S c S x f B V V U U F F Z ",
"M f x U E x V V h U R K Q T W T ) R _ _ | _ Q Q { +...} } _ ` | ..| ..+._ ) _ R ) W Q U S U ) ) } 4.4...| | +.+.@.4.| +.@.| +.| | ] ` _ ` | | | +.#.{ } 6.+.' +.t.6.+.#.@.| 7.y.t.t.t.t.y.t.t.t.t.a.t.7.t.s.d.y.i.i.t.t.e.$.t.a.7.4.7.+.#.a.7.4.| @.6...6.t.t.t.t.t.t.t.t.u.i.c.t.t.u.i.u.i.d.v.d.v.d.i.g.n.t.+.s.a.$.i.n.d.t.t.d.7.s.M.n.n.d.i.d.n.M.n.n.n.d.p.a.v.v.d.d.d.d.v.n.n.n.n.g.t.a.a.t.d.M.J.a.t.t.d.e.n.v.v.v.n.g.d.d.d.d.J.M.n.n.n.n.n.d.d.d.d.d.n.g.v.M.t.t.d.t.e.i.J.d.7.$.a.e.i.n.d.d.n.d.d.d.d.s.d.n.a.7.p.a.d.d.v.x.v.v.v.v.v.v.d.7.s.d.e.t.M.M.i.&.g.t.t.D.M.n.n.M.n.n.M.M.M.n.n.g.d.n.n.g.n.n.n.n.n.n.n.n.z.p.d.g.t.p.G.G.a.7.d.d.t.n.P.v.g.g.v.v.n.M.M.n.a.r.r.p.d.n.n.v.g.d.i.d.i.g.g.u.e.d.e.&.d.v.t.6.#.t.$.&.i.d.f.d.d.v.i.u.f.g.f.v.v.d.g.d.i.d.t.t.t.i.i.d.u.e.+.e.&.#.t.D.t.+.+.7.+.7.u.t.t.t.a.d.a.a.t.i.i.t.4.4.7.u.7.#.#.t.*.i.*.$.u.7.| 6.| ....e.r.} _ 7.+.+.e.t.t.=.*.t.-.-.*.t.i.i.t.%.t.u.u.t.t.i.t.t.u.i.u.t.#.#.t.#.$.i.d.t...e.t.7.a.d.t.t.t.t.t.t.*.i.t.7.+.4.6.u.t.q.7.#.$.t.$.#.#.6.| ..6.@.| #.t.+.' | ..| +.#.@.#.+.@.+.+.6.#.| { +.#.@.@.@.@.@.7.#.#.6.6.#.4.1._ <.1.) } 4.{ ( _ _ W } 4.| ..1.} } <.Q U _ <.W E [ [ [ Q _ { [ ) Q W Q W S x U U W W ) U x l B x U b R T U x c x c S S U U B B U E U c U U c S S U U B M A B F F E B M ",
"M f f f B x x f F S T ( ( H H E T Q { Q R Q _ ) R _ } | ` ( } } | | { 4.} _ [ W R Q U F S W [ W _ 4.+.{ ..| { +.+.o.+.| +.o.| | | ' _ _ ` { +.+.` @.} _ @.+.` { +.@.` @.6.| 6.y.y.t.t.t.t.t.t.t.t.t.7.7.7.t.a.d.t.t.i.t.t.t.7.t.6.4.t.....7.4.} ..6.@.| 7.t.$.t.t.t.t.t.t.t.i.d.t.$.t.d.d.d.i.d.d.d.i.g.d.n.t.+.p.a.#.7.s.t.7.t.s.e.a.D.v.d.i.d.d.n.c.n.n.d.t.t.t.t.v.g.i.d.d.v.d.n.M.n.d.7.a.t.7.t.n.d.t.t.u.s.7.g.v.d.v.v.v.n.d.d.g.n.M.n.n.D.c.d.d.v.d.d.n.d.v.v.M.&.t.d.e.#.7.s.p.7.t.d.$.t.c.n.g.d.n.n.d.a.a.n.a.7.7.p.t.i.v.v.d.x.d.v.n.d.M.n.$.a.d.t.6.a.g.t.$.d.e.6.D.M.n.M.M.n.M.M.M.v.d.d.g.n.g.v.v.g.d.n.n.n.D.g.D.Z.t.s.d.7.6.j.Z.e.6.k.s.e.n.M.v.v.d.g.v.c.M.M.s.r.r.r.7.t.g.n.v.d.d.u.d.v.d.g.t.7.d.t.@.t.d.e.@.7.t.#.$.g.d.i.d.d.d.x.d.u.d.n.v.d.g.i.d.g.i.t.t.d.d.t.u.i.e...e.e. .#.p.6.' ..6.] #.a.t.t.a.t.t.t.t.t.d.t.@.4.7.+.#.e.$.+.e.$.t.t.*.7.+.| 7.{ .._ 4.4.( { 7.| ` 7.7.+.$.u.*.=.u.$.$.7.$.@.*.t.u.=.u.t.=.u.d.i.t.*.t.+.6.e.+.+.7.a.#...a.t.@.a.c.i.7.t.t.6.#.q.t.7.+.4.7.@.6.t.#.+.6.#.#.t.#.+.#.| | 6.| _ } +.| _ +.+.' ..#.+.+.#.@.+.| 6.e.| { | ..#.+.o.@.@.+.#.7.@.+.#.5.1.} } } R R [ { _ | } R _ | | } <.4.[ _ Q E [ [ S F W E ) _ Q W Q Q ) W E ) U x U V T Q U B B V U x V b H R U W U l c c c W U l l V U b U U W U z x S S f n l M f M B m M ",
"M m f d B B x x E c U R H H W b W W W U E ) } _ ) R _ | { } ..{ 1.| | 1._ ) } ( R W U V U _ <.Q _ | | | 4.+.| | +.+.{ ` | +.| | ` ` ' ' ..{ ..+.+.@.} _ @.+.' ` | +.+.#.6.| #.t.t.y.y.t.y.y.t.t.7.7.r.t.r.0.t.s.a.t.t.t.d.i.t.s.7.6.p.6.4.4.4.| +.7.4...#.t.t.i.i.i.t.u.i.t.d.v.d.u.i.d.i.d.d.d.i.i.g.v.d.n.a.@.a.p.6.7.7.6.7.t.d.t.s.D.d.d.v.M.n.M.n.M.d.p.t.s.a.t.t.g.g.v.d.n.n.n.n.n.g.e.t.t.e.t.a.s.t.e.u.s.e.g.v.v.v.v.M.M.M.J.M.M.n.D.n.n.d.d.v.M.g.d.d.v.n.g.v.e.t.d.e.7.6.7.7.t.t.g.e.t.n.D.n.n.n.n.g.n.n.d.p.7.r.p.r.a.d.M.n.v.v.M.M.n.M.M.e.t.g.s.e.t.t.e.e.g.t.7.d.M.v.g.g.M.M.v.g.g.d.n.n.v.n.n.n.g.g.n.D.D.D.n.n.n.e.s.k.r.7.r.p.e.e.Z.d.t.n.n.n.n.v.v.v.M.D.d.t.p.p.e.e.e.t.g.M.v.d.i.g.v.g.g.t.e.d.p.6.e.t.7.6.t.u.$.e.g.g.d.g.v.v.n.M.d.f.v.n.v.d.d.g.v.i.u.i.d.d.a.i.g.t.+.e.e.....6.+.| +.6.] #.t.i.u.t.t.t.t.i.t.e.@.4.7.7.4.6.6.7.#.7.e.t.e.t.$.#.| 6.#.1._ 1.| } } 7.+.' 6.+...$.i.u.t.$.@.t.#.+.$.i.=.u.i.i.t.t.u.i.t.&.t.i.6.6.e.+...6.e.6.@.s.t.#.t.t.t.t.t.t.#.e.e.6.4.4.4.6.6.6.#.$.#.7.6.4.@.+.@.7.......} ' | 4...' +.+.' ..6.#.#.#.7.#.] +.@.@.+...+.+.+.+.6.6.+.+.@.@.@.7.7.| } ..| ) R [ { { ..| _ { 4.4.| | { } | <.Q Q E U W W U Q _ _ _ _ Q [ R W W U F U S W E U B S U U S U c U R U ( R U U c R U U l l V E U R W R U c h c l y f M M f m M m Z ",
"m m B M M f x V c c U H T U U T R E S U W Q ( _ _ R ( ( { | { | { ` ..1.( Q [ _ W U U B V ) [ Q _ } ..| ..+.| { | o...{ { { ` ` { ` { ' ` ` ' ..| @.} _ | | _ { ..| | 6.4.| #.%.%.y.y.t.t.t.t.7.7.7.7.7.7.7.7.e.a.y.t.t.t.i.i.t.6.+.0.7.@.+.....| 6.7.+.$.t.t.d.i.t.i.i.t.i.d.d.i.i.t.y.d.d.i.i.u.d.a.d.v.n.t.@.a.t.4.6.7.7.@.7.s.7.a.D.i.v.v.M.v.v.n.n.a.t.t.t.p.a.t.a.d.d.g.n.n.n.d.n.d.7.t.t.e.7.p.t.7.t.e.p.7.a.d.v.c.v.v.n.P.J.M.J.n.n.n.a.d.n.n.n.v.v.a.d.d.n.g.$.e.t.e.#.6.7.6.7.t.a.7.t.v.d.g.g.d.g.g.n.g.p.7.r.r.r.p.t.t.g.M.n.v.v.n.m.m.v.&.a.d.t.e.e.7.t.t.s.t.#.a.n.g.i.i.f.v.v.d.d.M.n.g.d.n.M.n.n.n.g.n.D.D.n.n.d.e.s.j.0.0.r.r.7.7.k.s.t.n.M.g.v.v.v.n.n.d.t.r.r.e.r.p.t.e.t.n.v.i.d.n.d.d.n.s.7.a.u.7.7.6.4.#.6.t.t.7.i.d.v.d.i.d.d.v.v.i.i.v.d.d.f.d.i.i.i.i.t.d.a.d.i.e.+.7.#...+...| +.| 4.....7.t.t.t.q.e.7.t.7.+.+.7.4.4.4...| 6.t.t.$.t.+.#.t.#.} | 6...} _ _ | _ | 7.{ +.#.] +.e.&.$.$.+.+...+.&.=.=.*.u.u.*.t.*.t.$.t.*.t.6.@.t.+...4.4.4.@.t.a.$.t.t.$.i.t.7.t.a.7.4.4.6.4.4.7.6.+.#.t.7.@.@.| +.7.6...+.| } { ..| | } { ..| ..#.$.#.@.@.+.@.o...+.+.6.@.| @.@.@.6.@.| | 6.#.@.6.{ { | _ _ } [ _ { { | { { 3.o.| { } <.} _ W W E W R W E W W } | { ! W W W E U V U W S V V V F B l S U b c T R H W R K T U V V c S Z V W W W U z x c U z y M M f M f n d B ",
"m M B f M f l V S x c T ( R U ( ) U S U ) R Q _ _ _ ( ( | | | } } } +.4.) _ } _ W U U S S U [ _ _ | +.....@.+.{ | o.4...| { ' ` ` | ..| ` | @.| ] 4.} _ | ' _ { ..| | 6.6.| #.q.t.t.t.t.i.t.7.7.r.7.7.7.7.0.0.7.7.a.d.i.t.t.t.i.7.+.0.6.+.4.....| 7.6.+.t.t.t.t.t.t.i.i.i.d.v.i.t.d.i.i.d.v.i.i.d.d.d.g.n.n.t.@.a.p.4.7.7.7.6.7.a.t.t.D.v.v.d.v.v.M.d.a.p.s.p.p.t.s.a.a.u.v.g.d.d.d.d.n.d.7.p.e.e.e.t.e.7.e.e.s.e.d.v.v.v.M.n.n.n.P.P.P.M.n.d.i.d.M.n.n.M.n.n.n.d.n.v.e.e.u.e.#.7.e.7.7.e.d.&.i.d.d.d.d.d.n.g.d.p.t.r.r.e.r.p.p.t.s.d.M.v.v.v.n.M.v.e.a.d.t.7.e.e.a.t.d.a.7.s.n.g.g.d.g.v.g.g.v.n.M.n.g.v.M.M.J.M.n.D.D.n.g.n.g.e.s.k.r.r.r.r.0.r.k.s.e.n.n.v.n.n.J.D.s.t.p.p.r.r.7.p.s.t.e.u.d.d.d.n.v.f.n.a.e.d.p.7.7.6.6.6.#.t.t.#.t.i.i.i.g.d.t.i.i.i.i.v.M.g.i.d.d.d.i.i.u.d.i.u.t.6.+.e.+.| +.........7.+...t.t.t.i.t.t.t.6.+.+.4.6.4.4.4.1.| 6.t.g.t.7.#.#.#.7.| 4.7...} ) _ ..( } 1.{ 6.e.+.+.+.*.$.t.+.| | t.$.*.u.u.u.t.u.i.t.t.t.u.t.t.6.7.e.4.1.4.4.6.4.t.a.7.i.i.i.i.i.d.a.7.4.7.4.6.4.4.7.6.+.6.6.t.t.6.@.7.y.7.......| | } ..+.' | ..' +.7.#.#.$.#.7.$.7.7.+.+.6.+.+.7.t.6.4.+.+.....@.e.6.` | 4._ _ } _ { { } } _ | 4.} } 3.<.<.W E Q ) W E W Q _ ( ) { } 4.{ ~ _ { _ W U W U A V V S U B l l S W S U ( U U H T c b c S U W b E U W U b S V S U S M l C M M m m m M ",
"m m f M M t t A S l U T R K ( Q W S S U W R Q R R ( _ { _ | | _ | } | 4.Q Q } Q R S F F V U Q W } | | +.+.+.+.{ ` | +.+.{ _ } } _ } | +.6.| +.@.+...T Q | _ { { } | ' +.7.{ @.t.q.q.t.t.t.7.6.7.7.7.7.7.7.0.7.4.4.7.a.y.t.t.q.y.#...7.4.+.4.| | ..6.@.| #.t.t.*.t.t.t.t.d.d.u.t.y.i.t.i.u.i.v.d.y.d.n.v.a.d.a.@.a.t.6.7.7.7.7.7.s.7.#.n.d.d.c.v.d.a.t.t.s.s.t.t.p.a.a.a.p.a.g.g.i.d.d.g.d.7.p.e.7.t.7.e.7.6.p.s.$.v.d.d.v.M.v.d.d.n.J.n.n.n.d.n.n.g.n.n.v.M.n.n.d.d.n.$.e.u.$.7.6.e.e.#.7.a.$.i.n.n.d.n.g.n.d.t.e.p.t.7.9.r.t.p.p.p.t.d.n.v.d.v.M.d.7.s.d.e.7.e.t.e.t.d.t.7.d.d.d.n.d.i.v.n.v.x.d.v.n.g.d.g.M.n.n.D.D.n.g.g.D.g.e.s.z.t.0.p.h.0.9.k.s.e.n.M.v.v.M.D.d.p.p.p.p.r.r.p.s.p.p.e.7.t.d.d.v.g.g.n.p.7.u.e.6.7.7.4.+.7.t.#.#.i.t.i.v.i.i.i.i.i.g.i.i.v.i.u.i.d.i.t.t.u.u.7.7.e.+.| 6...} } 1.{ ` ..6.+.#.t.t.t.t.a.t.7.@.| 6.4.+.4.4.| | } 1.6.e.e.6.@.e...+.| +.7.| R _ ) _ _ ) ) _ ..#.#.#.#.t.#.+.[ Q } t.*.u.=.u.=.t.t.i.u.t.$.t.i.a.@.#.7.4.1.4.4.4...0.7.@.d.n.y.i.i.a.7.4.4.7.4.4.6.6.4.7.6.+.+.6.7.t.t.7.t.e.| ..+.} } | | ..} ..| ( } #.+.#.t.t.@.+.7.7...{ | +.6.7.7.7.@.6.6.+.| | @.+.' { 4.{ R ) [ ) { | _ R | 4.{ [ <.} R R ~ Q Q S S W Q W _ Q E W Q _ } _ } [ U F U V V B F V V S V h U W c E U U U S b H S V W b H U U H U c U z U x c U x f B M d m M m m ",
"M m m m m t d f V c T H R ( } R U S U W W W ( R _ ( } _ } { } { +.| ..4._ ) | _ R U F F S W Q W | | | | +.4.+.{ { +.+.{ _ ` | { | { { +.+.+.4.| { | T Q | { { { } | ' | 4...7.t.t.t.t.t.6.6.6.7.7.7.7.7.7.7.7.7.6.6.7.a.t.t.t.i.6...7.4.+.4.1.| ..7.6...+.t.t.t.t.t.t.u.t.t.t.u.i.i.a.d.t.t.i.i.i.d.d.d.i.d.a.6.t.a.6.0.9.7.7.t.d.7.7.n.d.d.n.n.a.t.p.s.p.s.p.t.t.p.s.s.a.s.a.n.Z.n.d.v.d.7.a.t.7.e.e.e.7.7.a.s.e.d.v.M.n.n.d.d.d.D.g.M.v.n.n.D.n.n.n.n.v.n.M.D.n.g.v.$.$.u.e.7.7.7.e.$.e.i.$.d.M.D.D.D.n.d.t.p.t.s.p.e.7.r.s.s.p.a.a.a.d.n.n.v.n.d.e.a.d.e.7.p.p.t.t.g.t.t.Z.v.g.n.d.t.v.M.v.v.v.n.n.d.d.g.n.n.g.n.Z.n.n.n.D.Z.e.s.z.t.0.h.h.0.r.z.s.e.n.M.n.M.D.s.t.p.s.p.p.s.p.a.s.s.p.r.7.e.t.d.M.d.n.n.t.e.d.e.6.r.e.6.6.e.i.$.e.d.i.d.v.d.i.i.i.d.g.i.i.i.i.i.d.d.g.i.i.t.t.7.e.e.#.| #...} | 1.| _ ' 6.#.$.y.u.i.d.a.t.#.#.6.@.+.+.4.1.} } 1.4.| 6.4.7.7.t.6.+.| +.4._ _ | ) ) } _ R [ } +.$.u.t.#.] ` ` ` | #.t.i.u.u.i.f.u.i.t.$.#.7.t.t.+.7.t.4.1.4.4.4.4.t.7.6.a.a.d.n.t.7.6.7.4.6.6.4.4.6.7.7.6.6.4.4.6.p.t.t.s.7...4.4...} | ....| #.+._ ` @.$.7.7.#.+.] #.e.+.' | 7.7.t.t.t.7.6.6.7.6.+.| | { | +._ ) [ } { ( { { _ { 4.+.| <.[ Q [ [ W E S S W Q Q ) W W U W Q _ ) [ Q U W W F A Z F Z c W E S W U S H U T W U T H U W U U U S U U S S S U U c S U x B A M f m B M M ",
"m M f t n t t B x x c R ( R T b b S W U W W W R Q R Q _ ` _ { { } +.@.4.Q _ <.} W F U V c _ _ W [ 1.| { ..4.| { { | | _ _ _ { { | ` ` { { | { ` | | R Q } ` _ [ } { ` | 4.| 6.q.t.t.7.6.4.6.7.5.7.7.4.7.7.4.4.7.6.4.7.t.t.t.t.t.6.| 7.6...4.4.} ..7.6.| 6.t.t.t.t.a.t.t.t.t.s.i.t.t.a.a.t.t.t.i.d.i.t.u.i.c.a.#.t.t.6.7.0.7.7.t.d.t.t.n.g.n.a.a.p.a.p.a.t.p.t.r.t.s.s.a.s.a.t.s.d.M.d.c.a.7.a.a.7.7.e.e.6.e.d.a.e.n.v.v.n.c.d.n.d.d.n.d.d.n.n.n.n.n.c.c.n.d.D.D.n.c.g.$.#.u.t.#.7.7.e.$.t.a.@.i.D.n.n.D.d.p.t.p.p.t.s.p.t.a.p.p.a.a.a.s.a.s.M.n.M.d.7.a.d.e.7.r.s.t.t.d.t.t.d.n.d.g.d.i.i.g.n.v.v.v.d.d.d.d.g.g.g.d.d.d.n.n.n.D.e.p.z.p.0.r.h.0.r.S.s.e.n.M.M.J.d.e.p.p.p.r.p.p.p.s.p.p.p.7.e.7.e.s.n.v.g.g.t.7.d.t.#.7.7.7.#.t.u.#.7.a.d.i.d.g.i.u.d.i.i.d.i.t.i.v.d.a.g.d.t.t.e.t.t.e...} r...) | | | ( | 6...#.i.d.d.d.7.@.7.7.@.4.| 4.| | } <.<.4.4.4.4.r.7.7.e...' 4.4._ ( } ) R } <.) _ 4.+.+.t.t.#.O.&.@.$.+.+.&.u.t.u.u.i.u.t.t.i.t.#.t.t...6.a.4.<.4.4.<.6.s.7.@.t.s.i.t.t.7.7.7.4.4.4.4.4.6.7.7.4.6.4.4.4.6.t.t.t.7.| 4.7.4.[ } 4.| | @...` @.#.#.%.#.+.@.#.7.@...+.6.e.7.7.t.7.@.+.@.7.6.| +..._ | ..( R [ [ ) ( | _ R { | ..| { [ [ ( Q R U U W U E Q W U U W W [ _ ) [ W S W Q V Z A F V V W U c U U x W T S W U z S W S S U c c E V U V x S S c S V f B F l f m M M x ",
"M M f d m d l U S x U ( R b S V U U U W ) W Q U S S W _ ` _ { { { @.6.4.( _ 4.{ W S F V U } } R } 1.| ..4.| { { | | ..{ { ` +.@.| | | { 4.+.+.| | 4.{ Q | { ( _ | } { 6.6.{ 6.t.t.7.4.4.4.6.7.7.7.7.4.6.6.4.7.4.4.7.7.7.t.t.t.y.6.4.t.7...4.2.<.4.a.q.| 7.t.e.t.d.d.t.7.t.a.a.i.u.u.i.d.g.i.t.d.d.i.t.u.d.v.t.#.t.a.7.6.0.7.7.a.d.t.t.D.n.d.t.t.s.s.a.s.a.a.r.0.p.s.a.s.s.s.a.a.a.d.M.n.d.$.a.n.t.7.e.e.6.u.M.t.e.M.d.i.d.v.n.M.v.v.v.d.d.n.n.Z.n.n.n.c.n.n.v.n.v.v.M.&.#.d.t.7.7.e.e.e.d.d.$.i.n.n.n.d.s.p.a.s.p.a.s.s.s.s.a.s.s.a.a.s.s.a.d.M.Q.n.e.d.n.t.e.r.p.p.s.D.t.t.n.M.g.g.v.d.i.v.v.v.v.v.v.d.g.g.g.n.g.g.d.d.g.n.D.D.e.s.G.s.r.h.h.r.d.U.d.t.n.Q.M.d.s.s.s.p.p.p.p.r.r.p.a.s.p.e.e.e.e.t.d.v.f.n.s.e.g.s.e.7.r.6.$.d.s.#.t.d.i.d.d.i.i.d.d.i.i.d.i.u.i.d.v.g.g.u.t.t.t.t.u.t.#.| 7.6.} | 1._ [ 6.7.| #.d.g.t.7.#.6.7.e.6.6...| 1.<.,.1.2.9.6.4.4.9.t.a.s.6.| 7.7..._ ,.[ _ 4.r.} | t.7.+.e.$.*.*.=.*.u.&.$.$.*.u.f.u.t.*.u.t.d.t.t.t.t.+.7.a.e...4.4.4.t.n.t.4.t.d.u.e.7.e.7.e.7.7.4.4.4.7.7.7.6.4.4.7.9.6.t.t.t.e...6.t.7...| | ' +.7.] +.t.q.@.@.#.#.#.e.7.@.+.#.7.7.e.7.6.@.@.@.6.@.....#.6._ { +._ ) } | _ _ 4.} R | } ) _ [ } } Q ) W W Q ( W Q W Q W W W Q W [ [ [ W U ) [ F Z Z F B W [ E c Q U S W W U W U z S E E E S c U U U W c V x B c E z x x U F M m M d A ",
"C M f d y w V E c l U U x x x x S U Q W W W W U V S Q Q _ _ ` ` Q | +.+.( _ | | R x V S R { Q R <.| } | 4.{ _ ` | ` { ..{ { +.+.| ` | ..{ 4.@.| { +._ Q 4.| ( ( } [ { 7.4.{ #.t.6.+.4.4.4.4.7.7.7.4.4.4.6.7.4.4.4.7.7.7.4.7.t.t.5.4.a.t.4.<.<.1.0.a.6.o.6.t.t.t.a.a.7.7.a.a.t.y.i.y.i.d.d.d.i.d.d.t.u.d.i.d.a.#.t.d.7.4.7.6.e.d.a.7.t.Z.d.t.p.a.p.a.a.a.s.s.t.r.t.a.s.a.p.a.a.s.t.s.v.n.d.$.t.v.i.7.7.7.e.d.n.e.7.v.i.v.d.n.v.d.v.v.d.n.d.d.n.n.n.g.v.M.c.n.d.i.d.v.M.e.#.i.i.t.#.e.7.t.n.i.$.i.d.g.d.s.t.a.s.a.a.s.p.s.a.a.s.s.t.a.a.s.s.s.a.d.H.n.$.a.D.d.7.r.r.t.g.D.t.q.Z.n.v.n.d.v.v.d.g.v.d.g.n.d.u.g.n.g.g.n.d.d.d.d.M.Z.e.s.G.z.r.p.r.r.n.U.s.t.n.M.d.p.p.s.s.p.t.p.r.r.r.r.p.t.7.r.e.e.e.e.t.i.g.g.s.7.d.n.t.6.9.6.e.g.t...e.i.t.f.i.u.i.i.i.i.i.u.i.t.u.i.d.d.i.t.t.t.a.t.t.t.6.' 6.r..._ 1.) } r.6.' +.a.7.+.+...6.+.6.7.+...6.4.1.} } 4.8.4.4.2.2.6.t.t.6.| 4.t.7.} [ } 4.7.t.{ { t.7.$.#.O.$.*.$.*.*.u.t.$.t.t.u.u.*.*.u.t.t.t.t.*.t.+.+.a.a.4.4.2.6.a.d.a.4.t.a.e.7.6.7.7.7.7.t.7.7.7.6.7.7.@.6.6.7.7.4.7.7.t.p.+.+.t.t.@.{ _ | #.$.` ] t.$.O.+.+.e.$.#.6...| @.6.6.7.#.@.@.4.+.+.@.....#.4._ } 4.} ) ) } _ { 4.[ R [ _ T ) [ Q _ ( E W ) W W Q R W E W Q E W E Q [ [ E S Q ~ Q S M Z U _ W S x W W U U W R W c V z F U U V U V V U U U c x V V V V l l U U B f m d V ",
"Z A M t d f S U x f V c x S S x V W _ R W U W W S W _ ( _ _ } _ ( _ +.@.` _ ..@._ b b W _ } ( T } | ..+.+.` ' ` { | | | ` ` { ` { | +...{ } ` { ..4._ _ 4.4.} ( _ | 4.7.6.{ 6.7.+.+.6.4...+.6.7.4.6.4.4.7.7.7.7.7.7.7.4.4.4.t.a.7.4.a.d.e.2.<.6.a.a.6.+.e.i.u.t.e.7.t.t.t.a.u.t.t.i.d.d.i.d.d.i.y.t.i.d.i.d.d.#.t.n.a.e.6.7.s.n.d.e.t.z.s.e.p.s.p.p.a.a.p.s.s.s.t.s.s.a.p.p.s.s.a.s.i.M.c.$.t.v.v.t.7.7.a.n.v.7.7.v.v.n.v.n.d.g.d.d.n.n.d.g.n.n.d.n.n.M.n.n.d.i.d.n.M.t.@.i.v.d.e.e.e.d.M.d.$.d.g.g.s.s.a.s.s.s.s.s.s.s.s.s.p.p.p.s.s.s.s.s.s.t.c.n.e.a.D.J.s.e.p.d.M.P.t.t.Z.n.v.n.v.n.n.v.v.v.f.v.v.d.i.n.M.n.g.g.n.n.d.d.n.n.t.s.U.G.d.r.r.s.J.P.s.t.D.n.t.r.p.p.p.p.p.t.p.p.r.r.e.e.r.e.e.e.e.r.e.t.g.n.s.7.d.n.d.r.6.7.d.v.t...e.i.u.d.d.u.i.i.d.u.i.i.u.u.i.i.u.t.t.t.d.i.i.t.t.t.#.' 6.p.9.| } } 7.t.7.{ 4.7...| #.#.+.| ....+.@.e.6.6.| } <.1.4.0.4.8.4.4.t.t.+.6.s.a.4.| 4.s.t.a...| 7.t.t.$.#.$.$.t.u.t.d.i.t.t.u.i.i.=.*.i.u.t.t.*.t.i.@.+.t.d.t.4.| t.d.d.t.6.p.t.6.7.7.7.7.7.7.t.t.p.7.7.6.6.6.7.t.a.r.7.7.7.t.a.4.+.t.a.7.+.| #.t.$.' ..7.#.#.@.$.$.$.7.6.....6.7.6.6.@.@.7.6.@.4.@.@.#.7.6.| ` 6.6.| ) ) _ #.6._ W } } W ) _ Q ) Q W Q ) Q ) _ ) W Q Q Q Q ) W E W [ Q S Q } _ W A U ) [ U V F Q ) W U Q W W S S U U c U U W U E E U c c S W S S S l l U W F f f B U ",
"Z F B t t B U z h f V S V B V x V U W R H T ) E ) R R ( _ _ R Q _ L ] 4._ _ | +.| R R _ R _ ( U _ | ` +...` | } _ ` | ` | { { { } | { | +.{ { { ` ..{ Q | 4.4._ Q 1.6.5.+.{ 6.6.+.4.1.+.4...| 4.4.4.4.6.4.4.0.7.7.4.4.6.4.1.7.a.6...7.a.a.4.4.p.a.t.6.{ 7.u.t.7.e.t.t.t.7.t.t.t.t.a.a.i.d.i.y.t.y.i.t.u.d.d.a.6.t.v.v.a.6.a.n.v.t.6.t.z.t.r.s.p.p.p.0.r.t.p.p.p.s.s.p.p.p.s.p.s.s.a.t.v.d.#.t.x.x.v.t.i.v.c.v.7.7.n.d.v.n.d.d.g.d.v.v.n.g.d.g.M.v.n.n.n.M.n.i.i.n.d.M.t.#.i.v.g.t.$.i.n.v.d.6.d.n.d.a.a.s.s.s.s.s.p.p.s.a.s.p.p.p.s.s.s.s.s.a.t.a.n.e.t.n.J.g.t.s.P.n.M.t.7.g.n.g.v.v.v.n.n.d.v.M.n.M.n.d.v.M.v.d.v.v.n.g.d.n.g.t.s.J.P.Z.p.p.D.D.n.a.e.n.n.p.7.r.0.r.t.t.p.p.p.p.r.7.7.r.r.7.r.r.e.e.7.t.g.s.#.s.g.d.i.u.u.d.d.7...t.t.u.u.u.i.i.t.u.f.d.u.t.t.i.i.t.7.e.u.t.i.t.u.t.7.6.' +.p.e.4.<.4.t.6.6.' | t.+.} +.+.+.| | { 4.4.6.7.6.1.| 2.9.4.9.6.4.1...t.p.| 4.a.t.6.6.7.i.t.t...` t.&.$.t.&.$.$.*.*.d.u.t.&.$.i.i.t.t.t.t.u.t.*.u.t.u.#...t.t.t.7.6.i.i.i.7.+.t.7.4.7.7.7.4.7.7.7.7.7.7.7.6.4.6.4.t.t.7.7.6.e.t.t.4.+.t.t.7.7.q.$.$.#.' ` #.$.+.#.$.@.#.$.@.@.4.+.@.6.@.6.6.5.6.6.@.4.7.@.#.e.| ` @.7...} [ { @.+._ Q } _ R W Q [ Q W Q E W _ _ _ R E Q Q W Q [ W U W [ W V U ) _ _ ) [ Q W U F U [ W S W W S V U W U U U U U U W W U U c U S S c c V B f B W S x B Z W ",
"S W Z l l S U c x l E U c x S S S x F S E R ) Q ( Q ( _ _ ( Q ( _ L +.@.` _ +.` ` ` R R ( ` _ R | } ' | +.` | { ` _ } } { { ......{ | +.4.o.+.| ' .._ R ..@.4.+.| 6.6.6.+.{ 7.t.+...4.+.+...| 4.4.4.6.6.6.4.4.6.4.4.9.9.4.4.6.a.7...7.a.a.t.r.a.t.t.+.| 7.u.t.t.u.a.t.t.t.t.t.t.a.i.t.i.v.d.t.i.d.i.t.u.i.d.a.6.u.v.v.d.i.v.n.v.u.6.p.C.p.r.p.s.t.r.r.7.r.s.r.r.r.a.a.a.a.s.p.s.s.p.t.c.c.#.t.v.d.n.v.v.v.d.n.7.e.n.d.d.d.v.n.v.g.n.d.n.v.n.g.d.d.n.M.D.M.n.d.d.n.v.M.t.@.g.d.v.d.i.v.n.d.t.6.d.n.s.a.s.s.d.s.s.s.a.a.d.a.d.s.a.s.s.s.s.a.s.s.s.d.D.t.t.n.M.M.d.n.M.n.M.t.7.n.M.n.M.n.n.n.v.d.v.n.M.n.g.g.n.M.v.d.v.v.v.n.n.n.d.t.d.J.J.P.D.D.J.M.n.s.e.n.J.s.r.r.r.0.r.r.p.a.p.p.r.7.7.r.r.r.r.r.r.r.7.e.g.s.7.s.d.g.g.v.i.i.i.e.+.t.d.i.u.i.u.i.u.i.d.i.u.u.i.i.i.a.t.t.t.t.u.u.t.t.e.4.[ #.e.u.t.r.7.e.#.6.' +.d.#.......6.+.| ..7.6.6.@.4.6.6.0.e.7.0.r.6.6.6.a.k.4.7.t.i.i.a.t.t.t.t.....t.t.t.i.u.u.*.=.u.d.d.i.&.$.t.i.t.u.t.t.t.t.t.u.u.d.7.+.7.t.t.i.i.i.t.u.e.@.a.t.4.7.7.6.6.7.7.7.7.7.7.6.6.7.4.6.7.7.7.e.7.t.a.a.6.+.t.t.$.t.t.%.$.#.` ` 6.$.@.$.$.#.#.#.7.t.e.@.6.6.6.e.7.7.7.7.7.7.e.7.7.t.+.| @.#.6.6.4.| ..| } _ 1.| ) W Q _ _ ) ) R R ) _ Q R W Q Q Q ) ) Q W W [ _ S U W U _ _ ) R R Q U W <._ R ) W S U R Q U T T R U E U V V U U W S x x S V S l B V U V E U U ",
"S V S z V V c x B f V U U x S S S S E S U R R Q Q R Q R Q R _ Q R _ ` +.{ ( ` ` ] P R K L ` R R _ { ` ' ..] ` ` { ( _ { { { | | | ` ` | { | { | | | R R +.| +.@.#.#.+.6.+.` 7.t.+...+.| +...4.4.4.4.@.4.6.4.4.4.4.7.4.4.9.4.6.a.6.| 7.t.t.a.t.t.t.t.| { 7.t.t.t.t.t.a.i.i.d.i.i.t.i.d.d.d.u.t.t.d.a.t.t.t.d.a.+.t.v.i.d.d.v.v.d.a.6.a.Z.a.7.t.t.p.r.e.t.t.t.t.e.e.a.a.a.t.t.s.s.p.t.t.v.i.$.t.v.d.v.n.v.v.v.d.7.e.d.d.u.i.n.v.v.v.d.v.i.g.n.i.u.i.n.n.M.v.n.d.n.d.v.n.e.@.i.d.v.d.v.v.d.u.t.@.a.d.s.t.s.a.s.d.a.a.s.a.s.d.d.s.s.s.a.s.s.s.s.a.d.n.D.t.t.n.M.n.n.M.M.n.v.7.7.d.n.M.M.v.v.v.v.g.i.i.g.d.i.d.M.v.v.v.d.g.n.d.d.n.Z.t.u.M.M.M.M.P.M.n.M.t.e.D.n.s.7.r.p.r.r.t.e.p.p.e.7.r.7.7.r.r.e.7.e.r.6.t.d.t.6.s.g.i.i.i.i.t.u.t...t.g.u.u.i.u.u.t.u.t.t.t.i.u.u.u.d.t.7.7.u.t.t.7.t.e.| [ 6.#.t.t.u.7.#.@.7._ #.a.6.+.+.+.@.+.#.6.6.6.+.+.6.@.7.6.7.r.0.7.r.9.+.d.s.@.6.i.i.t.i.t.$.*.t.| +.7.t.t.t.t.t.t.i.u.i.d.i.$.$.t.t.t.t.t.t.*.t.t.t.u.d.7...$.t.&.u.d.u.%.i.6.+.s.7.6.6.7.6.6.4.7.7.4.6.4.6.7.6.6.@.6.7.7.6.r.7.t.d.6.+.e.t.%.%.t.@.@.7.{ { +.$.$.@.#.7.#.+.#.q.q.7.@.6.7.6.7.t.7.@.6.7.7.7.t.t.+.{ +.#.+.@.+.| ` | | R <.1.) ) Q E ) _ Q Q Q W W W R W W E R ) Q E Q E Q [ W S Q ( _ Q R U ) Q V U _ } _ [ W U E R U W W U U U E c x V E U U V x V U B B B V x S V V U V ",
"V S S x x x V V l l W Q W S S V U T W U U U ) _ _ R Q Q R _ ` ! _ _ ` | R R _ / ` ` _ L L _ K U _ | ' { ..+.| | +.{ ` _ } ....{ _ ` +.` } ` { | ` { _ R | +.@.+.#.#.@.7...] t.a.4...1.+.4.4.6.4.4.6.#.6.6.7.4.4.6.7.7.7.4.4.7.a.6.4.t.p.a.a.t.t.t.t.6.+.t.t.t.t.t.a.i.t.t.t.i.d.d.d.i.d.i.t.t.t.t.t.d.i.y.d.t.@.t.v.d.d.d.v.v.v.a.7.s.D.a.7.t.t.e.t.a.s.a.s.a.t.t.p.t.s.t.a.a.a.t.t.t.n.c.%.t.v.v.v.v.v.v.n.n.e.e.n.d.i.i.v.v.M.v.v.v.v.n.n.d.i.d.J.n.M.v.d.n.M.n.v.g.&.$.u.d.f.i.i.v.f.d.t.#.d.d.s.a.s.a.s.s.s.s.d.a.s.a.s.d.d.s.s.s.d.d.d.s.n.v.D.u.t.n.M.n.M.M.M.n.d.7.t.d.v.v.v.v.n.v.M.M.v.d.g.v.d.d.v.v.v.g.n.n.d.i.u.d.g.t.t.n.M.n.M.P.M.M.J.s.t.D.M.t.7.t.s.a.s.p.p.t.t.t.p.p.e.r.e.t.e.e.e.r.e.u.n.p.6.s.g.d.t.t.t.u.f.t.+.e.u.d.i.t.d.d.t.t.t.t.t.u.i.i.i.d.i.t.t.u.t.t.r.7.+...' ..e.t.$.t.7.#.&.7...6.a.7.+.7.@.@.@.7.#.7.#.+.+.7.6.7.0.7.7.0.0.p.0.7.d.j...6.t.i.q.t.e.$.t.t...@.t.t.$.$.&.t.t.d.d.d.d.u.u.t.t.u.t.t.t.t.t.y.t.t.i.d.7.+.t.i.*.t.i.t.*.i.7.#.d.e.@.4.6.7.6.6.7.6.7.7.4.0.t.t.7.6.7.e.7.7.0.t.s.a.6.+.t.u.t.t.q.#.$.7.| { +.$.t.e.t.t.#.+.@.7.t.6.4.7.7.7.7.6.6.6.6.7.7.7.t.t.+.| #.#...' | | ..+.| ( | [ Q [ ) W Q R Q W W Q W U W ) W U R Q Q Q W W [ [ W W _ } { { _ R R ) U S [ Q Q ) U S S U U U U U E W R V z U W U U c V U U V B B F F U V F V V ",
"V c z V V l B B f l W W x x x F U U U W W U W _ R W Q R ( R ! _ _ L ` ` L R ' ( ( ` _ R L L K H [ _ { | | ` ] +.+.| ` ( ` | { _ | { { | | _ _ _ } { Q ( | +.+...+.+.@.6.| ' e.a.@.| 4.+.+.4.4.4.7.6.@.@.6.7.7.6.4.4.6.6.7.4.6.a.6.+.t.a.t.t.p.t.7.t.6.+.t.t.t.t.t.t.t.t.t.t.t.a.a.a.i.i.i.a.t.t.i.d.y.a.d.a.7.4.t.d.d.i.d.v.d.n.a.7.s.D.a.7.t.e.7.t.t.p.a.a.t.a.t.t.p.a.a.t.e.e.t.t.t.c.c.$.a.v.x.v.d.v.v.v.n.7.e.d.d.g.d.d.d.v.M.n.v.M.M.v.d.n.M.n.M.v.d.v.n.v.n.d.d.$.@.d.i.u.u.v.i.i.v.i.6.d.n.d.a.a.s.a.s.s.a.s.d.d.a.s.a.s.s.s.s.s.d.d.a.a.n.D.t.p.n.n.M.M.M.M.d.d.7.7.c.v.i.g.d.i.v.v.v.M.n.v.D.n.a.g.v.g.g.n.d.a.i.d.d.d.e.t.n.n.M.M.M.v.M.P.a.7.n.J.t.7.e.e.p.a.p.p.e.e.p.t.r.p.p.t.e.e.e.e.r.e.t.n.t.#.s.d.i.i.u.t.t.u.t.+.$.t.u.u.d.i.i.t.t.u.i.t.t.i.d.i.t.t.u.t.t.u.7.#.#.+.| } 6.#.$.$.7.$.*.#.7.+.+.d.@.` +.+.+...@.7.7.@.6.+.+.7.7.6.6.4.6.0.0.0.6.a.p.| 7.e.t.t.t.7.t.t.t.| +.t.&.$.*.&.t.*.t.d.d.=.i.t.t.u.t.t.t.$.t.t.t.u.i.i.y.@.@.a.y.u.t.*.*.t.y.@.@.d.6.+.7.6.7.7.7.5.5.6.7.r.6.7.t.7.7.7.7.7.6.4.7.t.a.+.+.t.t.7.$.@.$.$.@.| } | #.#.t.t.7.#.+.+.4.e.@.| 6.t.7.6.4.@.6.6.4.#.7.6.+.| ..6...] +.@.+.| | _ R _ _ R W Q Q W E W Q Q W U U Q Q W U W W Q Q W U Q _ S W } Q { { { W W Q U S _ Q ) E U U W U T U E U R U U U U V U U c V U S S U l B E S S S V B F ",
"V V z S S x V V M f U c f x x U W T W W W W R E U H ) Q _ R Q R L R ` ` R R } _ _ _ ( K L ( T W } } ` ..| | +.` { ' _ { ` { { ` | | | ..| { _ _ { | ( _ 6.+.] +.+.@.$.@...} 7.t.| ..4.4.4.4.4.4.4.4.4.6.7.7.7.7.7.7.7.7.7.4.6.t.7.6.t.a.t.t.t.e.t.y.7.+.7.t.t.t.t.7.7.t.i.i.t.t.$.e.d.d.i.d.t.t.d.d.d.d.d.d.s.6.a.n.d.i.d.v.d.v.d.t.a.D.t.7.t.e.t.t.e.p.a.a.t.a.t.t.p.t.e.7.e.p.t.t.t.v.d.$.d.M.x.d.d.n.v.v.n.t.e.d.v.n.d.v.d.v.v.v.d.v.v.d.a.d.d.M.n.v.g.M.c.v.f.d.v.t.$.v.d.u.i.v.f.d.v.d.$.d.n.d.a.d.s.d.a.d.d.d.d.a.a.a.s.s.s.d.s.s.p.s.a.d.n.D.t.a.D.n.n.n.M.n.d.n.t.7.d.g.f.n.g.d.f.n.n.n.n.v.g.a.t.n.v.g.n.n.n.d.d.n.D.d.e.s.D.n.M.M.M.v.M.U.a.7.n.M.t.7.7.p.e.e.p.t.t.p.p.p.p.r.e.e.p.p.p.r.r.e.u.n.e.6.a.d.i.d.i.u.i.u.t.#.e.i.t.d.n.d.i.t.t.u.d.i.d.g.a.t.t.t.i.t.i.t.@.+.e.+.....e.#.&.&.$.t.t.*.p.@.#.a.+.' | +.6.| 6.6.e.7.7.6.7.7.0.4.6.8.9.7.t.0.7.a.a.+.t.a.t.t.t.t.u.t.t.+.+.7.@.$.i.t.t.*.*.i.t.y.u.t.i.t.i.t.$.@.7.$.t.t.t.t.t.+.6.d.d.u.u.t.t.i.d.@.+.a.#.+.6.4.4.4.+.4.7.7.7.7.7.e.0.7.7.7.0.6.6.1.6.a.d.6.6.a.t.t.#.#.t.*.7...| #.#.+.+.@.@.6.6.+.6.7.@.+.7.6.6.7.6.7.t.7.6.6.6.@.| ` +.6...] +.#.+.+.#.} R { | ( _ } Q W U W Q Q E U W ) W W R Q Q ) W Q U R Q U Q } _ ` { _ _ } } W U [ _ _ W U U R T Q Q W E T U U T U b U c c S W U U F M B W E S S S V F ",
"x x V V V V F B f M U z V l V V U W U S S W W S U R R W R Q R U ( R _ { T W _ ` ` L R b K Q c W _ { { ` +.o.| } _ _ { _ { ` ` { ` ] +.` } | ..{ ` } ( ` +.+.+.| +.@.7.4.{ { 6.7.| | 4.4.+.+.4.4.1.4.7.6.6.7.4.7.0.7.7.6.4.4.7.t.5.+.r.t.t.t.7.7.t.t.+.` @.t.t.t.u.t.$.t.t.t.d.t.t.t.a.a.a.y.t.i.y.i.d.d.i.d.a.4.a.d.i.d.i.d.c.n.s.7.t.n.t.6.t.t.e.e.t.t.t.a.t.t.t.a.t.e.7.t.t.t.t.7.t.n.d.#.t.c.x.v.d.n.n.v.d.e.e.g.d.d.v.v.d.d.i.g.v.v.d.g.a.a.d.n.d.i.d.n.n.g.i.d.g.e.$.i.f.i.u.i.f.f.f.t.#.g.d.d.d.d.a.s.d.d.s.d.d.a.a.s.d.a.s.s.a.p.p.a.s.n.d.n.t.e.Z.M.v.n.d.n.d.d.t.7.a.g.d.v.n.f.i.g.n.v.d.n.g.i.a.d.v.n.n.d.d.n.n.d.D.Z.t.p.D.P.M.n.d.n.J.n.t.#.d.D.t.7.r.e.e.7.7.r.p.r.r.p.r.7.7.7.t.e.e.t.e.7.u.g.e.#.s.g.i.t.u.i.i.t.#.#.e.t.t.u.d.d.t.t.t.t.t.a.d.d.t.$.t.t.t.*.t.u.t.7.#.6.+...4.e.$.#.7.$.$.t.7.+.+.a.7.+.4.+.+.+.+.+.7.e.7.6.7.6.6.4.4.r.r.6.7.0.#.a.s.+.7.t.i.$.7.t.t.i.t.+.| 7.t.t.t.t.$.*.t.t.t.t.t.t.*.t.i.*.$.@.6.#.#.t.t.t.t.4.4.t.d.u.t.*.i.t.7.+.| t.7.+.+.4.4.+.@.4.4.6.6.4.7.7.7.4.4.7.7.4.4...7.a.s.4.@.t.a.q.7.7.7.t.t.4.{ 6.7.+.+.+.+.+...+.4.@.+.+.+.5.7.#.+.7.t.q.t.6.6.6.4.} { +.+.| ` ..+.+...) R } { _ <.[ W E Q Q W Q Q U U Q Q R R _ Q W E U W { Q U E [ } ` ( _ ( } } U U } Q Q Q W S E Q Q R Q U c c U c U S c x c V F U E V M l F E S V V F V ",
"h V U S S V x f f M U U S x S S U S V S W U W W E Q R W Q Q _ Q _ _ ` | R T ( ` _ R R K R T b S } +.{ ' +.@.+.| _ { | } { { +.` | +.+.` ` +.@.| { | _ _ | ]  .@.6.#.+.{ _ } 6.t.4.<.4.6.@.4.7.6.4.6.6.6.6.7.7.6.4.4.6.6.6.4.7.a.+.{ 6.7.t.t.e.t.t.e.| { @.t.*.u.t.t.t.t.t.i.i.u.i.d.t.i.u.i.i.i.i.i.d.d.a.a.a.0.t.a.d.c.d.c.c.d.p.7.t.n.s.7.r.t.t.e.a.t.t.a.t.s.t.t.t.t.t.a.t.t.e.t.t.n.d.$.t.u.v.n.v.d.M.n.t.t.e.g.d.v.v.n.d.i.d.v.v.M.v.M.v.v.d.d.d.d.t.d.d.d.d.v.v.t.7.u.d.f.u.f.v.v.u.e.$.n.n.g.a.a.a.a.s.d.s.d.d.s.a.d.s.s.s.a.a.a.a.d.d.n.n.n.t.e.g.M.v.n.v.v.g.a.7.t.d.n.v.d.g.d.d.M.M.n.v.M.M.n.n.n.M.M.g.d.g.M.M.g.n.Z.t.a.n.D.M.J.n.M.J.d.t.7.g.J.u.t.a.t.t.7.7.r.p.t.p.p.t.7.7.7.e.e.7.e.r.e.u.g.t.#.u.g.d.i.d.g.i.t.$.#.t.i.i.t.t.=.i.u.i.t.t.t.t.t.t.t.u.t.u.t.*.i.i.*.t.u.6.' ..#.$.$.t.t.&.$.7.+.+.a.7.+.6.+.@.#.4.4.7.7.t.t.t.6.4.6.r.p.p.7.7.7.7.a.d.@.7.t.y.t.t.i.t.t.#.| +.t.i.t.t.u.$.*.i.t.i.t.t.t.t.t.t.$.t.t.t.7.#.t.i.t.a.6.6.t.u.u.d.i.i.t.@.+.@.s.t.#.7.7.7.6.7.7.4.7.7.6.7.7.7.6.6.4.4.9.9.4.t.a.a.7.6.7.7.q.y.t.7.e.6.| ..7.7.7.t.7.7.6.@.+.@.6.7.7.7.7.6.6.@.@.7.t.6.@.@.6.r.1._ | +.| | +.+.| ( R ) | } ) Q W E Q ) Q W Q R E W Q _ ) W W U E W W ) } { W E [ _ R _ | { { _ E W ,.Q R ) ) T R R W U U V c c U b U U V x V U E U U U Z M F W U V V S V ",
"f l B U S h l y f y V F l x x S S V S S S U Q E W U W _ Q K R R R _ ` ` ( H R R ( L R R R c c b } | | ' ` @.+.` { { { ` { | | | +.] ` ` +.o.] ` o.| R ( ..' ' ..@.+.{ { _ ( 6.t.+.1.4...4.6.6.7.7.4.4.7.7.7.6.4.4.4.4.6.4.4.6.7...} 6.6.6.q.t.t.6...| | +.$.%.t.t.t.t.t.i.t.*.t.t.u.a.a.t.t.u.t.u.i.i.i.a.d.0.6.p.t.7.d.c.c.t.7.p.7.7.n.s.7.r.7.t.a.7.a.t.a.t.t.t.t.t.a.a.t.t.p.t.e.t.n.d.#.t.t.u.M.v.M.d.s.t.7.7.d.v.n.v.v.i.i.d.v.d.c.n.n.n.d.d.c.n.v.d.d.d.n.g.d.n.t.7.t.$.u.d.v.d.i.e.7.#.d.M.d.s.s.a.s.s.s.s.s.s.s.d.s.s.s.s.a.a.d.s.s.d.d.n.D.7.7.s.d.n.n.v.d.t.t.4.7.n.v.d.g.d.v.M.v.n.M.v.v.v.n.n.n.n.g.i.a.d.M.n.n.n.a.7.a.g.s.s.n.M.n.s.t.a.7.g.J.t.7.r.p.e.7.e.7.7.t.t.0.0.7.7.7.6.e.e.7.e.e.t.d.e.6.t.t.d.g.g.i.e.+.e.+.$.i.t.t.t.t.i.u.i.d.u.t.t.t.a.t.t.t.u.*.t.*.t.i.t.t.e.| ' ' $.t.%.t.#.] @.| @.t.6.| | 4.+...6.4.4.6.t.p.p.e.7.r.p.7.r.r.t.7.6.a.a.@.7.#.7.t.t.t.e...6.+.| t.i.d.i.&.*.t.t.t.y.i.t.q.t.t.t.$.t.u.e.+.t.t.t.y.t.4.4.t.7.$.t.y.t.+.6.5.+.t.t.#.7.6.4.6.4.5.7.6.7.6.4.6.7.4.6.4.6.4.4.0.7.a.s.@.6.6...6.7.q.t.+.} { { @.7.$.7.7.7.@.7.4.+.6.e.t.7.6.@.@.@.| +.6.7.6.+.@.7.4._ _ } | ] ` ` _ R W E { | R E W [ [ W Q W W E E Q _ Q Q U U U W U W ) Q } Q U Q W R W _ _ W U U F [ _ Q Q R W W U U U U S U c c U S z V U U z E V U V Z B V U U V V l B ",
"M d M l c z B l f l U c x l x S U U W S U U S U ) W W _ Q R _ _ _ R _ | _ R _ _ ' H T K b b c W | | +.| { +.| ` ..| { { +.+.} ` ` | ` | +.O.+.+.@.| R ( ..+..._ | +.| 4.| } p.a.4.<.1.1.4.6.7.6.4.4.4.7.7.7.6.4.6.6.6.6.4.4.6.t.+.+.t.6.+.6.t.e.+.| 6.4.+.%.$.t.t.i.t.t.i.t.t.t.t.d.d.t.t.t.u.d.i.d.i.i.d.d.r.6.p.a.7.t.d.d.6.7.d.7.t.D.a.7.r.7.t.p.p.a.a.s.t.t.t.t.a.a.t.a.t.p.t.t.t.n.d.#.a.a.&.v.n.n.d.e.d.p.7.g.n.M.v.v.v.d.v.n.v.v.M.n.i.i.d.M.d.M.n.v.v.M.v.v.M.u.e.u.$.e.u.g.i.$.u.a.$.n.M.d.s.s.s.d.s.s.s.s.s.s.s.s.a.s.s.s.k.d.s.d.d.g.n.D.7.t.d.u.i.n.n.p.e.s.7.t.n.M.v.n.v.n.n.M.M.M.v.g.d.g.d.v.v.d.d.n.n.n.D.n.n.d.e.s.Z.t.e.d.J.d.e.d.d.7.n.J.t.6.e.t.t.t.e.7.r.7.7.7.7.7.r.7.7.r.r.r.r.r.t.g.t.7.s.t.e.t.g.u.#.$.t.$.$.u.u.u.u.t.i.i.i.i.d.d.i.a.a.i.u.t.t.u.u.t.u.=.u.d.e.6.4...+.+.t.#.+...7.| @.t.7.| { ..@.4.9.6.0.7.r.7.r.7.r.r.p.t.t.r.r.7.7.t.s.@.t.@.6.e.a.t.#.+.7.6...7.t.t.u.t.t.%.t.u.i.t.$.$.t.t.t.*.t.6...@.t.t.t.u.p...6.p.6.+.t.s.7.@.t.6...t.u.#.+.+.+.+.6.6.7.6.4.4.6.7.7.7.6.6.r.0.0.7.7.s.s.#.7.7.6...6.t.7.+.4.4.| #.t.$.@.+.+.@.6.6.6.6.6.6.+...6.7.4.| ..6.7.#.@.#.6.| _ { _ ' ' | _ ( | [ W } } ) Q [ [ [ Q Q Q Q U W [ _ W E E W ) Q E Q Q _ } Q S E W _ W _ R U S W U ) _ R _ Q R W E W W W R R U W E U U Q Q W U U U Q U F Z F B S U V B C ",
"n f y t f x x F x l V c f f x l V U U W T H T U T W E W Q R _ _ R T _ { Q ( | ` R H b x R H W W { { +.+.` ` +.` ` { _ | +.| ` ` ..` | ` ` +.@.+.| { R W | @.+.' _ ' | 7.4.} 7.q.| | 4.1.| 4.7.4.1.1.4.6.6.6.4.4.4.6.6.4.4.4.6.7.| 4.t.7.6...4.6.@.t.6.{ +.$.*.%.q.t.i.t.t.t.t.a.a.a.i.t.t.a.d.i.d.a.i.d.a.s.0.4.t.k.p.7.r.p.t.d.a.7.q.n.a.0.0.r.7.r.p.s.p.t.t.a.t.e.t.t.t.p.t.e.7.t.t.n.d.#.t.Z.i.i.a.s.e.Z.D.t.7.g.n.v.v.v.c.n.d.v.v.n.n.d.i.d.a.d.v.d.v.M.v.v.v.M.v.t.6.d.a.t.7.p.e.t.v.a.#.n.n.a.s.d.s.s.d.s.j.k.s.s.d.d.a.a.s.k.s.d.s.a.a.g.v.n.$.t.D.g.&.s.s.e.u.D.r.7.d.n.v.v.v.g.v.M.n.g.d.g.v.d.g.n.n.n.n.g.g.g.D.n.n.d.7.a.Z.D.t.e.s.u.i.D.a.#.g.n.7.7.7.7.t.7.e.r.7.7.t.a.e.6.7.0.e.7.r.r.e.7.t.d.t.6.d.g.t.#.7.7.t.d.i.+.$.i.t.t.i.t.t.u.i.u.i.i.i.t.t.i.u.t.t.u.d.i.u.*.u.a.7...e.7.#.....| ..@.7.{ +.t.#.| } | +.+.4.0.0.6.7.r.r.6.6.9.r.e.r.6.6.7.+.t.a.| 7.t.#.+.e.#.#.t.a.+.{ 7.t.$.t.t.t.t.u.t.t.#.#.7.t.7.7.t.7.+.6.t.e.7.t.7.6.| 1.t.t.@.6.4.#.7.7.6...t.t.#.6.6.6.6.+.6.4.4.7.7.7.6.7.7.6.7.0.0.6.4.7.a.t.+.6.a.t.+.+.4.4.7.a.4.` 6.$.7.#.+.@.@.4.6.@.6.7.@.4.6.4.6.+.{ 1.6.6.@.+.4.4._ [ 4.{ R ( _ ( { ..} R [ <.) E >.[ Q [ Q W W U W ) Q E E ) ) W ) W U ) _ ) E U ) R T R R U R W U U ) T T ( _ W R U E W Q E U U U T R Y W ) E S E E W W B B E B l B Z B M ",
"l B f t f l V S l f V x f h l x F W E V U R } R _ W U W _ R R U U T { | ( R { ` R c x S R R ( R { | +.4.{ ' #.+.+.| { | +.| { | +.] X.] ] O.+.] ` | ( Q | +.+...` ' +.+.{ { 7.7.| | 4.1.1.1.4.4.4.6.t.e.6.4.1.4.6.6.4.6.4.4.@.t.6.+.7.t.t...| 6.q.t.6.{ @.t.t.t.t.t.t.t.t.t.i.a.a.d.c.d.a.d.i.i.t.i.d.d.a.s.7.6.t.d.n.a.4.a.n.c.s.7.t.D.a.7.p.t.r.r.r.p.r.7.a.v.i.e.7.t.r.7.e.e.e.t.t.n.v.6.t.n.M.d.e.s.d.J.d.7.7.n.g.g.v.n.n.M.n.n.n.M.n.a.i.n.a.n.d.d.d.v.v.M.v.M.v.e.6.d.d.d.7.$.t.d.d.a.7.n.n.d.d.d.d.d.k.k.j.s.a.n.P.M.d.a.s.d.d.d.d.s.s.d.n.n.e.t.n.J.d.t.s.n.M.n.e.7.d.g.i.i.d.v.g.g.g.g.d.n.v.n.n.d.n.J.M.n.n.n.g.g.M.d.7.s.n.M.g.7.e.n.Q.n.t.7.g.n.t.t.t.t.t.t.t.e.7.t.v.v.u.7.7.r.t.e.r.0.7.e.u.n.t.6.d.n.d.e.6.t.d.d.d.#.e.d.u.t.i.i.i.u.i.d.i.t.i.i.u.u.u.t.i.i.i.i.i.t.u.d.7...7.7.e.6...{ 6.7.7.| +.t.6.| | | 4...8.4.8.7.a.d.d.e.6.9.r.0.6.6.6.6.6.s.s.+.7.a.t.#.6.#.i.i.t.4...u.d.i.t.+.$.t.u.e.#.#.t.t.t.7.t.t.7.@.e.u.t.t.t.#.6.<.4.7.d.t.4.6.g.d.q.6.+.t.t.#.7.6.7.6.4.6.6.@.t.i.t.7.7.7.e.7.0.6.4.4.e.s.t.+.6.t.t.t.4.| 7.t.6.| | 6.t.7.6.@.#.7.7.#.@.7.7.6.7.7.4.4...4.6.7.7.7.@.@.+._ } 4.+.} R W _ | { Q Q | } ) Q ) [ [ [ >.W E [ { Q Q E W [ ) Q ) W E W _ } W W } _ _ R R ( } } W S ) Q T R _ Q Q Q ) W W S V V U W Q U W W U V W U U Z B B E F B y F U V ",
"f y l l l f x x e f S h l f f x S V c l Z W Q _ _ U U U W ( R U Q R _ | ) U Q _ ` H c b b R Q U { +.+.+.| ` ` @.@.` | | ` ` +.` ] +.+.X.+.+.` ` o.| R _ ' ` | { ..+.+.| _ } 6.6.| <.<.1.4.1.1.1.4.t.t.t.t.4.1.2.4.4.4.4.4.| +.t.6.+.6.#.7.7.5.7.#.$.@.` 6.t.$.t.t.t.$.$.t.y.t.a.d.d.a.i.a.d.t.t.t.d.i.a.s.a.6.9.t.a.d.d.e.d.d.t.s.7.t.D.a.7.t.p.r.p.r.7.7.a.d.x.x.i.e.7.7.e.7.r.7.7.t.n.v.6.a.i.n.Z.a.z.D.t.a.t.7.d.d.v.d.v.n.n.M.M.n.n.n.d.a.d.d.Z.d.d.g.M.n.n.M.v.i.7.6.u.t.d.t.a.d.t.t.s.#.n.Z.a.s.s.k.d.s.j.j.a.n.Q.M.m.M.d.s.s.d.s.s.s.s.a.n.n.t.d.i.n.M.a.n.M.d.d.e.7.d.v.d.d.i.i.d.v.d.g.g.d.g.n.g.d.d.d.D.J.n.g.d.d.n.a.7.d.g.t.n.d.a.J.n.d.s.7.d.n.t.7.p.e.7.t.e.#.t.v.d.u.i.t.6.7.r.7.7.r.r.7.u.M.u.7.s.s.a.t.u.d.t.t.t.#.$.a.t.t.t.i.i.t.i.i.i.a.i.t.t.$.e.u.i.u.i.t.i.u.t.t.#...7.+.7.t.t.7.7...4.| ..t.+.| 4.| | ..6.1.6.s.d.u.d.d.p.6.9.6.7.6.0.4.6.a.s.+.6.6.a.7.@.t.d.7.e.7.+.t.a.d.a.t.+.+.7.$.7.t.t.7.$.t.t.$.t.#...e.t.t.#.6.t.1.4...e.e.+.7.d.t.$.7...e.t.+.6.7.6.6.6.+.@.t.t.*.t.t.e.6.6.7.6.4.6.6.6.s.p.| 4.6.q.q.6.6.q.7.| | +.@.7.@.$.#.+.@.7.6.#.@.4.7.6.6.6.| 4.7.7.6.6.7.6.| | _ ) | 4.{ _ { { _ Q R Q { _ Q [ [ Q ) ) W W [ } } { [ W W W ) ) W U U U _ _ W U Q } | { _ R { _ S U ) W R U R ) W Q Q U c S W S U b E R Q U U F Z U U B B l Z W U B F F l ",
"y y B S V f f f f l S c V h l V U B x V W U S U R _ R S W ( ) Q ) R _ | ( U R R _ R T b b R R b ) ..+.+.4.{ } { +.+.4...{ o.+.o.] ] ] +.| { { { +.+.( } | ( ' | 4.4.| } | | 6.7.4.<.1.1.4.1.2.1.4.t.t.t.u.t.7.1.1.4.6.4.4.+.6.s.7.6.7.+.@.e.t.7.+.7.6.| 7.t.t.t.t.t.t.t.t.t.t.a.a.a.t.t.t.d.y.t.d.g.a.d.a.t.9.0.p.t.q.a.d.n.t.t.d.e.t.D.s.e.p.p.p.p.r.r.a.n.v.x.d.v.a.7.7.e.e.t.t.e.t.m.n.7.a.t.i.M.D.A.s.e.s.s.e.g.n.v.g.v.n.M.D.M.n.d.M.n.i.n.n.n.c.n.v.M.n.n.v.v.g.e.e.d.t.e.t.M.d.$.e.d.$.n.Z.a.a.s.a.s.s.s.s.Z.P.M.m.m.M.H.d.s.s.d.a.d.a.d.M.M.i.g.d.d.d.n.J.d.t.g.t.t.d.g.v.v.g.d.v.g.g.n.g.g.v.n.n.n.d.s.g.n.n.g.g.g.n.a.e.d.d.*.i.J.D.v.t.u.s.7.d.D.t.e.p.e.e.e.e.t.d.d.i.u.i.i.t.7.7.t.t.r.p.7.u.M.a.7.s.t.t.u.n.n.e.$.a.#.e.t.t.i.i.d.d.i.i.u.d.d.d.i.u.e.e.d.i.u.d.a.s.t.t.t.#...r...#.t.d.t.7.| +...+.t.6...4.4.4.4.6.6.p.a.d.i.d.d.d.r.r.7.7.7.0.0.6.s.s.@.7.+.7.#.d.a.7.+.t.t.#.u.a.u.d.d.t.7.t.t.d.t.i.t.t.t.t.t.u.7.#.+.e.a.7.t.s.1.6.4...+.t.d.t...7.t.+.e.t.#.6.6.6.6.6.#.t.y.t.*.t.i.u.7.6.6.7.6.0.6.7.s.e.| 6.7.4.4.7.a.t...| 4.+.@.7.#.#.#.6.+.@.q.t.#.6.7.7.4.4.6.0.t.e.7.6.6.+.+.4.} _ 1.| ) { 6.| R R _ R } } _ [ [ Q W U E ) <.Q Q _ } { Q W ) W Q W U W _ _ W U W R | | _ U W W U W ) Q ( W R ( _ ) U b U W R U T S E R ) W W U E S E F Z l Z U W U F l f ",
"f w y F l e y y l f B z x x V B V l z W ) U S V Q ( R U U U Q W W _ ` { T T ) K H U U x c U c x R _ ..| +.| { ` | 4.+.{ ` +.+.] ..` ` ` | ` ` ' ` | ( _ | _ R } ..+.} _ 1.{ +.7.+.<.4.| 1.1.<.4.e.q.$.*.t.u.i.7.4.4.4.4.4.4.#.t.6.+.7...| 6.t.4.{ 6.4.} 4.t.t.t.t.%.t.t.t.t.t.y.t.i.a.a.7.t.i.d.i.d.c.a.a.s.6.6.s.r.6.7.a.a.6.t.s.7.t.D.s.e.t.t.p.r.0.s.n.c.x.x.d.x.x.d.e.7.t.e.r.p.t.n.M.7.s.t.7.d.Z.d.7.e.a.t.7.n.d.v.d.d.d.M.n.n.n.n.n.d.d.i.M.c.d.M.n.c.M.v.d.v.g.7.7.d.t.$.$.d.i.$.t.d.$.d.n.a.s.p.s.s.s.s.Z.W.H.m.m.m.m.m.D.d.a.s.d.s.a.d.M.n.i.n.d.u.t.d.P.t.&.g.t.7.d.n.f.g.g.d.d.g.g.d.g.v.g.g.n.D.g.d.d.d.g.n.n.d.n.d.7.s.g.e.$.g.D.u.7.a.s.#.d.n.t.e.7.e.e.6.t.d.i.y.u.i.y.y.d.t.6.7.t.r.r.e.i.n.t.6.d.p.6.7.d.s.#.e.s.+.#.u.t.t.a.d.i.a.i.t.i.g.i.t.y.7.t.t.i.i.d.a.t.7.e.e.6...r.+.| #.t.t...| 7.| ] 7.7...| 4.6.....r.s.t.t.a.a.t.a.s.r.4.7.0.9.6.7.a.a.+.q.6.+.@.a.7.....t.7.+.i.d.u.t.t.a.u.i.t.t.u.t.$.$.t.t.*.t.t.t.+.6.7.7.a.t.| 7.4.| } 7.a.#.| e.t.| e.t.#.4.4.6.4.+.t.i.t.*.t.u.t.t.e.6...6.6.4.0.7.7.7.} 6.7.4.| ..t.7.{ 4.4.{ @.q.#.+.@.6.@.+.@.7.7.6.6.6.@.@.7.t.7.7.7.4.+...4.<.[ [ | _ R R ..{ T ) _ W _ | _ Q Q W E F Q [ ) Q W Q _ [ _ Q E R Q W Q U W _ S W Q U _ ) U W R U W S W ( ( W W W ( ) U S Q E U T W U U U Q W U E U V U U B B B B F B M y M ",
"f y y l y y f B x h V S z x S x x V W T W Q R U Q Q _ R U U Q Q W _ ' | T W _ R H x l f b H c c Q _ | | | +.+.+.6.+.| ` | | +.@.+.o.+.] +.+.+...' | } { ..' _ _ | | } | 1.| 6.t.+.4.4.1.1.1.4.7.u.t.%.t.t.t.t.i.t.4.1.4.4.4.7.u.6.+.7.4.| 4.4.| | #.4.{ 6.t.$.t.t.t.t.i.i.a.t.t.t.a.d.d.t.t.a.d.a.a.a.a.d.d.7.0.s.r.7.r.r.7.7.s.d.t.t.D.d.t.p.p.r.r.s.D.n.n.n.c.x.v.v.n.i.t.e.t.t.a.i.n.n.$.a.a.e.s.d.p.7.e.d.r.e.n.v.n.n.d.i.d.d.n.v.M.M.n.i.d.n.n.n.M.M.n.n.v.d.M.n.e.t.g.t.e.#.t.t.*.i.d.&.v.n.a.s.s.s.s.a.Z.U.Q.Q.M.m.M.m.M.P.D.d.d.d.s.a.n.P.n.u.n.g.i.e.a.g.t.t.n.s.e.d.n.f.n.v.u.t.d.g.n.d.g.n.M.n.n.n.n.g.g.g.n.D.n.M.d.e.d.D.t.7.p.a.t.t.d.a.$.d.D.t.e.r.7.7.7.d.d.i.f.d.d.i.i.d.d.t.7.r.r.e.t.d.n.t.7.d.s.7.7.r.r.7.p.d.7.#.d.u.e.u.d.d.g.i.t.d.g.t.t.d.i.i.i.a.i.d.a.t.7.e.t.e...e.6...#.e.e.+.@.e.+.+.t.e.+.4.4.1...6.p.u.t.d.d.d.a.s.d.s.e.7.9.0.9.t.d.t.+.p.t.6.4.r.6.+.4.t.7.#.i.i.i.i.i.i.t.t.t.t.7.7.7.7.u.t.t.t.t.t.t.u.e.t.d.p.} 7.7...} 4.7.#.+.7.e...t.p.+.4.4.6.+.6.i.u.u.i.u.i.t.t.t.7.4.6.6.4.8.6.t.t.4.6.e.7...<.6.4.+.7.4.| +.7.#.#.@.7.7.7.+.| @.p.7.5.6.7.7.t.t.t.0.6.4.6.0.4.[ ) } } [ ) ) _ ) _ _ R { | ) E E Q Q Q ,.[ W ) [ Q Q Q [ [ Q Q ) Q ) R _ ) U Q [ W W W E W R R W b R R W ) R R _ ( R W ) W W T R ) Q U W W E E E S U W Z Z Z Z Z M M n M ",
"d y r r f w y V y l U U h x l l V U R H W W U E R R Q Q Q W E W U R _ { W W ) Q K x l h h S T x W } { } o.{ | @.6.| ` { ..{ | #.#.` ] +.+.@.+.| +.+._ } | ' ( _ | { } | | { 6.7.+.4.4.4.| 4.t.t.t.t.t.#.q.y.t.i.t.7.1.1.1.4.t.t.+...7.4.| | <.} | 6.4.} 6.q.$.&.t.i.t.i.d.a.t.t.y.i.t.a.u.t.t.d.i.i.t.i.a.d.t.7.s.t.7.0.7.4.6.a.k.t.t.G.a.t.s.r.0.a.Z.n.c.n.c.y.y.x.x.d.v.u.7.e.p.q.d.n.c.$.a.s.e.t.p.7.7.e.s.e.7.n.M.g.d.d.i.d.v.M.d.d.M.M.i.d.d.M.n.n.n.n.d.v.v.d.n.t.t.i.t.7.7.7.#.t.i.a.t.v.n.a.s.j.s.p.z.U.G.U.P.H.d.v.H.M.D.P.n.a.a.d.a.d.P.M.t.g.d.s.e.t.t.t.t.s.p.7.a.d.g.g.d.i.t.i.d.d.d.g.n.n.g.g.d.n.n.n.g.g.D.n.n.d.e.s.g.t.7.r.7.t.t.p.a.7.d.n.t.7.e.6.7.d.d.y.i.f.i.t.i.x.i.d.d.t.4.7.r.7.t.n.t.6.s.s.7.6.6.0.e.e.s.e.e.a.i.t.t.t.a.d.u.u.i.a.t.t.i.d.i.i.a.i.t.a.s.e.7.t.7.+.e.@.6.6.6.6.#.@.7.7.+.a.6.+.4.| ..#.t.t.t.t.d.d.s.a.a.a.d.a.0.4.9.0.7.d.t.+.t.r.+.7.4.4.6.+.7.7.+.t.t.t.i.t.t.t.7.t.t.7.t.6.#.t.t.t.t.t.t.i.i.t.t.t.t.| 7.0.| 1.<.| 6...@.7...t.e.+.4.4...6.t.t.t.y.i.i.t.e.t.q.t.7.4.1.8.1.+.t.a.@.4.7.6.1.1.<.4...4.4.| +.7.@.@.@.@.7.7.4.| 4.7.7.t.7.7.7.7.t.7.7.t.t.7.7.6.) ) } [ } ) Q ) _ ) ) Q _ ) W Q Q E Q [ _ Q Q W ) W E Q _ _ [ Q W W Q } } Q U W ) W S U W S W W S S T U _ W W R Q ( ( T R R U U ) W ) U S F W U U E U E V B F B Z M B m f ",
"n y t y y t f x M y B z l x l l W E U T Q U V S W Q ( Q _ _ ) W R R | { Q R ) R K b V h x U T S ) } { } | | +.4.| { | | +.| ..#.+.o.@.+.@.` _ ` ` | _ _ | ' ( { | } } ..| } @.t.4.4.4.4.4.t.i.y.t.t.7.4.6.t.t.t.t.t.7.1.| 4.e.t.+.4.7.4.| | | | ..6.4.} @.t.t.&.t.i.i.i.i.t.t.t.i.i.u.i.i.y.i.i.i.d.d.d.i.Z.a.7.s.r.7.r.9.6.7.p.s.t.t.U.d.t.p.t.a.Z.D.n.n.c.t.7.7.u.d.d.v.d.t.e.e.p.u.M.v.7.a.a.e.e.e.7.7.e.s.p.7.n.v.v.g.d.d.n.M.M.v.n.M.M.n.n.d.M.D.n.D.D.d.n.n.c.n.t.u.d.t.7.e.7.$.&.s.d.t.v.D.d.a.s.s.k.G.U.U.U.D.a.t.t.n.P.D.D.H.d.a.d.a.d.P.n.u.n.d.t.t.p.t.a.e.s.s.e.t.d.f.v.n.d.d.n.v.v.v.M.n.d.i.d.n.n.g.n.n.D.D.n.J.g.t.g.D.t.7.r.7.e.e.t.p.7.d.M.t.7.7.7.a.v.d.d.d.t.$.#.t.c.d.d.x.i.e.7.r.e.u.n.a.6.s.p.9.9.9.0.r.e.s.t.t.d.d.i.t.t.d.n.d.t.d.i.t.i.g.t.t.t.g.d.i.d.d.a.t.t.7.#.p.7.6.6.7.6.7.+.e.7.7.d.7...4...6.t.d.t.i.u.t.7.t.s.d.s.D.d.p.6.0.6.7.a.t.@.s.r.6.6.4.4.7.@.7.e.@.t.t.t.d.s.t.t.t.7.t.t.i.q.7.#.i.t.i.t.t.t.y.a.t.d.p...r.r.1.<.<.| 6...6.7...t.t.+.+.+.6.t.u.y.i.i.t.7.#.7.t.t.t.u.e.6.4.4.6.t.a.7.6.7.4.1.1.1.4...1.6...+.7.7.7.7.q.6.6.6.7.6.7.t.t.7.7.7.7.7.7.7.0.r.7.7.4._ } <.} ,.[ ) ) _ _ _ ( } [ W ) Q W <.} [ [ [ Q Q W W ) [ ~ } _ ) Q W R [ } R Q ) W S E W S U S S S U ) } _ ) T W _ Q R ) W b U ( Q ) W V F W U U W W F B A F V Z C M M f ",
"y t f r y t w B l q x z h f x V E S E U U x M M S R _ R _ ! ` R W R _ | T R _ H H b S l s U S c R [ } _ { ..| o.| { +.| | | +.| +.| ` @.+.` | { ` +.{ ( ' ( _ _ } { _ | 1._ +.7.+.1.1.4.t.i.t.t.t.6.<.4.+.5.t.t.t.t.t.7.6...4.7.+.4.6.1.<.} <.1.| 6.4.{ 6.t.t.t.t.t.i.t.t.t.t.t.t.u.i.i.y.i.t.u.i.d.d.i.i.d.p.6.s.7.0.0.7.0.6.7.s.t.t.D.s.t.0.s.Z.D.c.n.c.p.7.0.7.e.t.d.d.d.i.t.7.e.t.M.v.q.d.s.t.e.7.e.7.7.s.a.6.a.i.g.i.n.M.M.c.M.M.M.d.n.c.n.d.n.n.n.D.D.d.a.d.v.n.t.u.d.t.e.6.e.7.#.t.d.$.d.n.a.p.p.s.U.D.D.G.G.a.t.t.t.t.n.P.M.M.M.a.s.s.d.M.v.t.d.d.t.t.s.a.t.e.d.p.7.a.g.i.f.v.d.g.v.M.M.v.v.n.n.d.d.d.n.n.n.n.n.D.J.M.a.t.d.g.7.7.r.r.7.7.e.7.#.d.n.e.6.7.a.n.d.d.x.t.6.6.7.#.e.d.d.u.i.d.t.7.e.s.n.a.6.s.r.6.0.r.9.9.r.s.6.e.g.i.i.d.d.Z.d.t.t.t.i.d.i.d.i.$.t.a.i.d.u.d.a.t.t.e.+.t.7.4.9.6.4.6.6.e.+.#.s.#.| | 7.s.i.t.d.d.t.6.4.4.e.s.s.a.g.g.t.4.4.6.t.s.@.t.t.4.4.0.4.6.6.t.6.+.t.u.t.t.t.t.t.t.7.6.t.t.y.t.t.u.d.u.t.t.t.t.t.y.t.7...6.r.4.| 4.| ..| 4.4.| t.e.+.+.$.t.t.t.t.i.t.@.4.7.6.6.t.t.t.u.7.4.4.4.t.a.6.6.4.4...1.4.<.<.1.4...+.4.#.t.t.7.@.+.@.6.6.7.7.4.4.7.7.7.7.7.6...4.6.5.4.} _ <.} _ ) ) Q Q _ R Q <.[ W E W ) _ _ Q W ) Q U U W U ) [ _ [ ,.Q F U [ _ T ) Q U U U U U S S U c W } { } ) U U R ( R R W W U U ) Q U U V S U E S U V x B Z V M M B n M ",
"d y y y m t t B f y V c x l S U c U W V M l l B F b ( Q Y R { { ( R _ } T R _ K U c U x x S U c W { | } } { | +.+.| @.| | | { ` ..+.o.+.| | @.| ` #.| ( _ _ _ [ } } _ } 1.} +.e.+.| 4.7.i.t.t.t.6.1.1.4.4.| 4.7.6.7.t.a.7.| 6.t.@.+.7...| <.1.1.| 6.6.| 6.t.t.i.t.t.t.i.t.t.d.a.t.a.i.i.a.d.d.a.i.d.d.d.g.d.a.7.s.r.7.0.9.0.6.e.s.t.t.G.a.e.a.V.D.M.n.n.a.7.9.t.7.7.e.i.d.d.v.a.e.e.t.M.v.t.d.d.e.e.7.e.7.e.s.p.#.u.t.g.d.n.v.n.n.n.g.n.n.g.a.d.n.n.d.D.d.d.a.d.i.g.M.t.t.d.t.t.7.t.7.$.t.d.&.v.D.u.a.s.C.G.D.D.C.d.t.a.t.t.t.s.n.P.M.M.n.d.s.d.P.n.t.n.g.t.t.s.s.a.t.d.a.t.n.n.f.v.M.M.d.i.v.v.v.n.v.M.n.n.d.g.D.D.n.g.g.n.D.g.e.s.d.t.7.t.t.0.7.e.e.$.d.n.t.7.t.v.v.v.v.d.e.7.7.7.7.6.t.a.i.i.d.d.s.e.t.g.d.7.s.r.9.r.r.0.0.p.d.6.7.d.i.d.v.n.n.t.t.t.a.i.d.d.d.g.d.d.g.a.d.d.d.a.t.a.p.6.r.6.4.9.7.6.6.6.7.+.e.a.#.+.4.t.d.i.d.d.t.6.7.6.4.4.s.s.a.a.d.a.7.4.7.a.a.#.a.t.6.7.0.7.6.7.a.7.@.d.g.t.t.t.a.t.a.t.7.q.t.y.t.7.7.t.$.t.y.y.d.i.y.t.e.+.7.e.4.<.4.4.1...6.#.+.t.e.+.@.t.i.y.i.i.t.$.6.6.7.6.9.t.u.t.u.t.7...#.a.s.+.4.7.4.1.1.4.1.<.4.4.| #.7.@.@.7.5.@.6.6.6.7.6.+.+.4.7.7.7.7.7.7.4.4.6.7.0.1.} 1.| _ } [ Q ) _ Q Q | <.[ Q >.} ) R ) ) ) U Z F W W W [ _ _ } Q F W <.[ R _ ) T W U W W U U T U ) ( ( R _ Q T U ( ( ( R ) U R R Q ) ) F U U U S U U x M Z B B B B M B ",
"m y t d f y y f y l U x s x U k S U V x M M A B l S c U Q K R } _ K _ _ R T ) R H c c x l c E b U _ { } _ { +.| o.| | | ` ` | { ` | +.` | { { | ` @.{ R { _ ( [ _ _ _ | <._ +.7.+.| 7.t.t.t.t.6...| 7.7.<.<.| 4.7.7.6.7.7.....t.6.| 7.+.} <.<.1.4.6.6.| #.t.t.t.t.t.t.y.t.y.i.a.a.t.t.i.i.i.d.a.t.t.a.d.i.d.a.4.s.r.6.0.7.6.9.e.s.e.t.C.s.7.d.D.c.n.n.a.7.0.9.7.7.e.7.7.i.v.i.v.d.t.i.n.v.$.d.d.e.e.7.e.7.7.a.e.#.a.a.v.g.g.n.n.v.d.d.n.d.i.d.n.d.n.d.d.d.n.c.n.u.i.n.t.t.g.t.e.e.7.e.$.t.d.&.d.D.a.d.C.H.D.D.C.s.t.p.a.t.t.t.a.a.D.M.M.M.M.i.d.P.v.t.g.d.t.p.p.s.s.t.d.t.t.n.v.n.M.M.M.d.u.i.n.v.v.g.g.n.n.n.g.g.D.D.D.g.g.M.d.e.s.s.7.r.0.t.r.6.t.p.#.d.n.*.t.d.d.i.v.v.t.7.e.7.4.7.7.6.t.d.d.i.d.d.t.e.d.s.6.s.p.6.0.r.r.7.t.s.7.7.a.d.i.d.g.i.i.d.a.i.t.u.d.d.a.g.d.a.n.d.d.d.a.d.a.p.6.e.6.6.6.0.r...7.p.+.$.d.#.+.t.t.t.u.d.t.4.4.t.t.7...6.e.a.i.i.y.t.4.6.a.a.#.a.t.4.7.0.7.7.7.a.7.+.d.d.d.d.t.t.a.t.7.t.6.e.7.t.q.7.@.t.$.t.t.i.i.t.t.a.4.4.7.4.<.1.4.4.| 7.6...t.#.+.e.t.t.t.d.u.6.4.7.4.4.7.6.7.s.u.t.t.7.+.@.u.t.+.6.0.4.1.1.1.4.| 4.4.{ 6.7.@.@.+.6.6.4.4.4.7.6.+.7.0.6.4.4.7.r.4.4.6.+.7.7.} 1.4._ ) ) } _ R _ _ R _ | { <.<.~ Q W ) [ U F W U S U W E ) { ) Q Q W _ } ( R _ T U W U S W U H T Q T R Q ` R T U Q Q T b W W U U Q W Q ) Q S V U W S B B B M B M M M l ",
"M m y d f y f l l l E x h V U H W U V M B V E U S x V S ( R R ( ( R } } R ) _ R U b c x x U R U R ( R Q _ { | | @.+.| | ' { +.| { +.+.| +...` +.@.@.` _ | ' ( _ } _ } 4.4._ +.e.+.6.a.t.7.7.@.| 4.4.6.t.6.4.<.4.e.t.7.t.a.7.6.t.6.+.t.6...4.1.1.4.7.7...7.i.t.t.t.t.t.t.i.i.t.t.t.t.t.a.i.d.i.u.t.t.a.d.i.d.t.6.s.p.7.0.0.7.7.p.s.t.a.D.a.t.Z.M.n.n.a.7.0.t.7.t.w.7.7.7.&.d.x.v.v.g.i.v.n.$.i.i.t.e.7.e.e.e.u.e.7.n.v.g.v.n.v.n.d.g.d.n.d.d.a.n.d.D.c.n.d.c.n.v.i.d.M.t.t.v.u.e.e.e.e.$.t.d.&.d.M.v.D.P.D.D.D.k.t.s.t.t.d.i.t.a.a.d.D.P.M.M.n.v.P.n.t.n.n.t.p.p.s.s.u.z.p.t.n.g.v.M.M.n.n.i.g.n.n.n.g.d.d.n.M.n.d.d.D.J.D.n.M.g.e.s.d.t.e.r.t.r.7.s.a.$.g.n.u.i.d.d.v.c.t.7.7.e.t.7.6.7.7.7.t.d.v.g.n.d.i.g.s.7.d.s.r.0.r.p.e.a.s.7.t.d.d.i.d.d.i.d.g.i.i.i.d.u.i.i.u.i.t.t.a.a.d.d.d.d.p.6.p.7.6.0.r.r.6.t.k.+.e.d.e.e.t.t.i.t.t.6.4.7.e.7.7.7.6.4.e.t.a.d.g.t.e.d.d.$.a.a.6.0.0.0.e.e.d.t.#.t.t.t.u.t.a.t.q.7.t.7.t.t.t.t.a.t.i.t.i.i.a.t.t.u.s.6.6.e.6.4.1.6.4.+.t.6.@.t.$.$.u.t.u.t.t.6.7.6.6.6.7.7.7.6.t.u.t.t.t.7.7.i.u.@.6.t.6...1.1.4...4.4...@.7.t.7.4.4.6.7.6.6.7.7.7.7.7.7.6.4.6.7.7.6.7.6.7.6.} [ 1.} [ } } _ ( } | ( } _ R { } [ ) Q W E W E _ R U F U W ) _ [ _ _ Q } _ K R _ W U E W E W T U W Q T R ( ` _ Q ( ( U b c U U U U W R Q ) E S U W Q E S V Z B Z M B M V ",
"B B y t d t y B f f V h l z z U U S l d f U U I W V B z U ( R U _ R ( | ) T [ T b c S l l T U U Q ! { Q _ ( _ | o.+.o._ { { { | | { | +.| +.@.+.+.+.` _ ..| R ) } _ } 7.4._ +.7.#.7.7.7.7.+...1.4.4.+.e.e.} <.<.| 6.t.7.t.t.t.t.6.+.t.7.+.<.4.| +.t.7.+.7.y.*.$.t.t.$.$.t.t.t.7.q.t.t.t.i.i.d.u.t.a.a.i.i.a.t.4.a.s.7.7.0.6.7.s.s.7.a.D.a.d.Z.n.n.a.7.w.0.7.a.Z.d.7.6.e.7.t.f.v.d.v.d.v.f.@.t.d.t.7.7.t.7.e.a.7.7.n.v.d.v.n.d.d.d.n.d.d.n.a.a.d.Z.c.n.c.i.n.d.d.d.v.v.t.t.v.i.7.7.t.7.e.d.d.$.d.n.M.H.D.D.H.d.r.t.a.t.i.v.v.t.t.s.t.a.D.M.M.M.n.M.v.t.g.n.s.t.a.s.t.a.C.p.t.c.n.d.g.v.M.d.n.n.g.n.g.d.d.d.v.n.n.d.d.n.n.D.D.n.g.e.t.z.p.7.r.r.7.t.Z.t.$.d.v.i.d.d.v.v.t.6.0.7.6.s.a.7.6.7.7.7.t.n.v.v.v.M.M.a.6.d.d.e.7.p.0.7.d.s.4.e.d.t.d.a.a.d.i.i.i.u.a.a.t.t.d.a.t.a.t.t.a.d.i.a.d.e.6.s.p.6.6.r.7.6.s.s.+.$.a.t.t.t.t.i.$.+.4.7.6.6.t.t.@.4.4.1.6.a.i.d.d.i.i.d.$.t.a.7.7.0.7.6.t.a.7.+.t.t.$.t.t.t.t.t.7.6.t.a.t.#.7.s.d.y.y.d.i.t.t.i.t.p.6.7.r.4.| 1.4...#.t.@.@.t.t.t.t.t.u.t.@.4.7.4.+.p.s.#.6.7.6.7.a.t.t.y.t.t.y.#.@.t.7...<.4.<.+.7.4.| 6.7.#.7.7.| +.4.7.e.7.4.6.6.7.0.7.+...4.7.7.4.6.7..._ <.4.} ) ) ,.) ( } { _ { } } } _ ~ _ W Z B F Q R R _ U V U U U _ _ ( _ { R b Q Q U W S W U U W H U Q W ( W R _ _ R Q H U W Q U W U S W W U S S W U U U z F U B B B M l F ",
"F Z y t d t l F l e f l S z V x x f l f B U R T U c U c S T R T ` _ R | ( ( } W x b U c c ( T c W { | { | _ _ ` +.@.| { | ` ..| _ R _ | | { ] { ' +.| ` @.+._ ) _ _ | 7.6.} +.7.t.e.7.7.+.| +.4.| +.e.7.e.4.{ <.<...e.e.7.t.7.t.7.4.a.a.4.1.4.<.4.s.t.+.7.i.*.t.t.i.t.e.t.i.t.t.t.t.t.t.y.i.i.i.d.d.i.i.t.a.p.6.a.g.e.7.0.7.7.d.d.7.a.D.d.n.D.Z.s.7.7.t.0.t.g.v.v.i.7.7.7.$.t.c.n.v.i.v.f.@.u.v.t.e.7.t.7.t.D.e.7.g.g.v.n.n.d.d.g.n.v.v.n.d.a.n.d.d.n.c.d.n.d.n.d.d.n.t.t.M.d.e.7.e.7.t.v.g.$.d.m.M.D.G.G.k.t.t.p.e.i.n.v.v.v.t.a.a.t.a.n.P.M.M.Q.v.t.n.P.d.t.a.s.t.g./.a.a.D.n.d.i.g.M.v.n.n.n.n.d.a.g.g.n.M.n.d.d.g.g.n.n.M.M.t.s.D.s.r.r.r.7.d.J.t.$.d.n.d.v.v.g.t.7.7.7.7.a.n.n.d.t.7.7.e.e.s.n.M.v.n.M.a.7.Z.Z.t.7.p.0.e.D.d.@.e.s.u.d.d.d.d.i.i.i.d.d.d.t.t.d.c.a.d.s.a.a.d.d.d.d.t.6.g.d.r.9.r.0.e.g.k.+.t.d.t.u.d.t.e.+.+.6.r.7.t.d.n.t.6.4.<...7.t.d.v.v.v.d.$.t.d.t.7.r.7.7.i.n.7.#.d.d.t.t.t.t.t.t.t.t.u.t.e.@.@.e.t.i.i.t.t.t.t.i.y.p.6.7.r.7.| <.4...7.a.@.#.a.u.t.u.u.e.+.6.6.7.6.t.d.g.t.7.7.7.#.e.s.i.y.y.i.i.#.#.t.t.4.1.4.1.6.a.7.| 7.7.#.t.e.4.+.4.4.6.4.4.4.6.q.7.6.+.+.4.4.6.7.6.7.+.{ 4.7.| [ ) } ) ' 4.} R { +.| { { { _ U B B U _ _ ( ( E U S U U T R Q } { R U Q _ R T U U S W [ U S Q _ _ R _ _ _ T R T Q W W W R E U Q W S V U R H W S x F W V M M M B U ",
"Z Z M w r t h S x f x x z z x y f f f f B V U R W c V S U c T U R ( R _ T R { W b x V c b R b c Q Q _ | } } { _ ` | o.| ` ` { | { _ _ | +.{ | } | +.{ _ +.@...) ( } | 6.+._ #.7.$.7.6.| | ....| +.7.7.#.7.e.6.<.} | ..7.t.7.7.e.+.4.p.t.7.4.} 4.7.a.7...e.t.t.t.t.t.t.7.t.t.t.y.t.t.7.t.i.t.t.i.i.i.d.t.t.d.t.4.t.d.a.7.4.7.a.d.a.7.t.D.n.c.Z.d.7.7.r.7.0.k.c.d.d.v.t.4.7.e.#.t.v.v.i.i.i.@.t.c.t.e.6.7.t.Z.Z.6.7.a.i.v.v.g.i.g.d.d.v.n.n.d.a.d.d.d.a.c.c.d.n.d.i.i.v.7.t.n.v.u.#.7.t.c.c.d.@.i.P.M.D.U.V.t.e.s.t.t.v.v.v.v.v.d.q.a.p.t.s.n.P.n.Q.v.t.n.J.D.s.p.r.s.D.U.s.t.D.n.d.g.d.d.n.g.n.n.d.g.d.g.v.n.M.n.d.n.n.n.d.d.n.n.t.t.D.D.p.7.7.a.n.n.t.#.d.v.d.n.v.t.6.7.7.4.a.n.d.d.g.g.t.7.7.7.7.s.M.v.x.M.a.6.d.n.s.7.6.7.d.D.s.+.7.a.t.t.d.d.a.d.d.t.y.a.u.t.t.t.d.v.a.i.d.t.u.d.d.a.r.#.s.D.d.9.7.7.p.d.s...t.i.t.i.d.t.+...6.4.7.s.n.d.d.d.t.o.6.1.+.6.a.c.d.n.a.#.a.Z.s.7.7.6.e.d.d.@.+.a.a.t.t.t.t.7.t.t.q.a.t.q.t.t.e.7.t.t.t.t.t.t.7.t.p.1.4.e.r.| } } 6.t.a.+.+.a.t.t.d.t.@...7.6.4.e.i.y.i.d.t.4.7.6.+.e.a.y.t.i.y.@.#.7.p.6.1.| 4.p.p.4.| 7.7.6.6.7.4.+.4.4.4.4.6.6.4.6.6.+.6.6.4.4.+.6.6.4.4.} +.6.6.| ) [ _ | 4.{ R { | ' | | _ E U E Z W ) ( K U Q U x V U U W _ Q _ R c W } Q U V S S Q ) S c W R R ( _ R K T W R ( T W U E W W U W U E E U U W V l V E U M y M Z F ",
"B E V f y f V B c V S x V V l f B f f S F x c c W R W c c U U K _ R Q } ) T _ } _ b U H H W c c ) ( _ ` _ Q _ _ _ ` ..{ { | | { | { } ` | +.+.| { ..} _ | #.@.| } ..#.6...| 7.t.7.#...{ | ..{ ..e.7.$.t.7.t.p.4.} | } 4.t.t.t.s.6.+.e.t.s.7.<.6.s.u.6.| 6.t.t.t.t.t.t.t.t.y.t.t.y.i.7.7.t.t.i.a.u.d.i.i.i.d.t.6.e.d.c.t.4.7.g.g.a.7.t.Z.g.M.d.7.7.0.e.0.s.Z.g.d.c.v.d.t.#.e.7.$.t.v.d.f.d.#.t.d.d.a.7.e.n.P.d.@.7.d.i.f.g.d.d.v.d.g.d.v.n.d.d.g.n.d.d.n.c.n.d.i.u.d.n.e.$.v.m.v.t.$.i.n.x.d.@.d.M.P.H.Z.a.t.s.t.a.n.v.v.v.v.v.n.a.t.a.a.t.g.M.M.Q.v.t.n.P.P.n.t.t.z.Q.U.p.p.z.g.n.M.g.v.v.n.n.n.n.M.n.g.v.D.n.g.d.n.n.n.d.g.n.n.t.s.M.Q.g.e.t.Z.n.c.t.#.d.n.v.d.t.7.7.7.7.t.c.v.d.d.d.n.d.0.6.0.7.e.d.M.v.M.a.7.d.n.n.a.t.a.m.n.s.+.p.d.t.i.v.d.d.i.t.t.t.t.t.a.a.t.d.d.y.d.c.d.a.t.t.a.p.#.a.J.n.s.e.t.z.d.p.+.t.d.i.a.e.+...1.9.6.s.d.n.d.d.v.d.6.+.4.6.4.p.d.g.n.d.7.s.n.D.a.7.6.d.v.i.@...6.e.t.t.7.t.t.t.t.t.t.t.t.d.t.t.u.u.t.t.t.t.t.t.t.7.| 4.a.a.7.+...t.t.t.+.+.t.i.i.t.#.4.4.6.4.7.t.u.i.a.d.d.7.6.7.6.6.t.d.i.i.t.@.7.t.u.t.+...p.a.t.1.| 7.t.6.6.7.5.@.6.7.4.6.7.6.4.6.6.6.6.6.6.4.6.#.+.6.+.} +.6.7.4.} } +.@.+.{ _ +.+.| ..} W E W W W _ ( T H L _ R S S S E Q { _ } ( b R | } ) S V E } _ b c W U T U Q W T R ( R R Q R E W W W W Q W W U E T W U V B W W V f M E E ",
"B z x h l l x y f l x l l f l M l f l c S U H x c R Q E V x U U R _ ` _ T W ( _ _ ( Q H b U c V W Q _ _ Q Q _ ( ( ( ` { ` +.+._ { } _ _ _ } } } _ { } Q ` O.+.+.@.+.@.+.} ..7.7.#.| } { { } | 6.7.$.&.$.t.e.7.t.6.} } } 4.p.t.t.6...e.t.t.t.7.t.t.t.6._ 4.t.t.7.t.t.t.t.t.y.y.t.t.y.t.6.6.t.i.t.t.t.i.d.u.a.a.4.7.d.d.a.t.d.d.d.d.6.7.d.d.d.7.7.0.0.6.a.d.d.d.v.d.d.v.d.7.#.7.$.#.u.d.i.d.+.t.d.d.c.t.d.M.d.d...6.d.i.i.u.g.i.d.d.i.d.v.d.g.d.d.d.n.n.d.d.n.i.d.d.d.d.7.+.i.n.v.i.y.v.x.v.i.#.d.v.M.n.a.r.s.p.t.n.v.v.v.v.v.v.v.v.a.t.p.p.t.g.M.M.d.t.d.D.M.M.d.d.J.M.J.e.t.k.s.d.n.n.d.v.M.n.d.v.n.g.v.n.n.d.a.d.g.n.n.n.d.g.n.e.t.n.M.M.g.g.n.g.g.e.6.a.d.i.7.6.7.7.4.7.d.d.i.i.d.a.a.n.s.0.6.r.0.r.d.M.D.t.7.d.v.n.d.d.d.d.n.t...s.s.a.t.i.g.i.i.i.t.t.t.t.d.i.t.t.d.i.i.d.c.a.t.t.t.e.6.a.n.g.g.d.s.d.d.r...e.d.d.t.+.| 6...4.t.v.d.i.d.v.i.d.i.7...6.6.6.t.d.d.d.7.p.n.v.v.t.t.v.i.t...{ 4.7.#.7.t.t.7.t.t.t.7.t.e.q.t.i.*.t.t.t.t.t.q.t.t.t.| 4.a.t.t.t.7.e.t.t...+.t.t.t.6...6.+.+.4.t.t.t.i.d.i.d.a.6.4.7.4.6.s.y.y.t.@.#.t.t.t.7.t.t.t.7.} 1.e.7.6.@.+.6.6.@.6.7.6.4.7.7.@.@.#.+.@.@.#.6.@.+.+.| _ { 6.+...| +.#.+.{ _ ( | ...._ W W Q U W _ _ ( H H R R R T S x S W Q { _ Q b H { | Q U U Q _ _ c x W Q R U _ Q H R Q T R R Q W U U E W W U U U U U U W V B U W W V F E U ",
"l f f f x f f t w y B x l d f l l c U U W R R S S c E W c z U S U R R { R T _ R ( ( Q U c R U c Q Q _ ( _ _ { _ ` _ { ` { | ` ` { { { _ { _ _ _ } | _ R ] ] ] +.@.+.6.+.[ _ +.7. .' | | { ' +.7.7.7.#.@.7.7.t.t.t.4.| <.1.e.t.t.7.4.t.t.7.t.t.t.t.t.6.{ 4.t.t.7.7.t.i.t.q.t.u.y.t.y.i.t.t.a.i.i.t.t.a.d.i.a.a.4.e.d.i.x.i.c.d.i.d.6.t.Z.d.t.7.0.7.7.a.c.n.v.d.v.c.v.v.n.i.&.#.7.#.&.u.v.d.+.t.d.i.d.i.n.d.d.i...7.g.i.i.u.d.d.d.d.i.g.v.d.n.n.D.c.n.n.n.d.d.i.n.n.v.d.e.+.i.i.i.i.d.x.d.v.t.@.d.n.v.s.t.p.s.a.Z.n.v.v.v.v.v.v.v.n.n.a.p.a.p.s.n.M.g.t.d.M.M.M.M.D.J.n.M.t.a.d.s.d.g.n.n.n.g.v.v.d.g.n.n.g.a.a.d.n.n.v.n.n.d.g.n.t.e.g.n.n.M.n.n.g.d.t.7.d.d.t.6.7.7.7.7.a.v.d.i.t.t.d.d.n.n.a.0.0.r.0.p.n.D.p.e.g.n.c.c.v.y.v.v.e.4.s.d.d.t.t.d.d.d.d.i.i.i.i.d.d.u.u.d.d.d.c.n.d.d.d.t.r.+.s.D.d.g.n.d.a.i.e...t.a.t.6...4.6.+.a.d.g.i.d.d.v.d.d.g.a.6.6.7.6.e.d.v.n.e.t.n.d.c.d.d.d.u.t.+...7.e.@.7.t.t.t.t.t.t.t.u.t.7.t.i.i.a.t.#.7.a.t.q.t.s.6.7.d.t.t.s.7.e.t.t.+.4.t.t.#.4.4.6.+.7.t.t.t.t.i.d.i.d.d.t.4.4.6.6.7.t.i.t.@.6.t.t.t.i.a.t.t.6.} 1.e.t.7.#.6.7.7.#.7.7.#.6.7.7.@.+.6.#.@.@.$.7.@.| +.+._ } 4.+.| +.@...| ` _ _ | | ' R W Q Q W _ { _ Q W R ( R _ ( W S S U W W Q { T b ( _ _ R R Q ) ( c V ) _ R Q _ W H R Q R ( R W U E U E S S F V W W H W W S x U E W W W Z U ",
"f e h f f f f w w f l V f w t l S c U U E b U E E V U U W U x c S c R ( ( U W _ Q U U b H K U V W R T Q { _ _ { | | | ` ` ` { ` { o...| ` _ } } ` | _ R ' ] +.+.| +.@.+._ T ..+.] ' ' ' _ | #.+.#.7.+.+.7.t.t.6.7.7.| } ..+.e.t.+.4.t.t.t.7.6.t.t.t.6.4.7.t.t.t.7.t.t.t.t.t.t.t.y.y.t.i.i.i.i.t.t.t.t.a.d.a.t.4.t.d.y.d.i.i.d.d.a.6.7.Z.a.7.7.7.7.a.M.n.d.n.d.d.v.n.c.v.v.i.#.#.#.$.$.d.t.+.t.d.u.d.i.d.g.d.t.+.6.i.d.i.t.t.d.v.i.d.d.d.M.c.D.Z.n.d.d.d.d.i.i.n.n.i.n.7.+.t.u.i.y.u.c.i.y.i.#.i.n.a.e.p.s.t.n.m.n.v.v.v.v.v.x.v.v.n.n.a.p.p.t.d.P.n.7.g.n.v.n.M.J.M.n.D.t.t.g.n.d.g.g.v.v.M.n.g.d.d.v.v.d.a.a.g.n.v.n.d.d.d.g.d.e.t.g.g.g.g.D.g.d.g.t.#.a.a.7.7.7.6.7.i.c.i.i.i.i.a.d.d.d.d.c.p.7.0.r.6.s.D.t.7.n.d.d.d.d.d.i.c.t.+.a.d.i.d.t.t.d.i.i.i.t.i.d.i.a.i.d.i.d.d.d.d.Z.d.d.d.t.+.p.d.g.i.d.d.t.a.e.| t.s.7...6.4.+.t.g.i.i.i.i.i.i.i.d.i.d.t.6.4.e.6.d.n.a.7.a.y.d.t.d.i.i.t.t.+.| t.t.7.6.6.t.t.q.t.i.t.i.t.e.$.t.i.t.#.#.6.t.t.q.t.a.7.7.t.t.t.t.7.t.#.t.+.+.a.t.+.7.6.+.6.t.y.t.t.y.y.y.d.i.i.d.7.+.4.6.4.6.t.t.+.6.7.t.t.t.t.t.7.7.<.} 7.t.7.+.7.t.#.#.#.#.7.6.6.6.@.@.6.#.@.+.#.4.+.+.+.+.} _ | ..+.| | { ` | } R { +._ W Q W Q _ { { _ Q ( T R _ Q R R W S x S U R _ Q H R R ( U T _ Q R S S W Q R K Q Q U H Q ( Q R U W W U U U U S W Q E S U W x x U S E E E E F ",
"h f h f f x l f t f B V f w y S W c b x c z U U Q R W R _ Q U B S c R _ R W _ { ( b c S K T U c Q Q T R { _ ` ` ` ` ` { | ` { ] +.| | ' ` { ..| { | _ ( | +.+.+.+.+.+.6.} ( ..+.] ' _ } +.+.+.@.7.7.#.#.7.t.t.7.e.t.6.1...4.t.t.+...7.t.t.7.7.t.t.s.7.+.t.a.s.s.7.7.q.t.t.y.t.i.i.y.i.i.t.a.t.t.t.i.t.d.i.a.7.4.t.d.i.i.u.i.d.g.a.7.t.n.t.7.7.7.t.n.M.M.n.M.v.d.v.n.n.c.v.v.t.6.#.7.&.i.t.+.t.d.i.d.i.d.d.d.d.7.7.d.i.i.t.i.i.v.c.v.v.v.v.M.D.Z.d.d.d.n.i.d.i.n.v.d.c.t.+.t.u.x.i.i.x.i.i.i.#.d.n.t.7.s.t.d.M.M.n.v.d.d.n.v.v.M.v.n.M.J.a.t.t.d.J.n.t.D.D.M.v.n.J.J.M.J.s.t.g.n.n.n.g.g.M.P.M.n.n.n.g.n.n.g.v.n.v.n.g.a.d.d.n.g.e.s.n.g.n.g.g.d.g.n.t.7.d.d.e.t.t.7.i.v.d.d.d.i.i.g.d.d.g.d.n.d.p.r.r.7.p.D.s.e.n.d.n.c.d.i.d.M.a.4.s.d.i.v.i.d.g.i.i.t.t.d.c.i.i.i.d.d.g.g.v.n.d.p.t.s.s.7.a.g.g.i.d.d.y.d.t...t.s.e...4.6.s.d.d.u.d.d.d.u.d.d.g.i.f.n.t.6.7.7.d.n.d.$.d.d.d.t.a.i.i.t.a.6.+.e.t.t.6.6.t.t.i.t.a.t.t.i.a.7.t.t.t.$.7.7.t.#.t.t.t.4.6.t.t.t.t.t.t.t.a.#.@.s.e.4.7.4.7.t.i.t.i.y.d.i.i.i.d.i.i.a.t.4.4.6.6.t.p.+.#.7.t.t.t.t.t.t.e.1.<.7.6.+.+.6.t.7.$.#.6.6.7.7.7.7.7.7.6.+.#.6.#.@.@.@.4.1.} ..+.+...+.{ { +.} Q ..6.{ _ ) Q _ ..{ { } Q W R ) _ W U Q ( W V V S R ) ) U _ _ R R R ( ( ) W U Q _ R U W { R U ( R Q Q W R Q W E U W E Q ) Q S S S x V U U W U U F S ",
"h f y h x s l f w f V l w w f V U U c c W E W H R R U U R _ _ z c S R _ U T { { T b U c c U S c W Q U U ( _ ` R R R } ` ' _ _ | ] | ` _ } { { { | } R ( +.+.] | @.+.| +.| _ { +.' _ } ..#.+.] +.7.@.#.#.+.7.t.q.#.$.7.4.| 4.#.t.7.+.7.7.7.t.7.7.7.t.7.{ 6.a.t.t.7.@.7.t.$.t.y.t.t.y.t.t.t.t.t.i.t.a.a.i.t.t.7.4.t.d.i.y.t.i.d.i.d.6.a.n.t.6.6.7.v.n.g.n.M.n.c.c.n.g.c.n.d.c.v.t.+.7.t.i.u.@.7.i.d.i.i.d.t.i.d.6.6.d.t.i.d.i.t.i.v.v.c.v.d.v.D.n.i.d.d.d.a.t.d.d.i.v.d.7.+.i.i.u.i.x.i.u.c.t.#.i.c.t.7.t.d.H.n.n.M.c.d.d.v.v.v.n.v.v.n.H.n.a.e.d.J.n.t.Z.G.n.v.M.n.M.P.D.a.a.g.g.n.D.n.g.v.n.J.M.g.n.v.n.v.n.M.n.v.n.d.u.d.n.n.g.e.p.D.d.g.D.d.d.d.d.t.#.d.d.7.7.t.d.d.d.i.d.i.i.t.i.d.d.d.d.d.n.d.r.0.7.s.Z.r.e.Z.n.c.d.d.t.d.M.a.6.a.d.d.i.v.d.d.t.t.t.d.i.d.d.d.i.i.d.d.i.v.d.d.e.e.s.s.6.a.g.d.d.a.i.d.a.p.+.7.a.#...4.s.g.u.u.i.i.d.d.t.i.d.i.i.i.d.d.7.@.e.d.n.d.#.s.g.y.a.t.t.u.u.t.4...7.t.t.t.6.6.t.a.t.q.q.i.t.u.t.t.7.7.7.t.i.t.y.i.t.t.@.+.t.7.$.t.t.$.t.a.6.@.t.7.6.+.5.i.u.t.t.t.y.y.i.a.t.t.t.t.i.a.7.4.4.4.e.p.+.@.t.t.t.t.7.6.t.0.<.| 6.6.+.#.#.@.q.q.#.@.6.t.e.5.@.7.7.6.#.@.6.6.@.| +.4.[ } 4.+.{ +...} { | [ _ | ..| _ W _ | { { { _ Q Q ( ( W S S U R R U S x U ) E U [ ( W U Q W Q ) U U Q R Q U T Q ( Q R R Q U R W W W Q E U W Q Q W U S B B x U E U U U V Z ",
"x h e l x h c x f f l f w y x x U U T U ~ Q ( W W U R U U _ _ R U H _ { R b _ { T H W b c U U S W Q T T Q ` | _ R ( | ` _ _ ` ` | ] ` ' { | | | +.| R _ 6.@.] | +.+.+.+...} ..@.' ( +.#.+. .+.#.$.$.t.#.@.7.t.$.#.$.t.7.| +.t.t.6.4.7.7.7.t.t.t.q.t.7.| 6.i.t.t.t.#.t.t.t.t.t.$.t.i.t.t.t.t.i.i.t.a.d.i.t.a.7.6.t.d.i.t.t.d.d.d.d.7.a.n.t.4.7.d.n.n.v.n.d.d.c.n.n.n.v.n.c.c.n.n.t.e.t.v.g.$.t.d.i.i.d.d.i.i.d.7.7.i.d.v.v.M.i.d.d.M.n.v.d.n.D.n.d.n.d.d.u.d.n.g.d.v.d.t.+.d.d.i.i.x.d.d.v.i.#.d.v.a.e.t.M.M.n.M.v.d.d.v.d.n.n.v.v.M.M.m.Q.d.t.d.T.D.t.D.P.M.M.M.D.J.J.J.s.a.z.M.n.M.n.g.g.n.M.n.n.n.n.M.v.v.v.M.M.v.d.g.n.n.M.D.t.s.n.v.g.n.g.n.d.d.t.7.g.g.$.#.a.n.f.i.d.i.y.i.i.u.d.i.a.d.d.v.n.d.r.7.z.G.p.e.Z.M.v.d.d.d.c.n.a.7.a.n.d.d.g.v.v.t.t.d.v.i.g.c.c.i.i.i.d.d.g.d.s.a.g.Z.s.7.n.n.d.i.i.a.v.i.a.#.t.a.#.#.a.d.g.i.d.u.i.d.d.i.u.d.d.u.i.i.n.a.7.@.i.D.g.7.s.g.d.d.t.t.s.t.p.4.+.t.t.t.t.6.6.6.7.7.6.t.i.i.d.i.u.t.t.t.t.t.y.i.i.t.a.6.+.t.t.7.t.t.t.t.a.6.7.s.6.+.7.t.i.i.i.i.t.t.t.i.d.t.t.t.t.t.i.a.e.1...t.s.+.6.t.t.t.t.q.7.t.p.1.| 6.e.6.e.6.@.6.7.7.7.7.7.6.@.4.4.7.q.q.7.5.@.@.@.#.4._ } 6.+.| ..| | | | } ` +.+.{ ( _ | +.{ | _ _ _ _ R ) U c U T U Q ( R c U [ W S _ { ( R Q W _ ) W U W Q _ _ Q H U T Q W Q Q ) R R R Q W E Q [ W W U U F V V W R E W W F U ",
"h e h e h l z x f w f y l f h h x h b R U Q Q R U U R K R K Q ) U W _ } U c R R R U U S U b U S U U Q R R _ { ` } _ _ _ _ ( _ ' | ` ' } ` { +.+.| } U ) 4.+.o.` { +.@.4._ ( ..| _ ' @.+.O.] #.#.+.$.$.#.@.7.7.@.$.$.$.e.7.$.t.7.} } 7.e.@.6.7.t.q.7.4.| +.t.t.7.t.t.7.7.t.t.$.t.t.t.t.t.t.u.t.t.i.d.y.i.u.d.7.4.t.i.y.y.y.d.y.d.a.6.t.n.t.t.a.M.n.v.v.n.d.n.d.n.c.c.n.c.n.M.v.D.n.t.t.v.d.#.t.i.i.i.y.i.d.i.t.#.7.d.i.v.g.n.c.d.i.g.g.d.s.d.D.n.d.a.n.d.t.a.n.v.g.a.g.t.@.i.i.i.t.i.i.x.c.t.#.u.d.n.d.n.M.v.n.v.v.n.d.d.v.v.n.v.d.M.v.M.M.D.a.g.P.n.t.k.D.D.M.M.M.P.J.Z.s.a.n.v.n.n.g.M.n.n.v.d.d.n.n.n.v.v.n.v.v.v.d.d.M.g.v.n.t.p.d.d.d.d.d.M.d.u.t.7.d.g.e.t.d.i.i.d.u.i.d.t.t.t.a.a.i.i.d.i.v.n.a.t.n.C.t.e.d.d.c.y.a.c.n.a.t.7.s.d.d.g.d.d.c.t.i.d.d.v.v.d.i.i.i.t.d.i.d.d.Z.Z.g.D.j.6.d.g.u.t.d.a.d.d.a.@.t.a.7.t.v.i.u.i.i.i.d.i.d.d.u.d.n.t.t.i.i.g.a.7.u.n.d.#.a.s.t.y.a.t.a.7.7.4.+.t.t.7.e.7.e.4.6.6.t.7.t.d.d.t.t.t.i.t.t.t.d.t.t.t.t.@...4.7.7.t.7.t.e.7.+.6.a.6.@.u.i.t.t.i.t.t.t.u.t.u.u.t.t.t.t.t.t.a.6.+.a.s.+.@.t.t.t.7.7.t.t.7.<.1.7.7.7.$.7.6.@.6.7.7.6.4.@.6.6.+.6.7.7.e.@.+.6.@.+.7.} ( 4.4.| { } | +..._ ( | 4._ R { o.| | { _ { _ Q T H U W U U U U R Q U U _ U b _ _ _ Q W ( } Q U S R U ( _ W c H R R E W ( _ _ _ W W E W Q Q W U U W U x S W U W E E E V ",
"e h l s x k S f w t l x c l x h h f x S Q ~ W U Y R Q T R R ( ( ( Q { _ U c R R _ U U U b x V x S T _ ( _ ( R ` | } _ ` ` _ ` ....] { ' { { | { _ ( Q R { +.+.` ....+...( R | ..] +.+.+.+.O.$.#.#.$.$.$.@.6.7.#.$.&.#.t.i.t.t.e.' } 6.7.7.t.e.t.7.#.6...+.t.t.7.t.t.t.t.t.t.t.i.t.t.t.t.d.i.t.t.t.i.a.i.i.d.7.5.y.t.t.i.y.d.i.t.t.7.a.n.d.n.c.n.n.M.n.n.D.M.v.D.c.M.M.n.v.v.c.n.n.d.d.M.d.$.e.*.i.x.i.d.i.q.#.7.e.g.i.v.d.d.d.g.i.d.u.d.t.d.d.d.a.d.d.d.a.d.d.D.n.d.d.t.#.a.u.t.y.d.i.y.u.y.#.i.c.n.n.M.M.n.v.n.v.M.M.v.v.n.v.d.g.M.n.M.M.P.D.M.P.n.t.Z.D.n.H.P.P.P.n.a.s.s.n.n.n.M.n.M.M.n.n.d.d.n.M.M.M.n.d.d.g.v.d.d.n.n.M.n.a.s.s.a.d.n.M.M.g.u.t.7.a.g.i.d.d.d.i.d.d.v.v.d.t.t.a.d.d.i.d.d.v.n.n.d.n.D.a.e.s.i.d.d.n.d.t.t.a.t.a.d.g.v.d.n.n.v.c.i.d.v.c.i.i.d.i.a.a.n.n.d.n.n.g.C.s.6.a.d.t.d.n.a.d.d.e.@.t.d.t.i.d.i.i.i.u.g.d.i.d.i.d.v.g.t.&.d.d.d.n.d.d.g.g.7.a.t.7.a.d.a.a.7.5.4.#.e.t.t.7.t.a.t.t.4.7.t.i.t.t.t.i.i.d.t.t.t.i.t.t.i.t.+...7.7.7.t.t.t.e.6.+.7.u.t.i.i.i.i.i.i.u.t.t.u.i.i.i.a.t.u.t.t.t.u.t.t.a.a.@.@.t.t.t.t.t.t.t.4.4.4.7.7.7.7.e.e.7.7.@.+.+.4.6.7.6.6.6.6.t.7.@.6.7.@.#.e.1._ 4.6.+.| ..+..._ _ _ ..+.| { +.+.| _ _ } } Q U U U R ) R R T R T _ _ Q Q b U [ Q _ _ } _ _ U c U R R ( ( R U W ( ( R R R R R W W Q W ) W U S W U Q E S S W E Q U E E U ",
"f e h b l l x t 6 y V l x c b h x l h V Q W S S R R U T T ( _ R ( _ _ R Q U U W R R U x l x B l V R R R ` R _ L _ ' | ` ` ` ..` | ..| ` _ ` ' _ { [ E W } ` | ..| ` | ' R K ` #.| ] @.+.] $.#.#.t.e.#.+.#.+.+.#.#.@.$.$.#.*.t.7.| | 4.+.7.t.7.6.+.7.6.| 6.t.$.t.t.t.t.t.7.t.t.t.i.t.t.t.t.i.u.t.t.u.i.i.t.i.a.4.a.t.%.i.y.i.t.q.t.6.t.n.d.d.v.d.c.M.n.D.n.D.n.c.M.M.c.n.d.d.d.c.d.n.M.M.i.#.e.e.*.x.d.i.$.$.t.#.7.d.d.i.v.g.a.d.d.d.a.d.d.a.a.d.a.d.d.n.d.a.d.n.n.a.a.t.@.d.e.7.a.g.t.#.t.a.#.a.n.d.n.v.d.v.d.d.M.M.n.n.v.n.d.d.d.v.n.M.n.M.P.M.P.n.t.D.Z.u.D.P.P.D.t.d.s.a.n.M.v.n.n.v.n.P.M.g.g.v.M.M.n.n.d.g.g.d.d.g.g.n.M.c.t.s.s.e.s.n.n.n.t.u.a.6.a.g.i.v.d.i.i.i.c.v.v.v.t.t.a.a.d.i.i.g.d.d.M.v.d.n.t.7.g.t.q.d.n.a.@.t.s.6.t.d.a.d.n.d.d.n.v.d.d.i.i.i.d.y.d.i.g.n.n.a.a.n.n.Z.a.4.s.t.7.d.n.n.d.7.e.@.t.i.i.t.u.u.d.t.d.i.d.d.d.i.u.v.d.t.t.i.d.i.n.v.d.v.a.@.a.t.6.p.d.a.e.+.t.4...t.t.*.t.e.t.s.6.4.7.t.t.$.e.t.d.i.t.i.t.t.t.t.t.t.7.....t.6.#.t.a.t.+.7.+.@.t.y.d.d.i.i.i.t.t.t.t.t.a.i.t.t.a.t.t.i.t.t.a.i.i.t...@.e.#.7.t.t.7...4.4...7.t.6.#.6.7.e.7.+.| 4.e.6.4.7.6.#.7.7.7.6.@.4.6.7.7.1.} 4.4...+.6.| ( ( [ Q { 4.+.o.+.| _ Q ) ( ( R W c U W Y R ( _ Q R ( _ R E U S _ _ ! _ { W U V U c W ( Q T T U R R Q _ Q T U H T E U Q W W U V E U E Q V B F W W W W U U ",
"l w h c c h y w r f S l h c z c U c V U U b c U ( R W T U ( ` R R R _ Q ) W U R _ U S x l S U M V ( ` _ ` { | ` ` ' { ` _ { ..| | { ` ` ` { } ` | } Q ) } ( _ ' ` | ` { } R | @.+.+.+.+.o.#.$.$.t.#.+.#.#.#.#.#.#.$.#.+.+.$.7.7.4.4.4.+.6.7.6...+.a.q.| @.t.t.t.q.t.t.t.t.t.7.t.t.t.i.u.t.i.d.i.u.i.d.g.i.d.a.4.a.t.+.i.d.t.7.t.d.6.t.D.i.d.d.g.d.n.M.H.n.n.n.d.n.M.M.n.v.n.n.m.M.M.M.P.d.#.s.u.#.i.y.e.#.i.g.#.7.a.d.i.v.v.v.g.n.c.d.d.d.d.n.n.d.v.v.n.v.d.d.d.d.d.c.t.#.g.t.#.t.d.e.#.a.d.#.d.n.d.n.n.d.d.d.c.n.D.n.M.M.v.n.n.d.d.M.M.n.n.M.M.P.n.t.D.C.d.s.D.T.d.u.D.d.p.n.M.n.M.M.n.n.D.J.M.n.v.M.M.n.n.M.J.n.d.g.n.d.g.M.n.t.s.d.e.e.a.D.d.t.g.d.$.a.v.i.g.g.d.d.i.d.v.v.d.t.i.d.a.d.c.i.d.d.v.M.d.v.D.e.r.D.a.$.t.n.t.7.n.d.6.e.a.d.d.n.n.M.c.n.d.i.a.d.d.d.i.d.n.M.n.d.a.d.d.n.Z.p.6.s.a.7.a.D.D.t.t.d.6.i.d.d.i.i.i.d.f.v.d.d.g.d.u.i.d.d.i.i.d.i.d.v.d.g.n.u.#.s.s.6.7.d.s.#.6.d.#...t.e.t.i.t.u.t.t.t.a.t.t.e.t.t.t.u.u.t.t.t.a.t.i.t.t.+.@.a.7.+.t.a.7.@.s.6.6.t.t.t.u.t.u.u.i.t.u.t.t.u.i.t.y.i.d.i.i.t.t.u.i.i.t...#.t.6...6.7...| e.7.| 6.7.7.7.6.7.t.7.6.@.6.7.7.6.7.6.6.t.7.7.6.6.7.7.7.6.4...7.+.} ..4.} Q | | ( { +.| @.4.{ _ _ { Q Q { Q b U W Q ( ) R R U R R T W W U [ } Q U _ ( W W Q c Q R R R Q R ( R ( Q Q ( Q Q ) W Q W Q ) U U W U W U V B F Z U E E Z Z ",
"l h e e x y f f 6 y l l x l l z c U U c V x U U U R R H R Q R R R T _ Q R T W R R c x x V U U c Q _ ` _ { ` ` { { _ _ R _ _ ` ' ` _ ` ` { _ _ } { } W U } | L R ..' ! | { R ` +.#.+.+.] +.+.O.$.#.+.+.7.t.7.$.@.+.+.+.#.#.+.$.7...1.7.#.+.4...+.4.p.6.{ 4.q.7.t.t.$.7.t.t.t.t.$.t.t.t.t.i.i.i.i.t.i.a.d.i.a.t.+.a.d.7.e.a.e.$.d.a.6.7.n.a.d.d.g.d.d.n.n.n.n.v.i.d.n.n.v.n.M.n.n.n.n.v.M.a.#.a.a.i.t.+.6.a.i.u.$.7.a.u.d.a.d.v.v.d.v.d.d.i.v.d.d.v.d.d.d.d.n.a.d.u.i.d.t.#.d.a.e.#.e.#.t.d.t.#.t.n.n.d.n.n.n.d.n.d.n.M.M.v.M.v.n.v.n.n.n.g.v.M.n.P.g.e.g.D.D.a.g.g.d.n.Z.s.a.d.n.n.M.M.v.g.n.M.M.n.n.v.v.n.M.P.n.d.d.n.n.n.g.n.g.e.t.Z.z.e.7.a.u.i.n.a.$.t.n.d.d.d.g.i.u.u.d.d.i.t.t.d.n.v.d.y.i.d.d.v.v.d.g.p.6.d.n.u.7.t.7.i.d.t.7.7.d.d.a.d.g.v.d.a.a.a.i.d.d.i.i.i.c.n.d.t.a.Z.s.d.n.a.4.s.z.t.6.g.z.$.a.d.6.t.v.i.d.d.y.d.v.v.v.v.i.d.d.u.u.d.i.t.d.c.v.d.i.i.d.a.6.t.a.s.7.r...7.a.t.6...7.t.&.t.t.t.t.s.t.t.7.7.e.t.t.t.t.t.t.t.t.u.t.t.t.7...+.t.a.6.+.4.#.#.a.6.@.t.t.7.t.t.t.t.t.t.t.t.t.t.t.t.t.t.i.i.t.t.t.t.t.t.t...+.a.t.+.4.4...6.7.+.| 4.7.6.7.6.+.@.7.@.#.7.4.6.7.#.6.7.$.#.7.6.7.t.6.#.4.| ..7.+.( _ } ( { | } ( _ | | | } { } } } _ { { { R b U Q ) U b b T R U ( U S U <.} U U ) T Q _ E W ) U T R ( R R Q W R Q T ) Q ) _ Q Q Q E Q E S E W V V V E B V B Z V F ",
"x V h t f f S x w y B l c k b V S z z B S S W U U R Q U H U W Q ( ( } _ T R } _ U l l V T U V U _ Q W T R T R R Q Q } _ _ ( _ ` _ _ ' ` { { } { ` _ W U } +.` T _ ` ..| } ( ' +.#.@.#.+.O.+.+.#.#.@.+.+.#.7.+.| #.#.#.#.#.#.e.e...| e.t.@.{ | e.7.7.+.| 7.7.#.7.$.$.t.t.t.u.t.t.t.i.t.t.*.i.t.t.t.i.t.a.i.a.e.4.t.d.c.t.6.7.a.d.t.7.t.n.d.d.g.n.d.g.v.c.v.m.d.i.d.n.d.M.v.v.d.i.d.v.v.M.a.7.a.i.v.d.7.7.v.i.t.e.e.a.a.g.d.g.d.v.d.d.v.v.i.g.n.g.a.i.d.n.d.n.g.g.d.i.d.t.#.d.v.d.7.e.t.v.i.a.#.t.n.v.n.D.n.M.v.n.n.n.n.d.d.n.n.D.n.v.n.g.v.M.M.M.P.g.e.g.M.m.M.d.t.n.P.n.s.a.d.J.M.M.M.n.n.n.v.n.M.n.v.M.M.n.g.d.d.n.D.n.n.n.n.g.t.u.M.W.n.7.6.d.M.n.a.6.a.M.d.g.d.d.i.i.u.i.i.d.a.t.i.d.v.d.i.d.v.d.v.n.v.n.a.7.d.n.n.y.t.i.n.i.t.7.a.n.g.a.d.d.d.d.d.d.d.d.d.i.d.c.d.i.d.i.d.n.D.d.d.Z.s.6.d.D.d.7.t.t.d.c.d.7.y.v.u.d.d.i.d.i.v.d.d.i.d.i.i.i.d.i.u.d.d.d.g.d.d.d.d.7.a.d.g.t.6.+.d.i.t.7.+.t.i.*.t.t.u.s.t.4.6.6.a.a.e.e.i.u.t.7.u.t.t.e.$.$.7.4.+.t.d.t.6.| e.u.t.6.6.a.a.t.i.a.t.t.t.t.i.i.t.t.t.t.i.i.i.u.t.e.t.u.t.u.i.+.@.t.i.t.@.+.t.t.6.4.| 6.t.7.e.7.+.+.6.6.6.#.6.6.#.#.6.7.#.7.t.t.7.7.+.+.7...| 7.7.| _ _ ..@...} _ { +.| | { { | { _ _ _ ! { T H W R U U c S ) Q Q _ W S U <.{ U R W S _ [ U S W T T ( ( R T U U Q ( R R W E Q Q W Q W ) W U S E U Z E Q U F B E U E ",
"h x x e f y x V e t V h h c U c c h l B U U V U R R U b U b R R ( { _ { R W [ R R c S c H b l V W U b S R _ ( R T W _ _ T W ( R ( _ R _ { { { _ ` _ W T L | | L _ | +.{ R R ` +.] +.#.@.+.+.@.+.7.#.] ] +.+.X.o.@.#.+.+.#.@.#.7.+.} 4.4.7.7.7.7.+.#.4.{ 6.7.#.#.7.t.e.t.t.t.t.t.t.t.7.t.t.t.t.t.t.t.i.t.t.d.7.4.a.t.c.d.7.d.c.t.t.a.q.n.i.g.d.d.n.n.i.d.c.n.d.i.a.g.i.v.v.d.d.d.d.d.v.v.a.#.a.t.t.d.d.d.d.$.t.e.#.d.i.d.d.d.d.i.i.g.c.c.d.d.a.d.i.d.d.d.d.n.n.g.d.t.d.s.#.d.y.i.i.d.d.c.t.a.#.u.d.g.v.n.n.n.n.d.n.n.d.d.d.d.n.d.d.v.d.n.n.n.D.M.M.d.e.g.g.i.M.n.d.P.v.d.d.t.d.M.v.v.v.M.n.n.n.n.D.n.d.d.n.g.d.d.d.n.n.D.n.d.n.g.t.s.d.d.n.d.a.n.d.a.a.7.d.M.v.v.i.i.d.v.d.u.i.d.t.u.t.i.d.t.i.v.d.n.M.d.d.n.p.7.d.i.i.c.c.c.d.t.t.7.d.n.d.d.d.a.a.a.d.i.a.d.t.t.i.c.i.i.i.t.a.c.d.c.c.d.p.6.s.a.d.d.d.a.P.a.p.7.t.d.i.i.i.d.u.t.u.t.i.i.u.t.i.i.i.i.i.t.i.t.d.d.u.g.a.#.t.u.t.t.i.d.d.#.e.6.] t.t.i.t.t.t.u.t.6.4.t.s.e.4.7.i.t.t.$.$.t.t.$.t.t.7.+...7.t.t.a.a.a.$.t.q.#.t.y.i.i.t.a.u.t.t.u.d.t.$.t.t.t.u.u.t.t.t.e.t.t.t.y.+.#.t.t.q.q.q.t.#.#.4.| 6.7.$.7.6.@.+.+.#.@.+.#.6.@.@.#.@.#.$.6.t.7.+.+.@.4.| ' +.6.6...+.4.+.| { ( { 4.| | | ` { { { ` ( Q R c b T W U U H W W Q Q R R U S W _ Q U W Q _ R b c W T ( T R R W S W U W Q U E E Q Q W E W Q Q U S W U Z F W Q W F W E B ",
"l f l l V l l l y d S h l x b x h l V V V c S U U R U H R _ ` Q ) _ } { R U Q R ( Q ) U c k x V U U S S _ ` { _ _ ( Q T S U Q R ( _ _ _ { | { _ | | _ R R _ | ` | { _ ( R R | +.` ' ` +.#.#.@.#.@.@.#.+.+.@.#.@.@.@.@.#.#.@.#.7.+.| 4.| +.t.t.4.+.6.6.| 7.t.7.#.t.t.t.t.t.t.i.u.7.@.@.t.i.t.t.i.t.i.i.t.i.d.t.6.a.t.q.i.d.d.t.$.i.a.t.D.d.n.g.g.v.v.d.n.c.v.i.x.v.d.d.v.v.c.v.n.d.d.v.n.u.#.u.t.$.t.c.g.e.@.t.t.$.d.i.d.g.d.i.d.i.n.v.n.v.u.7.a.n.v.a.n.n.n.d.d.d.d.g.s.$.d.u.t.d.M.c.t.&.a.7.i.v.n.d.d.g.d.n.n.d.n.M.J.n.g.d.n.g.v.v.J.M.M.D.M.M.d.e.n.g.t.i.P.Q.M.i.n.d.a.d.n.v.v.n.M.M.n.n.M.D.d.t.t.d.n.n.n.n.g.n.n.n.g.v.n.t.d.d.t.t.n.D.d.t.t.s.e.d.M.v.n.d.d.v.M.n.d.g.n.d.i.i.i.u.t.i.v.M.n.n.n.g.n.a.e.n.t.t.v.H.v.t.t.a.t.d.n.c.n.n.i.a.d.d.d.d.d.t.q.t.d.c.d.d.i.d.d.n.c.c.d.a.7.d.u.a.d.J.n.g.e.t.e.t.d.i.i.d.t.t.t.t.t.i.i.u.t.t.*.u.i.i.t.d.i.v.i.i.i.t.#.s.u.7.e.n.v.t.+.7.$.+.t.t.t.t.t.u.i.a.e.t.a.7.+.4.7.a.u.i.t.t.t.t.t.i.y.t.4.+.t.t.#.a.d.e.+.t.t.#.t.i.t.t.t.t.i.u.7.t.t.t.t.t.t.t.u.t.t.i.t.t.t.i.i.y.+.#.t.#.+.i.c.7...6.6...7.e.7.#.#.7.#.#.#.@.@.7.@.{ @.7.@.#.#.@.6.#.@.#.7.6...} ..+.+.6.7.| _ ' | _ { +.@.+.+.| | +.+.| | { ( U T Q ( R T R R R Q T U ) W c U U Q R } _ Q W S S W ( _ Q ( ( ) Q W E Q W U U Q [ Q W ) E W U U U Q E F C F U Q Q E B M ",
"l y f f l l e t f y x c f f x x S V S z z V S z S U R _ { { ` R R _ _ } R H _ R b R W c l h c x V V U W U _ _ _ { W U S S b U Q ( R _ ( R _ _ _ ` | Q W _ L R { { R K ) T K _ +.| ' | +.@.@.+.+.+.+.#.#.#.+.+.@.@.+.+.6.#.#.7.6.| { 4.| } 6.6.} +.7.+.{ 7.t.7.t.$.q.t.t.t.t.t.7.@.4.4.6.t.i.t.t.t.t.t.i.u.a.t.4.s.e.@.q.a.t.#.t.a.7.e.M.n.d.v.d.d.d.d.v.v.d.y.i.d.c.v.n.c.v.d.d.v.v.d.v.t.#.t.e.#.#.t.t.+.+.t.e.$.a.g.i.d.d.i.i.n.d.n.M.a.7.6.7.a.n.n.n.n.d.i.i.d.d.g.t.$.d.t.$.u.d.i.$.*.d.$.t.D.n.d.d.d.n.n.n.d.d.n.D.M.D.n.v.d.d.n.M.P.P.n.v.M.n.e.g.d.t.e.g.M.u.t.g.d.t.d.n.d.n.n.n.n.n.v.M.d.p.r.r.p.g.M.n.n.n.d.d.d.c.M.d.t.s.d.t.6.t.Z.t.#.s.s.$.d.J.d.v.d.d.d.d.d.v.v.v.d.u.d.n.i.t.t.i.v.d.n.v.n.d.t.7.d.t.#.t.n.t.#.t.a.7.t.n.n.d.d.d.d.a.a.d.d.t.7.t.t.t.d.d.i.a.a.a.g.g.i.d.s.#.d.a.7.t.n.d.e.#.a.7.7.v.i.i.t.i.a.t.t.t.t.d.t.$.t.t.t.$.t.d.d.x.c.u.-.u.t.@.t.t.#.#.a.t.+.+.t.6.| 7.t.$.t.t.t.t.t.t.a.7...| 4.4.6.i.i.t.t.7.t.t.t.i.a.6.+.a.t.+.7.e.+.#.s.t.@.u.i.t.$.t.t.t.t.t.t.7.$.t.t.t.t.t.t.t.t.t.y.t.t.i.t.O.#.*.+.] 7.i.+.| 6.+.{ 6.t.#.#.@.#.#.#.+.+.7.@.} ( } 4.7.7.#.#.@.#.6.+.#.7.| | 4.| ' @.4.` ( } | ( ` +.+.+.| +.+.] | ] +.4.{ K Q _ R R R U T Q T H U W U S E H T U _ R H Q W c E } _ ( ( R Q R R R Q S F Z E Q Q R Q U S F E S W Q F C C B F E F m m ",
"f f f r d d 7 t C y x c h x l c T H U U U U U T U H R R ` _ Q Q { { _ ` _ K _ R U U V l x c S l x S R U U Q R Q _ R S U W V V ) { _ ( ( _ Q } { | } W T ) R R ( ) T H ) ) H _ +.+.+.7.#.@.@.+.] @.#.#.+.+.#.+.+.+.+.#.+.+.#.t.7.{ } 6...| 4.4.} +.7.+.{ 4.t.t.t.$.t.t.t.t.i.t.4.4.7.6.4.7.a.t.t.t.t.t.d.t.a.t.4.a.e.6.7.t.7.6.t.t.7.7.M.d.d.n.i.d.n.d.g.d.i.i.d.i.v.d.d.i.d.v.v.d.v.v.g.s.#.t.t.#.7.7.#.+.7.t.e.$.i.d.d.v.v.d.v.v.v.v.g.e.7.7.7.7.d.n.n.d.i.i.n.d.d.n.u.$.g.u.e.e.a.t.$.t.n.e.u.M.D.g.d.n.M.n.n.d.d.c.n.v.n.n.n.n.v.n.n.M.n.n.n.D.n.t.g.g.t.t.a.s.t.t.d.d.a.d.M.v.n.M.n.n.n.M.g.a.t.p.p.r.s.n.D.n.D.n.d.c.v.M.n.t.s.g.p.7.e.s.t.7.d.a.$.d.M.v.n.v.v.v.c.n.v.M.n.d.t.i.v.c.d.d.i.d.v.M.n.v.d.t.t.n.u.7.e.p.7.6.a.a.7.t.M.n.d.d.a.a.a.d.d.a.e.t.p.t.t.a.d.d.i.c.d.g.n.d.d.a.7.d.d.7.7.s.s.7.6.s.7.t.d.t.i.t.i.d.u.d.y.i.d.t.*.u.t.t.$.i.x.n.d.u.u.=.i.t.#.s.t.7.6.e.6.#.#.t.7. .t.t.t.t.t.t.7.7.t.7.4.1.1.6.4.4.t.t.t.t.q.t.t.t.u.a.6.6.s.t.#.6.6.@.7.a.t.#.t.t.t.t.t.u.t.t.i.i.t.$.t.d.i.t.t.t.t.t.t.t.t.t.y.t.O.@.$.#. .4.7.+.+.7.+.| 6.6.+.e.7.#.#.@.#.6.6.} [ [ ) | 7.q.7.7.7.t.t.#.$.7...| 6...' +.+.) ( | | ( ' +.| ] +.@.+.| | o.+.{ Q H U W R R R T R R U b W ( U U Q R T b U S T ) Q S R } } } } Q Q _ [ W U F E U F E Q [ Q U U F W U W Q F Z Z B A B F C B ",
"f f w r t 7 r f B f h x c h z c b U U U U U R U R U R U R U Q ) } { _ ` } b Q Q R S f f S c x l x V T T R U Q Q W S U S S S U U R { _ T R W _ | | _ b U R R ( T S S U ) R H ' +.X.@.@.#.#.o.+.+...#.@.` | #.+.' +.+.+.@.] +.7.@.{ } ....+.4.| } | 4.4.} @.t.t.t.t.t.q.t.t.t.6.4.4.6.5.4.6.t.i.t.7.t.t.t.u.d.7.+.t.t.6.7.7.6.7.7.a.6.#.v.d.g.a.d.i.d.d.u.i.c.i.i.i.d.d.i.d.v.d.d.i.d.d.v.s.@.t.t.#.#.6.7.6.7.t.e.#.i.u.f.v.d.v.d.v.n.d.e.7.r.7.r.7.t.a.n.d.d.d.d.d.a.n.t.$.d.t.e.e.e.7.t.t.d.t.i.n.v.n.n.v.c.M.n.a.i.n.M.d.d.d.n.n.n.c.M.n.d.d.n.D.d.e.d.d.e.e.t.e.a.t.a.s.t.Z.J.M.M.v.v.v.n.g.a.t.a.p.p.p.t.s.D.D.M.n.n.n.d.n.n.t.u.d.p.7.7.t.e.7.a.a.$.a.n.d.v.n.n.v.v.d.d.v.v.u.t.i.a.d.v.d.d.v.v.M.v.d.g.t.7.d.a.7.7.7.7.q.t.s.e.t.n.d.d.t.t.a.a.d.a.7.t.p.r.t.t.7.t.d.d.d.v.n.d.c.d.a.7.a.p.#.6.e.7.6.6.e.7.$.t.t.t.y.t.t.i.t.y.u.u.y.*.t.i.i.t.*.i.i.=.u.=.i.u.t.#.7.t.6.6.6.+.6.@.7.7.#.t.t.t.t.t.7.7.t.7.4.<.4.4.4.4.4.6.t.t.t.t.t.t.t.t.t.6.#.p.7.#.6.4.6.6.e.7.+.7.u.t.t.t.t.t.t.i.a.e.#.t.a.t.i.t.t.t.t.t.t.t.t.%.$.X.@.$.+.....| +.+.+.4.| @.#.#.#.$.@.+.+.6.7.| ) [ [ [ [ | 7.q.7.7.7.t.7.$.#.| ' 4...' | } _ _ [ | _ _ ..] ] +.| +.+.o.| { Q U U W U T U R R T U W c U _ R R Q R U S S U R W Q S W _ } } _ _ _ ) ) E F F W F F Z E Q E E W F F S W W V F F C M B Z B Z ",
"f f t t y r f V V f x S b c U b H T R c V R R Q _ _ _ R W W _ Q _ { } } _ U ( Q T S l f c V V V b U R R R R _ ( U S W U V S S V S U Q Q _ _ _ Q ( ( T U W R T U S S U ) Q R | +.+.#.#.@.+.+.#.@.+.#.+.` ..7...` +.+.+.#.+.+.@.@.| | 4...+.4.} { | 6.4.{ 6.t.t.t.t.q.t.t.7.7.6.7.6.4.4.7.7.7.t.t.t.t.t.i.u.d.a.+.a.t.6.7.6.6.7.e.a.6.#.c.c.n.d.v.d.d.v.y.d.n.i.c.d.v.d.v.v.M.v.d.v.d.d.n.a.#.t.t.#.+.6.e.#.$.i.t.#.d.u.g.g.v.v.v.v.d.e.e.e.e.r.t.a.t.t.d.d.n.d.d.d.d.d.t.e.d.e.7.e.e.7.t.t.d.t.d.v.v.n.M.n.n.M.n.d.d.M.J.M.n.d.n.c.n.n.M.M.n.n.n.P.c.e.n.d.e.e.p.t.a.t.s.k.p.d.n.n.M.n.n.M.g.p.t.t.a.p.s.s.p.r.s.D.D.n.n.n.v.v.M.t.a.g.t.e.7.r.e.e.s.a.t.d.M.v.d.d.d.d.d.d.d.d.d.d.d.d.d.d.i.d.v.M.d.g.d.i.n.s.t.g.a.7.7.7.7.e.p.s.t.u.d.c.c.a.y.a.a.s.t.t.t.a.p.s.t.0.r.a.d.n.d.d.i.i.v.a.7.p.e.6.6.r.9.7.6.r.e.$.d.i.t.a.t.t.u.t.t.t.d.y.*.t.i.t.$.$.*.*.*.i.i.d.i.t.#.t.t.6.4.4.+.#.@.7.t.e.u.i.u.u.t.t.t.a.7.4.4.6.4.<.4.7.7.e.t.i.t.t.t.t.y.u.6.7.p.6.+.6.4.7.+.7.7.+.t.d.i.d.u.t.t.i.t.t.t.t.t.i.i.t.e.7.t.t.t.t.t.t.y.$.] $.&.+.+...| ..+.@.1.| 7.t.#.#.7.@.+.7.7.| [ [ [ [ [ [ } 4.6.t.q.6.6.+.@.7...| +.| [ [ [ [ [ } .._ ` +.| +.+.| +.+.| ` _ R Q _ ( T R T R H H W c U ) W U Q [ U b U U U R Q ) Q W [ _ R _ _ ) W W U W E W E E F U U W W ) E U S W W F F W Z C Z Z M Z ",
"f t f q y r t S x w h U b c U U U H U b U H T _ { { Q R Q Q Q ( { } ` ` _ b R ( c x l f f S V l U Q R R T W R W U U U S V z U W U S U ) Q _ ( K Q _ S S E U T S S S b ) ) U ' @.+.+.@.+.| @.#.@.@.+.+.+.+.+.+.| ` +.+.+.6.+.+.@.` } 4.| | | | 1.{ +.4.| 6.t.t.$.#.6.7.7.4.+.4.7.4.4.4.6.7.6.#.t.t.t.t.i.i.d.t.4.a.e.6.4.6.7.@.e.p.4.#.n.a.c.n.c.c.v.i.i.i.d.v.v.c.d.i.d.d.d.n.n.c.d.d.g.a.@.t.t.+.6.6.6.7.$.d.t.#.i.i.v.d.v.v.n.u.e.7.t.e.e.p.a.t.a.a.t.a.n.v.g.i.i.v.t.7.s.7.7.7.r.e.7.t.d.$.t.n.v.d.d.n.n.v.v.d.n.n.M.M.M.v.d.n.n.n.H.n.M.n.g.M.n.e.g.i.e.7.p.p.t.p.d.s.e.a.v.v.v.v.M.d.t.t.p.t.e.p.p.p.p.t.e.s.n.M.v.v.v.n.n.t.i.g.p.7.r.r.7.7.d.a.$.d.M.i.i.i.i.d.d.v.g.d.d.v.d.v.M.d.i.i.i.a.a.t.i.v.d.t.t.d.t.@.7.7.6.6.a.k.t.t.n.v.d.d.d.d.t.7.t.a.0.t.s.p.t.t.7.e.a.d.d.i.i.d.d.t.#.t.e.9.8.9.7.6.+.e.e.t.d.a.d.a.t.t.u.t.t.t.i.t.t.y.t.*.%.u.t.t.t.*.i.u.d.d.@.t.e.+.4.6.+.+.+.e.7.+.s.i.t.t.t.a.t.6.4.6.4.6.4.6.4.7.7.6.#.t.y.y.t.t.u.i.#.7.e.+...6.4.4.6.6.+.+.t.a.d.g.i.t.e.t.t.t.t.t.t.t.t.t.$.#.$.7.t.t.q.t.u.%.] @.t.+.] ..| } ..6.} } 7.t.t.t.#.#.7.6.| { [ [ [ ) [ <.<.} ..6.7.6.@.+.#.#...| ..} ( [ [ ) ) } | ` { +.| ] +.+.o.| { _ _ { { R _ { ) U H U R U U U ) U h W W b c U U S U ) ) W ) ) ) R [ Q W W W W W U F U W F F Z E W W ) Q S U W U U U F A B Z C M ",
"M f f t t f x S l e l T U b c U Q Y R T U U R Q ! R Y Q ` _ Q _ { _ R } } U R R b l M t f l B l U Q U T ) U U U T E U U U U W W Q W W Q Q _ R T { _ S S U U T S F S S ) _ b ( @.#.+.+.+.@.O.@.#.#.+.#.#.+.+.+.......] @.#.+.+.@.| } +...| } ..1.| 4.7.+.6.t.t.$.7.7.6.4.4.4.4.4.7.7.4.7.7.7.4.6.t.i.t.i.i.d.e.4.s.e.6.4.7.7.6.7.e.6.6.M.i.d.a.a.v.n.d.i.i.d.d.i.y.i.a.d.d.d.v.v.v.M.n.n.d.#.t.s.#.6.7.6.e.t.d.t.7.d.c.v.n.n.v.u.e.t.t.t.t.t.a.a.a.s.a.a.t.d.n.v.d.i.n.t.6.d.e.r.7.e.7.7.e.d.$.t.v.v.g.n.g.n.v.n.M.M.n.M.M.P.M.n.n.v.v.n.M.M.M.g.M.g.e.g.i.e.e.p.p.p.a.Z.d.t.d.J.n.n.n.d.t.t.t.p.t.t.p.p.p.s.p.p.r.a.n.M.v.v.M.n.t.d.n.t.7.r.t.e.e.d.a.$.i.v.g.d.d.v.v.d.n.v.g.n.g.v.n.M.D.d.u.t.t.a.a.d.n.n.a.e.d.e.#.7.e.6.7.t.s.e.t.n.v.v.M.d.a.7.r.t.a.t.t.p.t.0.7.t.p.t.a.d.d.d.n.d.t.#.a.t.9.6.6.7.6.#.7.7.t.c.a.t.u.t.u.i.t.t.i.i.u.t.y.t.*.t.i.y.d.=.y.t.t.i.t.+.t.e.@.6.9.4.+.+.s.7...e.t.i.d.a.t.6.4.4.7.6.6.6.7.6.7.7.7.6.6.t.i.t.u.u.i.7.7.e.+...6.6.6.6.6.4.+.t.d.i.u.t.7.7.7.t.t.t.t.i.i.t.e.e.t.7.t.t.t.t.t.y.t.+.@.$.+.| ..| } | 4.} ..6.7.7.$.$.6.@.{ _ <.} [ ,.[ ,.2.<.1.<.1.7.7.@.$.7.6.| ..+.[ ) [ } ) ) [ } _ o.4.+.| | ] ] | { ` { { { ` { ( Q R T R Q ) { Q ) U h U W c S U U S W ) ) W [ _ ) [ } W W W Q Q Q W E W E E E A F E W ) W S U Q W U E A Z B F Z C ",
"M f w t d V B x f w V c b c U U T ( Q R Q W U ( R U ( Q Q _ { _ _ Q _ ` _ U R T c l d y e x V f z E W U W S V V U S F S W T U U W R E U Q W R Q Q _ U x U T U S U S U _ Q c R | @.+.+.+.+.+.| @.#.+.+.+.+.X.+.@.+...] +.#.] +.6.| ` ....| | | 1.| 4.6.| 6.t.q.7.q.7.+.4.4.6.1.1.4.6.7.7.7.7.6.4.6.a.d.i.t.i.7.+.p.7.4.7.6.7.6.6.t.7.6.n.d.i.y.i.a.d.c.i.t.d.t.t.t.d.y.s.a.d.i.d.d.n.n.d.a.+.t.i.e.#.7.7.6.t.d.7.#.n.v.d.n.n.a.t.t.t.t.t.e.t.a.a.a.a.p.a.t.t.d.n.d.d.n.t.6.d.e.7.7.7.r.#.t.d.$.t.d.g.n.D.D.n.v.M.n.n.n.M.n.v.n.n.c.D.n.c.n.M.M.n.M.d.$.d.d.7.e.e.p.t.a.Z.s.e.Z.M.n.P.d.e.0.p.t.0.r.t.t.p.t.r.r.r.t.t.a.n.n.v.M.M.t.i.n.p.7.0.r.e.7.d.a.$.t.d.i.d.v.g.g.d.d.g.v.d.d.v.n.n.n.g.d.d.a.d.n.d.d.D.t.7.s.e.6.7.7.7.#.t.a.7.t.d.d.n.D.s.7.t.t.0.r.t.a.w.r.0.t.t.t.t.t.t.s.Z.n.n.t.@.a.p.6.6.7.9.6.#.7.@.$.u.t.$.e.t.d.t.y.t.t.a.t.*.t.*.t.t.t.y.t.t.t.*.=.t.e.+.e.t.+.4.4.7.+.@.a.7.] 7.i.t.a.t.6.4.6.6.6.4.7.6.4.7.7.6.7.6.7.6.t.a.i.u.u.6.7.e.+.1.4.7.4.6.e.6...t.d.i.t.t.u.t.#.7.t.t.t.t.t.t.t.t.t.e.$.t.t.t.%.t.q.+.@.+.+...| <.} | 4.} { 6.q.+.#.6.| _ [ <.<.} [ [ [ [ >.<.1.<.| | 6.q.@.#.7.| ' +.[ ) ) ) ) ( ) _ R { 4...| ` ` ` { { _ _ _ ` ` ( R R Q Q U U _ _ ( W W c W Q k c S S U T Q W W Q _ } [ ) U F E W E W W W U U E W F Z F W Q W V U ) U W E B B Z B F M ",
"Z M t 7 n f h x f f U U U H R b b H U U _ R R ( Q Q _ Q _ _ _ Q R _ } { Q U _ ( b x f t e S F l x W ( T E S b S S U W U U U W W U U S S E E ( Q Q } R S ) R U S U S R | Q c _ | +.@.6.@.| +.@.+.] ] | +.+.+.+.+.@.+...+.+.o.+.#.+.| 6.+.| ..| 1.+.7.7.+.@.t.t.t.q.7.4.4.6.6.4.4.1.4.7.7.6.6.6.6.4.7.a.a.t.d.7.+.a.t.6.7.6.7.6.7.d.e.7.d.d.a.a.d.i.d.c.d.i.a.i.t.t.d.a.a.a.d.d.n.c.d.d.d.s.+.t.g.t.#.7.e.#.t.d.e.$.n.v.n.n.d.t.t.t.t.t.t.t.u.t.a.t.t.t.a.a.a.t.d.n.n.M.s.7.g.t.r.r.r.r.7.u.g.$.i.n.n.d.v.g.M.M.M.n.n.D.M.d.d.d.v.n.P.D.n.g.M.M.M.P.g.$.v.v.t.t.t.p.t.d.D.a.p.n.P.M.d.t.t.t.p.r.t.r.e.p.s.p.p.t.t.p.a.t.a.n.M.M.M.t.i.D.s.7.r.r.7.p.Z.a.7.a.d.i.g.v.d.g.v.g.g.n.v.v.g.n.n.d.d.g.n.n.d.v.g.v.M.s.e.d.t.7.7.0.7.e.d.s.7.a.d.d.d.s.t.t.t.p.e.t.t.a.r.0.r.s.t.p.t.t.r.p.s.Z.M.t.#.a.s.6.6.7.6.6.e.p.@.7.t.t.t.t.i.i.y.i.t.t.y.t.t.u.*.u.y.t.*.*.u.i.t.t.*.t.#.t.t.6.4.7.6.#.e.a.e.@.t.g.i.a.e.7.7.7.4.6.7.7.4.4.7.7.r.7.7.7.6.e.u.d.d.a.6.e.t.6.4.4.6.6.e.k.e.@.t.a.i.u.u.g.t.7.$.7.t.i.t.t.t.t.t.e.$.@.$.t.y.t.y.t.+.#.+.....| } } ..r.1.} 7.t.$.7.4.} ) } | [ ,.,.) Q ) >.} } <.} } 4.7.7.7.e...| 4.| ) ) ) ) ) _ { ( ` | | ` ` +.o.| | _ ( { } { } R R { } R W W W R ( Q H Q ( b b U U c R ) W U [ [ [ Q U S U W W W W E U U Q Q W F F F V Q >.W Q ) F U E V B C B C C ",
"C B t 6 t l V x w f Q Q U c U U H c W R W _ W U ) Q ( _ R Q _ Q _ _ ( _ ( U _ { H f f w f S S l V W R W S S W S U W W S S U U E U U U U S W T T _ _ U S _ ( U S S U R { _ U ( ..| ..@.5.@.@.@.] ` ] +...| +.| | @.+.+.o.+.+.| @.+...6.6.| } 1.| +.e.7.+.@.t.t.t.6.@.4.4.4.4.4.| 1.6.7.6.4.4.6.7.4.4.6.s.i.t.t.4.a.a.6.6.7.7.7.a.k.7.7.d.i.a.y.a.d.d.i.d.d.d.t.t.t.t.i.a.y.i.d.n.n.d.t.d.a...e.d.u.#.6.7.+.t.d.7.6.d.d.n.d.t.t.t.t.t.t.a.t.t.t.t.t.u.a.t.a.a.t.t.n.n.D.a.7.g.d.r.7.r.7.t.d.d.$.t.n.d.i.i.i.v.M.n.n.M.n.n.g.v.d.v.M.D.P.M.d.v.P.M.P.n.7.d.M.d.e.t.t.t.v.D.a.t.n.J.n.t.e.a.p.r.r.r.r.r.p.p.a.p.t.p.p.a.p.t.a.n.M.M.t.i.P.n.e.0.0.7.a.C.a.7.a.n.i.i.d.v.v.d.v.g.d.d.d.d.n.d.d.d.v.v.g.g.d.g.v.n.s.7.g.d.e.6.0.7.t.D.s.7.t.n.d.t.e.p.p.0.r.7.0.t.t.7.t.0.r.t.r.t.p.t.r.r.a.d.a.#.a.d.e.6.7.6.6.d.s.+.t.d.i.t.d.t.t.i.i.t.t.t.$.t.t.d.d.i.*.*.i.t.u.t.*.u.t.6.t.d.t.+.7.4.#.t.a.7.@.s.i.s.e.6.7.7.7.4.4.7.7.4.+.4.0.7.7.7.7.7.e.7.u.v.d.6.7.s.e.+.6.6.+.a.k.t.@.a.a.t.u.u.i.a.t.#.7.e.t.$.7.t.$.t.t.#.$.t.t.t.t.t.t.+.#.7.+.' } _ _ 4.7.<.} 6.7.7.6.| } [ ) [ <.} [ [ ) [ ,.[ [ { } } _ ..7.7.6.| ] 4...[ ) ) R ) | [ R _ ..' _ { | +.+.+.| } _ { | ` { | ` { _ R U W R _ W S U Q R T U S c R [ U S ) _ W E U Z U F E W E A F U W Q F B A Z F F Q Q W W V U W A M M C M C ",
"V F f t m S S z d l W T k b T U T W ) Q _ { T U _ { Q _ ( ( _ { | { _ } } R } ` R x f t x U S l V S V V B S W U W S S S S W U U W W Q W W W U U R R S U _ ' R S S R { | | Q { +. .` | +.#.+.+...` +.@.+.+.+.] +.@.@.+.+.#.+...@.+.| 7.t.+.} | ..6.t.t.+.6.a.7.4.+.4.6.6.4.6.6.4.4.7.4.6.4.4.7.7.6.4.4.7.t.i.t.6.d.c.7.6.7.7.t.Z.d.6.7.d.i.d.a.u.i.i.i.d.y.a.y.t.t.t.u.d.i.n.d.n.g.i.i.g.s...e.v.u.t.6.7.7.d.M.7.6.n.c.d.t.t.t.t.t.t.t.u.t.a.a.t.u.a.a.a.a.a.a.t.i.n.D.d.7.n.D.p.r.r.7.u.n.d.#.t.g.i.g.M.n.n.g.n.M.n.n.v.n.M.d.M.M.M.M.M.v.v.n.M.P.P.t.d.M.n.t.t.e.t.m.Q.a.p.n.M.s.t.t.a.t.p.p.t.t.t.r.r.r.t.t.p.t.p.a.t.e.t.n.P.u.i.P.U.s.0.0.p.Z.U.a.7.n.P.d.i.d.v.v.d.n.M.a.t.d.g.g.d.a.d.v.v.g.g.n.n.n.n.d.e.n.D.d.7.6.7.g.M.d.7.s.Z.d.r.7.p.p.t.r.7.7.7.r.t.p.e.t.t.t.t.p.t.t.r.t.d.d.$.d.n.s.6.6.7.t.v.d.@.t.v.d.i.i.y.i.i.u.t.t.t.$.&.u.t.i.*.t.t.d.i.i.i.=.u.d.7.t.n.a.#.+.+.7.d.d.$.7.i.t.7.7.7.r.7.7.6.6.7.0.7.4.6.r.7.7.7.7.t.e.7.e.i.s.6.7.a.s.6.4.6.7.a.d.7.6.a.d.t.d.i.u.u.t.7.t.t.e.t.t.7.7.t.t.t.i.i.t.t.t.t.t.+.$.t.7...[ ) } 7.0.[ _ 7.e.4...} | } _ } 1.<.[ } | <.<.<.} } [ [ } } ..#.7.| ] 6.6.} ) [ ) } 6.| R { | } ` ` _ | | { +.| ` } _ R } | { } R W ) _ R ( Q U S R ( R V S U _ <.W S ) ) W W W U W U U Q W E F F Q W F C F F U V F S U Q S E Q F C m C m A ",
"V S B B E x V S f l U x U U U b U ) R R { _ b T _ Q R _ _ ( Q _ } } { | ) T Q ` ( c s f x U x f S V x l V B S S U S B S W U U U U U E W R U H S H R U b ( ` _ H S _ | | _ Q { ] ..] ' ` ] ] ] | +.+.| +.+.+.@.#.#.+.+.@.+.+.+.#.{ _ 6.t.7.| { 4.t.t.6.| 4.a.7...+.6.4.4.7.7.4.4.4.6.7.4.4.6.6.4.7.7.4.4.7.a.t.4.a.c.a.e.4.w.a.d.a.@.q.d.i.d.a.t.t.t.y.y.t.t.t.a.t.t.t.t.d.d.d.d.u.d.d.a.d.+.$.d.i.t.6.7.d.v.d.#.#.g.d.t.e.a.t.t.t.u.t.t.y.a.t.a.u.t.a.a.t.a.s.u.t.g.D.s.e.d.D.d.e.7.t.d.v.u.#.t.d.v.n.J.D.n.v.n.n.M.v.v.v.d.n.v.M.M.v.M.n.n.n.n.P.Z.e.i.n.M.d.e.t.n.M.P.s.t.n.n.t.p.a.p.p.t.p.p.7.t.r.t.e.e.r.e.r.r.t.t.e.t.v.D.u.a.P.P.D.p.t.z.D.D.s.7.d.n.n.n.i.i.n.v.n.g.t.t.a.g.d.d.d.a.d.v.v.g.d.d.n.D.s.e.g.M.g.t.7.t.M.n.a.7.s.n.a.7.r.r.t.p.t.7.7.7.p.p.e.p.a.t.a.r.r.r.t.7.t.d.i.$.d.n.a.7.6.e.g.i.a.@.t.d.i.d.d.i.i.d.t.t.t.t.#.$.e.$.t.t.i.t.t.u.i.t.*.t.s.7.t.n.d.t.#.#.d.i.d.7.#.t.t.6.7.7.7.7.7.6.7.6.7.7.7.7.7.7.7.7.7.7.7.7.#.t.a.@.6.a.d.e.4.4.s.a.t.+.#.t.t.u.t.u.i.t.t.e.7.t.t.t.t.t.t.t.$.t.i.y.t.t.q.*.t.+.+.t.t.#.} ) | 6.6.( ( 6.e.| } } } } } } } } | } } } } 1.} [ } <.} } } @.6.| ] #.6...| ) _ ..4.} ( _ } { ..} _ _ ` { { { { _ _ _ R ( } { Q R R ) R R _ U c T R R U W _ } _ Q S Q Q E E W Q W E Q W W F F F W U U Z F F F U U S E W A F W W F M n C F ",
"S V z V U V U U l f S c ) R R b U R Q ( } { H R } _ _ _ } ( R ( ) } } _ U b R ` _ H x l c c l f U U V B V B V F F S U U W W T U U W R W U S T U K _ R b _ ' ` ( Q ' | { T U | o.....| ` _ _ | | +.+.| @.@.] O.#.+.| @.@.@.@.#.6.} ) +.t.7.@.+.7.t.t.6.| 4.s.7.| 4.6.4.6.6.6.+.@.7.7.4.4.4.4.4.6.6.6.6.4.7.a.t.@.7.c.c.t.7.t.v.a.t.4.t.d.t.d.d.a.a.a.i.t.i.t.i.d.i.i.t.t.t.a.d.a.a.g.d.d.d.@.e.d.u.d.i.i.c.i.d.#.6.g.d.t.e.a.t.i.t.t.t.i.d.d.a.a.i.s.a.a.d.s.a.a.u.g.D.s.e.d.M.n.u.t.i.M.d.u.#.u.d.M.v.M.M.n.n.n.n.M.v.M.v.g.g.v.M.n.v.M.M.M.v.g.M.n.&.i.M.M.M.i.d.M.m.H.a.t.D.J.a.p.a.p.a.p.t.t.t.p.p.a.t.7.7.t.r.r.r.p.e.t.n.P.t.i.J.M.P.Z.z.J.M.M.a.e.d.n.n.v.i.d.v.M.n.d.a.a.d.d.g.d.d.d.g.n.n.d.s.i.g.J.s.e.d.v.g.g.d.d.n.v.a.6.d.n.s.0.r.t.r.t.r.p.a.t.a.a.a.a.s.a.p.e.7.t.p.e.u.n.a.#.d.v.v.d.t.d.n.i.a.@.i.g.i.i.d.t.t.t.i.t.a.t.#.e.t.t.&.u.f.u.i.t.u.t.i.u.a.@.7.d.d.d.t.t.d.i.d.$.#.a.u.7.7.7.7.0.7.7.7.7.7.7.e.7.0.e.7.7.7.7.e.7.#.t.d.#.#.t.i.u.a.t.d.t.7.+.6.t.t.t.t.t.t.t.i.t.e.t.i.t.t.t.t.7.#.t.d.y.t.t.7.7.t.+...7.q.$.4.| #.#.+.R ( 7.7.+.{ _ <.| ) ) ) _ } } | <.<.<.} [ <.1.1.| | @.#.| ] 6.6.+...[ | +.| _ R { ..| ..4.} _ | | } | ( R _ _ R ( ( _ _ _ R Q R ) ) S c W T R _ } _ { _ ) U Q ) W U E W Q W R W W U W W W F E E E F U W E U Q E Z F W Q W A C E W ",
"F x c x F U W S f f x U R W U c c W ( R _ [ R ) { _ { { _ _ _ Q ( _ _ } Q b ( R R T U x x x h l V V S x B V F V S S S S U T T U U T W b b U U U J ` ( H R ` { ` ` _ ` ` U U | o.` { { ` ` ' ' } { +.@.@.+.` ] +.o.| +.#.6.@.+.+._ R | 6.#.#.7.t.7.#.@.| 6.t.6.4.1.4.4.4.4.+.+.6.4.4.4.4.4.4.4.4.4.4.4.7.t.t.t.+.7.a.i.d.y.a.d.y.7.4.7.i.i.d.d.d.i.t.t.i.t.d.y.y.i.i.t.t.7.a.a.u.t.a.d.d.a.+.t.d.y.d.i.v.i.u.t. .6.n.i.t.7.t.u.a.t.t.t.d.i.a.i.a.a.a.s.a.s.d.s.a.d.d.n.s.&.g.g.n.v.i.v.v.v.t.#.i.c.c.n.n.n.v.v.M.n.n.n.n.v.i.i.M.n.n.n.n.M.D.v.d.v.d.#.a.v.n.n.v.n.n.m.m.t.t.D.D.t.r.a.s.t.t.t.p.a.t.a.a.0.0.7.0.0.r.r.e.t.t.v.D.t.u.M.M.M.M.J.M.n.M.t.7.d.n.i.g.d.i.d.v.g.d.d.d.d.i.d.g.d.d.v.v.g.d.d.u.d.z.p.7.a.d.d.d.v.d.d.v.t.#.d.d.d.7.7.p.t.7.e.e.t.p.t.t.a.t.t.p.e.e.t.r.r.t.t.n.a.+.y.d.v.v.n.d.d.d.t.+.t.n.i.i.i.i.t.t.t.t.t.t.#.e.a.e.t.t.i.i.u.*.*.i.=.i.t.+.#.i.d.u.d.i.u.u.i.#.#.t.t.e.4.7.r.6.7.6.6.7.r.7.7.7.r.7.7.7.7.7.7.6.7.i.d.7.#.t.i.t.d.a.t.t.t.+.+.t.u.7.t.t.t.t.t.t.u.t.t.*.t.$.t.$.@.7.t.i.t.7.7.7.7.+.| @.$.#.#.6.@.+.+.R W 4.7.4.} [ | [ ) R ) ) Q } | <.<.[ [ } { } 1.<.| +.@.| ' @.#.....| | | | _ U _ ..] ` | | { { | | } _ Q Q _ } { ) Q W ( R W _ _ W c U R K R { } Q R _ Q E [ ) E U F S U W W S E W Q W U U W E E F F F U E U W B B W U W W W U S ",
"F c U V F U U z s l c T R H c c U W ( ( { { | { { _ } _ _ _ { _ } _ _ | _ T _ _ ( T H x h b c l S E W x l B S S W U S E T U U U R W U H W W S U Q _ S c T ( ' _ ' ` ` ` R W { ` ] ` ` ` | ] ' { | | o.+.| | +.+.@.+.+.@.+.] +.+._ ) | @.#.6.6.7.#.#.6...6.a.7.4.1.4.4.4.1...6.6.@.4.4.7.7.7.4.6.7.7.6.0.t.t.t.+.7.d.i.d.i.d.i.t.a.6.7.u.i.d.i.a.t.t.t.i.i.d.i.i.i.d.d.d.u.a.t.a.i.d.u.a.s.#.t.d.u.i.y.i.i.x.t.+.9.n.a.t.7.e.t.t.u.u.d.a.i.i.i.u.a.d.a.a.u.d.a.s.d.d.n.d.&.d.d.n.f.v.x.v.f.u.#.g.v.v.M.v.v.M.n.M.M.n.M.n.i.i.d.M.n.n.n.n.M.M.n.g.v.u.$.d.n.m.n.v.n.n.n.m.t.t.P.U.s.t.p.a.a.a.t.a.a.a.p.t.t.t.t.t.t.t.t.t.t.u.n.m.t.u.M.M.M.M.M.M.n.n.t.7.d.n.v.v.v.v.v.d.i.d.n.d.d.d.d.i.g.v.v.v.g.n.n.d.g.d.s.6.s.g.d.d.g.d.x.v.a.7.a.D.g.t.r.t.e.t.r.e.r.t.t.p.r.p.p.r.r.t.p.r.r.t.s.n.a.+.t.d.g.d.n.d.i.d.t.#.a.d.i.i.y.v.i.t.t.t.i.t.#.t.d.t.u.u.u.i.d.*.i.t.*.u.t.@.7.d.d.u.i.i.i.d.i.$.#.i.u.e.7.e.7.7.e.6.7.7.r.7.6.r.t.e.p.0.7.7.7.7.t.i.g.7.#.t.i.t.u.t.t.t.d.@.+.t.t.e.e.t.i.t.t.t.&.$.7.t.t.$.7.t.7.7.t.t.t.7.e.7.7.+.] @.$.#.#.7.@.+.+.( W 4.7.| ) _ _ ) _ [ } [ ) [ [ } } [ <.| [ } } } | +.6...' ......+.+.| +.+.{ ( _ { ] | +.+.{ { +.| | { { { | | { ( R R ( ( _ Q R E b U R L _ Q _ ( R _ ) W <.[ W U S S U F E U U U Q E U W W E E U E A E U E W B B E E W W Q F V ",
"F U V U U z V h h s b T b b U U W U R _ { _ { ` { _ _ _ ` _ _ _ _ } { _ W W ( _ _ H c h c S x l S W E F S x V U U U U U W U U U U W U S U U U U T W x x W R R ( } ` _ { Q E { | ' _ _ ` ` { | { ' ' { { +.+.{ | @.+.+.] ] +.+.| Q _ 4.+.+.4.4.@.@.7.4.} 4.a.7...4.4.1.4.4.4.4.6.7.6.4.4.0.7.7.7.7.7.4.4.t.t.7.+.e.a.i.d.y.y.y.y.a.@.7.i.t.i.i.i.t.i.t.t.i.i.d.d.i.i.i.d.d.i.t.d.i.i.t.a.u.+.t.i.u.t.y.i.i.u.t.+.6.d.d.t.e.e.e.u.t.i.u.a.a.i.u.a.a.a.d.a.a.u.i.u.t.g.D.s.e.d.d.i.u.d.v.v.i.u.6.t.v.v.v.d.d.n.n.n.M.M.v.g.i.i.n.n.n.n.d.v.M.M.g.n.n.d.7.a.M.n.n.n.v.n.n.n.t.e.P.P.t.p.p.p.a.s.s.a.t.p.e.t.t.q.t.p.t.t.t.t.e.t.v.M.t.u.M.n.M.M.M.n.M.n.t.7.a.n.v.d.v.M.n.i.i.d.d.c.c.d.i.d.v.n.v.v.g.d.n.n.d.d.e.6.a.i.i.d.d.i.x.v.a.e.d.M.d.p.e.t.e.e.e.e.7.0.t.e.t.r.r.7.0.t.t.p.p.e.u.n.a.O.y.i.u.d.d.d.d.t.a.@.t.d.i.t.i.i.d.i.t.*.i.t.$.t.t.i.y.t.f.d.i.t.t.t.*.&.t.+.7.d.t.i.i.i.i.u.t.6.+.d.t.6.6.7.r.7.7.7.r.7.6.4.7.7.r.t.t.t.p.7.7.7.7.i.d.#.7.a.u.t.t.7.t.t.s.@.@.e.e.&.t.t.t.i.t.$.$.7.e.t.7.#.t.t.7.t.t.7.t.t.7.7.e.| ` @.#.#.$.@.@.+.o.) T 1.7.} Q [ } ) ) } [ [ ,.) _ [ [ } } ,.[ _ } } } +.#.` ' | ] ] ..+.+.O.] | _ _ | ] ] +.| _ _ | | ` ` | | | ` _ ( ( R W _ _ T K W U b R R Q ( ( R ( ) W U [ } E E U V F E W S F F F U E U W W W E F F F S U U V l U W W U E V V ",
"U E V W S c S z x h S H b H ( R ( R Q ( _ Q Q _ { _ ! } ` _ _ } { _ _ ( W T _ { _ T c x U c V x x x x V F S E U W U U U U E W S S S b S U E W U b U c U _ _ ( ( } ' ` { Q T | | L R ' ` ' ' ` } ( ' +...+.+.| | ..@.+.] 6.$.+.+.{ | 7.4.+.6.6.@.7.t.6.| 4.t.6...4.4.4.4.4.7.6.6.4.+.4.4.4.7.6.6.4.4.4.4.7.a.7.6.a.d.i.d.t.t.y.d.a.6.7.i.*.t.d.d.d.d.i.i.i.d.d.i.i.d.i.t.t.t.a.d.u.t.u.d.t.#.t.d.t.t.y.d.t.u.d.7.6.d.d.e.e.e.e.u.t.i.a.u.u.a.u.a.a.a.d.a.s.t.u.u.t.g.D.u.e.g.v.i.i.d.v.v.d.d.6.t.g.n.n.g.d.n.v.v.v.M.n.c.i.d.n.M.n.M.v.v.M.M.v.M.M.Z.t.d.M.v.v.v.x.n.n.n.t.e.U.M.e.t.s.s.p.p.p.p.p.p.t.t.t.r.t.s.p.7.7.t.t.t.v.M.t.s.P.M.m.M.M.v.M.J.s.7.d.n.d.n.M.M.M.d.d.g.d.v.v.i.i.d.d.d.v.v.g.d.n.n.d.d.t.7.d.i.u.f.x.i.x.n.a.e.d.n.s.e.t.s.p.e.e.t.e.r.t.t.p.r.7.7.0.7.r.s.p.7.u.n.u.O.a.i.u.d.i.d.d.i.s.@.t.n.i.u.d.i.i.g.t.t.t.t.t.t.i.t.u.u.d.d.i.t.t.u.t.t.a.#.a.d.t.i.i.u.d.y.a.7...s.e.6.6.7.e.7.e.7.6.4.4.4.7.6.7.p.p.e.7.7.t.6.$.u.d.7.e.a.t.u.t.7.u.t.a.6.@.e.e.t.u.t.t.t.t.e.t.e.t.t.#.$.i.t.t.t.t.t.t.e.7.7.7.| ` #.@.@.$.+.@.+.@.} W | #.| _ | 1.} _ [ [ } } } | [ } <.} } } _ } } } +.4.' ' +.+...] +.+.O...{ ( ` +.| ' { | | ` ` } | } { _ ` _ _ } _ W W W U H R Q U U Q ( Q _ Q ( _ _ Q b [ _ U Q W S S W E W U V Z E E F W W W E Z B Z V S Q E B W W W U U S U ",
"B U E V B x U U h f S c U U U R _ _ Q Q _ Q Q Q ( _ Q { } { { } ` Q _ _ U b _ { ( H b z S c x l x h x x V S V F W S U U U E W F V B S U S U U b U R V W [ _ ` _ Q _ { _ U U ` ` L R { ` ` ` ` ' | ..+.+.| | +.| | +.o.@.@.+.@.| _ { 6.6.@.4.@.#.#.t.6.| 4.7.+.1.4.4.4.4.4.6.4.+.4.4.+.+.1.4.4.4.4.6.4.4.7.i.7.+.a.d.y.t.q.t.t.a.t.@.q.t.t.i.y.i.d.d.d.i.t.i.i.d.a.i.i.t.7.t.d.t.t.a.a.u.s.+.e.d.*.t.y.i.y.y.i.@.+.d.i.e.7.e.e.t.t.t.t.u.t.t.a.a.a.d.s.a.t.u.t.t.s.d.Z.t.#.a.d.d.t.d.i.i.v.a.+.e.g.n.d.c.d.v.v.v.d.g.v.n.d.d.d.M.D.M.v.v.v.M.n.d.n.n.t.a.v.v.x.v.v.v.n.v.e.7.M.n.e.t.a.a.p.e.e.r.t.t.t.r.r.t.t.t.7.7.7.t.t.t.c.n.t.t.P.m.M.M.n.M.M.n.a.e.d.n.d.v.M.n.d.v.v.v.v.d.i.i.i.y.i.d.d.d.d.d.d.g.i.d.a.7.a.d.u.i.d.i.x.d.s.6.t.n.t.7.t.s.a.p.e.7.t.t.r.p.t.7.7.7.r.7.7.p.t.7.t.c.a.O.a.i.u.u.i.a.d.d.s.6.t.d.i.i.t.d.d.t.t.t.i.t.d.t.t.t.i.t.i.u.i.t.d.t.*.i.t.6.t.g.y.t.i.y.u.i.a.6.| 7.t.4.7.4.7.e.7.7.6.4.6.4.4.6.7.7.7.7.7.6.7.6.$.*.a.7.6.a.i.*.t.t.t.t.7.+.+.e.t.7.t.t.t.*.t.t.7.t.t.t.#.#.t.i.i.t.t.t.7.#.6.+.+.} ` @.$.@.@.@.+.+.@.| R } 4.| _ } } [ [ ) [ [ [ <.<.} [ } <.} [ [ _ } { | @.' _ +.+.] ....+...| R K ` +.| { _ ` +.{ _ _ | _ Q _ { _ _ R Q Q T U W U ( Q b U Q ( _ R R _ { Q W S R Q U E W U U V U E U V F F U F U W E Z Z M M x U Q U S W U E U U V U ",
"h V E U F c U c f l c W R H U T R U Q { [ _ } Q _ Q R T } | } } ` _ } } W S _ { ` T R U c x l l S S U B V M f x V U U U W W W E U U W T U W U S R ( U U _ { ` Q _ ` } ( H U ` ' L R | | ] ] | { +.@.| +.+.o.+...| { +.#.#.+.| | | _ 1.7.@.+.6.7.7.7.+.} 4.7.7.4.| 4.1.| 6.4.4.4.6.7.4.1.1.4.4.4.4.7.4.4.7.a.q.+.t.a.y.t.t.t.t.t.7.@.7.t.i.d.i.d.d.d.d.i.y.y.i.g.d.d.d.d.t.a.a.e.t.g.i.t.i.+.6.t.y.i.t.y.i.d.7.+.+.a.i.e.7.e.7.7.t.t.t.t.t.s.a.s.d.a.s.t.s.a.a.t.t.d.D.e.+.t.d.d.t.i.d.d.n.t...t.v.n.d.d.d.d.M.v.d.v.d.v.v.v.a.d.d.c.d.M.n.M.n.d.n.n.t.t.v.n.x.d.n.n.v.d.t.e.D.M.t.a.a.a.a.t.e.p.t.t.t.t.t.t.t.0.7.t.t.w.t.t.v.M.t.t.m.M.m.m.M.M.J.d.t.t.d.n.v.d.i.d.v.M.n.v.c.i.a.v.g.i.d.M.v.d.g.d.d.n.u.d.s.7.a.v.d.i.d.v.v.t.e.7.u.n.s.e.t.a.s.p.t.e.r.t.p.p.r.e.7.r.p.7.e.r.e.7.t.n.a.+.t.a.i.i.g.d.d.d.7.6.a.d.i.i.i.u.i.t.t.t.i.i.g.i.u.u.i.u.d.t.i.d.v.i.i.i.a.7.e.d.y.t.i.i.u.u.a.4.} t.t.7.e.4.6.7.6.7.0.7.r.6.4.6.6.0.6.7.e.7.7.r.#.t.d.7.6.a.y.t.t.t.t.t.6.| +.t.t.t.t.u.i.t.u.t.t.t.t.7.7.$.t.t.t.t.7.7.t.7.7.@.+.' _ +.$.@.@.#.+.+.+.{ R | 7...[ } _ ) } [ [ [ <.2.<.} [ <.<.} | } _ } { +.4.' _ +.+.] ` | +..._ R L } ..+.| ` | +.+.+.+.| _ Q } { _ } _ _ ( Q Q _ T W W U W W R ` _ _ _ Q U U S Q Q W W W E W U Q U W U U F U F F U F Z F B B c W Q F c W E W S E E E ",
"l f V E U b S y f f U U R T b c U U W Q { { _ { _ R K T R ( _ ( } _ ( } Q S R R _ ( T S f l M f V W S B M f B M B U U S W R W U W W U T R E W U U ) T U R ( _ Q _ } R U W U R ` _ ( _ ` +.] ] ] | +.+.| ' ..+.{ | +.| @.#.] | +.} { | ..| +.+.6.4.+...} 6.a.7.4.4.| | 1.4.4.4.6.4.7.4.| 1.4.4.4.4.4.9.6.6.a.6.+.7.7.q.t.q.t.t.#.#.+.$.y.u.i.d.i.y.a.y.a.y.a.u.i.d.d.i.d.d.u.t.t.t.d.i.i.t.+.+.e.t.i.y.i.t.t.@.| ..t.d.6.7.7.6.7.7.t.t.t.t.p.t.s.s.t.t.s.a.a.s.t.t.d.D.e...e.t.i.u.t.v.i.i.t.@.u.d.v.d.d.i.v.v.v.d.d.d.d.d.d.d.d.i.v.g.d.v.M.n.g.v.g.7.t.g.d.x.v.n.n.i.d.t.e.D.D.t.t.s.a.a.a.p.t.t.t.t.t.t.t.0.r.t.w.t.t.e.t.n.D.t.t.n.v.M.M.M.D.d.t.t.q.d.M.v.d.i.n.M.v.v.v.i.i.d.n.n.v.v.n.n.d.u.d.d.d.d.d.p.7.d.g.d.c.d.d.i.7.t.7.a.g.t.p.p.t.e.7.e.e.0.7.p.p.r.7.r.7.e.t.e.7.7.7.t.n.a.+.e.e.u.i.i.g.d.e.7.4.a.n.i.i.d.t.t.t.u.t.t.d.d.i.i.t.t.d.d.i.d.i.d.d.i.t.a.6.7.#.i.u.t.i.i.#.6.1.} a.t.6.7.6.6.4.7.6.7.7.7.7.7.4.6.4.7.7.7.7.7.6.e.t.a.7.6.t.7.t.t.t.a.@.+.| ..e.t.$.t.t.i.i.i.t.t.7.7.6.7.e.6.t.t.7.7.7.7.t.t.t.6._ _ { +.7.$.+.#.+._ ) ( | 7...} { } [ } } [ [ ,.<.} _ } } } } } | | } { ..@.} ( | +.o.` ] +.| R T _ ` ] ..| | ` { @.6.+.| _ Q ) { } | | } R Q _ R R R W H W R b R } } R H T Q c Q ) U W U c U R Q W S S E U U E E F F F E E F S U Q V f F W E S E E A ",
"B f V V U x f f x l E T ( R b c U R R U _ } { _ Q Q _ T ( Q { _ } { _ | Q S R T R R U l f B B f U W x f f B F B Z U W S U W U U R W T W W W R U T ( R R R H ( _ ( W U W ) T Q ` ' _ _ ` ` ` ] ] | +.@.{ _ { } | @.+.o.#.#.] +.4.{ | <.{ ..6.@.6.| ..4.| 6.a.t.6.4.| 1.4.<.4.4.4.1.4.1.| 4.4.4.6.4.4.4.4.7.s.6...7.@.@.t.t.t.t.+.6.+.$.d.t.t.t.t.t.i.a.a.t.i.i.i.i.t.t.i.t.t.a.d.t.u.d.i.e.+.6.e.#.i.i.d.7.+.7.+...a.s.6.7.6.7.e.6.e.e.t.t.p.t.p.t.t.t.a.a.a.t.t.t.d.D.e.+.t.7.u.u.d.d.t.t.a.7.a.d.g.d.d.d.M.n.M.M.d.g.d.i.d.v.v.v.n.n.d.d.v.D.v.g.d.7.u.g.t.i.n.n.t.t.g.a.e.n.P.a.t.s.p.a.s.s.p.p.p.r.t.t.t.t.a.t.7.t.a.e.t.n.n.t.a.H.t.t.D.P.g.e.a.a.t.d.M.v.n.M.n.v.v.v.g.d.v.n.n.d.v.M.n.g.i.t.d.n.d.v.g.a.7.a.t.7.c.M.a.7.t.z.7.t.n.s.p.p.7.7.7.p.7.7.r.t.r.7.7.t.7.r.p.e.7.r.7.t.v.t.+.t.#.t.a.d.d.s.7.p.7.a.d.d.i.t.t.t.t.i.t.u.u.d.g.i.t.d.d.d.i.i.i.d.d.d.d.t.6.e.4.t.i.i.i.$.+.7.....t.t.7.6.6.4.7.7.6.7.7.7.7.6.7.7.7.r.7.7.7.7.6.t.i.s.6.+.7.6.#.t.y.t.+.4.+...7.t.t.t.$.t.t.i.u.t.7.#.7.t.7.7.7.e.t.a.t.t.a.t.7.4.{ { +.| +.q.q.@.{ _ { } ..6..._ } 1.} } } } } ,.[ _ [ } | | | } } } } { | @.{ _ ' ` | ..+.+.' ( { ` ] ] +.+.+.{ | +.+.` ` } _ ) { | } ( R R Q ( Q _ _ W U Q _ H W T _ T H _ ) S ) _ U S S V S S W U U F F Z F F F C Z Z F F F x U Q V f Z V U U U Z M ",
"B V x f V f x V S f c R R R W U W U W R Q ` ( _ } _ _ ( _ { { { _ { { { E x ) [ T x B f M V f l E W x f B B B S U U U S W U U S U W T T R T T T Q _ H U _ U T R R b W R W T R } ' _ ` ` ` ' ` { +.o.| { _ _ | +.| +.@.#.+.| | +.| _ <.| } 6.7.| | 6.4.{ 4.a.7.+.4.4.4.1.4.4.<.| 1.1.<.1.4.4.4.6.6.4.<.1.6.p.4.| 0.0.| +.p.7.+.7.t.] #.y.t.t.t.t.a.a.i.i.i.a.y.i.t.i.y.t.i.d.i.d.t.u.t.t.t...e.a.#.t.7.t.$.t.a.6.| a.t.#.6.7.6.7.7.7.e.t.e.t.t.t.t.t.t.a.a.t.t.e.e.d.Z.7.#.d.t.$.$.d.t.*.d.s.7.t.v.v.d.g.v.n.M.M.M.M.d.d.d.d.d.c.v.n.n.n.d.i.M.v.i.d.7.t.n.i.$.v.g.$.u.n.a.7.n.J.t.e.p.p.p.p.p.p.p.r.r.r.0.t.p.t.t.p.t.t.t.t.c.n.7.a.U.a.e.d.D.t.t.C.t.$.d.M.v.v.M.v.v.n.n.v.v.n.n.d.t.d.n.v.d.t.u.s.d.n.d.d.a.6.a.a.7.7.d.t.7.s.d.6.t.n.s.r.r.7.7.7.r.r.r.7.7.t.e.7.0.r.e.r.7.6.r.e.t.v.t.] a.t.7.e.d.p.e.a.d.6.t.d.i.i.i.t.t.t.t.u.u.t.u.i.d.i.d.d.i.u.i.i.i.i.d.t.7.@.t.s.6.7.n.u.$.#.p.| ` t.t.7.4.4.6.4.7.7.7.6.7.6.6.4.7.7.7.7.7.6.6.6.#.t.s.+.+.p.6.| 7.p.6.+.q.+.` 7.t.t.t.7.$.#.t.t.t.e.t.q.7.t.t.e.t.t.t.t.a.t.#.#.@.` ` 7.6.' +.6.+.| 4.4.` ..7...[ } } } } [ } } [ } <.} [ } | | | { { } { o.@.} ` { _ ( ` +.{ _ { { _ ] +.| | +.@.4.4.| _ { } _ _ } ` ( R ( _ _ R ( _ ) E S W _ R U W W c W [ W U _ Q b S S c V V S S U V F U U V B B Z B B C B B U E V B E B x F F B Z ",
"B E F f l l W U c f c R T R ) Q _ R Q R Q _ R _ | { { | } _ ( _ | { { { W x ) <._ V f d x S M l W U V V U S V S W U V b _ _ ( U U R T T R W U T _ _ H U } _ R U R R _ ( U W Q ) ( _ | ] | | ` | +.o.| ..| } 4.+.| @.@.@.+.| | +.| _ 4.4.{ 4.7.| 4.e.+.} 7.s.6...4.6.4.4.4.4.1.| 4.t.6...1.4.6.4.4.4.4.4.4.t.4.} 7.s.6.+...+.@.a.t.] #.t.t.u.y.d.i.d.i.i.i.d.i.i.i.d.i.u.i.d.i.i.i.t.e.u.t.+.e.d.u.e...7.i.d.y.7...i.s.#.7.e.6.7.7.7.7.e.7.d.n.a.7.t.t.p.t.t.e.e.7.d.D.e.#.d.v.t.7.t.t.y.v.t.#.t.v.v.v.M.n.n.v.n.M.M.v.v.v.v.d.n.n.d.v.M.g.d.d.g.i.d.e.t.n.n.$.u.t.t.g.n.t.7.n.n.t.r.p.s.p.p.t.p.r.t.k.k.r.r.p.p.a.a.t.t.7.t.v.n.t.a.P.P.d.p.p.d.P.U.a.$.c.M.g.d.v.n.n.d.d.c.d.a.d.u.u.d.n.n.v.d.g.d.g.n.g.n.a.6.a.M.d.6.6.7.d.c.a.6.t.D.a.e.7.t.p.e.r.t.t.7.t.d.a.7.7.e.r.7.r.7.r.7.t.n.t. .a.d.e.e.s.e.d.n.d.7.t.n.d.u.d.d.i.i.i.i.i.t.i.u.i.t.t.i.i.i.d.d.d.i.i.e.7.4.p.d.t.#.e.6.t.t.a.+.| t.7.6.6.4.r.4.7.9.0.4.r.a.t.4.7.0.0.7.7.6.6.6.7.t.p.+.6.s.t.+.+.| 6.7.t.@.` 7.t.e.u.t.$.$.t.t.t.t.t.t.t.t.t.t.t.t.s.a.t.7.@.7.e.| | 7.t.@.| | 6.7.7.4.' +.t.+.} | } <.<.<.<.| } 4.0.4.{ } | | | } } } { +.7.} ' +.| _ _ { | +.| ' R | +.+.6.@.@.6.4.....4.<.) _ ..} ( { } _ ) Q ( R U W U U [ ( U E W b _ _ U U { Q c U W S A V F F U U Q ) W Z B Z F Z C Z Z V U W U S Q V f n B Z W ",
"V B E F l z W U h f c U ( W Q Q Q _ R T _ _ ( Q { | | | { R R _ { } _ { Q V U [ } E B l S U l f B S U V V F S S U V c T ` _ _ R T U T T U W W K ( ( H U R _ _ H W _ { Q W T R R ( _ ` | +.| ` _ | +.+.{ { 4.| +.@.+.+.+.@.+.` ..} ( <.7.4.} } 4.+.7.6.| 4.t.+...6.6.4.4.4.1.| 4.r.a.7.4.<.4.4.4.4.4.4.4.6.t.4.} 7.t.q.e.| 6.t.t.7.+.+.t.$.u.a.a.a.i.i.i.y.i.i.i.y.i.i.u.t.i.d.i.i.i.t.t.e...e.i.t.e.+.t.t.t.t.6.+.d.t.6.6.7.7.7.@.7.6.7.a.n.M.d.t.t.t.a.t.e.t.e.7.d.M.e.#.u.i.v.7.t.n.d.i.t.#.t.d.d.d.n.n.n.d.d.d.v.M.d.d.n.v.c.d.d.d.n.v.g.u.u.d.d.7.s.i.v.d.e.t.M.v.d.a.7.d.n.t.p.p.p.t.p.p.r.t.d.P.C.s.e.0.t.p.p.p.t.7.7.n.Z.t.s.n.D.D.a.t.Z.D.D.a.7.d.v.v.n.v.v.g.i.i.i.d.d.a.a.d.d.a.n.n.n.d.d.n.d.g.D.a.#.s.d.d.a.7.a.v.i.a.6.s.Z.s.t.p.t.p.t.p.r.7.t.a.d.a.t.6.6.r.7.7.7.6.7.t.d.e.] t.i.i.e.7.t.Z.y.s.7.y.d.i.i.i.i.d.i.i.u.i.i.i.t.t.t.i.t.t.i.d.i.g.i.e.7.e.+.e.t.a.7.6.6.t.t.t.4.| 7.7...4.6.4.0.r.6.4.6.p.d.a.7.6.4.7.7.4.4.7.6.7.t.a.4.+.p.q.4.4.| 7.7.7.+.] #.t.t.t.e.7.7.7.t.t.t.t.t.t.t.t.t.7.e.t.t.7.7.t.t.7.| | 6.7.@.@.6.q.#.@.4.| #.t.+.} } <.} } <.} _ | 6.6.6.| _ } <.} } } } { +.7.` ( { | .._ { @.@.{ _ R ' @.@.@.@.@.+.+.+.{ +.} R _ | } ` { { Q Q ( Q R ( E U V R _ ( V U U ( ( S U _ Q S S S S V F F V S R Q Q W F Z B Z F F Z F B U Q V B E E Z M Z F E ",
"B l E Q U l V B h x S W _ Q _ ( Q ) Q Q [ { { Q _ | | | { ` | ( [ } ` } [ U U W ( W W B V B f d l V U b U S U U V b ) _ R L R _ ) U U U U W R K _ _ R T W R _ Q ( R R Q ( R T R ` ' { | | | { _ } ....| { | | @.+.+.6.@.@.6.| | <._ } 7.t.4.[ 4.6.6.6.| 4.a.4.+.7.6.4.4.4.4.+.t.s.t.t.7.| ..4.4.4.6.4.4.7.t.4.| 7.7.6.t.p.a.7.+.#.@.@.t.$.e.t.t.a.d.i.i.t.i.d.i.t.i.d.i.t.u.d.i.i.d.u.u.e.+.t.e.#.u.t.d.7.#.e.e.@.d.u.7.6.6.7.6.6.6.#.t.n.n.d.n.d.7.e.t.t.t.t.t.e.d.n.t.t.u.*.v.y.v.M.u.i.d.$.t.d.n.d.d.n.v.i.i.i.v.v.n.d.d.d.i.d.v.d.g.v.g.i.u.i.a.7.d.i.u.v.g.g.M.g.d.d.7.g.D.t.p.p.t.p.p.p.r.d.P.M.m.H.a.7.t.p.p.p.t.r.t.n.D.e.s.d.a.n.V.Z.D.a.d.d.t.d.n.v.n.v.d.v.v.d.d.n.v.d.v.n.d.d.i.v.v.g.g.d.g.n.Z.t.6.s.t.t.d.M.n.t.t.a.7.a.Z.s.p.s.t.p.a.p.e.t.d.v.d.g.d.t.7.7.7.e.7.7.r.t.d.t.O.u.t.u.a.a.d.d.t.a.t.a.d.i.i.d.i.i.i.d.i.i.u.t.u.t.u.d.t.t.t.d.d.d.s.#.e.p.+.e.7.7.t.d.a.t.$.7.6.+.t.e.+.4.6.6.0.r.0.4.0.s.t.t.a.t.4.4.4.7.4.7.7.6.t.d.6.+.t.6.4.s.t.7.#.6.@.| 7.t.t.t.e.t.t.t.t.e.7.t.t.t.t.q.e.t.7.e.e.7.t.t.t.t...+.7.#.+.t.a.7...+.7.+.#.a.6.} | ..| | | } { 4.6.#.7.6.{ } } | | } | { 4.6.` _ { ..#.+.4.+.` ` { ( { 6.6.+.@.+.+.+.+.{ | ` R } | { | _ _ _ } _ Q _ _ W W S W _ } R Q W R U U U ( _ E U S S U F F S U R R E E W W V A F F B Z F W Q Z l Z E E E W Z B ",
"B n B Q U f l l S x W R R ( _ _ _ W _ _ _ | { _ { { { ` { { { } } ` _ { _ E E S U E F f f y M y M l x S U W W U c T } _ K U R Q R U S S U U W K R } R T R H R } _ S S R R R ( _ _ { | } ` ` | } _ ` | | { { | +.@.@.@.@.+.+.+.| | } <.| 4.7.4.7.6.4.4.| 6.a.6.+.4.4.4.4.4.+.7.t.t.t.t.q.6.+.| 4.1.1.4.1.6.s.5.| 7.7.+.@.t.a.+.] 6.+.| t.$.#.7.t.t.y.i.i.y.d.d.i.t.i.i.a.t.u.u.i.i.i.i.d.e. .t.$. .t.i.t.+.+.t.7.@.a.a.7.6.6.+.6.+.@.t.n.d.g.d.c.d.a.t.7.t.t.t.e.e.d.n.$.t.d.&.t.i.M.s.7.u.d.e.q.d.n.n.M.n.n.n.v.d.d.v.v.i.i.i.d.d.c.c.n.d.g.a.u.a.a.7.a.s.$.i.M.M.v.u.g.d.7.D.D.p.p.t.p.t.t.t.d.D.M.n.n.m.Z.a.t.t.a.t.t.t.p.n.D.e.a.d.t.t.Z.U.d.7.s.d.t.d.M.d.c.c.v.v.c.n.n.c.n.d.d.c.n.d.i.i.d.g.d.d.d.n.d.7.6.s.e.6.s.J.a.6.e.a.7.a.D.a.t.p.a.p.t.e.t.d.d.g.d.d.d.d.t.6.6.7.7.7.6.$.d.t. .u.t.$.t.n.d.7.e.d.7.t.d.i.i.i.i.i.i.d.d.i.t.t.t.t.t.a.u.u.t.t.d.a.t.7.a.7.+.r.7.@.#.a.d.7.+.7.6.+.a.7.4.1.1.6.4.6.1.7.t.a.t.t.t.p.7.4.| 6.4.6.4.7.t.s.7.@.q.+...t.s.7.| 6.+.| e.e.$.t.t.t.t.e.$.e.7.$.t.t.q.t.t.t.t.7.#.7.t.q.t.t...+.7.+.| 7.a.#.] 6.6...7.a.@.| } } | | { | 4.@.+.@.@.5.6.| { } | } } { @.6._ ` | | | +.6.{ ( ' { R | 6.@.@.| ..+.+...{ ` _ _ { { { | { } { | ) Q Q Q ) E E W U R [ _ W S S W b W _ W W U V S S V S W U E U W W W U F V B B B Z W W M M Z B U W E B M ",
"C M M C V l l V F c Q Q R Q _ { { _ { { _ } _ _ } [ _ ` +.{ | | | _ _ } _ U E S E U B t t d B l B B V V S S U S W _ ` _ R R _ ( ( ) U U R U S T { } U U R U W _ R S U ) R T } _ } ..{ { ` { +...` | | | +.+.| +.#.#.@.6.+.o.6.5.| | <.} | 4.7.7.| +.4...6.a.7.4.4.4.6.4.1.7.s.t.t.t.7.t.t.7.4.4.4.1.1.4.7.a.6.| 7.r.+.+.7.7.+...7.#.] t.$.6.t.t.t.i.t.a.d.d.y.t.i.i.y.d.i.t.u.d.a.i.i.t.t. .e.#...$.t.7.+.#.t.7.+.a.d.t.6.6.+.#.+.e.g.n.c.v.v.c.n.M.a.t.7.t.t.e.e.n.M.e.t.g.t.7.t.g.e.6.t.d.e.u.v.d.d.v.i.d.v.v.d.d.n.n.i.d.d.n.v.c.n.n.d.d.d.t.g.d.$.d.d.e.t.n.g.a.t.d.d.t.U.P.u.p.p.p.p.e.s.P.H.n.M.m.n.H.D.a.t.t.p.p.t.a.D.D.e.t.d.t.e.s.Z.t.q.g.d.7.d.M.d.d.v.M.v.c.n.n.n.v.d.d.d.n.v.i.i.d.n.n.n.d.d.a.6.7.d.t.6.p.d.t.7.s.s.7.a.n.s.t.t.s.p.e.p.d.n.d.v.g.g.i.d.d.t.7.7.7.7.6.t.d.t.O.t.t.+.e.g.s.#.e.g.6.t.c.i.i.i.d.d.u.u.t.i.i.t.t.d.i.a.d.i.t.t.u.s.e.s.a.7.+.t.7.6.4.t.t.+.+.e.6.+.t.t.6.4.2.9.9.8.8.p.a.t.a.a.t.t.s.e.4.4.4.7.4.7.a.s.+.@.t.+.| 7.t.@.+.7.+.+.7.t.$.t.t.7.#.@.$.t.t.$.7.e.q.t.t.t.t.7.#.7.t.7.t.t.+.+.7.+.| 6.e.+...7.7.+.$.y.6.+.| | ..| | 6.7.6.@.@.@.7.e.7.| } | | } | @.#.] | 4.{ ( | 4._ ( ..| ( | 6.+.+.+.+.@.o.| ' { { } | | | | ..| { ( R R ) _ _ W R W c S F Q W S U W V W { W E V x F V U W W E W Q Q Y Q W Z M B B A B U E M B F B A B B M B ",
"M B M d M f B F x c W Q ) R R R _ } { { } _ Q R { _ _ ` ` | +.} ( _ _ } _ S U U S E x t d M f f x F S l V V x S R _ Q R R R R _ { ( U U R R W R ` _ b b W T U W E S W _ U T _ | | } } _ } +.+.+.| { +.+.+...+.+.+.@.6.@.@.#.@.7.} { 4.1.{ } 1.1.| 4.7.1.+.a.7.4.6.6.4.+.6.a.t.t.t.7.t.t.t.t.t.@.+.6.4.4.e.q.4.| 7.7.+.+.4.4...6.7...| 6.#.7.e.t.t.t.t.a.a.u.t.t.i.i.i.i.a.i.d.a.d.i.t.t.e. .7.7. .+.7.+...7.r.6.+.a.a.7.6.6.+.+.e.d.d.g.v.g.d.n.n.n.n.d.7.e.7.t.t.d.M.t.t.a.t.6.7.r.7.e.7.d.e.t.n.d.t.t.i.d.i.i.d.d.M.d.u.u.d.v.d.n.g.n.d.i.i.i.v.d.$.a.d.t.t.p.p.t.t.d.d.e.U.P.t.p.p.t.e.s.D.P.D.D.n.D.P.m.M.D.a.t.t.s.t.a.D.D.t.t.g.t.7.t.t.t.t.s.d.t.d.M.d.d.d.g.n.v.d.d.M.n.d.i.d.d.d.d.d.d.n.D.n.d.i.a.7.6.s.t.7.0.7.7.t.p.a.7.t.n.t.7.p.t.e.t.d.n.n.v.n.v.v.d.d.d.a.t.6.6.7.6.t.M.t.O.t.&.#.#.p.e.6.e.s.7.a.d.i.i.i.i.d.i.t.7.t.a.i.u.i.i.d.t.i.t.u.t.a.t.t.d.6.+.e.6.6.4.6.4.+.+.7.6.+.i.u.t.r.4.8.4.6.p.s.t.t.t.t.a.a.t.t.7.6...4.7.6.t.p.| @.7.+.| 4.4.+.+.6.@.| 7.t.t.$.e.e.$.7.t.t.t.t.#.#.t.t.t.t.t.t.7.#.7.7.7.7.....6.+.| ..4.+.+.7.7.+.$.y.6.+...| } | 6.7.6.7.7.7.7.7.7.7.5.{ { } } { #.#.| | +.| R [ | ( _ | | _ | @.| { o.+.@.+.{ _ { { _ ' o.] | | | _ Q W _ } _ [ U T ) U V V W U U U U V T _ U V V V V S W W W W U W Q _ Q U Z B B M B V S U B B Z Z Z f n n Z ",
"M C M d m f A F B x W _ _ R T U ( _ } } <.} { ( } } } _ _ ` _ ( _ { } { Q S W U b U x f f B l f S W W S V x V U Q _ _ R ( R U Q _ { _ T U R ( T ( R H U R T H S W U W { R H _ ` ] | | ' +.@.@.@.+.| @.#.+.+.+.+.+.@.7.6.@.@.+.4.} } 6.4.| } | <.+.7.5.+.#.d.t.4.6.6.+.6.u.d.t.t.e.6.e.t.7.t.t.t.6.6.4.4.7.t.7.4.7.7.@.+.| | ..6.7.+.] 6.e.t.7.t.t.t.t.i.t.t.t.i.t.i.i.d.i.d.i.d.i.t.t.d.t...7.7.+.+.6.+.+.7.7.6.+.a.u.#.4.7.@.7.i.v.d.v.g.t.e.d.n.n.n.n.d.7.7.t.e.d.M.e.e.s.e.r.7.r.7.e.7.d.e.t.n.d.d.v.d.n.d.v.c.v.D.d.u.t.d.n.d.n.n.v.i.t.d.g.n.d.7.d.d.t.t.e.e.p.t.z.d.e.T.J.p.p.p.e.t.M.M.m.H.J.g.a.n.U.n.m.D.s.p.p.a.a.M.D.t.s.n.t.e.e.0.t.t.s.d.t.d.D.v.v.d.a.g.c.g.v.v.v.d.d.d.i.d.v.n.d.d.d.d.a.d.d.t.7.a.t.7.7.7.7.t.p.s.e.t.D.s.7.t.r.e.d.D.n.n.M.n.i.d.n.d.a.d.a.e.6.7.7.t.v.&.O.t.7.#.#.e.r.7.7.a.7.t.s.t.i.d.d.i.d.d.t.t.t.d.i.u.i.i.y.i.i.d.i.g.u.t.a.#.7.t.7.4.1.4.4.7.+.7.7.+.t.t.7.6.8.9.4.p.a.a.a.p.6.4.r.t.t.a.t.e.4.4.4.7.t.e.| 6.7.+.| <.| #.+.7.6...7.7.$.$.t.u.t.t.t.q.t.t.7.7.t.t.t.t.y.t.t.t.t.t.7.6...+.7.+.| ....4.4.7.7.@.q.a.6.| ..| } 4.7.7.7.7.6.6.t.q.7.7.7.4.{ | | { #.7.| | ..} ( _ } _ _ { | ' | +.` | ..| | | { { | { _ ` | o.+.{ | | { { } } | _ U R } ( E U E E W U U V Q Q x V E V S Q W R ) U B B W Q W Q E U E M Z F W Q F M Z F B m M m B ",
"M M M n M f M E Z s U _ Q R ) W R R { | } { | } } | } _ ( R _ ( } _ _ } Q U E S U b x f a x B f S _ U S F U W U U R ) R H S S E Q _ ` R U U T K ` _ H W W U T U U U H { ) H ( ( ` } { +.+.+.@.@...| +.@.@.+.+.@.6.6.@.@.+.+.#.4.} } 1.4.| ,.[ 1...4.0.4.@.i.e.+.4.4.6.t.i.t.i.a.4.1.4.7.t.t.t.t.7.+.+.4.+.a.7.+.t.7.| ..1.1.} +.r.4.+.t.q.7.t.t.e.t.y.y.t.y.t.u.t.u.i.i.d.u.d.d.t.t.t.t.i.#.6.#.+.#...+...+.7.6...a.t.+.4.4.7.i.d.d.v.n.t.6.6.7.d.v.d.c.c.t.7.6.7.d.g.$.e.a.7.9.6.r.7.6.e.d.$.t.n.v.d.v.c.v.c.d.d.M.v.d.i.i.i.d.M.v.v.v.i.i.d.d.n.g.7.d.g.e.7.t.e.t.s.d.k.e.U.D.u.a.t.p.n.M.n.M.D.d.p.r.p.n.P.M.M.n.a.t.t.a.M.D.t.u.n.t.7.r.r.e.e.s.a.7.g.M.c.M.d.i.i.i.g.d.v.d.d.d.d.d.i.i.d.n.d.t.a.d.d.s.e.e.d.e.6.7.7.6.7.a.s.e.i.D.t.7.0.7.s.n.n.n.M.n.a.6.7.d.d.a.i.i.s.7.@.6.t.i.$.+.t.$.6.6.6.6.r.6.p.+.e.t.e.u.d.i.i.i.d.d.t.t.a.d.t.t.a.i.i.y.i.g.a.u.u.7.6.6.t.7.....4.4.4.+.6.7...t.7.+.6.4.6.s.a.t.a.a.0.1.<.1.7.t.t.t.t.7.4.| +.7.7.| +.7...} 1.| ....7.+.| #.#.#.e.t.t.t.t.t.t.t.t.t.7.t.u.t.t.t.t.t.i.t.t.7.7.....6.+.| 4.1.| 1.7.7.+.t.a.+.| } { +.7.6.6.7.6...| 6.a.7.7.7.7.+.{ } | #.6.| | | } _ ) } _ ( } | _ | @.| | | | | | | ` { { _ _ ` | | | | { | | { { } W U _ { W W U W U U W U c W W c S F S W W W W U B l B B U W E W E W F Z S Q Q Z B V B B M B m f ",
"C M M M Z l B E V l W R _ R _ ) ) ) _ _ } { { { { _ _ } ` ` | { | } _ | Q S E U U S V f t g B f S U x x U Q ( U E U U c x x S U ) ( _ ' _ T H R | | Q W W T R E W U T _ T K ' _ ` | | #.#.+.+.+.+.+.+.+.@.+.+.6.#.+.| | #.@.@.6...| 4.4.| } | | | 4.t.7.7.a.#.+.4.@.t.d.t.t.t.6.<.4.4.4.t.t.t.i.t.#.+.+.7.s.7.+.t.6.| | 4.1.} ..7.6.7.d.t.t.t.t.e.t.a.y.i.i.t.t.i.u.t.u.i.u.d.i.t.t.e.t.t...+.6.+.6...6...4.7.+.@.d.t.#.6.6.u.v.d.c.v.d.7.7.7.7.t.d.c.c.d.v.t.#.#.i.v.e.7.s.7.6.6.r.9.6.e.s.$.t.v.n.d.i.v.n.d.d.d.v.d.a.d.d.t.i.v.n.c.v.d.n.c.d.M.g.e.d.d.e.e.t.t.t.s.g.k.t.U.J.s.a.t.n.M.n.M.M.d.r.r.s.t.a.D.P.M.M.M.i.t.s.M.m.t.a.n.t.7.t.t.7.e.s.t.#.d.D.v.n.g.d.a.d.g.g.v.g.d.d.n.d.i.i.d.d.a.a.a.d.d.d.t.e.d.e.6.r.r.6.7.p.s.t.a.Z.t.7.7.t.g.n.n.n.n.t.7.7.7.t.g.n.a.u.d.t.#.#.e.d.t.@.t.7.6.6.6.6.r.6.e...7.a.t.t.i.d.v.i.d.i.a.t.a.d.t.u.d.i.d.t.t.i.d.i.i.t.7.6.t.7.| ..6.+.+.+.6.7.+.u.u.6.4.6.s.s.a.a.s.0.4.1.1.1.7.t.a.t.t.t.7.+.+.t.a...+.7.+.} 4.| ....6.#.] #.e.$.t.t.t.t.7.t.t.t.t.t.t.t.a.t.t.t.a.t.t.t.7.7.t.+...6.+.| 4.4.....6.7.+.t.t.| | } | 7.7.6.7.6.+.| { | 7.t.t.7.7.6.{ { | 7.7.' | ..| } ) } } ( } | / +.7.@.+.+.@.+.@.4.| | | { _ ` | ..| { ` { { } _ _ ) E _ } T U W W S U W E b ) U x F S R Q U R U x B B V F W W E ) W E S z V Q Q V B B B B B Z f f ",
"F M M B Z Z B F S z W R _ R R ( [ _ { _ } { } _ ( ( { _ _ _ { | 4.} { } W S W U S S V f f d d l V x l U Q U U U W V B l B S U S U Q _ ` { Q R R ` | Q W Q T T W R U U _ K H { | +.+.+.+.+.+.X.` ..+.+.] | @.@.@.6.+.| +.@.@.+.6.+.} 6.4.[ [ <.<.} 4.7.4.#.t.7.+.4.7.t.t.t.t.4.2.<.<.1.6.4.t.t.t.t.t.#.#.a.d.t.| 7.6.| 4.4.1.| ..7.+.7.t.t.a.t.7.7.t.t.i.y.i.i.i.y.t.t.t.t.i.u.t.t.t.7.t.e.] +.7.....4.......6.4.@.a.t.7.#.t.d.d.v.n.a.7.7.7.6.7.6.t.n.d.i.d.d.t.#.t.n.7.7.p.6.6.8.9.0.6.e.t.@.i.c.d.d.d.d.d.c.v.i.i.i.d.d.d.d.u.t.d.d.d.v.v.n.n.n.a.7.d.s.e.e.e.p.t.t.z.s.t.U.M.t.s.n.M.M.n.M.a.r.p.p.t.p.p.s.D.M.M.M.M.t.t.M.M.t.u.d.t.7.w.t.r.7.p.t.#.a.D.n.d.d.d.n.d.d.n.n.g.d.d.d.d.d.i.i.d.d.d.d.t.d.n.t.7.s.7.7.0.0.7.6.t.s.7.t.Z.e.6.t.d.g.d.n.d.t.0.t.0.0.7.a.d.d.i.i.i.t.+.$.d.t.@.t.e.+.4.9.6.6.6.e.+.q.d.t.t.a.d.c.d.i.t.a.t.t.s.u.i.d.y.i.y.i.t.i.t.t.d.6.+.t.@.| 4.4.4.....t.4.+.i.t.7.4.t.a.a.a.a.r.4.2.<.4.4...4.a.t.t.%.t.7.+.7.t...6.6.| { | 1...' 7.#.| 7.t.t.t.t.t.t.7.t.t.t.t.t.t.y.y.e.$.t.y.t.7.#.6.7.7.+.+.@.....1.4.1.| 6.7.+.7.7.| } | 7.6.7.7.6.o.| 1...} } 7.a.7.#.@.@.| ' #.#._ | +.{ _ [ } ) ( } } _ +.6.@.6.@.+.4.4.+.4.| ` } ` { { | { _ _ { { _ _ { Q U W ) U E U W U b W W U Q b l U W T R W U x V B V V V U W W W Q U U S c U Q z B V B B B B M l ",
"Z B C m B B l F U c Q _ Q R Y _ } ` } } { } { { ` _ { _ ( R R _ [ } | { U U ) W U S x l l l l x U U b R Q R R R W c B l S Q E U S T ( Q _ { { R _ | R R _ R T R R W R _ R T _ | ` ` ..| +.+.O.] ..+.+.] ] ..+.#.6.@.#.@.| @.#.6.+.{ +.| } <.<.1.} +.6.{ +.t.6.+.7.t.q.t.7.4.<.4.<.| 4.7.4.6.t.t.t.i.t.7.t.i.7...t.6...4.4.1.1.6.6...6.t.t.t.7.7.7.t.y.d.y.a.i.i.t.a.t.t.u.d.u.a.t.u.t.t.t. .6.7...+.4.......7.7.#.a.i.t.t.d.d.c.d.a.7.6.7.6.7.7.7.7.t.d.d.u.d.i.t.u.v.7.7.p.e.6.6.6.0.6.t.d.@.d.v.d.d.v.d.d.n.M.i.t.i.v.a.d.v.d.t.t.u.g.i.i.d.i.v.a.$.u.a.t.e.e.a.a.t.z.d.t.J.n.i.n.M.M.M.M.d.r.r.p.p.r.p.p.p.d.D.M.M.P.d.t.v.P.t.t.g.t.7.0.p.r.7.s.p.t.d.M.n.n.d.n.n.v.n.n.n.d.d.d.d.n.v.i.i.g.n.d.g.a.g.g.t.7.a.7.7.0.0.7.7.p.s.7.t.n.t.t.d.v.v.v.d.t.7.r.t.0.0.0.7.e.d.d.i.d.i.t.t.d.t.@.t.t.#.1.9.6.6.6.p.@.t.a.t.d.v.d.d.i.i.i.d.t.t.t.d.i.d.i.d.i.i.t.t.t.u.i.7.#.t.#...4.6.6.....p.6.#.d.t.t.t.d.a.a.s.r.4.4.4.1.4.4.+...7.t.t.$.t.t.$.7.7.' @.@.{ { | 1.| | 7.#.+.t.t.$.#.t.i.t.t.t.t.t.t.t.t.t.y.t.t.t.t.t.$.#.t.t.7.+.+.6.+...1.4.4.4.r.0...7.t.+.| 6.6.6.6.4.+...| | 1.| } | 6.t.@.+.t.6.` #.$.` | 4.{ ) [ ,._ _ ..} _ +.6.+.+.| | ..+.@.+.| ` { ..+.{ ..| { } { _ _ { } ( W U U U Q U U U H R W U _ T U Q R U R U S V S V W S x B U W U U W U Q b U W x V U x x B M B l ",
"Z Z M m M f M F c b Q _ Q R R ( { { { _ _ } | { } _ _ } } ( _ ( { | { { E U [ _ U c S x l S l x W U H U R R _ W S x l S W U W U U U U Q { _ ` _ { ` K R _ ( T W R T R } R W _ _ ` ` _ ` ..]  ...] ` +.+.| | ] #.#.+.#.#.#.+.@.7.+.` +.+._ } ,.} | @.4.' ..t.$.7.q.q.t.7.4.1.4.<.4.7.6.4.6.@.@.t.t.t.u.t.$.t.#.+.t.7.+.| 4.4...4.6...@.t.t.q.7.e.7.q.t.y.i.t.t.i.i.a.y.a.i.u.u.d.t.u.t.t.e.+.#.7.+.......} 6.a.7.#.i.t.y.i.d.d.v.t.7.6.7.6.e.s.7.7.7.@.t.d.i.t.i.u.t.d.$.#.a.p.4.6.9.6.7.u.s.$.t.n.v.i.d.v.n.n.g.t.i.a.d.i.i.d.d.y.t.u.d.i.i.t.i.d.s.6.t.d.e.7.t.p.t.u.Z.s.t.n.v.v.M.M.M.J.d.r.p.p.r.s.d.t.t.s.s.a.M.M.M.n.v.v.M.t.t.c.s.7.0.r.7.p.k.p.7.n.M.v.n.c.d.c.n.M.n.d.d.g.d.d.M.n.d.d.i.d.g.n.v.d.d.t.$.a.t.6.0.0.4.6.s.s.7.t.d.i.d.c.d.n.d.t.7.r.7.t.s.t.7.7.6.7.t.d.i.d.i.u.i.t.@.t.t.+...6.9.+.e.t.@.t.a.i.d.d.a.i.t.a.a.i.i.i.t.u.i.i.v.g.y.t.t.t.t.t.u.7...e.7...1.7.4...#.t.6.#.i.u.7.t.y.s.s.0.4.8.2.| 6.7.+.4...| @.t.q.$.t.*.$.@._ | +.{ _ } <.{ ..7.+...t.t.#.#.e.t.y.i.i.t.t.t.t.t.t.t.y.t.7.t.t.t.t.t.t.t...+.7.+.| 4.2.1.7.p.9.| 6.t.@.4.4.6.6.+.| | | } | ..| | } | @.6.#.6.q.@.#.#.` { 4...) [ } _ | +.} R +.6.| | | { | | +.+.| ` { | +.@...{ | { { { } _ _ _ W U Q U U W U c T _ U b Q Q ( W R U W S U V V U W U Z M l S U z U W R T U U x B F V l l B f B ",
"E F C M M l F W c b R _ ` _ } _ } { { { { { | | | { _ { | { ..{ | } { | Q E _ ) c c W c c U c l S b R R _ Q W S x B V W Q R _ E U U S W } { ` ` | _ T ( } _ R T R Q ` | R R ` ` +. .` `  .]  ...` ] +.+.+.+...+.+.+.+.@.#.@.@.6...' 6.6.{ [ | _ ..t.6.| ..7.t.t.7.t.t.6.<.2.4.4.6.s.e.5.4.6.+.7.t.u.t.t.=.y.7.+.t.s.4.| 4.4.| 6.e...+.t.t.q.t.a.e.7.t.i.i.t.t.y.d.d.a.d.i.i.u.s.t.e.t.u.t.+.$.u.#.| 1...| p.a.7.#.i.t.i.d.c.d.t.7.6.6.9.6.d.n.p.4.7.6.@.t.d.i.d.i.t.d.e.6.g.a.6.4.0.6.t.g.a.#.t.n.v.i.d.n.M.d.i.u.d.n.d.i.i.i.d.d.v.d.d.d.i.i.d.d.s.6.a.Z.t.7.p.p.e.d.J.a.t.M.M.M.M.M.J.d.r.t.p.r.s.D.J.s.t.a.s.a.d.n.M.M.M.m.n.t.t.n.d.e.0.r.7.s.G.p.7.n.M.n.n.c.d.g.d.d.d.d.g.g.d.v.v.d.d.d.d.d.d.g.d.d.n.t.7.g.a.6.7.0.4.7.d.d.7.t.d.d.f.v.v.d.t.r.0.0.0.j.A.s.7.0.7.4.7.d.i.d.i.u.d.t.@.i.t.#...6.6.@.s.t.+.t.n.n.d.d.d.i.d.g.a.i.a.i.t.i.i.d.d.i.t.t.t.a.t.e.t.#. .a.t.6.1.7.4...t.a.@.#.i.t.t.a.a.d.t.6.8.9.<.4.t.t.+...4.+.| e.t.7.e.$.t.6.' ..4..._ } 1.} +.t...| t.7.$.t.7.t.t.t.t.t.t.t.t.t.t.y.d.t.t.t.t.i.t.t.t.t.+.@.t.6...4.2.1.7.s.7...7.t.7.7.7.4...} } | | { 4.7.| { { } ` @.7.@.7.7.@.#.{ | 6...) [ } _ +.#.} R | +.+.| | 4.+.{ o.+.| | { ` +.| ` | | [ _ } { ( _ { W Q <._ U U U S R _ U b W _ { Q ) T S U F B S R T W E l l B S c b U W R R U B B U F l m B f Z ",
"E U V f M F E W c c W R _ { _ _ _ Q _ _ { { ` { | ` { ` ` { { ....} } | Q W [ R b b U c b W x h x U R _ ) U B M B V W U R _ _ W U V S U R { { ` { _ H ) | ` R T T _ ` | _ K _ ] +.+.+.] ] O.O.] O. .] +.+.@.+.o.+.+...+.o.@.#.@.| } 4.6.| ) [ 1.4.7.6.{ 6.t.7.*.t.i.7.4.<.<.<.4.t.t.t.t.+.4.6.+.6.t.t.t.*.i.7.| t.a.7.4.1.1...e.t.| +.7.e.t.t.t.t.t.t.i.t.t.t.a.t.i.i.i.t.a.t.e.e.t.t.t.t.@.#.t.e...| ..7.p.a.6.#.a.i.d.n.n.t.6.6.7.6.7.d.c.d.d.7.4.7.5.+.t.d.i.i.i.d.7.7.d.d.e.4.9.7.u.d.u.@.t.d.d.d.d.n.n.t.t.a.n.d.d.d.v.d.d.d.v.d.d.d.d.a.i.d.a.6.s.D.g.e.e.e.a.n.D.s.a.T.Q.M.P.J.d.r.r.p.7.s.H.D.M.D.s.t.s.a.t.i.M.M.M.m.M.t.t.Z.Z.s.0.0.p.D.A.e.7.d.n.g.a.d.d.d.d.i.d.g.d.d.g.v.d.i.i.d.i.a.u.u.t.d.g.a.7.d.g.e.6.6.6.t.d.a.7.t.d.i.v.v.d.e.0.r.7.0.s.Z.Z.Z.s.7.7.7.4.7.a.d.u.y.d.t.@.t.t.e...4.6.$.a.t.+.t.D.n.n.d.a.d.d.d.d.d.t.t.t.i.i.d.i.t.*.t.t.t.t.&.t.7...t.a.e.+.4...7.t.s.+.#.i.*.t.n.d.t.4.9.4.1.6.t.t.t.t.+.| 4.| +.7.t.7.$.t.7.} | 4.6.} { <.} +.e.| ] 7.e.$.t.t.t.#.$.$.e.t.u.t.t.t.i.i.u.t.t.t.t.t.t.%.7.+.+.t.e...1.1.4.t.a.7.| 7.t.6.e.7.| } | | { { +.q.t.4.{ { { _ } 6.7.$.#.+.@.| | 6.+.[ ) } { @.@._ R { +...| | 1.+.+.+.| +.| { ' ` ` { ` { { _ Q _ ` _ ) W R +.| U U E b W _ S S Q W ) ) R U F Z V x U W R R U V x l S S x V R K T U l l U F l f M M E ",
"Y Q U x V Q W E l b Q R _ Q U U ( _ { _ { ` | | | ` | { | _ { ..} } | | Q W | { ) U S b b S h l U b R W S V A M E W ( R ( _ { ) E V S U W _ | ` ` _ U R | ] ' R T { | ` _ L ' +.+.+.O.O.+.O.O.+.+.] +.+.+.+.+.+.#.#.#.@...+.+.+.| } 4.7.4.) } 6.7.#.+.| t.t.t.t.t.t.4.<.2.2.| 7.t.t.i.a.6.+.+.4.+.7.t.i.t.d.t.| e.a.t.6.| +.e.d.7.| +.6.e.t.q.t.t.t.t.t.t.t.t.i.t.i.i.i.i.t.t.e.t.d.a.t.i.@.@.u.t.6.| ..s.t.t.#.+.a.c.n.d.t.6.9.7.7.7.s.n.v.d.n.d.7.6.7.+.#.t.v.i.i.d.7.e.d.n.d.6.6.t.g.i.u.+.$.t.d.d.n.d.d.u.t.d.n.g.n.d.d.i.a.u.t.t.v.d.d.d.i.d.a.6.s.U.D.t.7.t.n.M.D.a.s.T.Q.M.P.d.t.r.r.0.s.D.P.M.M.P.D.s.s.d.s.t.d.P.M.n.M.t.t.n.D.n.p.e.D.J.n.t.7.d.v.d.i.i.d.n.d.i.d.v.v.d.v.v.d.d.d.g.i.u.t.t.i.f.d.a.7.d.J.a.7.6.e.d.d.a.7.t.d.i.v.d.t.7.7.7.7.s.Z.n.d.M.Z.t.6.7.6.6.t.c.i.i.i.t.@.t.i.d.#.@.#.u.d.t.+.t.d.d.d.a.a.d.d.d.d.i.u.t.t.d.i.g.i.t.t.i.t.t.t.t.t.7...t.d.u.@.+.@.a.t.t.+.#.i.u.d.n.a.6.8.9.2.4.a.d.t.t.i.7...4.4.| 4.7.7.t.7.7...| 6.t.+.} _ ..7.e.' | 7.t.&.e.t.t.7.7.7.t.y.i.t.7.t.i.t.t.t.t.t.t.t.t.$.t.+.+.t.a.6.1.4.t.t.t.6.| 7.t.t.7...{ | | | { { 7.q.7.7.@.{ _ } _ | 6.7.#.+.#...| 6.6.| ) _ +.#.| ( R | @.+.+.+.| +.+.| | +.| | ` ` ..` ` { { _ R ( _ ( _ R U _ ( E Q Q U Q [ U U ) W Q U F F U B B U W U R E U E S M A V x x T R R E B l W U Z f M F W ",
"W Q U S U ) W S x S R Q R T H U Q } } _ _ { +.+.+.` { | | _ _ } } } { 1.[ R { | { R U H U x f B S V V x F B B F R _ R R _ ` _ Q Q W U S U Q _ _ { } U T } ..] R R { | _ _ R _ +. .] O.O.+.O.X.O.+.+.+.@.+.| +.+.+.#.7.#.+.] ..@.{ _ +.7.@.| 4.6.#.@.{ | 7.t.u.s.7.+.<.4.<.<.6.t.t.t.t.t.t.@...6.4.+.6.t.i.t.7...7.t.t.e.#.7.t.u.e.{ | 6.#.t.t.t.t.t.t.t.t.t.t.t.i.i.t.i.i.t.7.t.a.a.u.i.t...+.t.t.t.4.7.t.t.t.+...t.d.a.7.4.6.r.7.6.d.n.d.d.d.d.c.d.6.6.7.@.@.a.d.t.a.e.e.d.g.d.t.t.i.d.d.t...e.a.d.i.d.d.d.i.i.d.d.v.n.d.t.t.i.t.t.t.d.n.d.i.d.d.s.6.s.J.P.a.t.d.M.M.H.t.p.D.P.P.d.e.r.r.9.s.D.D.M.M.M.M.M.n.a.t.a.t.e.a.n.M.M.t.t.n.M.M.d.d.D.M.n.e.6.d.d.i.i.i.d.d.d.g.d.d.v.v.d.i.d.v.v.d.i.t.t.s.a.i.g.a.#.d.n.d.s.t.a.g.d.a.#.e.v.v.d.7.7.7.7.7.a.n.d.d.d.c.v.g.t.4.6.6.6.t.a.y.i.t.+.i.y.d.i.t.t.d.u.t.] 7.d.a.y.a.y.i.d.d.i.i.t.u.d.i.i.d.u.t.t.t.u.a.t.t.t.7.| t.d.t.7.7.t.t.t.t.| @.t.i.g.a.4.6.8.2.4.s.a.t.t.y.t.i.7.| 4...} <.6.7.t.7.| | 7.7.7.4.} #.e.7.} | e.e.t.t.e.t.t.t.u.a.i.t.t.t.t.y.t.t.t.t.t.t.$.e.q.7.+.+.t.u.q.7.q.t.t.t.4.{ @.t.e.+.{ | ..| } | 4.6.@.#.7.6.+.{ _ _ _ | @.@.#.@.| | @.@.@.| | +.+.{ Q ( +.o...+.@.+.| { | { | +.| ` { ` { ` ` { _ R Q W ( { R U Q Q _ Q ) Q _ Q U U Q R S V A V Z B S W U S U U U U F V x x c x V R R W B f F E E Z F E U ",
"E U c x U W W U b S W ( Q W R ) _ _ { { } } | { | | | ..| _ Q _ ..} } 4.[ R ` ` { _ R H b c x x U U V S F V S U R R _ R _ { _ Q } _ Q E U Q R ( | | R R | ] | ` ] o.] _ ` ( _ +.' ' +.@.+.+.] ] @.#.@.@.+.o.@.+.+.#.#.+.+.| +.#.{ ( | 6.6.6.6.7.@.@...| 6.t.t.7.4.<.4.4.<.7.t.t.t.y.t.t.t.t.6.4.6.4.+.t.i.a.7...t.t.q.t.t.u.$.t.7.} 4.7.+.7.t.t.t.t.t.t.t.t.t.t.i.i.t.i.i.u.t.t.u.t.u.i.t.] +.t.t.a.t.s.t.t.a.+...s.a.7.4.7.7.e.7.a.n.n.d.d.d.a.d.g.a.7.@.6.+.7.t.i.d.7.e.d.d.v.d.v.d.i.d.t.+.t.n.d.t.a.d.v.i.i.g.v.d.g.d.t.i.v.a.a.d.n.g.i.i.i.d.s.#.s.M.M.n.d.M.M.v.P.t.t.D.P.g.p.p.p.r.p.Z.P.M.n.M.M.n.M.J.d.t.p.a.7.e.g.n.n.t.p.D.n.n.n.n.n.M.n.7.7.d.d.i.d.i.d.v.v.v.d.g.n.v.i.u.d.n.v.g.i.t.u.d.i.i.n.t.+.t.g.i.y.a.d.i.v.d.#.e.g.i.t.7.0.7.7.a.d.g.d.d.d.d.d.n.d.e.6.7.4.6.t.i.d.t.+.u.i.d.v.v.t.y.i.t.] 7.n.d.d.d.a.i.i.d.i.d.i.i.g.i.i.a.i.i.t.t.t.t.7.#.t.t.| 7.i.t.t.t.t.t.t.t.| @.t.t.t.6.4.9.2.4.t.d.a.t.t.t.t.d.t.7.4.6.| | 4.6.e.7.} | @.#.7.7.6.t.7.6.| 4.7.t.t.t.t.t.t.i.u.t.t.t.t.t.t.t.t.t.t.7.t.t.7.t.t.7.+.+.t.t.t.a.a.t.$.t.4.| 6.e.6.| } ....| | 6.6.@.@.6.@.@.#.+.' _ _ | | +.7.@.| { +.@.6.6.6.+.+.| Q } @.+.| { ..@.+.| | { | +.| ` ` { { ` { { _ R _ _ { _ R W { } { W _ { _ _ W U ) W S F F V B S Q W T U S T R U W U V x S x B U T E l l F E W E Q U U ",
"E S S V S V W U x S R R R W _ ( _ _ } | | { _ ( { { 1..._ ( } [ | } _ 4.[ W { _ ` ` T b K b h l S S S B B B S S S T Q _ ` ( _ _ _ _ { ) R U R Q { ..( R | ` ] | +.o.| ' _ Q { +.` ' +.+.+.] ] ] ] +.@.+.+.+.+.@.+.#.#.+.@.@...@...R } 6.6.7.7.@.@.6.| ` 7.t.6.4.2.4.2.1.4.t.t.t.t.t.t.t.t.t.t.6.4.6.+.6.t.t.6...e.t.t.t.e.t.t.e.5.| 4.7.@.#.7.t.t.7.7.t.t.t.t.t.t.y.y.u.t.t.t.t.t.u.t.t.e.` +.t.q.t.a.t.t.t.t.#...a.a.6.6.0.7.7.a.n.c.d.d.i.d.d.d.i.d.i.@.#.6.#.#.u.d.7.$.a.u.f.v.v.d.d.i.t.+.t.n.d.a.i.i.d.i.d.i.v.c.a.i.d.i.d.d.v.d.v.i.i.i.a.a.d.#.t.n.M.v.n.n.M.n.J.t.t.C.D.s.p.p.7.p.n.n.v.n.M.n.n.n.n.M.D.s.e.t.t.r.t.v.n.e.e.g.n.n.n.n.v.n.n.7.#.a.g.d.d.d.i.d.v.d.v.n.g.i.i.i.i.i.g.d.t.t.u.i.i.d.a.7.+.t.d.i.t.t.i.d.d.t.+.7.d.t.7.r.7.7.t.d.g.d.d.d.i.d.d.d.n.d.7.+.4.6.6.d.d.e.+.u.i.t.d.y.t.i.t.$.] t.c.d.v.d.d.a.t.d.d.d.i.i.i.d.i.i.u.t.t.t.7.t.7.$.t.7.| 6.t.u.t.t.t.t.$.t...+.t.t.4.6.4.2.4.s.a.t.t.t.7.t.t.t.a.p.4.4.4.<.| 4.6.4.} | o.#.+.7.7.7.#.7.| ..e.e.t.t.t.t.t.y.t.t.$.e.t.t.t.t.t.t.t.7.$.7.t.7.t.t...+.t.t.t.y.t.t.$.t.4.} 6.7.| | 1.| } | 7.7.@.+.@.@.o.+.+.@...` ( _ | | +.4._ _ | +.6.6.@.+.+.| _ _ +.#.| ` } | +.| { | @.+.{ ` { { _ { { Q Q _ { { } Q U W } _ _ R R Q { _ U W R U F Z U V V W R W W U E R Q ) Q U S B x B l V S c l f F V E W E U S ",
"W W ) W W U Q U c S ) R R _ } _ _ _ { { 1.} } [ +.| 4.1._ _ ..} } { } | _ R } ` ' { K H T b l x S V V M M F W S U W R ` { ` { { [ { | { Q U R Q _ .._ R | ..| ' ` ` +...{ R ` +.+.+.o.+.+.O.+...` ..+.+.@.@.+.@.+.+.#.@.#.#.+.@.+.{ | 7.7.7.7.@.#.e.+.| e.t.7.4.4.4.1.4.t.t.t.t.t.u.t.t.t.t.u.e.6.6.4...6.t.7.+.7.t.t.t.7.e.t.t.t.4.+.p.e.+.#.7.#.#.7.t.7.t.t.$.$.i.u.i.&.e.e.t.t.i.t.t.t.+.@.t.7.t.a.t.y.y.a.7.+.a.a.7.7.r.7.t.c.n.g.n.v.d.d.v.d.d.c.v.u.7.#.7.#.u.d.7.$.d.i.i.i.u.d.d.d.u.#.i.d.n.d.u.u.a.d.d.i.g.d.d.d.n.d.d.d.i.i.d.i.i.d.n.n.d.7.u.M.M.v.n.n.v.n.M.t.p.C.D.p.p.r.p.g.M.v.g.g.n.n.J.n.n.n.J.Z.s.e.t.e.t.v.M.t.e.g.M.n.M.M.g.n.D.t.#.d.n.d.g.g.d.i.i.d.g.g.i.u.d.v.i.u.u.u.u.u.u.i.i.i.t.6.+.a.a.i.i.t.u.d.i.t.#.t.n.t.7.t.7.e.a.v.g.v.d.i.d.v.d.g.v.n.d.7.@.9.6.s.g.e.+.d.u.t.t.t.y.i.*.e.O.i.c.d.d.d.n.d.i.i.d.d.d.d.i.i.d.d.t.t.d.t.t.a.t.u.t.7...7.t.i.t.t.t.t.t.a...+.a.t.6.6.4.1.r.a.i.t.7.7.e.d.t.t.e.t.7.7.<.,.2.6.4.4.| 1.6.7.#.7.6.+.+.t.+...7.$.$.t.a.a.y.a.t.t.e.t.t.t.t.t.t.t.t.t.$.e.t.t.t.t.+.+.t.i.t.t.t.7.t.a.4.{ 7.7.| 1.4.| ..7.t.7.#.@.@.@.@.+.+.+.+.@.' R _ } | 4._ ' +.| ..| | @.@.+.} _ +.+.+.+.| } ....+.| +.| ` } { ` _ _ ( T Q { { ! _ W U Q } _ _ R W W _ _ U W ) E U Z U S U R W U T T W U W W U W W V B l l x c S S f F U E F E U S ",
"W Q Q _ Q W U W c c R R _ _ _ } } _ { } } } 1.| | 1.<._ _ { | { | { { { Q W { { ` ( R b b S h x F z f f V E W U R T R ( _ } { { { { } _ ) W U W _ { R R { +.| _ ( _ | +.{ T ( +.+.O.O.O.+.+.+.+.+.] | +.+.#.7.@.+.+.#.$.#.#.#.@...} +.7.$.7.7.@.@.e.+.| 7.7.7.9.1.1.6.a.t.t.7.t.t.t.t.t.t.t.t.t.7.+.+.+.+.p.7.+.t.t.7.7.7.t.7.t.t.+.4.t.t.$.7.6.@.#.@.#.#.7.6.#.$.t.i.t.$.$.#.t.t.t.t.a.t.| 6.t.t.t.q.t.t.t.d.6.6.d.a.7.7.7.t.n.d.d.v.n.c.d.d.d.c.c.d.d.n.d.6.6.7.t.d.$.7.d.i.u.*.t.i.i.v.u.#.t.d.d.d.d.u.t.i.i.g.d.d.i.d.d.d.i.t.t.u.u.i.d.n.n.n.n.$.d.n.n.v.v.n.v.v.D.p.t.A.z.p.r.e.g.n.g.g.g.g.n.n.n.n.M.n.n.n.n.p.7.e.t.f.M.t.e.z.n.M.J.n.v.v.D.t.6.d.v.v.v.g.g.i.u.i.i.u.u.i.d.v.d.u.t.t.t.u.t.i.i.t.t.6.+.s.a.i.y.i.t.i.i.t.#.d.n.t.e.7.7.d.d.d.d.v.d.d.d.v.n.n.d.v.n.d.6.6.e.t.d.e.+.a.i.*.$.t.t.y.u.7.+.t.c.i.i.d.d.c.c.d.t.i.d.d.d.g.i.i.t.u.d.t.$.t.a.*.t.7.] e.a.t.t.t.q.t.t.a.+.+.t.t.6.1...t.a.t.t.t.7.6.e.t.a.a.7.q.e.p.4.1.} 4.7.7.} +.e.7.7.6.+.@.@.7.....6.7.#.7.t.a.a.t.t.t.t.t.7.t.t.t.t.t.t.t.t.t.t.t.t.7.+.@.t.t.t.t.7.7.t.t.4.| 7.6...4.<.| 6.t.7.6.7.#.+.+.@.+.| +.+.+.+._ R ( | +._ { +.] ` } ..+.+.@.{ _ | +.+.4.+.| | | | | { { { { { { { R T W ) ( _ Q ( W E R } _ R Q R T Q ) U U Q R W F S U R T U S U R T H S S U U W E S h l M c U V B U U U V F V U ",
"Q Q W ) Q W W Q H c U Q } _ { { { { | } _ _ } { [ _ ) R } } } | 4.} _ | Q W } | ` R ( b b S h x F x f V Q R Q W E R _ Q _ ( _ _ { { { } | ) U U _ } R R { | | ' } { | } _ R ( +.+.O.+.+.@.#.+.+.+.+.+.| | #.7.+.+.@.@.#.#.#.$.#.| | 7.7.@.7.7.#.#.7.+.| 7.t.7.6.1.4.p.a.t.t.t.t.t.t.t.t.t.t.7.t.t.6...+.7.s.6.+.t.t.$.7.t.t.$.t.t.@.6.a.7.t.t.t.$.t.#.7.$.t.7.7.$.t.t.t.&.e.t.e.t.u.t.a.t.| 6.t.t.t.t.a.t.t.s.6.7.k.t.6.7.t.d.n.d.d.d.n.d.i.i.i.d.c.d.n.d.n.d.e.$.u.g.7.7.g.i.t.t.i.u.d.v.t.+.*.d.i.i.g.a.i.i.v.d.d.d.t.t.a.d.u.u.i.t.t.t.n.c.d.n.d.$.d.M.v.v.n.v.n.n.J.p.p.C.g.e.p.d.M.n.n.n.n.g.n.n.g.n.M.n.n.n.M.g.t.e.t.g.M.e.e.D.n.M.P.n.n.n.D.a.7.d.v.d.d.g.n.d.i.i.i.u.i.g.v.v.g.d.i.u.i.i.t.i.u.t.i.7.@.s.d.i.t.t.t.i.d.t.$.d.g.t.7.7.s.v.v.d.d.v.v.d.i.i.i.d.d.n.n.n.s.7.6.t.n.t.+.s.i.t.t.t.t.t.i.q.X.$.i.i.d.d.i.n.n.v.a.u.t.a.d.d.t.t.u.d.a.t.$.e.u.t.t.e.| e.d.t.u.t.t.i.t.a.6.@.a.e.+...7.d.i.t.t.t.7.a.7.7.a.t.q.a.7.t.t.r.| +.t.e.| 6.e.6.7.#.@.7.#.6.| +.e.t.7.e.7.e.t.t.t.t.t.7.7.t.$.t.t.t.t.t.i.i.t.&.$.t.+.#.t.t.t.t.7.t.t.7.4.| 7.7.| 1.4.7.t.e.6.6.@.@.@.+.@.+.| +.+.+.6.+.( ( +.4._ } 4.| ' ..+.| +.+.{ R ` | | { 4...} _ { { { { { ` { _ _ R R { _ R ( R R _ U W [ ( R _ _ W R W S W Q R F S F W ( U U S U Q W Q U U Q U W R W x f f S W Z S E S S S F V E ",
"W W W W E U Q Q U c T ( } { _ _ [ { } | } Q _ } <._ _ _ 1.| | } | { ` { Q W _ { ` ! ( R T V f l S c b W _ _ _ R W R _ ( Q R R _ } } { { } { ( Q { | ( T { { { ` } +.+._ R T { +.O.O.+.#.#.#.@.| | +.#.+.+.$.#.| +.#.@.+.#.#.#.6.| | 7.7.#.#.#.7.7.6.| | 7.t.6...4.t.s.t.t.t.e.e.e.t.t.t.t.t.t.t.t.t.+.@.t.t.7...e.t.7.t.t.t.t.t.6.4.4.a.t.t.$.t.t.t.t.t.$.7.t.t.$.t.t.*.t.u.t.t.t.t.t.t.7.| 6.e.t.t.t.a.t.a.t.6.7.d.p.6.p.d.d.d.d.g.d.d.d.t.t.d.i.i.d.c.d.n.n.s.$.i.n.7.7.g.d.u.u.i.i.g.d.&.+.t.t.i.i.d.d.v.d.d.d.d.t.t.t.y.y.i.i.i.t.t.t.i.d.d.d.d.$.a.M.n.v.v.c.n.M.D.r.p.C.d.e.g.M.n.v.n.n.n.g.n.v.n.g.g.d.g.v.v.n.n.t.t.f.J.t.e.D.J.M.M.d.n.n.d.t.7.d.v.d.d.d.d.c.v.d.t.i.d.d.d.v.f.d.u.d.d.d.d.u.t.t.t.6.@.i.d.i.t.t.i.d.t.t.$.t.g.e.6.s.n.v.x.v.v.d.d.d.u.t.t.u.d.d.d.n.n.t.#.t.v.t.@.a.u.t.t.t.t.i.t.$.O.$.d.d.i.d.d.c.n.v.d.d.t.t.a.t.e.a.u.i.i.7.$.t.e.t.t.7.| 7.i.i.t.t.t.d.i.a.+.+.a.e.+.6.a.i.t.i.i.u.7.t.7.6.6.e.e.t.t.t.u.s.4.+.7.r.....7.7.@.6.6.#.7.e.| | t.t.t.t.e.7.6.6.t.t.t.t.7.$.$.e.t.7.$.t.y.t.$.$.$.t.+.#.t.t.7.7.t.t.t.7.+.| e.e.| ..7.t.t.6.#.#.+.+.@.+.| | | | +.+.+.@.| { @.4._ } 4.| o.+...+.+.} R ( } _ ' } } { { _ } _ { } { _ { _ ) ) { } Q R R Q Q R U W ) Q ! ) ) Q Q U S U Q U x V E W R R W b W U R W W E U W R R W F B f S E V l U U S V F F U ",
"S U Q U W W W S S S ( R _ ( R ) | { } 4.| } } 4.4.+.1.} | | | _ _ { | } ) T R _ { ` _ R H x f f S H ( R W R R Q _ Q _ } ( W Q | ..{ | | } | ..{ { | ( R _ ' | | ..+.| ( R Q | +.+.+.] +.@.@.+.| ..+.@.#.+.+.@.+.+.+.+.+.@.$.#.6...{ +.7.t.7.6.t.7.+.{ | e.t.6.#.p.d.t.t.t.t.7.7.t.t.e.a.t.e.e.7.t.t.7.e.t.t.e...@.7.t.i.t.a.t.7.+.4.@.t.i.t.t.t.q.t.$.#.#.$.t.t.$.t.t.$.*.u.t.i.t.t.t.t.7...6.7.t.a.t.a.a.t.7.7.7.d.a.a.d.v.d.d.d.d.i.c.u.u.i.i.i.d.a.d.d.i.d.d.u.d.n.e.7.a.d.v.i.i.d.v.t.$.#.i.y.d.d.d.d.d.i.t.i.d.i.d.d.i.i.c.i.i.d.i.t.i.d.d.d.i.t.i.n.v.c.v.g.n.n.D.r.r.D.d.d.M.M.v.n.v.g.v.n.g.g.n.n.d.d.g.v.n.n.M.n.i.f.M.e.e.z.n.n.D.n.n.g.t.t.t.i.v.g.d.i.u.d.n.c.i.i.d.d.d.v.f.d.d.i.u.i.i.u.u.i.t.6.6.a.t.y.d.t.d.i.e.7.$.t.n.s.t.d.v.d.d.f.d.d.d.d.d.u.i.g.d.d.g.g.n.d.t.u.d.a.6.a.t.t.i.i.y.i.#.@.@.y.n.v.i.d.d.d.d.i.d.n.d.d.d.u.t.d.t.i.t.t.e.t.7.e.t.7...7.t.i.i.a.y.a.t.t.@.+.a.t.7.a.i.i.t.i.u.a.s.t.t.7.6.p.t.t.t.t.e.e.7.7.e.p...| 4.@.6.t.#.#.7.6.{ | e.t.t.t.t.e.6.6.t.s.t.t.7.t.t.t.t.$.$.t.t.t.t.t.t.t.@.#.7.t.q.t.t.t.7.6.+...e.t.@.6.7.7.7.6.7.#.@.@.@.+.| +.+.` +.@.| o.@.@.@.+._ _ | +.+.| ..+.| R T _ | } | | } { { | | ) _ { { { { { { ) { { R T W _ _ Q W W W R { Q ) _ Q U S U Q S x U ) T W W W W R U R T ) W U U U U W W U V U E V f B E U B F U U ",
"B x F W Q W B f c c T ( ) R ( ) [ | } | | { 4.o.4.+.+.} { ..| _ ( _ } <.Q W R R _ } Q b c h f f x U Q T U c S E R _ { | ` _ } | | ..+.| +.| | | | { R Q } _ ` +.#.| ( _ _ ( { +.+.+.` ] +.+.+.+...| +.+...+.@.#.@...+.#.7.#.7.7...} | +.7.7.e.e.+.+.....e.t.7.t.a.a.t.t.t.e.e.t.t.y.d.d.t.7.7.t.t.t.t.t.t.t.7.{ 4.6.6.s.a.t.#.+.6.7...t.d.t.t.t.#.7.#.7.#.7.$.$.$.t.$.*.$.*.u.i.a.t.$.t.7.| 7.7.#.s.a.s.7.6.t.7.t.d.y.d.a.d.d.v.d.v.v.v.x.d.u.i.d.d.a.i.i.d.i.d.g.d.n.7.6.s.&.u.d.f.d.t.$.t.#.t.d.d.i.d.d.i.t.t.t.i.d.c.i.d.i.d.i.u.d.i.t.t.v.g.g.d.$.d.g.u.d.M.v.d.i.d.p.r.g.v.M.n.n.n.v.f.d.g.n.g.g.n.v.g.g.g.v.n.n.n.M.v.d.v.e.e.d.t.i.D.n.g.t.t.p.7.i.v.d.d.u.u.i.d.c.i.i.d.v.g.d.d.d.d.u.t.t.t.i.u.t.t.#.#.u.#.$.v.d.t.$.7.t.#.i.n.d.d.d.d.v.i.u.i.v.d.d.i.d.d.v.v.v.d.d.d.n.d.i.d.a.6.a.t.$.t.g.i.$.O.q.+.y.v.d.c.d.d.d.a.d.i.d.d.d.t.d.d.i.t.t.t.t.t.t.e.t.e.7.| e.t.#.s.g.a.e.$.t.6.+.a.t.t.s.t.t.t.i.t.t.a.d.t.a.t.s.a.t.t.t.7.e.e.7.t.p.| +.4.{ 7.7.7.e.+.{ | | 6.e.t.e.7.t.t.7.t.t.i.t.t.t.u.t.*.$.$.t.t.t.t.t.t.t.+.#.#.#.t.t.t.t.@.+.4.| 7.t.7.e.6.@.#.7.@.@.#.#.@.+.+.+.@.+.] ..{ | @.o.@.+.( _ | ' | @.+.} R T R R } | | ....{ { { | } ( _ | 4.} _ { _ { { R T ) Q _ _ U W W U Q { [ Q R E F U R U W W R W R W R W R U U R Q W E S S U U U W W W S V d M B F F U U V ",
"B f B F R W h l S c U _ _ ( } ) _ | | | { [ 4.o.+.| } | | o.+.} } { { { Q Q _ U R ( R c S S l f l T Q R W U W U W _ { ' R _ | { { | { { | } ` { ` _ R R { ( _ } | _ _ ..} ( { +.+.+.` ` +.+.#.6.+.+.+.+.#.$.#.7.#.+.#.e.e.$.7.7.| } 4...| 7.t.7.{ @.7...6.t.t.t.t.7.e.t.t.t.t.t.q.t.a.i.i.e.e.t.7.t.t.t.t.a.6.| 7.4.| r.t.e.+.+.p.7.+.7.t.t.7.7.7.#.t.t.q.t.7.@.$.t.#.*.$.t.t.i.t.t.t.t.7.| t.e.+.s.a.t.6.e.d.7.7.d.i.i.t.t.t.u.u.d.d.d.d.d.i.c.d.d.d.i.i.v.d.g.n.v.g.#.6.d.#.@.i.v.t.+.t.t.+.t.i.u.t.i.d.d.t.i.t.i.d.c.d.v.d.t.t.t.u.t.t.i.d.d.n.d.$.d.v.$.t.M.n.t.t.g.p.p.g.J.M.g.v.M.n.n.v.v.n.n.n.n.n.n.n.g.n.M.M.n.n.f.f.n.e.e.g.e.7.d.D.u.$.a.d.$.i.v.d.i.i.d.i.i.v.d.u.d.v.d.d.d.d.i.i.u.t.t.u.t.t.i.#.#.i.#.+.d.d.7.@.d.s.$.u.n.i.g.g.v.n.u.u.d.v.d.v.i.d.d.i.d.d.i.d.a.g.d.g.g.t.#.a.d.#.#.d.t.O.$.t.+.t.v.i.d.i.d.c.a.d.i.u.g.a.t.i.d.u.u.t.t.i.t.t.t.t.$.6.+.t.t...6.d.t.+.7.s.6.+.s.t.i.s.7.t.t.i.t.t.t.i.t.a.t.t.t.7.t.t.t.s.t.e.t.e.} +.7.....7.6.@.} | 4.+.@.7.7.7.7.t.t.e.e.t.t.t.t.t.t.*.*.t.t.e.t.t.t.$.t.t.+.#.7.#.7.t.u.7...6.6.| 6.t.7.@.4.4.@.#.#.@.@.+.+.@.@.+.+.| ` +.| o.@.| @.4._ } 4.( } +.} T U _ ( T _ ..| { { { | { | | _ } o.` _ Q _ { { _ ) ( _ R ) Q U Q ) b E Q Q U E Q W U Q _ _ R W U E R ( U W U R Q Q E U U E U U S U S V z F B A f A V F B B ",
"B l l l U c c V S c U R Q _ } _ _ | ..} } } } | 4.{ { } | | | | 4.{ { _ R _ } _ ( U U c U W h f c U ( Q ( ( _ ( ( _ ` R ( _ ` ` ` _ _ ` } ` | } ` } R U { ' ( R ) _ ` +._ R | +.+.+.| | | +.+.#.$.#.@.#.7.7.#.@.#.#.#.#.7.7.7.6.{ } 6.6.+.+.6.+...t.7.| 7.t.$.t.7.#.#.t.t.t.t.t.6.6.t.t.t.t.e.e.t.t.t.t.t.u.6.' 7.t.6...4.6...7.t.7.+.7.6.$.$.7.6.6.7.t.t.i.$.#.@.$.$.$.$.t.t.t.7.t.t.t.e.| 7.a.#.6.t.7.#.a.d.6.6.a.i.y.y.t.t.t.t.t.t.u.y.u.i.d.v.d.i.i.i.i.d.n.n.d.d.#.6.a.t.+.6.t.$.t.y.t.+.t.t.t.u.t.t.a.i.a.t.y.t.d.d.d.i.t.t.i.t.i.i.t.u.u.d.i.@.i.M.t.e.g.d.t.i.D.p.e.n.M.n.g.i.g.M.M.M.n.g.n.n.n.v.v.g.n.M.M.v.i.d.d.v.n.e.e.Z.d.7.t.d.&.t.Z.t.#.i.v.i.i.d.i.d.v.v.d.i.u.d.d.d.d.i.i.v.v.i.e.t.t.t.t.#.+.i.a.7.7.e.#.t.d.t.$.t.g.d.a.i.d.d.d.x.d.d.c.d.i.y.i.i.i.u.t.d.d.a.i.g.d.7.@.a.d.t.#.e.7.$.y.t.+.t.c.i.y.a.a.d.d.a.a.d.a.u.t.y.a.a.t.u.u.t.u.d.t.$.#.6.+.t.a.7.+.e.7.$.t.a.6...t.t.u.t.7.e.7.a.i.t.#.t.t.t.t.t.7.t.t.t.t.t.a.e.$.7.} ..a.@.{ 4...{ } 7.4.| 6.7.#.#.7.e.6.7.$.e.$.$.t.*.$.%.$.t.t.t.t.*.*.*.t.t.+.#.a.t.+.7.e.@.@.7.4.{ 6.t.#.@.4.+.+.@.#.+.] ] +.+.@.+.{ ` ' { +.+.| +.#.4.( _ 4.} R ( R W [ _ R U ( } _ _ { { } { { ` { { | _ R _ _ ! _ { _ Q ( _ ( U b R _ W U V S c E Q U b W _ Q T U U W U W W U U ) Q U F E E U U U U S x c U F V U F l x V l V ",
"F F x x S l W W c x U R ( _ { { _ } } { 1.} _ } | { | { | { | | | _ _ _ W ( } | { R c R R b l f U U ( _ Q K R ( U ( ' _ ' _ ` ` ' ` ' ' } | +.| +.| R T ..#._ U } +.| +._ ( ..+.] +.+.+.| +.+.@.@.@.7.7.@.#.@.+.#.#.@.#.7.7.#.#.+.| 6.t.#.} } 6.7.t.7...7.t.7.t.7.#.7.7.7.i.t.t.7.7.t.t.t.a.t.e.e.7.t.i.t.a.7.} 7.s.t.6.1...e.t.6.6.@.7.e.#.t.t.7.7.@.$.t.t.q.t.#.$.$.*.$.t.t.&.e.t.t.t.p.| 7.d.t.@.7.6.u.d.a.6.6.d.i.t.i.d.t.t.u.d.y.u.t.u.y.i.d.i.d.g.i.u.a.d.d.i.n.e.#.d.d.t.+.7.t.c.y.e.+.t.t.i.y.i.t.y.t.t.a.t.t.t.i.d.i.d.i.x.i.d.i.t.i.i.u.t.#.u.M.M.i.t.t.d.M.n.t.e.n.M.n.g.i.g.g.g.v.v.g.n.M.n.g.d.g.M.M.d.i.u.d.v.v.v.t.e.g.n.u.t.e.t.v.n.t.#.i.v.d.v.v.i.v.M.d.d.d.u.i.v.v.u.d.d.d.d.t.#.7.t.t.t.#.#.i.v.d.#.@.t.n.a.t.$.t.n.d.i.i.t.i.v.v.d.c.n.d.u.t.i.g.i.t.u.d.d.d.d.d.u.7.+.s.d.v.t.7.t.d.i.t.+.t.d.i.i.d.a.d.d.a.i.d.a.d.i.d.a.a.t.t.i.u.u.a.e.e.7.e.+.7.d.d.7.7.6.d.d.a.#...t.d.t.s.t.7.7.s.d.a.7.t.t.t.i.t.t.t.e.e.t.e.e.6.$.e.{ ..t.7.+.| _ ..+.e.@.| 7.e.@.@.6.7.7.7.7.7.7.e.&.t.%.t.*.$.t.t.*.t.*.t.t.t...#.i.i.7.@.+.e.t.7.4.| 6.6.@.7.@.@.@.@.@.+.] | +...+...{ | ` ' ..+.+.@.@...W ( 6.| R ) R } +.` Q T ) ( Q } } Q { | ` _ { ` | { ` { { Q _ _ ( ( Q _ ( R U U } { Q U U W _ Q U b U W T U U R R S U U W U R W S U W E E U E U V V S U F M E W B f M B F ",
"V S U c x S W U c x U ) _ Q _ { } Q { _ [ } | | | | | | +.+.4.| _ R { } W W { { ` ( Q R R x f f S R _ _ ( T R U U T _ ` ` ` ] ` ` ` | _ ` | | ] +.+._ R { @.| _ +.6.| | { ( | +.+.+.+.+.+.+.+.+.+.@.+.+.6.#.@.@.+.@.#.#.#.#.#.7.+.| 6.e.#.+.+.7.$.t.7.| 6.t.7.7.t.t.t.7.7.s.u.t.e.t.7.t.t.t.t.7.7.e.e.t.t.a.7.{ 7.t.t.t.+.7.t.t.4.6.6.a.7.$.$.7.e.7.#.$.@.q.t.$.7.t.$.$.t.t.*.t.e.e.t.t.t.+.7.t.t.s.6.t.d.a.6.7.6.a.i.u.y.u.y.t.*.t.u.u.=.i.y.u.i.i.i.d.d.d.t.d.i.d.n.e.7.s.u.a.#.t.d.u.t.e.+.t.a.u.t.i.i.i.t.t.t.t.t.t.t.t.i.d.i.i.d.i.d.g.i.i.d.a.#.t.n.M.c.a.d.M.n.d.a.t.n.M.v.n.g.g.d.d.i.g.n.v.n.n.g.d.v.n.n.d.u.a.n.d.v.n.e.t.a.a.i.a.t.d.n.a.7.7.i.d.d.n.n.c.d.d.d.i.i.d.x.x.v.v.i.i.i.t.*.e.t.t.t.i.7.+.t.a.i.t.t.a.i.t.t.#.t.g.d.g.i.t.u.i.v.v.v.n.d.=.t.i.d.i.a.t.i.i.a.d.i.t.7.+.a.d.y.t.t.a.d.t.t.+.t.d.y.d.d.d.d.a.a.a.i.a.d.t.a.a.s.t.a.t.a.t.t.7.t.s.7.+.7.s.t.t.t.t.d.t.t.6...u.i.t.t.t.e.7.7.t.u.t.7.t.i.t.t.t.t.t.t.t.e.7.7.$.7.| ..7.6.+.4.| 6.@.4.| | 6.6.@.#.#.6.7.e.7.#.t.t.#.$.t.t.*.t.$.&.&.t.t.t.t.t.+.+.t.y.t.#.7.a.t.6.4.| +.6.#.@.@.6.@.+.| | | +.+...| { { ` | ` { { +.+.| | R R 4.| R ( } { { ` Q T W ) _ _ _ _ } { { _ _ { { { { _ ( Q R Q Q R R R _ ) U W ( R _ _ _ _ { W S S E U U U W T R U S S W W W S U U E U U E U S U U V U F l F W S l Z F V ",
"x S W S S U W c x x U _ { ( _ { { { { ( { <.{ | 4.{ _ { +.| 4.{ { { +.| W W _ _ ` ` { ( c h x f x R R Q } { _ R R K _ ` ` ] ` ` o.o.| | ` ` { | +.| _ Q ` ` +.` | | _ | | _ | ..+.+...+.#.+.+.+.@.4.| | 7.7.6.7.#.@.#.#.#.@.7.t.6.| 4.+.@.t.t.e.+.$.7...6.t.$.#.t.t.t.t.t.t.7.@.7.t.7.t.t.t.t.e.t.t.7.t.u.a.6.} e.7.6.e.t.d.7.#.6.6.6.a.7.t.#.#.&.t.t.q.7.t.t.@.#.t.$.$.t.t.t.i.t.t.u.i.t.#.e.e.$.d.t.d.a.e.@.e.+.t.t.i.y.y.y.t.$.@.*.y.u.u.i.y.i.d.i.d.g.d.d.d.i.g.n.e.7.u.e.t.u.g.i.$.&.e.+.t.i.i.y.i.y.i.t.t.t.7.t.t.$.t.d.d.i.d.d.i.d.g.d.g.n.g.7.t.g.d.d.D.n.n.u.s.a.p.g.n.g.M.v.v.n.v.d.g.n.n.n.n.v.n.v.v.v.v.d.n.n.i.v.g.e.t.s.7.e.g.M.d.t.t.t.7.a.d.d.d.d.d.d.v.d.i.d.d.t.t.d.v.i.i.i.u.i.i.d.t.t.i.7.+.t.t.7.u.n.a.$.$.t.7.t.d.i.d.d.i.i.i.d.v.n.v.d.u.t.d.d.d.d.i.t.u.d.d.i.t.t.+.t.a.7.7.a.d.t.#.t.@.t.d.i.t.d.d.d.a.a.a.a.a.a.7.7.s.s.t.s.a.t.a.d.t.s.a.p.+.7.e.7.e.d.d.a.#.7.6.+.t.t.t.e.t.s.7.6.e.7.7.t.i.i.t.d.t.t.t.t.t.t.7.t.7.7.....6.....e.7.6.| | { | 7.@.#.e.6.6.7.t.$.$.t.t.+.@.t.t.t.$.$.t.t.t.t.$.t.t...+.7.t.t.t.a.t.+.#.7.| +.7.#.6.6.+.{ | { | o.+.o.+...| | ` | ..{ { +.| ` 4._ R | | ( } ..{ T R _ R R } ` ! } } _ } { _ { } Q _ { _ ( Q W Q ) R Q Q [ _ W Q W H Q { } Q Q U V U R U W R Q U R T c S W U W U Q U U U U W U V U V z W E B V E S S W F l ",
"x x V W R S S x S x U ) ` { { { | { _ ( | } W _ ..{ _ R } } } _ | | { +._ Q _ R ( } _ U c x l s x U R R { { ( T R ( R ` _ _ ` ] ] | o.` { { | @.+._ ( _ ( L ` ` _ Q _ | } ) | { ` | | +.+.+.+.+.#.@.| } +.7.7.#.#.#.#.#.#.6.7.t.7.| +.....7.7.+...7.6...6.7.#.7.t.t.t.t.t.t.#.6.6.7.e.t.e.t.7.t.t.t.t.a.t.t.4.} 7.6...6.p.t.+.+.7.7.@.a.t.*.$.t.$.t.q.t.t.t.#.+.+.7.t.t.*.t.u.u.y.u.t.i.t.@.t.t.#.7.s.d.7.#.7.p.+.t.y.t.y.y.y.u.t.*.%.*.u.u.y.u.i.d.d.g.d.d.d.a.a.i.n.t.#.u.$.@.i.v.t.+.$.t.+.t.t.d.i.y.t.i.i.t.t.t.i.t.6.t.d.d.i.d.d.d.i.d.g.n.M.g.7.u.g.t.t.n.n.a.e.a.s.e.g.n.v.v.v.n.n.n.g.g.v.n.n.n.n.v.n.n.v.d.v.v.n.d.d.d.7.t.s.6.#.a.D.s.#.t.t.$.i.g.i.u.i.d.v.v.i.d.v.t.#.7.t.*.i.d.y.y.i.u.u.u.t.t.7.#.t.6.+.e.d.t...7.i.#.t.n.d.i.d.d.d.i.d.v.n.x.i.i.i.i.i.v.c.i.d.d.g.a.u.u.t.+.t.t.@.+.a.a.@.@.a.#.7.d.u.t.a.a.d.d.a.a.d.s.7.6.4.0.s.a.a.t.t.s.d.d.a.t.a...7.7.6.#.s.d.7.+.t.6.+.t.t.t.t.t.a.t.t.7.e.t.d.t.t.d.d.d.t.e.t.t.t.t.7.t.e.| ..6.} } 7.t.+._ | | | 6.7.#.7.7.e.7.7.$.t.t.#.+.+.#.t.*.$.7.7.t.t.t.t.*.t...+.7.#.@.7.a.6.| 6.6.{ +.7.6.6.@.| { +.+.{ ` { +.@.#.@.| ' { | { { } ` ] .._ _ | ( ( ....( b W ) U _ | { { { _ { _ ( _ | { W W _ { ( R Q W W ) { } } W U Q Q S U ) Q W U S F U W U W U R R R U U S E S U W W E U R W U S V Z V E W F M Z B B V F B l ",
"x l x W U x x S W c S W } { | { { [ } { } ) W Q [ | | { { | { } ..| { +.{ R } ( R ( R c U c x l c U R R ( _ T U _ _ ( _ ^ _ +.X.] ] o.| | { { | ' R ( } _ K _ } _ R } ..} ( | | ' ] +.O.+.+.@.@.@.| | | | 4.7.7.$.$.$.#.7.t.$.t.#.| 6.6.....| ..+.7.4...6.7.$.t.t.t.t.t.t.t.t.t.7.7.t.t.7.7.7.t.7.t.s.p.e.t.6.| 7.6.+.4.4.7.#.6.e.6.@.t.t.t.i.t.7.q.q.t.t.7.+.4.@.6.7.t.t.u.y.y.t.u.u.i.t.#.t.s.6.6.7.t.7.6.t.p.@.t.i.t.t.y.y.i.d.d.t.u.t.i.u.d.i.d.d.f.d.d.a.d.a.u.n.e.#.s.$.#.e.t.7.+.t.t.+.t.t.u.t.y.y.i.i.i.t.i.t.6.7.t.t.d.v.v.d.d.d.g.v.d.g.d.7.a.g.t.7.d.g.t.r.d.s.e.n.M.v.n.n.v.d.n.v.n.v.v.v.M.v.g.n.M.n.d.g.n.g.i.d.g.7.t.d.e.6.7.s.e.#.a.a.$.a.n.i.i.i.v.n.c.d.d.i.7.6.t.7.@.t.d.i.u.t.t.t.t.y.a.7.#.a.e.....e.6.+.t.a.@.t.d.i.d.d.d.g.d.d.v.d.u.d.i.d.t.i.i.d.d.d.a.a.t.t.d.p...t.e...+.7.r.+.6.s.@.e.d.a.t.t.u.d.a.a.a.a.e.0.6.6.4.t.a.a.t.a.t.a.a.t.a.e.4.7.t.7...r.7.@.#.a.7.+.u.u.i.d.a.a.a.t.t.a.t.a.t.i.i.d.t.$.t.s.t.t.t.7.e.7.| ..4.| } 1.6.| _ 6.1.{ 6.t.$.e.e.t.7.#.&.t.#.+.4.#.+.7.t.t.$.q.t.t.t.q.t.t.| 4.7.6...4.e.4.+.7.6.{ 4.7.@.+.+.@.@.6.4.| ` { o.@.@.| { ..| { { | } _ | } ) } _ T ( } } W U ) ) T { } { _ _ { { Q _ { { Q W W _ } { Q Q R W ) _ ) R U U _ ) U U U F F F F U U ) { Q U R Q W S E U W S S S W Q W W E V S F V S Q Z f m B l l l B x B ",
"B l l V x l S S U c S W ( ( _ ( _ { { { Q Q ,.[ ) Q } | +.{ | } { | | +._ ( } ` R U T b b c S x S S b R _ Q Q R R _ ` L R { o.o.+.{ ` | | _ } _ _ _ R _ ` R R Q ( ( _ ..| R } @.+...O.@.@.+.7.@.{ } ....| | 4.t.7.#.#.#.7.t.t.7.+.| 7.7...} | ....7.6...6.t.7.q.t.t.t.t.t.t.t.t.t.t.t.t.t.t.7.7.7.t.t.7.e.t.6.} 7.6.4.+...6.4.e.r.6.@.a.t.7.t.t.$.q.t.t.#.+.4.6.@.6.@.7.t.u.t.t.*.t.i.i.t.#.t.u.7.6.4.6.6.7.7.e.6.t.i.t.*.y.u.i.=.i.u.i.t.u.u.d.i.d.d.d.d.d.d.n.d.i.d.7.#.p.e.7.#.7.#.#.t.t.+.t.t.e.e.y.i.i.t.i.t.7.+.7.e.t.7.t.v.v.d.c.v.n.g.i.i.d.7.s.g.t.7.p.p.e.7.s.s.t.n.n.v.M.n.d.d.n.n.n.n.n.g.v.n.M.n.n.v.d.d.v.d.d.v.d.7.e.d.e.6.6.7.6.6.a.a.t.d.n.d.d.v.c.d.v.n.i.7.6.7.7.7.6.7.i.x.u.t.*.t.t.i.d.7.+.p.t.+...4.4.#.t.t.#.7.a.i.i.d.d.d.d.g.d.t.=.d.d.i.i.u.t.i.i.i.t.t.t.t.d.a.+.7.7.+.1.4.4.4.4.t.7.t.d.t.t.u.s.a.i.g.a.t.6.7.4.4.1.4.t.a.t.t.t.a.t.t.a.t.+.7.p.7.4.6.+.6.@.e.7.+.t.i.d.d.d.d.t.t.t.t.i.d.a.t.i.a.7.7.t.t.t.t.7.7.#.7.| | 6.| } <.} | | 6.4.{ 7.t.t.t.7.7.#.t.t.#.+.+.+.@.4.#.e.u.t.i.t.t.t.7.t.t.| +.7.6.| 1.4.4.+.4.4.| @.7.+.+.@.5.@.+.@.4.| _ ` | ' { | | | { +.+.} _ } } ) ( ) ) R R R W W W R W _ { ( R _ { _ _ { _ W W Q W W ( } { Q W Q R Q R R W W W Q U U U U S E S S ) } | } ) R U W R W U W W S V U E W F Z V U F E S S l M B Z M B M M l B ",
"A B l l f l S U S b U Q R U R Q | { { ) ( _ | _ R W [ | +.| +.| { | +.+._ ( } ` R U W b c S x f S c c W ( _ } ( R ` { ` ` +.o.@.@.| ` | | | ..` | | L _ | ( R T ( ( ( ..| ( | 6.+.| o.@.$.#.@.| { } ....| | ..6.7.7.#.#.@.t.t.7.#...7.6...| 1...| 7.7.+.e.t.7.7.t.t.t.t.t.t.t.t.t.t.7.t.i.i.t.t.t.e.t.e.t.a.6.| t.6.....6.6.4.e.7.7.6.d.$.+.@.7.e.u.t.6.+.4.4.6.@.6.#.7.$.t.*.*.*.u.t.d.t.$.t.t.7.@.6.6.6.e.7.7.#.a.y.*.=.u.u.u.i.d.i.i.u.u.i.i.d.v.d.d.d.n.d.a.u.i.g.e.#.s.e.7.6.6.+.6.e.t.+.t.t.$.$.a.y.i.i.s.6.+.4.r.e.p.t.e.t.d.v.g.d.d.d.d.d.d.7.s.d.t.e.e.e.e.7.p.s.a.n.D.n.J.g.s.d.n.n.n.M.M.d.i.d.n.n.n.d.d.d.d.d.v.n.d.e.t.d.7.6.6.4.7.7.p.a.t.n.n.i.v.v.d.c.g.d.t.7.7.7.7.t.t.e.u.v.i.t.t.t.t.i.a.7.#.a.e.+.4.4.6.6.6.s.#.7.d.d.i.i.d.d.f.n.d.t.t.i.d.d.i.t.d.d.t.a.s.t.t.d.d.a.+.7.7.4.1.4.4.6.4.r.7.a.a.t.i.d.y.a.a.a.7.6.7.7.4...4...7.s.a.s.u.t.a.t.s.s.+.0.p.6.6.4.4.7.+.6.7.#.t.d.u.s.s.t.t.u.t.t.d.n.t.t.d.t.7.6.t.t.t.t.7.7.$.t.1.} 6...} | [ 1.| 4.4.| 7.t.7.$.#.e.t.t.$...| 4.+.+.6.@.#.t.y.t.$.$.7.t.t.t...4.7.4...1.1.4.| 4.4.| 4.@.+.6.6.@.@.+.@.7.@.{ } | { | +.| | | | { } } { ..) R ) W U U U W R W ) U R } ( _ { _ _ _ _ R U Q ) W W R _ _ _ ) ) Q Q _ } ) Q W Q U S W W F U F S ) } Q R T T U U ) R U W ) W V U V U F B S W U W V x M F V F B C M n f B ",
"B V B f l l x S c U ) ( T b T _ { } { W Q _ Q Q ) Q Q _ | +.+.| 4.| ..+._ ( } ( R R U b S x t w x c c U ( _ ` _ R _ _ ` o.| +.@.@.| | } | 4.4.{ { { R _ ` R R R R R ( | } R } @.+.' ` ] #.@.{ _ } | | } | | } | 4.t.$.+.+.#.e.t.@...7.+.| 4.| | ..6.@.+.7.t.t.t.7.7.7.t.t.t.i.t.$.#.7.t.t.a.i.t.t.a.t.t.t.t.7.| e.4...1...4.+.7.a.7.#.d.t.+.@.q.t.i.#.+.4.7.4.4.@.7.7.6.#.q.t.t.t.t.t.u.t.@.t.t.#.6.6.6.6.6.e.7.+.t.y.u.y.u.u.i.x.c.u.t.u.u.u.i.i.d.d.d.d.d.s.u.t.d.Z.7.#.p.e.#.6.7.6.+.e.t.+.t.t.$.t.t.y.d.i.t.4.4.9.0.0.r.t.7.6.t.g.v.i.i.i.d.g.d.7.s.d.e.7.p.r.0.7.p.t.p.D.D.n.D.d.a.d.n.n.n.n.n.d.d.d.d.g.d.d.v.d.d.d.d.v.n.7.e.s.7.6.7.7.6.6.p.u.$.d.n.d.d.d.v.v.i.t.t.t.t.7.7.t.t.7.7.t.d.i.i.d.i.t.a.7.#.t.6...4.6.4.6.6.t.#.7.d.d.d.d.d.d.d.v.d.d.i.a.u.i.i.d.a.a.t.a.t.t.t.t.d.a.+.7.7...1.4.4.4.4.r.+.7.a.y.y.i.i.a.t.6.4.6.7.7.4...| 4.4.7.a.d.t.t.t.s.u.a.@.7.p.6.4.6.4.6.+.7.#.+.t.u.u.u.t.a.t.a.t.a.d.t.u.d.t.e.7.7.t.t.7.e.t.t.t.t.| | 6.| [ | ,.| } 4.4.| 7.7.+.+.#.t.t.6...| ....+.4.+.+.@.@.7.t.$.$.7.7.t.7.| 4.7...| 1.4.1.| 4.| | 4.4.@.@.@.@.@.#.#.+.+.+.| { | +.o.+.| { _ { | ` | +.R R Q R W S W E E ) W S R _ { { _ { } _ W U W Q Q ) Q W W R _ _ ) ) _ Q { _ W Q R S U U E E U S S E R R U E E S U E W W R Q U V Z F U V F B S W U V S Z A B V V M f M f f ",
"M V x f B l x U S b _ ( b U ( _ { { _ R Q Q Q Q ) Q ) ) | ..4.4.+...{ +._ ( | ( R W S b b x t e A c k U { _ _ _ ( R ( _ o.+.#.@.o.o.@.{ { ..{ { { | ` { | ( _ ( R R ( _ [ ( _ +...' ` { ..| _ { ....} | ..4.| | ..7.t.$...@.t.t.#...6.+...4.| | 1.4.4.+.7.t.t.7.#.7.t.t.t.t.i.t.#.6.t.i.t.a.t.t.t.a.t.u.e.t.7.} 6.4.+.4.| 4.4.4.e.6.#.d.t.7.t.i.t.7.+.4.6.6.@.4.4.6.7.7.6.7.u.d.u.t.u.u.t.$.t.t.$.7.6.r.6.7.e.7.@.t.d.d.u.i.i.v.i.i.*.*.i.i.t.i.i.d.v.g.u.s.t.d.g.d.Z.e.6.e.e.6.6.r.6.#.e.t.#.t.t.u.t.t.i.d.t.7.8.7.7.0.7.r.r.r.7.e.a.g.g.g.a.d.n.d.7.s.d.e.e.p.r.0.r.s.r.r.D.D.D.g.d.n.n.n.n.M.n.g.g.M.n.g.g.g.g.g.g.v.n.d.v.D.e.7.a.7.6.9.7.6.6.s.a.$.i.n.f.d.v.n.d.t.t.a.t.t.t.t.t.e.7.6.e.i.d.i.i.i.i.a.7.+.7.#...4.6.4.6.6.7.#.t.a.a.n.v.d.d.d.d.g.n.d.a.t.u.a.v.a.d.a.t.t.a.t.t.i.t.+.t.7...1.4.1.4.6.7...#.a.a.t.t.a.a.7.4.4.7.6.6.7.6.+.4.4.6.7.t.t.a.t.d.i.a.6.7.t.4.4.7.4.4.+.7.#.+.e.t.i.d.a.d.u.t.d.d.t.t.u.t.t.7.e.a.t.t.t.7.7.6.e.r.| ..4.} } 1.<.} | 4.4.| 7.7.+.#.7.t.6...| ..+.| 4.4.+.6.+.+.@.t.t.t.e.#.t.&.| +.4...| 1.1.<.1.4.<.| +.7.@.@.6.6.@.@.+.+.+.| { _ } | o.+..._ R | ..` +.| T R R ) R W W F E ) R U W ) { { | } { W U W ) Q Q Q W W W W ) { } } _ Q _ [ R Q ) U W F E W E F S S U T ) R Q S S S S U Q W V V F F E F U x V W U V W U B B Z B m m M n f ",
"V l x l M B c U c x W U U U _ _ _ _ _ ( Q R ) Q Q Q [ _ } } 4.4.4.| | ..{ _ | _ R T W b b l f y x c c Q _ _ ` _ Q R _ _ ` +.6.+.o.o.+.| { { { { ` o.{ } { _ ( ( ( Q ( { } R } +.+.| | | } _ } | | ..+.+.| 4.6.1.| +.7.e.#.7.7.t.#.| 4.4.+.4.<.| | 6.6.+.7.t.7.6.7.t.t.e.e.t.t.t.7.t.t.i.u.t.7.t.t.t.t.t.t.u.7.{ 7.4.......4.4.4.7.6.#.a.t.t.i.a.7.@.4.6.4.6.6.4.4.4.7.7.6.7.&.u.d.u.=.i.u.$.t.t.#.6.7.6.7.7.e.7.@.a.i.d.d.x.i.d.u.y.*.t.u.i.u.u.i.d.d.d.t.a.s.D.n.d.Z.e.6.p.6.7.6.9.6.#.t.t.#.t.i.i.i.d.d.t.7.7.9.7.6.0.t.t.7.r.t.p.7.u.g.n.g.d.n.d.7.s.a.t.r.p.p.r.e.d.r.7.d.D.n.g.n.n.n.v.M.M.g.g.g.g.n.n.g.n.v.d.g.n.v.g.v.g.e.e.s.7.6.9.0.7.7.d.a.$.d.n.i.v.M.d.t.t.u.t.t.t.a.a.t.7.7.7.7.7.s.d.a.t.d.a.6.+.7.+...4.4.6.+.6.7.@.t.a.u.d.d.n.g.i.d.d.n.v.u.t.i.i.d.v.d.t.t.t.i.t.t.t.t.@.e.t.+.1.4.4...7.r.| 7.a.t.i.a.a.t.6.4.4.6.7.6.6.6.4.4.4.6.+.6.t.s.a.t.a.s.6.r.7.4.6.6.6.+.@.e.6.+.t.u.u.d.d.d.t.u.d.a.t.t.t.t.t.t.t.t.t.u.t.7.6.#.6.7.| | 4.} [ <.1.| } 6.4.| 7.7.#.t.t.@.| | ..4.| ..1.+.4.4.+.4.....7.t.t.$.q.$.] @.@.| <.1.1.1.| 4.4.{ +.7.7.t.7.@.+.+.+.o.| | { { _ { +.@.| _ _ | { { +._ T ) _ R W R R W T ) R U R R R _ | { W E W W Q ) Q W W Q Q Q ) Q } } [ _ _ [ W W _ R W U U U U F S V S E _ ) Q Q U S W U U U U V F V F W U S S V U S S W F M Z l f m M M f ",
"V x x l M V S U V b E U _ R Q R Q U ) Q _ Q Q ) [ [ [ _ [ _ } 4.4.+.4.| { _ 4.' K U E b x x S h x S T _ ` ` { _ Q R _ ( _ | o.+.4.o.| +.+.| 4...' +.} R } _ ( ) ) ( _ 4.1.R } @.#.+.{ [ _ } ....| ..+.| ..4.1.| | | +.6.t.t.q.t.6.| 7.7...1.1.| | 7.7...7.t.$.7.t.a.t.t.t.t.t.t.t.u.t.a.u.7.t.t.t.s.t.t.t.a.t.+.t.7.| | 1.1...4.7.7.@.t.t.i.t.7.#.6.6.6.4.6.6.+.4.6.7.6.7.7.#.e.y.d.u.i.u.$.t.i.#.7.7.6.7.7.a.7.#.d.i.d.i.i.t.y.i.i.t.d.t.t.t.t.d.v.a.d.d.d.d.g.g.n.n.e.6.s.6.r.6.6.6.#.u.s.#.t.i.d.d.n.s.7.7.t.0.7.9.0.0.r.7.r.r.p.t.t.t.d.D.n.n.d.7.d.a.t.t.r.p.r.t.z.s.7.a.n.g.M.n.n.n.v.n.n.g.v.g.d.g.v.v.n.v.d.d.g.n.v.v.d.7.t.d.t.7.6.0.7.7.g.s.7.g.n.d.M.g.u.t.t.t.t.t.t.t.t.e.e.e.r.7.7.e.t.d.a.i.t.#.#.a.#.+.4.4.6.#.7.e.+.e.d.t.e.u.d.d.d.d.a.d.i.u.t.d.i.d.d.i.t.y.t.a.i.i.d.s.#.e.p.4.1.1.4...e.s.+.e.d.a.i.s.7.4.6.4...+.6.7.6.6.4.4.4.6.+.4.6.s.a.t.a.a.6.p.e.4.6.4.6.+.#.t.6.+.t.d.t.a.d.a.t.d.d.s.p.t.p.t.e.s.t.t.t.t.e.6.6.t.7.r.4.| 6.| } <.4.| | r.4.| 7.e.t.t.#...| 4.+.4.+.4...4.4.4.4.+.| | | 6.t.t.q.#.| @.#.....<.2.<...7.4.| 4.6.6.6.4.+.+.6.4.o.| +.+.| } } ..+.{ ` { { { | | R W } [ R Q W Q E R } ) U ) } _ _ _ Q W Q ) W W W U W ) Q ) [ Q R Q Q [ [ <.) U W ) W E W U U Q W W S U Q W W Q ) Q W R W U U W F Z F F U U U F B F V S W F M V B l M M M M ",
"V V l f M l c W U c W _ _ ( R U T W W Q ) ) _ [ ,.[ Q Q ) ) [ ) | 4.4.4._ _ +.| ( b S c c H U c b U ( _ { { } ( Q Q Q _ | ` ` { +.4.+.| +.+.+.| | +._ R | { ( ) ) ) } 4.1.( } @.@.| _ ( } | | | ..| { { +.4.} } 1.1.| ..6.t.y.t.6...7.e.4.1.1.} 4.a.7...7.t.q.t.t.t.y.y.t.t.t.t.a.t.t.a.t.t.t.a.t.a.s.s.t.s.a.@.t.t...{ 1.1...7.t.6.6.t.t.t.7.6.6.7.6.6.6.7.6.+.+.7.7.6.7.7.7.7.$.t.d.i.u.#.t.d.t.7.7.7.6.t.d.t.#.d.d.i.t.t.t.i.i.i.i.y.i.t.t.i.d.v.v.n.g.n.d.g.g.n.n.e.6.s.t.6.6.6.+.e.d.s.#.t.d.g.d.p.7.7.7.0.0.0.6.9.6.7.r.0.0.t.t.e.6.e.d.n.n.d.7.d.g.p.e.r.r.e.a.D.s.p.d.n.g.n.M.v.v.v.v.n.g.v.n.g.d.d.v.g.d.v.d.d.n.d.v.d.7.t.n.d.7.6.0.6.t.D.u.7.d.n.n.g.t.a.a.p.t.t.t.t.e.t.t.p.t.7.7.7.7.7.p.a.t.t.6.@.t.t.@...4...#.u.p.+.e.d.t.t.t.t.d.d.g.a.i.t.d.d.a.d.d.t.t.y.a.a.u.t.a.d.t.#.t.p.4.1.1.1.4.a.a.+.7.a.a.t.#.+.4.+.4.| ..4.6.6.#.4.6.4.6.4.4.4.0.a.a.a.s.6.a.s.7.4.9.4.+.e.a.#.@.t.i.i.a.t.t.a.d.d.s.t.p.p.t.t.t.t.a.a.t.7.7.7.7.t.p.4.+.7.4.} <.1.| 4.0.4...6.t.t.+...+.4.+.+.4.6.6.4.o.@.6.4...} | } | 7.t.t.7.| +.7.4.| 1.<.} 4.7.4.| 5.6.| | ..@.@.6.4.+.o.| | ....| { | | _ _ | ` ` | ) R _ } _ W E W U _ | ( T _ | [ Q W W Q Q ) R U S U W Q R ) ) W W W W Q Q [ ) U W _ U F E F U ) _ W W Q W R E W U W R E E U U U E U U F V F V V Z F V U E B M F F l f B f B ",
"F F l f M h V _ Q S Q { ) R U U W W W U W ) } [ ) W W W ) [ [ Q ) } +.4.} ( | +._ b S b R _ R b H _ { _ { { _ R ( _ Q _ | } } _ 1.4.o.` | +.+.| | +._ ( +...) ) ) _ +.6.| R | 6.+.} _ _ | | { | ..| | ..+.| } } 1.1.......7.a.t.4.1.0.a.7.2.<.<.7.s.7...6.t.t.t.t.t.y.t.t.u.t.i.t.#.t.d.t.u.t.t.t.a.a.a.t.a.7.+.t.s.#.| | 1.4.a.a.@.6.d.t.6.6.6.7.e.7.7.6.7.6.4.6.7.7.7.6.6.7.7.6.e.i.i.i.#.e.v.i.7.7.6.6.a.n.t.#.a.d.y.i.y.i.d.t.i.i.y.i.t.t.g.i.d.d.d.a.Z.g.D.d.d.n.e.r.z.s.r.6.6.#.p.g.s.#.u.d.s.r.7.7.r.7.6.6.6.4.0.7.0.7.r.r.r.0.t.e.7.e.s.D.g.e.d.D.s.e.p.0.7.n.J.a.s.D.n.n.n.n.v.c.n.n.n.v.g.n.n.d.d.v.g.g.d.d.d.d.v.v.d.e.t.n.D.t.7.0.7.d.P.u.7.g.n.d.u.e.a.s.t.t.t.a.t.e.t.t.t.t.t.t.e.7.6.7.e.t.u.6.+.i.i.#.+.4...&.d.s.@.7.t.t.d.i.u.d.i.g.c.i.i.d.d.d.d.i.u.t.i.a.y.i.i.a.d.e.+.t.s.9.| 8...#.d.p.+.t.d.t.#...+.6.4.6.4.+.6.6.6.6.6.7.6.6.6.6.4.4.p.d.a.a.#.a.k.p.4.6.1.@.i.a.#.#.a.i.a.d.t.a.t.a.d.t.t.s.t.t.t.a.t.t.t.t.7.t.t.7.t.a.4.+.7.e.| | <.+.7.0.4.| 6.e.6.....6.4.+.4.4.6.4.1.| 4.4.| | | 1.| | ..6.t.t.| +.t.7...| } } 7.t.4.| 6.6.@.@.+.5.#.@.@.#.+.| | +...| | } } _ { ..' ` | } ( _ .._ U E W R } { ( Q [ [ Q U U W R U Q Q U U ) W W Q ) E E Q Q E E W Q [ U [ <.R S S F W [ _ R ) [ W Q W S c S U S U W S U E W F F V U V S W E V V F l l U U B f B f V ",
"U U V f l l E _ W U ) Q W U W W W U W U W ) ) Q Q U W Q [ Q [ ) R R | 4.} Q | +.` R K ( _ ` R c b _ { { ` ( ( R _ _ ( _ { } ' { 1.4.' ` 4.o.+.+.| 4.{ _ +.@...( R ..@.6.| R | 4.| _ } } { | +.4.4.4.+.+.| } | <.| ..4.1.| 4.7.t.4.<.r.a.7.1.} 6.a.a.7.| 6.t.t.t.t.t.t.t.t.t.t.i.t.#.t.a.t.t.a.t.t.t.a.a.t.a.6...t.t.7..._ 1.t.a.a.6.6.d.t.4.6.7.6.7.e.7.6.6.4.7.6.7.7.7.6.7.6.7.7.6.t.d.i.#.$.g.g.t.6.6.a.d.d.e.#.a.i.d.i.i.u.i.i.d.i.d.t.t.t.i.d.d.u.i.u.a.g.g.d.g.g.7.e.z.g.s.6.6.e.s.g.p.#.s.d.e.6.0.9.7.4.6.4.1.0.0.0.7.7.0.0.r.7.t.r.7.7.t.g.z.7.a.H.n.t.e.r.a.M.D.t.s.J.n.v.v.d.d.v.n.M.M.n.v.v.n.g.d.d.n.v.d.u.u.d.d.v.d.e.t.M.D.d.7.6.a.n.n.t.7.n.n.t.t.a.t.t.p.a.a.t.t.t.t.t.t.a.p.t.t.r.7.7.6.t.a.6.+.y.a.7.+...#.t.d.y.#.e.u.t.t.i.i.i.d.d.d.i.i.i.i.d.d.u.u.i.t.i.i.i.a.a.u.7...t.d.7.......t.d.t...t.d.e.+.+.4.4.6.6.6.7.7.7.6.6.7.7.7.7.7.7.4.4.6.t.a.a.6.p.Z.s.7.4.4.p.i.i.#.@.s.u.t.a.a.d.u.u.t.t.e.t.t.t.t.t.7.7.6.e.7.t.t.t.t.t...| e.t.@.| } 6.t.7.1.| 7.7.| ..4.4...4...| 4...| 1.3.| | 1.4.1.| <.| +.q.t.| +.t.e.+.} } 4.7.7.4.{ 4.7.7.#.+.+.+.@.@.@.+.+.| { | +.| { ( Q } | { { | } R { | } ) S W _ { { _ R { { R E W U W W W U U W Q W Q W W W Q W Q W U U ) Q S _ <.} E x F ) [ Q U Q [ ) R W U S S S U U U U U S U U E Z V U W W E V B V B f F E F f n B U ",
"S E E B x S _ W c V Q W S U R E Q W W U W W ) ) Q Q ) ) _ ) [ [ Q Q 1.+.{ _ | +.+.' _ } _ _ T l c T Q ` _ ( _ _ ( ( ` ` | ` } ..4.| ` { @.| | ..+.4.{ } +.6.7...{ @.#.#.| R ..@.' _ | { } | | | | | { | ..| <.<.| 1.1.1.| } ..7.6.<.7.a.a.7.4.a.a.t.7...7.s.t.t.t.t.t.t.i.i.t.t.t.7.t.t.t.t.a.t.u.a.t.t.s.a.7.+.e.t.t.6.+.7.s.t.t.6.6.d.e.+.6.7.6.7.7.6.+.6.7.e.6.7.7.6.7.e.6.r.7.7.e.d.i.#.$.d.v.i.7.t.n.d.i.7.#.i.i.d.i.d.t.t.i.i.t.d.t.i.t.i.g.n.d.d.u.t.a.d.i.g.d.7.7.g.n.d.e.e.d.f.i.t.#.u.n.t.7.r.7.4.9.9.4.6.6.0.0.r.7.7.t.p.e.r.e.0.7.a.d.d.7.a.M.M.a.e.s.D.M.n.t.s.D.d.d.v.d.d.g.g.M.v.d.g.n.n.g.d.d.g.n.v.i.d.d.u.g.d.e.t.n.D.M.a.t.n.M.n.t.7.d.d.t.p.a.t.t.t.a.a.a.t.t.t.t.e.p.t.t.t.p.t.7.7.e.a.7.@.y.i.t.#.+.t.d.i.u.#.t.g.u.t.i.i.d.d.i.i.i.i.i.i.d.i.i.i.d.i.y.i.a.t.d.t.$.+.p.a.s.7.+.6.d.i.t...t.d.t.+.4.6.+.#.6.+.6.6.6.6.7.6.7.7.7.7.6.4.6.4.@.t.s.6.e.c.d.a.7.t.d.y.y.#.#.t.t.t.t.t.t.a.t.t.s.e.7.t.u.t.t.7.#.6.e.7.7.e.t.t.6.| ..7.t.7.4.+.7.7.6.1.| 0.7.| ..4...| | { ..1.1.| 4.4.1.+.4.4...1.4.<.| 6.t.....7.t.#.4.4.7.7.6.<.{ 6.#.@.6.@...+.#.@.....| ` { { } | | ( T } { ` ` | } W ( { ..| R ) { { } _ T { } _ _ ) U W Q W U W E W ) ) W E ) ) E W Q E U ) ) S W <.} ) W Q _ _ W c W [ R U R Q U S W W U W W S V F W E V V U W F B B z E A f F W U B M U W ",
"U W W U E E Q E x F Q U S U U W Q ) Q U E W Q Q _ ) ) Q Q _ _ Q ) _ | 4.} _ ..] +.] | _ ' Q c h S U U T _ { ` { { { +.| | _ } 4...{ { { | +.+.o...4.| _ +.#.@.#.7.$.@.#.| _ +.4.} _ } } } _ } ` { | | | 1.1.| <.1.1.4.1.| | +.r.6.1.7.a.a.t.p.a.t.y.6...7.a.u.t.t.t.t.a.t.t.t.t.t.t.t.t.t.u.t.t.s.s.t.p.t.p.e.+.e.t.t.t.t.t.t.t.t.+.7.d.7.6.4.6.7.7.6.4.4.7.7.7.7.7.6.6.7.7.7.7.7.7.7.i.i.#.$.d.d.d.i.d.d.i.d.7.#.a.i.u.i.d.i.u.t.t.i.a.i.i.t.i.g.g.g.a.u.a.t.a.t.u.s.6.6.g.g.g.s.s.d.i.i.t.#.d.n.t.7.0.0.7.7.9.4.7.6.0.7.e.e.0.r.t.0.r.7.0.0.s.d.d.7.a.n.M.v.d.n.n.n.n.7.s.n.d.d.v.v.d.d.g.g.g.i.d.n.n.i.d.d.u.g.M.n.d.d.d.g.d.7.t.c.n.M.Z.n.n.v.n.e.#.d.d.t.t.p.p.t.t.t.a.a.t.t.t.t.e.7.7.t.7.e.t.t.7.7.a.t.+.t.d.i.t.t.i.i.d.t.+.t.d.i.v.v.g.d.u.u.i.d.i.i.i.a.i.d.i.i.i.a.i.a.s.u.u.e.+.t.a.g.a.t.t.d.i.t.| t.d.t.@.+.@.6.+.+.+.4.4.6.@.7.7.7.7.7.6.7.4.6.4.+.t.s.6.7.a.d.a.a.a.i.i.a.#.#.t.t.t.t.t.e.t.a.a.a.t.e.t.t.t.t.t.t.7.7.7.7.7.6.6.7.| ..6.7.t.p.t.7.#.7.| | r.7.| 1.| ..| | | 4.| | ..4...4.4.+.4.4.4.4.| | 6.t...| 7.&.$.7.7.6.#.6.} } 5.@.+.#.@.| +.+.| | _ ( ) { { _ { | } { } } ( ( | } T R { { | } { _ } } R W { { _ _ _ Q R W W W W U R _ Q W W W Q Q Q E E W [ >.U S _ _ ` _ [ _ ( W S S ) W U W W U U E W Q Q S x B U E E S U V S B B B V F F B F U W U E E E ",
"U U E W ) Y W U x W [ S U U S W W W E E E Q Q Q _ _ _ Q Q _ _ Q [ _ { 4.{ _ +.]  .+...` _ T h l W U H T _ { ` ` | | ..| _ _ { ..| ` | | } 4.4.| { +..._ ..+.@.#.#.$.@.#.+.{ o.@.| ` { } | } ....| ..| | +.+.| | | ..6.6.1.1.7.p.4.1.e.t.7.t.t.t.t.a.6...e.a.t.t.7.t.i.y.t.t.i.t.t.t.t.t.t.t.t.a.a.s.s.t.7.p.r.+.p.t.t.t.t.t.t.t.t.+.e.c.t.7.4.6.7.6.6.6.7.e.6.7.6.6.6.7.4.7.7.7.7.7.e.i.i.$.$.i.d.f.i.v.d.i.i.7.6.a.d.d.i.a.d.t.t.t.d.d.t.i.i.d.u.a.u.t.i.d.a.u.t.t.u.#.#.g.g.g.d.d.d.u.i.t.6.d.g.t.e.0.7.7.7.r.0.7.7.7.7.r.7.7.6.6.0.r.0.0.r.a.n.k.6.t.g.n.v.n.M.d.n.n.7.s.n.M.g.n.v.d.d.n.v.n.d.i.n.g.u.g.g.t.u.d.n.n.d.d.d.a.7.t.n.M.n.n.n.c.v.n.e.6.d.n.t.e.t.a.p.t.p.t.t.t.a.t.t.7.7.7.e.7.7.7.7.7.7.a.t...t.d.i.y.i.t.i.d.7.+.t.i.u.g.d.y.i.t.t.i.i.t.i.d.d.u.t.i.i.d.a.a.i.a.y.i.t.+.t.d.i.i.i.y.i.i.t.+.t.d.t.#.@.4.7.4.4.4.6.6.7.6.7.7.7.7.6.6.7.6.4.6.7.t.a.6.6.a.d.y.d.a.i.d.i.#.#.s.d.i.d.a.t.7.u.y.d.i.t.7.t.t.t.q.t.7.6.7.7.6.7.7.t.....7.t.$.t.7.#.#.7.| ..t.6...4.| | | 4.1.1.<.| ..| +.4.4.4.4.4.1.<.| 4.7.t...| #.t.$.7.7.5.#.6.} { +.7.$.#.4.+...| { _ ) R { ..} _ Q { +.+.{ _ Q _ | _ W ) { _ { { _ _ } _ W R { { { _ _ _ Q W R ) ) W W Q R ) Q E Q ) Q F U ) { [ E S W Q { _ [ _ Q Q U S Q R R E W U c c U W U V x V W S U S U V B x F B F V Z B F U W U E Z U ",
"E U U W Q R Q S V E Q U U E W U U F E E W W ) Q Q _ _ Q _ Q ) _ _ ( | | _ } +.+.+.+.+.' ( b x x U T K _ { _ _ ( } | ` _ ` _ { { | | | | | | | } ` ..| } | ] +.+.@.@.@.#.| ` #.#.| } } } } | | | | | { | ..+.+...| +.4.4.4...7.p.4...t.t.7.6.6.t.t.t.7...7.t.7.7.7.t.a.y.t.t.u.u.t.e.t.t.t.t.t.t.s.a.t.t.e.t.7.+.t.t.t.t.q.t.t.t.7.+.7.n.a.4.6.7.6.7.6.7.7.7.e.7.6.6.7.7.6.7.4.6.6.7.e.a.i.#.$.i.i.d.d.d.d.t.t.7.4.a.d.g.a.d.u.t.t.a.i.d.y.i.d.d.a.i.t.t.t.a.d.d.t.u.u.#.#.g.n.g.i.i.i.i.d.t.6.d.n.e.7.r.7.7.7.p.p.0.7.7.7.r.7.7.7.0.0.r.r.0.7.s.g.d.6.t.g.v.v.v.d.g.n.g.7.t.D.D.n.v.d.v.g.d.v.n.g.n.v.d.u.d.d.d.t.t.v.n.d.s.d.a.6.e.n.n.v.c.d.d.v.c.e.7.Z.n.t.t.t.t.a.a.t.t.t.t.a.t.t.e.7.7.7.7.7.7.7.7.e.a.7...t.y.t.i.y.i.i.t.7...t.a.t.t.t.t.t.t.u.t.i.i.i.d.d.t.t.t.a.a.a.t.t.t.t.a.t.+.t.d.u.t.i.t.i.y.t.+.t.n.t.#.6.7.7.6.7.4.6.0.6.7.7.6.7.6.7.7.7.7.7.6.7.t.a.+.7.a.i.i.a.a.d.i.a.#.#.t.u.u.t.i.a.t.t.t.i.a.t.t.t.7.t.$.6.#.6.t.t.7.t.t.7...+.7.q.$.7.@.$.$.7.| | t.7...1.| | | | 4.4.| ..| | 4.4.4.4.| } } <.4.4.7.t.| | #.$.7.6.7.6.@.4.} _ @.7.7.7.+.+.| | } _ _ { | | } Q W [ | { _ _ { _ { _ W ( { ` _ Q _ ( Q ( Q U { | } _ ) W R ) [ [ ) W E W R Q Q W Q W W U Q Q { } W S R R _ _ ) R R ) W S W R R W W U S b S V S V S F U S S S U V V B B B B F Z l F E U V B Z W ",
"U U E E U E W U S U Q U V U E U U E ) W Q Q W Q ) ) Q Q _ Q _ [ _ ( { | _ { +.#.+.| } ( ( U b x U T K _ { _ ` } { ` _ _ ] { ` _ } } { | o.| | { | ..} } +.+.| @.#.+.+.6.{ ` 7.$.+.{ } _ ( { | { | } } ..| ....| +.+...4.4.+.@.p.7.4.7.t.t.7.7.t.q.t.7...6.7.7.t.t.t.t.a.i.i.t.s.t.7.t.t.t.t.t.a.s.t.7.t.a.a.7.4.t.t.t.t.t.t.t.t.t.4.7.D.p.4.6.6.7.7.7.7.7.7.7.7.7.7.6.7.e.7.7.4.6.0.7.a.d.#.e.d.u.i.d.d.i.i.i.e.4.t.u.u.d.d.t.t.t.d.t.i.i.d.i.d.d.d.a.a.t.i.d.d.t.i.d.e.e.d.n.i.f.g.i.d.g.p.#.d.g.e.7.r.0.7.7.0.7.6.7.r.7.7.r.r.r.p.0.0.0.7.7.s.g.d.6.p.n.v.v.v.i.n.M.Z.7.t.n.g.g.d.d.v.d.d.v.v.v.n.v.g.i.d.g.n.a.d.M.n.d.t.d.z.7.t.n.c.c.n.d.d.n.d.7.7.D.d.t.t.t.p.a.p.s.a.t.t.p.t.t.t.t.e.t.0.7.7.7.7.e.a.7.+.a.t.t.i.t.i.i.t.t.4.e.a.u.e.t.i.i.t.i.t.t.i.d.i.d.t.t.y.d.a.d.t.7.#.7.t.e.+.e.i.t.t.d.t.t.t.a.+.t.c.7.+.6.7.7.6.6.4.6.7.7.7.e.7.6.9.7.7.6.7.0.6.6.s.a.+.7.s.t.d.a.i.d.u.a.6.6.t.$.t.t.t.i.t.t.t.t.t.t.t.t.t.t.t.7.7.e.7.t.t.t.t.7...6.q.#.t.$.#.t.%.6.| | p.7.| } | 1.| } 4.4.| 1.<.4.4.4.4.| [ } } 1.4...$.t.| ..7.#.7.7.6.5.#.7.<.} +.+...+.+.+.+.@.+.| } { | [ _ R [ o.{ { { { | _ ` _ T Q } } ( _ _ Q ( _ W U _ { Q W W Q Q Q ) W E W Q W Q Q Q U S V U W ) W _ } W U ) Q ( _ R U T Q Q U Q ) U W T U W W T S F V U Z F S z U U V F B l B l F V f A E V V V F W ",
"E F F W U z U U x U ) S V Z F U Q Q Q Q [ Q Q Q ) R W R _ _ { [ _ ( { .._ _ +.#.+.` ( R ) R b x W R K R { | ..{ } ( _ ' ` | | { { ` } { | | +.| | +.} { 6.5.@.@.@.@.#.6.| ` @.7.+.{ } _ _ _ _ } } | { | ..| } | ..+.+.1.....6.a.6.+.t.t.q.t.t.7.t.t.6...6.e.a.s.t.t.t.t.a.a.u.t.t.e.e.t.s.a.a.s.t.t.p.a.s.s.t.6.t.t.t.a.t.t.t.a.a.4.t.Z.t.4.4.6.7.7.7.7.4.7.7.7.7.7.7.q.7.7.7.7.6.7.t.i.a.#.e.d.i.i.i.i.u.d.d.7.6.t.t.i.i.d.t.t.a.i.i.d.d.d.i.d.a.d.d.d.u.i.i.i.i.t.d.e.e.g.d.d.i.d.d.d.n.a.#.d.d.e.7.0.0.r.7.6.4.9.7.0.7.r.7.7.r.t.t.r.7.7.7.t.g.d.6.p.n.n.v.d.d.v.M.Z.7.t.d.g.u.d.g.v.g.v.v.d.d.n.g.g.g.v.n.v.g.M.M.d.a.d.g.d.t.p.n.v.n.n.d.d.n.n.e.7.Z.g.e.7.t.p.p.t.p.a.a.a.p.t.p.t.t.t.t.t.7.7.7.7.e.a.t.+.a.i.t.t.u.t.i.d.s.6.7.a.u.7.t.i.d.i.i.u.t.t.i.i.i.i.i.d.d.d.t.t.t.q.e.#.7.+.t.t.t.t.i.y.y.t.t.+.7.d.7...+.6.6.4.6.4.7.6.7.t.e.6.6.6.7.7.7.6.6.4.6.a.a.+.7.s.a.a.a.t.i.i.a.6.#.t.t.t.t.t.t.t.t.u.t.e.t.t.t.t.t.t.u.7.7.7.t.t.t.t.t.+.#.t.t.7.7.7.t.t.t.| { t.6.{ } | 1.| } } <.<.<.4.4.4.4...| } [ ,.<.4.@.7.t.| | 6.$.6.6.#.4.7.7.<.} o.+.] +.4.| | 4.7.+._ _ ` _ Q _ +.4.{ { | { } | } Q W Q _ _ ` { | _ _ { Q U _ _ U E W Q Q U U F U W Q E Q [ Q S c U W W Q Q _ _ R W ( _ _ Q W H U Q U U _ R S b W T W U W W U S V V Z B U U U F A B B B B Z B l Z F V V U V E ",
"E F F E U S W F l U Q U W U U U W W U W Q ) [ Q R T W W _ _ { [ R ( ..| _ | +.@.+.' { ( R R b b ( ( H R { { | ` ( ` { ` ` +.@.+.| | ` { +.+.4.@.| 4.| | 6.#.$.@.@.$.q.+.{ _ +.$.| { { { | } } } _ } | | | } | | | +.4.4.| | 7.a.6.4.p.a.t.t.t.q.t.t.+.| 6.a.d.a.t.a.u.t.t.u.t.t.s.t.e.t.t.p.t.t.e.a.a.d.a.s.a.6.t.d.t.i.t.t.a.a.p.4.r.d.7.4.7.7.6.7.e.7.4.4.6.7.4.6.7.7.7.0.7.0.6.7.t.d.d.7.e.d.d.d.i.i.i.d.a.7.7.t.i.v.i.a.t.t.t.a.i.g.s.t.t.a.a.d.a.d.i.t.y.d.i.u.i.e.7.g.d.g.i.i.v.g.g.p.#.d.d.t.7.0.0.7.7.6.4.0.7.7.0.e.7.0.7.0.r.r.7.0.7.e.g.a.6.t.d.n.v.d.d.n.D.z.7.7.d.v.d.d.d.d.v.v.n.i.u.n.g.d.g.v.d.d.g.n.g.d.d.n.n.s.t.a.d.n.n.d.n.n.n.d.e.7.c.g.e.e.p.e.t.7.e.s.s.a.a.a.a.t.t.e.t.e.7.7.7.e.e.d.p.+.u.d.t.t.u.t.a.a.p.4.7.a.t.t.e.e.d.c.i.i.i.t.t.i.i.i.d.a.d.a.t.t.a.a.t.$.6...t.t.i.t.t.d.d.q.7...#.d.t.| +.4.4.6.7.4.7.6.6.t.7.4.7.4.0.7.7.4.4.4.7.a.s.+.7.s.d.i.a.t.u.i.a.#.@.a.a.t.u.t.t.t.t.t.t.t.t.t.7.t.q.t.t.7.7.t.y.t.t.t.a.+.4.7.t.#.t.7.7.t.7.} { 7.+.{ 4.| 1.1.} _ <.<.<.<.<.4.4.| 4.| } 1.| 4.4.#.7.| +.#.7.#.6.7.5.7.4.<.[ @.6.@.#.4.| } | +.{ ( _ _ _ ( { 4.| { [ } } } | } W U Q { { | { { ` ` | } ! { _ R ) [ Q Q U V E Q E E W Q [ R U E ) Q U W Q _ _ T R { _ R _ ( U U Q U b _ W c c T R T U W W W F V S U U W U U S V A E Z F V B f Z F F B Z S E ",
"Z U W U U U E W V V R R ) W U S U U E U U Q { ) R U W R Q _ ) R R ( | 4.} ..7.@.+.| | _ ( T b S ( R ( ( { ` _ R _ { | _ _ { | +.+.| | | | @.4.@.@.4.{ | 6.@.@.@.7.$.+.| { _ | +.| ' { } { | ..| { { | 1.| | | | 1.4.4...| 1.7.a.7.4.7.t.t.t.t.t.7.7.+.| 6.a.a.a.a.t.t.t.t.t.e.a.t.t.t.t.t.e.7.e.p.s.s.a.a.s.t.4.t.a.t.t.t.a.a.a.7.+.e.d.6.4.0.7.7.e.7.7.4.4.6.7.4.6.6.7.7.7.7.7.7.7.q.d.d.6.t.i.u.d.t.d.d.u.u.7.6.a.a.d.d.a.u.i.s.d.a.a.t.e.7.s.a.a.d.d.i.t.t.i.i.i.u.7.#.u.d.v.d.g.n.g.d.a.#.d.d.t.e.p.0.7.6.9.9.9.7.7.7.0.0.0.7.7.7.0.r.0.7.p.d.s.6.p.i.v.v.i.n.J.n.s.7.r.s.d.g.g.d.i.v.M.d.i.i.g.g.d.s.a.a.d.n.n.d.d.n.d.n.d.e.a.d.a.d.c.n.D.a.a.e.7.c.d.t.t.a.t.7.7.e.p.a.s.a.a.a.t.t.t.7.7.7.7.7.7.t.d.t.@.t.i.u.t.t.d.d.t.7.6.6.t.t.u.t.7.t.a.d.d.d.t.t.t.i.t.a.a.i.t.t.t.i.y.i.u.6.| t.t.i.t.i.d.t.7.7.| 7.d.p.4.1.4.6.4.7.7.7.7.7.7.7.4.6.9.0.6.6.4.4.4.6.a.s.+.7.s.u.a.a.t.d.t.t.@.@.a.u.t.t.t.t.t.t.t.t.t.t.t.e.7.7.#.t.t.t.t.t.t.t.t.t.| 4.6.@.7.q.$.t.#.4.| | 7.@.| 4.4.4.| } [ } <.<.} | <.<.| ....4...4.4...@.7.| +.#.#.#.6.6.7.6.4.} } +.@.@.@.+.4.} } { { _ { _ Q _ { { { } } { _ { _ { _ _ } | { | _ _ | | { Q Q | _ R [ _ ) W U E E W E E W Q Q W E R Q ( W W T ( _ W T _ _ _ _ Q Q ) W b U W U U U U U Q W W U W U F V U W W W U V F F U F F U B f B W S B Z E W ",
"F Z U Q W V S W c V Q W W S S S W W W U E R Q R R U Q W W _ ) W ) ( { 4._ _ +.@.6.+.{ _ ( b f c ) R } _ { ' R R | { | ' ( R _ | +.| +...| +.@.@.6.6._ | +.| { @.7.@.` | 6.} | +.+.| { { ` { | | ..| } } 1.<.| <.1.1.| | 4.4.7.a.7.7.7.4.t.t.t.t.#.@.4.| 6.a.t.s.a.t.t.u.u.t.t.t.t.a.a.i.u.s.t.a.a.s.a.s.a.a.7.4.t.7.q.a.y.a.t.7.7.4.7.d.7.6.7.7.e.7.7.7.6.7.7.4.4.7.4.0.6.6.4.6.0.7.t.d.d.6.t.e.*.d.i.d.d.t.t.e.4.d.a.d.d.a.i.g.d.d.a.a.s.a.p.a.a.u.d.a.i.i.t.i.d.d.t.$.7.t.t.d.n.n.d.t.d.s.#.d.a.a.7.0.4.4.4.0.9.8.0.9.4.0.0.9.0.7.7.r.r.r.7.p.g.s.#.a.t.t.d.v.n.n.a.a.t.t.s.g.g.n.g.i.d.n.d.d.d.a.d.d.d.d.n.M.D.n.g.n.n.d.g.d.e.p.a.t.d.n.Z.d.e.t.e.#.d.d.e.t.p.t.7.t.e.e.p.s.t.t.p.t.p.t.7.e.r.7.7.7.a.n.a.4.t.t.t.a.u.d.u.#.t.7.#.a.i.t.d.t.#.t.d.i.d.i.e.e.t.a.a.a.t.t.t.t.t.t.i.i.7...t.7.t.i.c.s.7.7.7.| e.d.a.4.4.4.4.4.7.7.7.0.7.6.0.7.9.0.r.6.7.7.0.4.6.s.s.@.e.p.7.u.d.t.d.e.e.7.7.t.t.u.t.t.u.t.t.t.t.t.e.t.7.7.t.t.a.a.s.t.t.t.t.t.7.} +.+.| 7.q.q.$.+.6.4.+.t.7.| 1.1.| [ <.} [ <.<.| } } 1.1.} 4.4...4.+.{ @.e.| +.@.| @.7.6.7.+.| <.| +.@.@.+.+.6.| } } } } } { Q _ { _ _ } } [ ( { <.4.4.4.{ Q ( } | | { ( T U W } _ R W Q Q W W Q E E W E U W R E E R E W W E T _ _ R U T _ ` ( _ _ ) S V W U T _ W U U ) R W U U W U B B V F U S U W F F E U U B f M F U S E F V ",
"E B S W W S V S c S ) W c S U U U W W W R W W Y R W W Q _ ) Q Q R ) { +.R R | +.@...| R U x f f R { _ } } _ ( _ { | | _ ) Q _ ` | +...| +.+.@.@.6.4._ | 6.| { +.6...| 4.4.} +.@.| | } } } } } | ..| { [ } <.| } | | } <.4.4.e.a.6.6.r.4.7.d.a.6.@.7.6.| 6.t.t.t.t.t.t.t.t.a.t.t.d.a.t.t.u.a.a.a.t.t.a.s.a.a.7.+.w.7.+.a.d.t.6.6.7.4.7.d.t.4.6.7.7.7.7.7.6.6.7.7.7.7.9.6.4.8.4.9.6.0.t.d.a.6.t.e.$.u.d.d.t.t.i.7.7.s.d.i.a.d.a.d.d.n.i.a.a.d.a.a.u.d.i.d.i.i.i.d.i.i.t.6.7.u.&.e.d.d.t.e.a.s.#.a.d.t.7.6.4.4.8.9.9.0.9.7.7.7.0.0.0.r.r.0.r.t.0.p.g.s.#.a.i.&.$.g.n.t.e.d.r.7.d.n.d.v.v.g.d.d.g.d.d.g.d.d.n.J.D.M.n.n.n.n.d.d.n.a.7.p.s.t.t.d.z.t.7.a.e.@.a.d.7.7.t.t.t.e.e.t.p.e.e.t.e.t.p.t.t.t.t.r.7.7.s.g.t.4.a.t.7.u.n.t.$.7.a.6.7.u.i.i.i.i.t.7.t.a.d.a.e.e.t.a.a.a.t.t.t.t.t.y.i.t.7.+.t.7.+.7.i.q.6.6.r.| 7.d.a.6.4.4.4.6.7.7.0.7.7.4.0.9.9.0.0.9.7.6.9.6.7.s.a.+.t.s.#.7.g.a.t.$.s.7.#.a.u.t.t.t.s.t.t.t.e.e.t.7.6.7.t.a.t.t.a.a.a.t.t.t.7.} 4.7.| +.t.t.+.+.t.@.+.a.7.| | } } } <.} | | | | | | | | 1.| | | | | | +.6.] +.@.| | 4.e.4.` 4.<.{ +.6.@.+.@.4...} | | { _ _ _ _ _ _ } <.} } { | 4.4.<._ W W R ( { 4.{ H R W U { } W W W E W W Q E W E U U E E W W W W E U U W ( { W b U U Q _ _ U c V W U W T ) W R W W Q W W W W F B B V F V F F U U U U U V Z f M l U W U B V ",
"E F V l F U S U S S Q T c U T U S W W W W U ( _ R U W ) ) Q Q Q ) R | @._ ( 4.+.{ ) R U W U S l R } _ } { _ _ } | | ` _ ` ..| ` | +.+...4.+.@.@.@.@.} | 7.@.+.{ | | @.7.4.{ +.6.{ [ } _ } } } <.| } +.4.| | <.<.} } 4.4.4.4.t.a.@.4.s.r.6.e.7.4.7.d.6.| 6.t.u.t.t.t.t.t.s.u.t.a.u.t.t.t.t.u.y.t.t.a.d.s.a.p.6.| t.s.@.e.a.7.@.t.a.6.7.d.t.@.6.6.6.e.7.7.7.6.7.a.7.6.6.4.4.4.6.6.6.r.7.d.a.@.u.d.7.e.t.t.$.d.d.7.6.a.u.t.d.d.i.d.d.d.a.i.a.d.a.d.a.d.d.d.i.a.d.v.y.t.i.#.7.g.e.#.s.d.t.a.d.a.@.a.d.e.r.r.9.r.9.9.9.0.6.7.a.t.6.7.0.r.t.0.0.r.7.e.z.a.#.t.d.i.@.t.a.7.t.z.7.7.d.v.g.c.v.n.d.g.d.d.g.g.d.d.n.D.Z.d.d.n.n.n.Z.d.g.s.7.p.A.d.7.p.p.t.a.a.7.@.a.d.7.6.7.r.p.7.e.p.p.7.a.a.t.7.e.p.t.7.r.r.7.7.s.d.7.+.a.a.#.7.u.7.$.y.t.@.7.u.t.i.y.d.d.t.t.i.g.a.t.t.a.p.a.t.u.t.t.t.d.y.i.t.#.+.a.t.| +.e.6.t.7.0...6.s.e.7.4.6.0.6.7.0.p.9.7.p.r.6.9.0.9.9.7.4.4.6.7.s.t.+.t.k.e.6.s.t.$.t.g.7.+.t.t.7.u.t.a.t.7.t.t.t.t.7.7.7.p.t.t.t.a.a.a.t.$.t.7.{ 4.t...{ 6.6.| @.t.@.+.a.7...} } 1...| | 4.| | 4.7...} | | { | } _ } | @.6.' o.6.#.} | 6.| | 6.| _ +.6.+.@.@.4...} | 4.{ _ [ } _ Q [ 4.| } } } } { { _ W E [ | R W } _ R _ ) b { _ W Q E W Q E W W W U W W E S W E E Q Q U W E Q } E U R S W W U V V W ) b W R W W R U W W Q W Q U Z V F E E F E F F U U U S V F f Z l S B A x E ",
"U W E f M x U W c c Q b b U T U T W Q U S R ` { Q U W W W W Q Q ) R | 4._ } 4.4.| T U E Q ' _ b T _ _ ( _ { | | ..' ` ' +.+.+.| | o.+.+.4.6.6.+.@.@.{ +.#.+.7.{ _ +.#.7.4._ +.6.{ ) _ _ _ } | <.| | 7.t.4.| <.2.<.1.4.4.4.4.7.i.@.4.s.a.p.6.4.7.t.i.7.| 7.t.t.s.s.t.t.t.u.t.a.u.t.t.t.s.t.t.t.t.a.a.d.s.s.t.4...t.a.t.7.4.6.6.a.a.6.7.n.t.4.4.6.6.7.e.e.7.7.t.t.t.7.4.6.4.6.6.7.0.r.e.a.a.@.t.i.u.t.#.e.t.d.a.7.4.t.t.i.i.d.d.g.a.a.t.d.a.a.d.g.d.d.d.d.d.n.i.i.t.t.i.6.7.d.i.e.e.p.t.a.d.a.+.d.a.t.7.0.p.p.0.r.9.9.0.a.d.a.7.7.0.t.0.r.r.0.7.t.Z.s.$.t.u.d.t.7.7.t.d.s.7.e.s.n.d.d.g.n.v.n.d.i.d.d.a.i.u.d.d.d.n.n.n.Z.D.d.d.s.7.s.D.z.s.7.6.s.n.a.7.#.d.d.6.7.7.7.r.e.e.r.r.t.d.n.a.7.6.e.t.7.7.7.0.7.a.d.7.+.a.g.t.#.+.7.i.t.t.#.7.a.t.u.i.i.d.d.i.i.d.i.u.t.a.s.a.a.i.t.t.i.v.i.t.*.7.+.u.a.#.@.4.6.t.t.7.| 7.a.e.4.7.9.0.0.r.0.0.9.t.z.s.9.9.9.9.9.6.6.4.4.6.s.a.+.t.s.d.7.7.6.t.a.a.7.#.t.t.t.t.t.d.t.7.t.t.e.t.t.t.t.t.t.t.t.a.a.a.t.7.t.7.} ..7.6.| | ` +.7.7.@.+.a.7.| | <.4...4.4.<.| 4.4.6.4.| } | { } { } } } @.7.' ] 6.7.| | } { #.6.} { +.6.@.@.#.6...{ } 4.| { } } _ ) } | | <.} _ ( Q _ _ Q Q } .._ Q R U _ { Q T _ ) W W W W W Q E F E W _ [ Q U U U Q W W W Q R _ [ U U Q R Q W U S ) E U W ) R R W U Q Q W W U W U U V F U U U U U U F F S U S V A Q W V f M V E ",
"F E Q U Z l U U x x Q c b U U T R W U S W } ` _ { ( U E R W ) ) Q _ | 4.{ { | +..._ } _ R _ Q c R { R T R ( | { ` } { | +.] +.] ` { +.@.4.6.@.+.#.@.{ 4.#.] @.5.+.@.@.4.4.{ +.7.} ( } } [ } <.} | 6.7.t.e...| 4.4.4.4.4.4...7.a.6.4.t.a.a.7.7.a.t.e.7.| e.u.t.a.a.t.7.t.s.a.t.t.t.a.a.a.t.a.s.s.d.d.a.s.s.t.7.4.t.a.t.t.4.6.a.a.t.6.e.D.a.4.4.7.6.6.7.r.4.6.t.t.a.e.4.9.7.0.7.r.0.7.e.g.t.#.t.t.d.i.7.t.d.t.t.7.6.e.t.d.t.a.v.d.d.v.a.d.a.a.d.d.i.t.t.d.c.d.i.t.t.i.d.6.6.i.i.u.t.p.a.a.a.s.#.a.d.s.7.0.p.0.p.r.9.7.a.d.a.d.a.5.7.p.0.t.r.7.7.a.Z.a.7.p.e.t.i.t.7.a.a.t.0.7.s.n.d.v.g.g.v.g.d.d.d.g.d.t.t.n.d.n.n.g.Z.Z.n.d.g.s.7.s.d.d.g.t.7.d.d.a.7.7.n.d.7.7.0.0.7.t.t.7.e.d.v.d.d.p.6.7.e.e.7.0.7.7.a.d.6...t.d.d.7.6.a.a.7.t.7.7.a.u.i.d.i.i.i.u.t.i.i.a.t.a.d.i.y.t.t.d.y.d.i.%.t.e.+.t.a.t.7.6.7.t.e.7.+.#.d.t.4.7.9.9.r.r.0.9.t.d.d.d.s.9.8.0.4.4.9.4.4.6.s.s.+.t.s.d.a.r.e.g.t.t.7.+.t.t.t.t.t.a.d.t.e.t.t.t.t.t.7.7.7.s.t.t.a.t.t.t.7.7.} ..6.6.7.6.| 6.6.7.+.@.a.7.| 1.1.<.1.4.<.[ 4.e.@.+.6.1._ | ..} } | } _ +.7.{ { +.@.@.+.} | 7..._ { +.6.6.@.@.+.| { { } | +.| _ ) _ | | | <.} ) ) [ | _ W R { { { } ) W _ [ ) R _ _ W W Q E W Q W F W [ ` { } W V W Q W Q Q E E _ { U b Q _ { E U W ) b b Q Q R ( R ) Q Q W U U S U W S V F U U F U W F V V U U B F Q W F l M F Z ",
"U F U ) W S S S x V U U b S U T R U S T } ` ` _ { _ Q W R ) ( ) [ _ | 6.} ( } ` ....4.} R K U x ( { T T ( Q _ { | | +.o.O.+.+.| ` ` +.6.4.+.+.+.@.4.` +.#.' ` 7.t.@.| +.4.{ 4.7.| _ } } } } | | +.7.7.#.7.7.1.<.4.4.4.4.4...7.a.7.6.t.7.t.a.s.a.6.e.7...7.s.a.a.t.e.e.p.t.t.t.a.a.a.t.t.a.a.a.d.d.d.d.a.a.a.7.4.a.t.7.s.a.q.a.s.t.4.t.D.a.7.7.7.6.7.4.4.4.t.y.t.t.a.7.6.7.r.r.0.r.e.7.d.a.#.a.e.t.c.d.d.a.t.t.e.4.a.s.u.i.i.d.d.d.g.d.d.d.d.a.a.t.u.t.i.d.d.t.u.t.t.d.e.#.u.&.t.d.g.g.t.t.a.$.d.d.a.r.0.0.r.r.0.7.s.a.d.i.d.d.t.7.0.t.t.7.0.7.a.D.a.7.a.7.$.t.i.d.a.7.t.0.7.d.d.g.n.g.d.d.d.d.n.d.d.d.a.a.k.n.g.Z.D.Z.n.d.d.n.s.7.s.a.e.s.Z.n.d.t.t.t.7.c.g.7.7.7.e.r.7.7.7.s.g.a.y.d.d.t.7.7.t.r.0.7.7.t.a.7.+.e.t.t.t.t.d.t.7.t.7.e.n.i.i.i.d.a.t.t.t.u.a.a.u.a.d.i.t.y.t.t.i.t.t.t.t.t.+.7.7.@.t.t.a.7.7.a.4.7.d.t.6.4.6.9.9.0.6.r.s.d.a.d.d.t.6.9.9.9.4.4.4.6.s.a.4.s.t.t.a.Z.c.s.$.t.7.@.a.t.t.u.7.t.d.i.t.s.t.t.t.t.7.6.7.t.t.t.e.t.7.e.7.7.} +.6...6.a.t.t.+.4.4.@.a.t...<.<.4.1.| { <.7.7.@.@.+...} } | ..| | } { #.6.} | | { +.@.4.4.+._ { } | 6.7.#...+.| | } { | ..} ( Q [ | | | } _ [ [ _ { | W U ) _ } { } { ( _ [ R [ } R W W ) ) Q E W _ { _ Q { Q E W Q _ ) W F V ) _ U U E Q } U U _ T c U ( R R _ _ _ Q W U W U U U U U U U W U U S U U U V S W V B U S F B F U Z ",
"F V S Q W V l A S c U W c S W U U b W _ { ( R ( _ { } R W ) Q _ } _ | 6.{ ( ) R | +.| ( b U S x R ( T ( } _ ` | @.+.@.+.....| +.| { +.+.+.+.+.| @.6.` | #.` _ +.7.+.` 4.4.} +.w.4.} [ } <.| { +.6.6.6.6.6.t.6.| 1.4.4.4.6.+.6.a.6.6.t.+.6.a.s.0.+.t.7...6.a.t.t.e.t.s.s.t.t.t.t.s.s.t.t.a.a.d.d.d.d.d.a.a.a.7.6.a.t.@.a.d.7.6.t.e.+.t.D.a.7.7.7.6.6...4.t.a.t.t.t.t.s.7.4.0.0.0.7.t.7.d.d.#.t.#.#.a.c.n.t.#.a.t.6.d.a.t.u.t.i.g.i.d.d.a.a.a.i.y.i.d.y.y.d.i.y.d.u.t.d.t.$.i.$.#.u.M.a.#.t.d.$.g.c.a.t.0.0.t.7.0.a.n.a.a.d.a.d.g.t.7.7.r.7.0.7.a.D.t.$.a.t.$.#.t.n.t.#.a.7.7.a.g.d.d.n.c.d.v.M.v.d.d.d.d.d.d.n.c.n.D.d.g.d.d.n.s.6.s.s.#.e.d.D.a.#.t.t.6.c.d.7.7.7.7.r.7.6.s.Z.a.i.a.i.d.d.7.7.r.r.7.6.e.a.s.e.4.r.7.6.7.d.a.4.7.a.6.7.n.d.i.d.i.i.u.t.u.a.t.a.a.d.a.t.t.a.u.t.t.t.t.i.t.t.+.e.#.] 7.d.t.| @.a.4.a.Z.p.7.9.6.0.6.6.r.d.a.d.d.d.i.d.r.4.9.7.4.6.4.7.s.a.@.s.e.6.7.n.d.e.#.a.t.6.a.t.i.a.t.t.t.d.a.t.7.t.t.i.t.t.7.7.t.a.t.t.e.#.t.e.| 7.7.| +.t.t.7.| | 4.+.a.q.+.<.<.4.| [ | 0.7.6.6.6.+.@..._ { | { { _ | @.4._ { | } _ | 4.4.{ ( | | { @.7.#.+.6.4.} | } } | } _ _ } } | | } { } } _ { } W W ) W Q } } _ Q W W T { } ( W W ) ) U U _ } Q W Q Q _ ) E R ) Q F Z S ) Q W W U U _ _ _ R E c U R Q R Q W W E U E Q W R S U W Q U F F W U U U W V V S f f F B x V W F M ",
"A V U S V l x F U x W R b U W U U T { _ _ _ _ R _ ` { _ Q W Q [ _ ) | @._ ) _ ( ` | _ S x U E x W Q T [ | } +.+.+.+.4.4.| ` +.+.+.+.#.@.@.+.+.+.+.+._ | @.| { { | } { 4.4.} | 0.+.} | } } } | 4.6.@.4.7.7.e.7.4...1.4.4.4.6.t.a.@.4.r.6.4.9.0.4.4.t.7...7.7.e.t.t.s.t.t.u.u.t.t.t.a.a.s.t.a.d.d.d.a.s.a.a.a.e.6.s.t.4.7.t.4.4.t.t.6.7.c.a.6.7.7.4.4.6.a.t.t.t.t.t.t.a.a.7.4.4.0.7.0.t.d.d.@.7.7.#.7.a.a.6.#.s.e.7.a.d.a.t.t.i.a.d.a.a.d.t.s.t.i.i.d.i.d.i.d.i.i.u.t.d.7.$.d.t.#.7.s.e.#.t.d.7.d.n.a.t.t.0.0.e.s.d.d.d.d.d.a.d.c.d.a.6.7.0.0.7.s.D.u.$.s.t.7.6.7.t.6.6.a.7.7.s.n.v.g.g.d.v.v.v.M.n.v.d.a.d.n.d.d.d.d.Z.D.n.d.d.a.7.s.s.7.7.t.s.7.@.a.t.#.d.d.7.7.r.e.7.7.a.d.d.d.d.d.i.i.d.a.7.7.0.7.7.e.s.d.7.7.t.6.+.7.p.7.4.7.a.7.7.a.d.d.d.d.d.i.a.a.a.a.a.i.a.t.t.t.t.t.s.a.i.t.t.i.t.+.7.#.| 4.a.7.| 4.s.6.p.S.a.7.0.6.9.6.t.s.d.d.n.d.d.y.d.s.0.4.4.9.4.4.7.d.a.+.s.t.6.4.t.t.7.6.a.t.#.s.a.t.a.t.t.t.a.y.t.7.t.t.t.t.t.q.t.7.t.a.a.t.7.t.t.+.7.e...| 4.7.+.} 4.4.| t.7.| 4.4.<.} 1.7.7.#.7.7.q.$.@.@..._ _ _ { } | @.4._ { 4.{ ) } 4.+.{ { 3.{ | 6.@.+.4.5.7.4.{ } } } { } } | } | | { } | } { { _ W ) [ W E ) } R U Q Q U _ } R Q Q E F U Q { _ Q W Q _ ( _ Q R U U F E E Q Q U Q W H W R W c S U S U _ Q W S S U W W W Q R W U E Q U V V W E U S U U F V l l F S l l Z B M ",
"F V A l l M S S U c R _ T V U S R _ { _ { { { ( } _ { { { R W ) _ R { +.R _ | _ _ ) U c b U S x T _ R ( } { ..| o.+.7.4.' ` +.@.+.+.+.@.4.o.+.+.+.+._ | +.| { { | { | 4.2.} | 7.| { 1.| } | 6.6.@.#.6.7.7.7.e.t.6.| 4.4.4.6.t.a.@.4.t.7.4.4.4.2.4.t.7...7.7.e.a.a.d.t.u.d.d.d.s.t.s.a.t.s.a.a.a.a.a.a.d.s.s.t.#.a.t.6.7.7.+.6.a.t.e.7.d.a.6.6.7.4.5.t.y.q.t.t.t.t.i.t.a.a.7.4.0.6.6.t.n.a.+.7.7.6.6.t.6.+.7.a.7.7.a.a.i.i.a.t.a.d.v.d.a.d.t.t.d.y.u.a.i.y.c.i.i.t.u.d.$.$.i.t.7.6.7.7.7.p.s.7.d.n.s.7.t.0.7.a.Z.c.d.g.d.a.a.a.d.n.n.p.7.7.0.7.s.M.t.$.a.t.7.6.7.7.7.7.p.7.6.s.g.n.g.d.v.v.v.v.n.n.g.a.u.d.n.d.d.s.d.d.k.d.i.d.s.7.a.d.e.6.7.0.7.6.a.t.@.i.d.7.7.r.e.6.t.n.d.i.d.d.t.d.i.i.d.a.7.7.r.r.e.d.g.7.7.s.7.6.4.7.4.4.7.a.6.7.a.u.i.a.d.d.d.d.a.s.a.t.y.a.a.a.7.7.7.7.t.a.t.t.i.t.O.$.7.+...7.6.+.6.t.+.7.C.s.7.7.6.4.t.d.d.d.d.d.i.y.i.i.d.d.7.4.4.4.4.6.d.t.@.s.t.7.4.6.6.6.6.a.7.#.s.u.t.a.t.a.t.i.t.t.t.i.t.q.t.q.t.t.7.7.e.a.t.t.t.t.4.6.r.4.| 1.4...{ 6.4.| 7.7.{ | <.} | 7.7.6.#.t.6.6.7.+.+.6.| _ ) } } { @.4.{ | 4.} _ _ <.<._ | 4.{ | 6.+.+.+.4.7.4.{ } | { | 1.4.} | } { { { } } | | ) U ) } W S F R R U _ [ U R } R W Q U S R } { _ { { _ _ W _ { ( W U E Q U Q Q H ) W H W U S c U W c S _ Q R U U W Q R Q W W W U U W Q U U E U E U U U W U Z V F S l d m M Z ",
"A Z M f B B x U W c Q ( b c S b ( _ _ { | _ Q ( { | o.` | | ) W [ R ` +._ _ } _ _ T U S b U V b ) _ ( ( } | +.| +.+.6..._ ` +.@.@.| | | | | | | +.+._ | +.` | } } | } 1.4.[ | 4.| } } | 4.6.7.#.#.7.7.4.6.7.7.t.t.4.+.4.4.4.7.i.@.4.r.7.4.4.4.4.4.t.7...7.t.e.a.d.a.i.u.t.a.d.a.a.t.a.s.a.a.u.t.t.d.d.a.a.a.e.#.a.t.6.7.6.4.6.t.s.e.t.n.e.4.4.4.6.a.t.q.t.y.7.6.7.t.t.i.s.a.7.4.6.6.7.d.t...7.7.#.7.7.4.+.6.t.7.7.d.i.d.a.d.a.d.a.d.a.d.d.t.t.i.i.i.t.i.y.i.d.c.i.i.d.$.7.s.t.7.6.7.6.7.p.s.$.d.d.t.7.7.7.a.n.n.c.Z.d.p.7.7.a.d.d.n.n.a.6.7.7.a.n.t.$.s.p.7.7.r.0.0.7.t.0.7.a.d.a.a.d.d.g.M.n.v.d.g.d.i.a.c.n.d.d.d.s.a.a.i.g.d.7.s.d.7.6.0.9.6.6.a.t.@.a.d.e.t.7.7.t.d.d.d.d.s.7.6.t.d.y.d.d.a.7.7.r.p.d.n.t.6.s.7.4.6.4.5.7.7.a.7.7.d.t.t.t.t.a.d.d.d.a.t.t.t.a.a.s.p.t.7.7.7.e.t.t.t.7.O.q.7.+...4.4.4.4.t.+.7.V.s.7.4.6.t.a.d.i.d.a.t.7.7.y.a.i.d.a.7.1.4.4.6.a.t.@.j.p.6.4.6.4.7.6.t.e.@.t.t.u.a.a.a.i.u.t.t.t.t.t.q.e.t.t.t.t.t.#.7.t.t.t.t.4.7.7.+.| 1.1.....4.4.| 7.6.} _ _ | 6.7.4.6.6.6.| } | +...@.@..._ _ { { +.4.} | 4.| _ [ [ } } } 3.{ { +.+.6.+.+.5.+.| | | o.+.o.4.4.| } { _ _ _ | } } _ W ) } W c F E E R ) [ T R [ ( W W W ) { { { | { ( R Q Q ( _ { ) U S U T ( R b W E T R U U U W W b b ) ( ( W W U E Q Q U U R W S E Q W W W E Q W W U U U l V F l f d m m B ",
"B V l M A x x W W h U W x S c U Q R _ Q Q T U T _ +.@.| | +.| W Q Q } 4._ _ { _ ( U W S c T U W | _ ( _ { | +.+.| @.4.| ` +.@.+.@.+.` ` { | ` | #.@.( | @.` | } } | } 1.8.[ 1.4.} } } ..7.7.@.@.7.6.1.<.| 7.t.7.t.t.@.4.4.+.7.t.6.7.0.7.4.1.6.6.4.e.7.+.e.t.7.t.a.a.a.u.t.u.i.d.a.t.i.a.u.d.i.t.t.a.a.a.d.d.e.#.a.7.4.6.6.6.+.e.a.7.t.Z.e.+.4.7.t.a.t.t.t.q.4.4.4.7.a.s.t.a.a.7.4.9.6.i.t.+.6.e.6.7.7.+.6.@.a.7.6.i.d.v.a.d.n.d.t.t.a.n.a.a.t.t.a.y.t.d.i.y.i.a.n.d.a.$.7.s.7.6.6.r.7.7.t.a.$.d.d.e.7.7.p.D.n.n.n.Z.p.4.6.7.r.d.d.d.v.n.t.7.7.t.n.u.7.s.a.6.7.t.r.0.0.t.t.r.s.g.a.a.d.d.d.v.g.i.d.n.g.i.d.n.c.M.D.Z.g.d.a.d.n.d.t.s.s.7.4.0.9.4.6.t.7.6.d.d.e.t.7.t.g.g.d.d.s.6.1.4.6.a.d.y.d.g.a.7.7.a.d.Z.a.6.s.7.4.7.4.9.7.7.p.t.t.d.s.t.t.t.t.t.a.d.a.a.t.t.a.t.t.t.t.t.a.7.7.7.&.t.7.O.t.#.....+.4.6.4.7.6.7.k.p.7.4.7.d.d.i.d.d.t.4.4.6.6.a.i.u.d.t.4.4.4.6.a.a.4.s.t.4.4.9.4.6.6.t.e.+.t.a.t.u.a.a.a.t.t.u.t.e.t.7.7.u.t.t.a.t.6.7.7.7.s.s...7.7.<.<.<.<.4.| 4.7.+.t.4._ _ [ 7.7.5.4.7.4.{ _ { } +.| | +.#.| ) _ { +.6.| | 4.} _ [ [ } { _ <.{ | 4.@.6.6.| +.4.+.{ | 4.| | <.3.} +.} _ _ _ [ _ _ _ R Q [ U S W W W ) Q [ Q ) } R W E ) | { { { | Q F F W ) Q W _ _ W S U W _ W U R U U W W W U W W U b ( _ R Q R U W ) T U W ) R S U W Q W Q W W U U U U V y l B l d n m d M ",
"C B B B C B c W S x U U c S W Q R R Q U U U W R R _ ..+.+.| | _ _ Q } 4._ { { R ( T U b b U b U } } } _ } } | ..@.+.4...' +.@.+.#.+.| { { { | +.@.6._ { +.} } | | } } 1.2.} 1.7.} _ ..6.#.#.@.@.6..._ [ ,.4.7.e.$.t.7.4.<.4.q.i.6.7.t.6.4.4.4.4.4.e.7.+.t.a.t.t.t.u.a.a.u.t.u.d.a.t.u.i.a.d.d.a.u.u.t.d.a.a.t.#.a.7.4.7.6.6.6.e.t.6.e.k.p.4.4.a.a.i.y.a.7.4.4.9.4.4.7.a.a.t.a.p.6.4.6.i.t.+.7.7.#.7.4.4.4.6.t.6.@.d.d.d.g.n.d.i.t.t.a.d.g.u.t.i.t.y.i.a.a.d.t.t.d.i.d.$.7.t.7.6.6.7.7.7.t.a.$.d.g.t.7.t.d.n.n.D.Z.a.7.9.8.0.6.t.a.d.d.v.n.a.6.t.n.i.7.s.p.6.7.r.r.7.7.s.t.t.V.M.n.n.d.g.d.i.i.d.v.n.g.d.d.d.n.n.n.D.n.d.d.i.c.n.t.t.s.7.6.9.9.6.4.t.7.#.d.d.7.7.e.a.d.d.g.s.7.4.8.8.4.4.a.d.i.d.g.s.e.e.d.Z.a.7.s.7.4.4.9.7.7.7.p.7.a.d.s.s.a.a.a.t.a.s.d.a.t.t.a.a.t.t.t.t.t.t.t.#.$.t.6.| t.#.....4.4.4.6.0.6.t.z.t.#.e.s.d.d.v.c.a.7.4.6.7.4.e.i.i.t.i.t.6.+.6.a.t.6.t.7.4.4.9.6.4.6.a.7.+.a.i.a.a.d.a.t.t.t.t.t.t.7.t.t.t.t.t.t.t.t.7.t.t.a.s.| 4.7.1.<.1.<.1.<.6.4.+.a.6._ { 6.q.6.6.6.4.| _ { | } } ..4.+.+.+.| _ { 4.7.| ..+._ _ } [ [ _ } [ _ 4.6.+.6.6.+.+.@.4.4.| ..| } } } | | | | | } ) R _ Q W ) ) W E W W W R _ _ Q } | T W ) _ { ` | } ) U F F U U R ( Q Q _ W U W _ ) W [ W U E U U S W Q U b _ _ R R ) R Q W T U ) W Q U W E Q ) ) U V S U S U V f f B l l n m f m ",
"B M V B B B V E c c Q U T U _ ( R R E W W U ) R T T _ | | { | { 1._ ( 6._ { { R ( W S c b c x x W { { R _ _ } | @.+.4.+.| +.#.@.+.+.+.+.| { @.+.+.7.{ { +._ { <.<.} } <.2.} | 7.+...6.7.@.@.6.4.| | [ [ 2.1...7.7.$.t.7.4.4.e.d.6.7.t.4.4.8.4.4.4.e.7.4.t.a.s.t.t.u.a.d.u.t.i.d.t.t.t.i.i.u.i.d.a.u.t.i.a.d.t.#.a.7.4.7.4.4.6.6.e.7.7.d.s.6.7.s.a.a.a.t.4.4.4.9.4.6.4.7.a.t.t.d.7.4.6.a.t.+.7.6.#.6.+.6.4.6.t.4.@.d.i.d.d.g.i.y.i.d.y.a.d.i.t.d.t.d.y.i.d.d.a.t.t.a.d.#.7.t.#.7.6.6.7.7.t.s.$.a.g.t.t.s.Z.n.n.D.s.9.0.r.9.6.0.7.t.d.d.d.n.n.t.t.n.a.7.s.t.6.7.0.r.r.e.s.t.7.d.n.n.n.n.d.i.u.a.n.n.g.n.n.d.d.n.n.d.n.d.d.d.i.d.c.e.t.a.7.0.9.9.6.4.t.7.#.c.d.#.#.u.g.d.d.d.r.4.9.0.8.4.4.7.a.d.i.g.n.a.e.s.Z.a.6.s.7.4.6.9.4.6.0.a.6.t.d.t.d.d.s.s.a.t.s.a.s.s.a.s.t.t.t.t.7.t.t.t.t.$.7.6.] 7.@...+.6.4.4.7.p.4.t.Z.e.e.a.d.d.d.g.a.7.6.7.4.7.7.@.7.i.t.i.i.t.@.#.a.t.+.r.7.4.4.4.9.4.4.s.7.| e.t.a.a.a.t.7.7.t.t.y.i.t.t.t.t.t.t.7.t.t.7.t.i.a.r.| ..4.1.} 2.<.<.| 9.4.| a.6.' +.t.7.@.7.7.} _ | } } } _ { 4.@.@.6.4.{ _ +.7.| ..+.{ _ ,.[ [ _ <.[ _ 4.6.+.@.6.@.o.+.@.4.4.} | } _ { { { } 3.4.} Q _ { R S ) _ Q W U W W T _ _ T } | T Q } _ _ { } ) E E W F E U W ) _ Q _ W U W { W S Q W U U S U S U W U U _ Q R W _ R Q W U W Q W W E W E Q Q Q U V U W V U U h B B l M f n m m ",
"B B B B A B c U S c W R R Q ( R _ R E W W T ) _ ( R R _ { { | | 4.| } 4._ _ { _ ( W S c c b c l U R R R ( _ | | +.@.4.+.+.+.@.+.+.o.+.| { +.+.@.@.6.` ` ..` _ <.| } } 2.2.} 4.7.6.7.7.6.6.+.1.1.<.| <.,.1.4.4.+.#.t.*.t.t.7.t.a.6.4.0.6.4.8.8.4.4.p.7.@.t.a.a.s.d.d.a.a.t.u.a.d.i.t.t.a.i.t.t.a.d.d.i.i.d.g.t.@.t.e.4.7.6.4.4.7.t.6.7.d.s.a.s.a.y.d.t.9.8.9.4.9.0.7.4.7.7.a.t.a.a.t.#.u.i.+.#.e.#.@.4.4.4.6.t.5.+.y.i.d.d.i.i.a.a.d.i.d.i.i.d.d.a.d.i.i.d.d.a.a.t.a.d.#.#.t.$.6.6.7.9.7.t.s.#.i.d.a.a.d.d.D.n.s.0.r.0.0.p.0.7.0.7.t.d.n.d.M.n.a.g.a.7.s.s.7.0.0.0.7.t.j.t.e.s.d.i.d.g.a.i.d.g.g.v.M.M.v.d.n.n.n.d.a.d.d.d.d.d.a.7.t.s.7.9.9.9.6.6.p.7.#.d.d.e.t.d.d.d.a.r.9.9.4.0.0.4.6.7.7.a.d.d.n.n.a.i.n.p.6.a.e.4.4.6.9.4.0.t.6.7.a.s.a.a.d.d.a.a.s.a.a.d.a.t.t.t.t.t.t.t.t.t.t.$.7.@.] $.+.+.4.6.7.6.7.p.6.t.d.u.d.d.d.g.i.a.7.0.6.7.6.6.7.6.@.7.i.i.i.d.t.$.i.t...7.r.4.4.4.9.1.6.s.6...7.t.t.t.t.7.7.t.t.t.t.t.t.t.t.t.t.t.t.t.t.t.q.t.t.e.| 4.6.| <.<.4.| ..9.4...t.6.| @.7.7.7.7.<.>.[ <.} [ } } { } @.7.7.e.6.| ..6...+.@.} [ ,.<.{ ` 4.<.{ | 4.@.6.6.+.| +.4.o.| | } } _ _ { | } { { _ _ _ } [ U U _ ) Q ) Q W T ) ) T [ | _ [ { _ _ ) W W W W Q W E W W E ) _ _ _ Q W _ E x U W U S S F S S U U U [ _ _ R W R ( W Q T R ) W U W W Q Q W U U F U U U F x B V l l m M m n ",
"C M l B A B x U E x V U U _ _ Q ( T W U U Q { _ _ R R Q ..{ | { { +.` | R ` | _ R U U x l T T c W R R ( ) } 4.| | +.@.+.| ..| ] @.+.+.| ` | | @.+.4._ _ @.` _ <.<._ } 9.2.} +.4.7.7.7.6.+.| [ ,.<.} 8.4.} } 4...+.6.t.t.t.t.t.t.6.+.t.7.4.9.9.4.4.s.t.+.t.d.s.a.a.d.t.t.t.a.i.i.d.t.t.y.a.u.t.t.t.a.d.v.a.a.t.@.a.t.+.4.7.6.4.t.t.6.e.d.s.k.s.s.i.s.7.9.9.4.r.d.t.7.7.7.4.p.t.t.i.t.7.u.t.+.#.t.#.+.4.4.4.7.i.6.+.t.y.i.i.i.i.d.i.i.d.d.i.i.i.d.d.d.d.d.i.d.d.v.i.i.d.$.#.a.e.4.6.7.6.7.s.s.#.i.d.a.d.n.n.n.s.0.0.p.9.r.k.s.7.0.0.6.t.c.c.n.D.n.Z.a.7.s.d.7.9.r.0.7.a.k.e.7.s.d.i.d.d.d.d.n.n.d.d.n.n.n.n.c.d.d.d.d.d.a.d.i.d.a.7.t.k.7.6.0.0.4.7.j.7.@.d.d.i.v.d.d.d.e.9.9.9.4.t.d.p.4.7.r.7.s.d.d.n.n.d.d.e.#.a.t.4.4.4.7.6.t.a.6.7.a.a.a.s.d.a.d.a.u.a.a.s.t.7.t.t.7.t.t.7.t.a.q.$.7.+.] 7.+.+.4.4.7.6.r.p.6.t.d.d.c.n.d.i.e.7.9.r.6.9.a.7.4.7.4.4.t.i.y.i.i.t.y.7.+.t.t.4.2.8.1.1.e.s.+.| t.u.t.t.t.t.e.s.t.u.t.t.t.t.t.u.t.t.t.7.7.t.7.6.t.7.| 6.7.} <.<.4.| ..9.4.| e.6.+.#.@.7.6.| [ ,.[ [ <.1.} [ [ } } +.+.4.7.7.@.4.| o.5.+.} [ <.{ ' 4.<._ { 6.6.5.+.+.+.| | } { | } } } ) [ +.| ( R _ _ _ | } W W _ R W ) W E R ) ) U ! } } } [ _ ( E E W Q E _ | Q U W U W R ) { _ R _ Q c W ) S S S S x S R U U [ { ( T U R ( W ) K R ) U U R E W Q U U E V S U U V x B F l d m B n f ",
"F B l d M M V U U c S x W ( _ ( U U T S U } | _ _ ( ( ( _ | +.| | | ` { ( ` | ` ( H S x c Q U b T W ( ( _ | 4.4.+.| o.@.+.` ` ` @.@.+.| | { | ..+.6.{ _ 4.| _ ,.<.[ } 9.8._ | 6.6.6.7.6.| [ ,.>.,.4.7.6..._ [ 1.4.+.#.t.t.t.t.t.6.7.s.t.4.8.9.4.0.d.t.+.e.u.u.a.a.t.t.t.t.a.i.i.i.t.t.i.i.a.t.t.t.t.d.d.t.t.7.@.a.a.+.4.7.6.6.a.s.6.7.d.d.k.d.n.a.7.7.0.8.0.s.s.a.t.7.7.0.7.t.t.q.t.t.t.t.+.7.t.7.@.4.6.4.t.i.6.6.a.t.t.t.t.i.d.i.i.i.i.i.i.y.d.c.d.i.i.i.d.d.g.d.i.d.7.7.d.t.6.6.9.6.7.d.s.#.u.n.n.n.D.D.s.7.p.r.0.t.k.n.d.t.7.9.7.6.p.Z.Z.n.n.Z.s.7.k.z.p.7.0.0.7.d.Z.7.7.s.g.d.d.i.d.d.d.c.g.d.d.d.n.v.c.d.d.d.a.a.d.a.u.d.a.7.p.z.p.6.0.0.6.t.V.7.@.d.d.i.d.g.s.e.9.9.9.6.t.s.a.d.t.4.7.r.7.p.s.d.d.d.d.7.6.s.a.6.4.6.4.7.a.s.6.t.s.p.a.d.a.a.t.t.t.d.t.t.7.7.t.t.t.t.t.t.a.d.t.#.q.@.] t.7.+.+.6.4.6.s.s.4.t.n.a.c.n.a.7.6.0.9.7.7.s.d.a.7.4.7.4.@.t.d.i.y.i.y.t.+.t.a.0.1.9.1.4.t.s.#.| t.i.t.u.t.t.t.t.t.i.i.i.t.t.t.u.t.t.7.7.7.e.7.7.7.7.<.4.0.1.} 2.2.| 4.0.| | 7.7.@.7.7.4.| } >.[ } | 4.6.1.} { } } { | +.@.4.@.6.{ ..6.4.| } [ _ | 7.| { ..+.@.+.| +.@...} _ [ } } } [ { { | | { Q Q } { { } ( Q { ) D E W W W [ ) E _ { _ } | ) W W W W W ) | 1.[ W W W W U W Q _ Q _ _ E Q [ U S V S x W [ U U } _ T T R W W Q Q R R W U U W W Q Q W W Q W U V U F l Z U B d d M m M ",
"U W V y f f U E S S U U ( R R U c S U S R _ { { _ ( _ ( R _ { | 4.| ..| _ _ | | ` U c x K Q c b W T ( ( | | +.4.4.| { +.@.| | { ..+.o.` ..| +.+.@.6._ _ 4.+._ >.<.} 4.9.1._ 4.6.@.6.6.<.,.>.>.>.<.7.4.6.7.| } 1.4.4.| 6.a.t.t.a.6.7.s.s.9.4.4.8.s.k.7.+.7.t.t.t.s.a.i.a.i.i.i.i.i.i.t.i.i.i.d.u.t.t.a.t.t.t.7.+.t.a.7.4.4.4.e.a.p.6.r.d.g.d.d.a.7.7.7.7.9.j.a.t.t.u.7.4.7.4.6.7.7.i.t.t.t.+.7.t.t.6.| 4.6.t.t.6.7.a.t.t.t.t.t.y.i.i.y.a.i.i.i.a.d.i.i.y.a.c.d.d.d.d.d.7.#.d.d.e.4.6.6.s.d.s.#.a.n.n.n.D.s.0.0.p.0.0.d.n.d.g.v.t.5.r.7.7.s.n.D.n.n.d.7.s.D.g.7.9.9.p.Z.Z.6.7.s.d.d.i.i.d.d.d.d.c.d.d.d.v.d.c.d.d.d.d.d.d.a.d.d.a.7.t.Z.g.7.4.9.7.s.Z.7.+.a.f.i.d.d.e.6.0.0.4.0.d.d.a.d.d.7.4.7.7.6.a.g.d.d.n.p.@.a.d.7.1.4.4.t.c.a.6.a.a.t.u.d.a.u.t.t.t.u.t.t.t.t.7.t.a.t.t.i.t.t.#.+.t.6.` t.s.6...6...7.a.a.+.t.n.i.d.d.t.7.7.r.9.6.a.d.d.d.a.7.4.7.+.6.t.d.i.i.i.a.6.t.d.s.4.2.1.7.s.s.+...t.t.y.t.t.t.t.t.t.i.i.i.t.t.y.t.t.7.7.t.7.e.7.e.6.7.| 4.t.6._ <.2.} 7.0.| | 7.t.7.7.6.| _ ,.[ [ 4.7.@.@.6.6.} ) } } | 7.5.@.@.6.{ | 6.7.| { _ _ +.6.{ { +.{ | #.+...+...} _ _ _ [ [ ) { } } | | { ) } ` ` 1.} _ | } S F Q W R ,.Q U } { _ } _ W E Q ) E W [ } _ _ _ W U W U U W _ Q W Q W W [ ) U x V U [ [ U b Q R U Q ) U R R Q W W W W U U U E W Q W W W U c U V f B U F B t n d B ",
"U Q E V x x T R b S R Q ( U S c S c S T ( R } ` ` _ _ _ ( R _ { +.+.+.6._ ( | +.` R U H ( R c c W R T _ | | 4.+.4...| ..+.+...{ ..| | | | ..4.4.+.@.{ ( @.@.} _ ,.4.5.0.1.} 4.t.e.6.<.>.,.,.[ 1.6.6.#.#.#.7.6.<.1.4...4.7.i.a.d.e.7.s.d.p.4.2.p.d.d.e...7.u.t.s.s.i.a.a.i.i.i.i.i.i.d.d.y.i.i.i.i.a.t.t.t.a.e.+.t.d.y.7.+.6.i.a.a.4.r.k.d.g.t.7.6.7.4.7.s.a.t.t.t.t.t.7.4.6.4.4.7.t.y.i.t...7.y.i.7...4.t.t.t.4.4.t.7.t.t.t.t.t.t.i.i.a.d.d.t.i.t.i.i.a.i.d.d.v.d.d.d.7.#.d.n.i.#.6.p.d.g.t.@.a.d.M.Z.s.0.p.r.0.0.k.d.d.d.c.v.d.t.7.0.7.7.s.n.n.Z.d.e.d.D.D.a.7.0.k.D.D.6.7.d.a.i.d.d.d.d.g.d.d.d.n.n.d.g.n.n.a.i.d.g.d.d.i.d.d.7.e.n.D.a.6.6.s.n.c.7.@.s.d.d.d.7.9.0.9.6.r.s.a.i.a.i.i.a.7.4.6.7.7.a.g.v.D.s.6.a.n.a.6.4.e.d.d.a.6.a.d.u.t.a.t.t.a.d.d.t.t.a.a.t.6.t.t.t.t.t.7.7.+.+.e.6.' t.d.t.+.1.6.s.a.a.@.t.d.d.d.t.7.0.7.0.7.p.d.d.y.d.d.p.4.4.6.4.4.a.d.i.i.u.6.a.d.d.7.1.4.a.u.t.....7.e.t.t.t.t.t.t.t.t.t.t.y.t.t.t.7.#.7.e.t.p.r.7.7.0.| +.t.7.| [ <.4.7.7.| | 6.t.t.7.| } } [ } 4.6.#.+.+.@.4..._ ( _ } ..6.7.7.7.} { 5.7.@.{ { { #.@._ { +.` ` +.@.o.o.+.} [ ) _ _ _ _ { } { { } } { { ` | | ) _ | } ) E W R _ <.Q U [ | | } Q E Q Q Q ) ,._ Q W ~ _ Q E E U E E Q Q ) W S W _ _ W V S Q _ Q S c W W W Q ) Q R T Q R Q Q W U E V S V E E U c V c U V l l U E F m p m Z ",
"U U W U S U H T c U _ R W b c V S c W _ L R ( ` ] _ _ _ ( R ) ( } +.o.4._ ( | ] ] ` } ! R K x x W T K ) { +.@.o.+.+.{ { } } | ..| | +.| { +.7.@.| @.{ ( +.#.@.{ | 7.@.6.4._ 1.7.7...} >.>.>.<.7.7.@.#.#.+.$.t.5.| | 1.1.4.t.i.a.6.6.a.d.d.7.9.j.s.u.e.| e.a.u.a.t.t.t.i.d.i.i.i.t.t.d.i.y.t.i.i.i.i.t.t.t.a.7.+.t.i.i.i.t.t.i.t.t.@.e.d.a.t.7.7.7.4.4.t.d.i.t.i.t.t.t.y.5.4.4.4.4.7.t.t.t...#.t.t.t.#.e.t.t.t.| ..6.7.t.q.t.t.t.e.t.a.d.a.t.u.i.a.d.t.a.t.a.d.d.i.u.d.7.@.d.x.d.t.t.d.i.d.t.+.t.d.d.a.0.0.p.0.0.s.Z.d.d.d.d.d.v.d.t.7.e.7.e.a.g.D.d.e.d.n.n.Z.a.s.Z.M.Z.7.7.s.t.t.d.d.d.d.v.d.i.d.n.n.c.v.n.d.i.i.d.d.d.d.i.d.a.#.e.d.v.n.s.t.d.v.d.7.6.a.i.u.t.6.9.7.4.7.s.d.t.t.i.t.t.a.s.6.4.7.6.7.a.c.Z.p.6.a.d.a.a.a.a.d.i.t.#.t.s.t.e.7.t.a.a.d.u.t.t.a.a.a.7.7.t.t.7.7.t.a.7.6.#.7.' @.i.t.6.+.7.d.t.t.4.t.d.a.a.7.4.0.6.9.p.d.a.a.y.i.i.a.t.4.4.6.4.7.s.i.d.a.#.t.d.a.a.t.w.s.t.t...| t.t.#.7.t.t.t.t.t.t.t.u.t.t.t.t.q.7.6.7.t.t.7.4.7.t.| +.7.t.6.1.4.7.$.6.| | 6.7.7.+.[ } _ _ ..7.#.@.+.+.] | @.+._ ) _ _ | 6.5.4.} _ +.6.+.6.+.| +.+._ _ +.` _ ....{ | +..._ ) [ ) [ } _ _ { | } } { _ { | [ W R { | } ) Q ) } [ Q U _ | } ) U U W U Q [ } W U ) { R [ Q U F E W U W ) U c W _ ! [ R Q R ( Q c S ) R ) W ) ( W U W W ) W U U U S S S U V S V U U U U f x U U U Z M Z U ",
"U H U c U U T U c S Q R c c S c b R ` ' _ R _ ` | ' ' _ _ ( R ) { { ..| Q _ ..] ] ] | ` L K c z W K R R { | +.+.4.+.| _ _ { | | | | | | +.6.6.@...+.{ ( +.@.@.@.4.@.#.6.1._ <.4.| } <.,.[ <.6.7.#.7.#.@.#.$.e.t.6.| | 4.4.7.i.t.@.6.s.d.a.s.s.s.s.s.7.4.r.d.a.a.a.t.t.u.i.i.d.i.t.t.t.i.t.t.i.i.i.t.t.t.t.a.t.@.s.i.t.i.i.i.t.t.t.@.t.d.t.7.7.e.4.4.t.d.t.d.d.t.t.i.y.t.t.6.<.4.4.4.6.t.t...+.e.$.t.t.t.t.t.t...+.7.t.t.t.t.t.t.t.t.t.d.i.t.a.t.a.a.a.a.t.a.i.i.i.a.d.7.#.d.d.x.d.i.d.i.d.y.+.t.d.a.7.0.0.0.0.j.k.d.d.d.d.d.d.c.n.d.7.7.0.7.7.d.n.d.7.d.n.n.n.Z.Z.n.n.Z.7.7.a.t.i.d.g.v.g.g.d.d.d.d.Z.M.n.d.u.a.d.a.d.g.c.d.d.s.#.e.a.i.g.d.d.i.d.d.7.6.a.d.e.6.7.6.4.6.a.d.i.i.t.t.t.t.u.a.t.6.4.6.7.e.a.s.t.6.a.a.a.d.d.a.i.d.p.+.e.s.t.7.t.t.a.a.t.e.t.t.y.a.a.q.t.t.t.t.t.y.a.t.7.#.7.` @.t.t.7.7.t.t.e.t.+.t.d.t.6.7.4.4.6.p.s.d.t.u.i.i.t.a.s.r.4.4.7.6.7.i.d.a.+.t.a.a.a.s.p.t.e.t.| | 7.t.$.7.$.t.i.u.t.i.t.t.t.t.t.t.t.t.6.7.6.7.6.6.t.t...4.7.t.t.t.7.#.#.6.{ | 7.6.| | } _ ( | 6.#.#.6...| | +.+.+.| _ ) [ } | | 5.} _ +.+.@.7.4...| +._ _ | | { ....{ { | 4.} ) Q _ <.1.} { { +.| { _ { { { } W U } | { } } { { } Q U _ { R W W U U E [ } Q U R [ _ Q [ _ W S U U W W Q E S Q _ Q { { _ W Q Q U U [ ) R Q Q R T U W W Q W U U W W W U E V V E W U U U l l F V U V F F U ",
"U b z b U b R T x l E U l V S c U ` ` ` | ` | ` } | ' _ | { R ( [ _ ..+._ ( | ] ..` } _ L R U z b T R T } { | @.+.{ { } { | ..{ | | | @.6.6.+...+.+._ ( +.+.+.4.6.+.#.7.<._ 4.4.| [ [ >.<.4.6.4.@.7.7.@.$.$.#.t.t.+.| 4.4.4.t.t.6.+.a.a.a.s.s.a.a.a.7.4.7.d.u.a.d.a.t.t.t.d.i.t.t.q.y.i.t.t.y.t.i.t.t.a.t.a.t.@.t.i.t.y.y.i.=.t.t.4.t.d.7.0.9.6.6.t.t.t.t.t.i.t.q.t.t.7.t.7.1.2.2.4.4.u.t...6.e.$.t.t.t.t.*.t.@.6.u.t.t.t.t.t.i.y.t.7.t.t.d.a.a.a.a.a.a.t.a.t.a.a.d.d.7.#.a.d.v.d.x.d.y.d.a.@.t.d.t.7.r.0.9.s.Z.d.d.d.d.d.g.d.d.c.n.a.e.7.w.7.s.n.a.7.a.n.n.v.d.n.d.n.C.7.7.a.d.i.a.d.c.d.d.v.n.a.s.d.n.n.a.t.d.d.i.u.a.d.i.i.a.$.7.a.d.i.d.g.i.i.d.6.4.d.d.6.4.0.4.4.t.d.i.i.i.u.t.t.a.a.u.d.r.4.8.7.7.t.s.e.4.t.a.a.t.a.u.t.d.t.+.7.a.a.i.u.7.t.t.t.t.s.q.t.a.t.q.t.7.7.t.t.t.t.q.t.7.6.] @.7.t.7.t.t.7.7.p.+.t.d.t.6.0.4.4.p.d.a.a.u.t.t.i.y.a.s.a.t.6.4.6.4.t.a.t.+.7.d.a.t.s.t.7.7.t.| | 7.q.q.7.#.7.t.t.t.u.t.q.t.u.t.t.t.t.t.7.6.4.6.a.t.t.| +.e.7.#.7.6.+.#.7.} | e.6.{ <.} ) _ @.#.@.@.@.+.+.+.4.| | +.| ) ) } { | 7.} _ +.#.+.@.@.| | +.{ _ { 4.+.| +.| ` { | [ ) _ { { 1...{ _ ..| _ _ } { } <.) U _ | } { } _ ` } W U [ _ U W Q U U ) _ [ ) W Q _ Q _ Q Q _ Q W F E W Q Q S W _ _ _ Q R W Q ) W U _ R W Q Q U U W R U R Q U V E E U V V S W Y U V c S l f V U B x F F F ",
"S c b S U T T U x l U b c x x T ' ` ` ` | +.| | ..} _ _ | | } ) ) _ | 4._ Q { ] +.] } R K ( E x S U T ( } { +.| { { | | } | | +.+.+.+.+.@.+...+.+.@.{ _ +.@.+.+.@.5.@.7.4.{ 4.7.| ) [ <.7.7.6.6.6.@.6.7.#.#.7.7.t.t.4.| 4.4.7.a.7.6.a.a.a.a.s.s.a.a.t.4.t.d.u.a.a.d.i.t.t.i.i.i.t.t.t.i.i.t.t.i.t.u.u.t.u.a.7.+.t.i.t.t.t.u.=.i.t.@.a.s.7.r.4.4.7.a.t.t.q.t.t.i.t.t.7.e.7.t.7.2.<.4.4.t.t.+.7.t.*.*.*.t.7.*.t.@.#.u.t.t.*.t.u.d.a.t.7.t.a.a.a.d.a.t.t.a.a.a.a.d.a.d.d.7.#.d.d.x.d.d.d.u.d.a.@.t.d.t.0.0.9.s.k.z.d.n.n.n.d.d.d.n.d.c.n.d.t.7.e.t.g.a.7.a.g.n.v.d.d.d.n.D.r.7.d.g.a.d.a.d.d.d.d.n.d.d.a.g.n.d.a.d.d.d.a.u.t.t.i.a.7.e.d.d.i.i.d.i.d.d.7.7.a.a.e.4.4.6.t.i.d.d.i.i.u.i.d.a.a.i.d.d.p.6.6.7.r.s.e.4.p.s.s.t.t.t.t.i.t.4.7.a.i.d.a.t.t.t.t.t.s.t.t.t.t.t.t.7.q.i.t.7.6.7.e.e.6.| 7.t.t.t.t.t.7.7.t.4.7.s.t.0.4.4.p.a.d.a.a.i.u.t.t.a.a.a.a.d.s.6.6.6.e.a.s.+.e.a.t.t.a.t.e.7.r.| +.t.q.#.7.6.6.@.t.t.t.7.t.t.t.t.t.t.i.t.e.6.6.e.a.t.t.| ..e.7.+.#.@.+.#.7.} ..7.4.| ,.) } +.6.+.#.@.+.+.+.+.+.+.+.+.+.| ) ) } } 4.} _ +.#.+.+.+...+.+.{ _ +.4.+.| { | | | { Q ) [ _ { } } _ _ { { { [ } { | | ) W _ | { } _ Q _ } Q W _ ) W Q Q E R } _ ) } Q Q ! { _ Q R _ [ ) W E W ) ) U W _ _ _ W R W ) [ W E ) Q ( _ _ T W Q Q R Q Q E S U V V V V E Q E S x V V f l V V V V Z Z U ",
"U H R U U U H W c x W c S x S _ ' _ _ _ } | | | .._ ( _ { ..4.) W | | 4.[ ( +.o.` ] ` R T ( W x U U T _ ` { ..} ` | 4.| | } } | ..| +.| | { +.+.+.@.{ { +.#...| 4.6.@.6.4.} 4.7.{ ) 1.4.4.#.@.6.7.#.6.7.@.@.t.q.7.t.t.4...4.7.a.t.6.t.s.a.p.a.a.a.a.t.4.e.i.i.d.i.d.d.a.t.t.i.i.t.i.t.i.i.i.t.i.t.i.i.t.a.d.7.+.t.i.t.t.t.t.y.d.t.@.a.s.7.4.4.7.t.y.y.i.t.t.t.t.t.t.7.t.6.t.t.7.<.4.6.7.t.+.6.t.t.$.$.t.#.*.t.+...7.u.t.t.t.t.i.t.t.t.a.a.a.d.a.a.t.t.a.a.a.a.d.a.i.d.t.#.d.d.d.d.d.i.d.d.a.#.a.a.e.0.0.t.z.g.d.d.g.d.c.d.d.d.d.d.d.v.M.a.t.e.t.g.d.e.d.v.d.c.v.d.d.g.Z.7.t.d.d.g.d.u.t.d.v.d.d.n.d.a.g.d.d.d.d.a.d.d.i.t.i.a.t.7.t.g.i.i.i.y.d.v.a.7.7.a.a.e.4.4.p.i.u.u.x.c.i.i.i.d.a.a.a.i.d.d.7.4.6.a.s.7.6.s.s.t.t.t.t.i.t.e.4.7.d.i.u.a.d.u.7.7.e.t.t.7.t.t.t.t.7.t.t.#.#.t.e.#.t.@.| t.t.7.t.t.7.t.7.r.+.7.s.e.6.4.t.d.i.i.i.i.i.a.t.u.t.a.a.a.d.d.s.6.6.e.d.a.+.p.s.t.a.t.7.t.t.t.| | 7.#.+.7.6.7.6.7.6.t.7.t.t.7.t.t.t.t.7.7.7.t.t.7.t.t.{ +.7.#.$.#.@.7.#.6.} +.4.4.} [ _ 6.7.#.+.+.+.#.+.| +.@.@.@.+.@.+.} ) { | 4.{ } 4.+.+.+.| +.+.+._ ) } } | { { +.+.+.| _ Q ) [ } { [ } { { [ { [ [ } | [ R Q } } { | _ _ _ { [ W [ ) T E E ) } ( ( _ _ _ _ Q _ R W Q _ Q [ Q F W _ Q U Q _ ) Q ) ) W Q _ U U W Q _ ) R R Q U R Q ) W U S W U U U W E E E V x B B y B U V U V B Z U ",
"W R W T W U U U c V W W U U ) _ R R _ } } _ } | | } } { } +.4.) R _ | 7.} _ +.+.] ` ` R R _ U c U T R ' { ` ' { | | | +.4.| } { { { | { } | @.@.+.+.} } 6.@.+.+.+.5.#.7.4.} 4.6.{ _ 4.4.| | @.@.6.e.q.7.7.7.t.t.a.i.a.t.+.4.e.d.p.7.a.a.a.a.s.a.a.d.t.4.7.i.i.d.a.d.d.i.t.t.t.i.a.d.i.d.i.i.i.i.i.i.i.i.t.a.7.+.t.a.y.t.t.t.y.d.t.+.a.d.6.4.7.d.t.y.y.i.t.t.i.t.t.t.t.7.7.t.t.a.6.4.4.t.t...7.t.$.$.$.e.$.*.t...| #.e.t.t.t.$.t.e.t.a.a.a.d.g.a.t.t.a.d.y.a.a.d.d.d.d.7.7.d.c.d.d.i.i.d.d.p.4.s.d.7.4.t.k.d.d.d.d.a.i.d.d.v.n.g.a.i.c.v.n.a.6.t.M.d.t.d.n.v.d.c.d.v.n.n.7.7.d.g.v.d.t.t.d.v.v.g.d.d.d.n.d.c.d.d.d.n.d.d.a.i.i.a.7.t.n.d.i.i.i.d.v.d.t.6.d.i.#.+.t.d.u.t.u.i.d.d.i.i.i.d.d.d.d.d.d.s.7.6.s.k.7.6.s.a.t.t.t.t.t.i.t.4.7.a.u.a.a.t.t.t.7.6.7.7.e.t.t.7.t.t.t.e.@.7.p.7.7.e.6.| t.t.e.t.t.t.a.t.7...e.d.7...0.s.t.u.d.y.t.a.a.a.d.t.a.a.a.s.d.n.p.+.7.d.s.+.p.a.s.t.t.7.t.t.p.| | 6.#.#.6.6.t.t.t.6.7.t.t.e.7.a.s.7.#.6.7.q.t.7.e.e.7.{ ..7.#.#.$.#.@.$.7.| +.7...) } 6.7.$.#.#.@.@.@.#.#.6.6.+.+.+.@.@.4.} _ | 4.{ { 6.+.| | | +.+.+._ W _ | { { | | | +.@.| ) Q [ } _ [ | | } { { } [ { { _ ) ) [ { } { { { } } [ Q } _ U U W [ _ ) _ Q ) _ _ _ W W W R ) ) ) E U W _ [ W ) } Q Q _ ) R Q ) U E Q U T E W T W U W Q R U U E W W W U E U E U V V F B l Z W E E U F Z V ",
"Q R U ) R U W V x B W ) U R _ R R Q } { { _ _ { | | 4.{ ` | +.{ [ ( | 6.} Q | @.] ` | _ R ( c x W K _ ` _ _ | | ..{ | +.@.+.+.{ } | | | } +.7.@.| +.{ { 4.+.+.+.+.@.7.6.{ { 4.4.| ..4.4.+...#.@.+.7.7.6.7.7.6.t.a.t.t.t.6.4.7.a.t.6.a.a.a.s.p.a.s.a.7.+.t.a.t.a.i.i.i.a.i.t.t.t.t.a.a.t.t.i.i.a.i.t.t.t.t.a.6.+.t.t.i.y.q.y.t.i.t.+.p.a.7.7.a.d.i.i.t.t.t.t.t.t.t.i.t.7.t.t.t.u.e.@.+.t.t.| #.t.$.&.#.7.*.t.$.{ | #.@.t.t.t.*.$.t.d.t.a.a.d.g.d.t.d.t.a.d.d.y.a.d.d.d.7.7.d.x.v.u.d.i.d.i.t.#.t.d.e.7.d.n.d.d.n.d.d.a.d.d.d.n.n.d.d.d.d.n.c.t.u.M.d.e.a.v.v.c.d.n.c.n.d.7.6.d.v.d.n.d.a.d.d.n.d.d.g.n.c.v.n.d.g.n.d.i.d.d.u.i.a.7.e.d.v.i.i.d.v.v.a.7.7.s.t.#.t.d.i.i.t.t.i.i.d.i.i.d.a.a.i.i.i.d.d.t.t.d.s.7.4.p.d.t.7.t.t.t.s.e.4.7.t.t.t.t.t.t.t.t.7.7.7.a.t.7.7.7.a.t.t.t.7.t.7.e.#.6.| 7.t.t.t.t.t.t.t.7...7.d.7.4.p.s.t.t.t.t.i.t.a.a.i.a.t.t.u.t.i.d.d.6.#.d.a.@.t.a.a.t.t.t.t.p.7.| | 6.t.6.6.7.t.e.6.4.6.7.t.7.a.a.a.7.6.7.t.7.7.e.t.$.6.{ | #.7.@.$.#.+.e.7.{ | 7.} _ 4.7.7.#.6.#.+.+.@.@.#.+...| | ....+.6.+._ { 6._ { 4.+.{ ..+.....{ Q R } ..{ ....{ | +.+.1._ ) [ [ { { | } { { { | 1.} ) [ [ R _ | { ` } { } } W R } ) U W ) Q Q ) _ R Q W R Q W W Q E R _ ) W W U ) } W W [ { { Q ) ) Q E S W Q b b T R U U U T U U U Q E U U U S U U U V V S U V V U E U U U U V F ",
"W _ Q Q ) U U x B x ) R U R ) T W { | ` | { } _ { +.4.+.+.| +.@.4.| | +.{ R ` { ] ` ' _ R S c S U R ' _ R _ { ` +.+.| | +.@.4.+.+.+.| | | 5.$.@.+.+.{ _ | @.6.+.@.6.4.+.} { 4.4.+.6.6.4.@.@.+.4.6.+.@.6.6.6.6.6.6.6.7.t.t.6.t.a.t.4.7.t.a.a.a.a.a.t.7.4.t.d.a.t.t.i.a.d.a.a.t.t.t.i.t.t.t.d.d.t.t.t.t.t.t.s.7.4.7.t.t.y.t.i.y.t.7.4.t.a.t.d.y.t.t.d.i.t.i.t.7.q.t.t.t.t.7.t.t.t.t.7.#.t.t.+.+.$.t.t.$.t.$.$.@.| 1.6.#.$.t.t.t.*.t.i.i.s.t.a.a.d.a.i.y.a.i.d.a.d.d.d.a.7.7.a.d.d.i.d.d.a.7.7.#.a.d.a.d.d.d.n.n.n.g.d.d.n.d.n.c.c.n.n.d.d.v.n.d.d.n.d.$.a.d.d.v.n.n.g.u.s.7.e.a.n.v.v.n.n.v.v.d.d.d.n.n.n.n.d.d.n.n.t.t.a.d.i.d.t.7.e.a.i.i.d.v.n.u.t.7.7.t.u.t.y.i.u.y.y.t.t.i.t.i.i.d.d.t.e.t.t.a.a.d.a.a.s.0.4.r.t.t.t.t.u.u.7.7.6.7.t.e.$.e.t.t.t.t.t.a.s.a.a.t.#.7.t.t.t.t.t.a.t.$.7.7.+.t.t.t.t.u.t.a.7.6.4.7.s.a.a.a.t.t.t.t.t.u.t.a.t.t.t.t.t.t.t.t.u.d.a.t.d.a.@.t.t.t.t.a.t.a.6.4...| 7.7.7.t.7.7.@.6.6.7.4.7.t.s.s.a.e.7.7.t.t.t.7.7.7.7.{ +.6.$.$.$.#.7.#.4.{ ..6...+.7.#.6.$.@.@.@.@.+.| ` ` | | +.+.....+.@.| | 4._ _ | +...| +.+.} _ Q R | | ` ....| | +.} { [ [ [ [ } } } { { { +.6.+.} _ [ [ ) _ } { { | | { ( W T [ ) R _ _ W W ( ) ) W W Q W R Q Q W R Q _ _ _ R _ ) U U Q _ { _ [ Q W U V W Q U U W W E U R T b c U Q W b c U U U S S S U S U U V V U U U V U U E ",
"E Q R Q Q U l B S x Q ) ( T ) W R } | { } { } { | { | +.@.| +.+.6.| | | ( R R R { ` _ R K x S S c R _ _ { ` ` ` +.| ` { @.+.+.@.@.@.| ` +.6.#.@.6.| _ _ { | +.4.5.7.+.| } { +.4.| +.6.| +.@.+.6.6.+.+.7.t.7.4.4.6.6.7.7.7.t.t.a.6.@.e.7.t.a.a.a.#.+.7.@.7.d.t.t.t.t.d.d.a.d.i.t.i.i.t.t.t.d.i.t.e.t.a.a.t.s.7.+.t.e.@.t.t.t.7.@.7.+.7.d.t.a.i.t.t.t.t.t.t.t.t.t.7.t.t.t.7.7.t.q.t.t.7.7.t.+.@.#.+.&.$.e.+...6.4.| #.$.+.7.t.$.i.t.t.i.t.t.e.t.a.t.t.a.a.t.a.d.d.i.t.a.6.7.a.t.t.i.i.v.t.6.t.@.a.d.n.d.d.d.d.v.v.d.n.g.a.a.d.c.n.c.n.n.c.d.n.M.c.n.a.@.i.i.*.d.n.n.t.7.d.e.e.a.g.v.g.d.c.d.i.a.d.d.d.g.v.d.d.n.n.d.t.t.d.a.i.u.t.7.t.p.7.t.d.n.d.7.e.t.@.t.i.u.t.e.t.y.i.t.t.u.t.t.t.u.a.t.t.t.t.t.t.a.a.a.s.7.4.0.6.e.t.t.a.7.4.7.6.6.t.e.7.e.t.t.t.t.t.y.t.t.d.t.7.7.t.t.$.t.i.t.6.7.t.7.+.t.6.@.t.a.t.t.+.7.4.7.a.s.a.a.a.t.t.i.t.a.a.t.t.t.t.d.a.t.i.t.t.a.d.d.d.t.+.p.e.+.7.t.t.6...7.4.| 7.7.q.t.7.@.4.t.7.6.4.7.a.p.s.t.e.t.6.7.q.t.7.e.#.7.{ ..6.| | 6.#.#.| | } | 6.7.4.#.@.6.7.+.+.6.@.+.| { | 4.+.+.+.+.| | +.+.@.4._ _ { | ..| +..._ | [ R _ ..| { | | | | _ _ _ ) [ ) _ } _ { | { o.+.{ { } [ _ { _ ( { | } { _ R Q T _ _ _ ) W U W ) ) R _ ) Q E Q W Q Q W Q Q R _ _ { R U Q ) U _ } } U U Q S S Q Q Q W R R Q R W H c U Q W H U W W E V V U E V U U l f B U U V U Z F ",
"W S Q } E B l U W c W _ { ( _ Q ( ( { | { { { { | { | { | +.+.| ..{ ..| _ R ( R _ _ ' T v c U b H T T _ { ` ` +.{ ` ` | +.+.@.@.+.+.{ | @.#.7.#.@.| _ } 4.| | 4.7.4.{ 4.4.} +.@.+.+.+.| | +.+.6.#.| 4.7.7.7.7.7.7.e.t.e.7.t.a.p.@.6.a.7.@.t.d.t.+.6.t.+.7.d.t.t.t.a.d.d.d.d.d.d.y.i.a.i.i.a.i.t.t.a.a.a.d.a.6.4.t.t.+.6.u.t.+.#.t.+.6.d.t.y.d.t.7.7.t.i.t.t.t.t.t.t.t.t.7.e.7.t.e.t.7.t.q...7.#.] #.+.+.| #.e.6...#.#.#.#.e.&.t.t.u.t.t.t.t.t.i.t.a.a.a.i.d.a.a.t.t.a.@.e.d.7.@.t.v.a.t.i.s.#.i.v.d.d.d.d.d.d.g.g.n.g.a.t.d.c.n.c.n.M.n.v.n.v.v.M.s.@.y.d.*.t.n.n.#.7.Z.e.7.d.d.g.v.d.d.a.i.a.d.d.d.d.d.d.n.d.d.d.i.d.g.i.t.t.t.7.e.a.e.$.t.d.t.$.a.t.@.t.d.u.t.t.t.t.t.u.t.t.t.t.t.u.t.a.d.s.t.t.t.u.u.a.s.6.4.p.t.+.e.d.7.+.7.p.@.6.t.e.7.t.e.t.t.t.t.t.t.t.t.t.t.t.t.t.t.a.e.6.+.7.t.7.+.t.6...4.s.t.@.#.t.+.7.a.t.t.a.a.a.t.t.a.a.a.t.t.t.a.a.i.d.a.d.i.d.i.u.i.t.+.t.p.+.+.a.e...@.a.+.| 6.t.t.7.6.6.7.q.q.t.6.7.7.p.p.t.p.a.7.6.#.7.7.$.#.6.{ +.6.` _ 4.6.] ' 4.| | 7.7.@.+.@.6.6.#.@.@.@.6...| | +.+.+.#.6.+.+.+.+.6.4._ } { } | ..1.} ` 4.| W _ 1.+.| | | } | | _ ) [ ) W ) [ } | } | | { } { | } _ _ } R Q } } _ ( { [ T ( } _ W U W Q R ) Q ) [ ) R W R Q W R ) W U R _ ) ) U ) } R R R R S W ) S S E W Q Q ( Q Q W W E E U W R T E E W Q V V V U U W S l M B x U U F B B ",
"W F W W V f Q W Q S W R { { Q _ _ T R } { { | } { ..{ ` | | | ..{ | +.| ( ( } _ R R R S b R U c R U b ( } _ ` | ' ` ..+.o.@.@.+.+.| | +.@.@.7.+...| ( } 7.+...| | } ` 7.4.` | +.@.@.4.5.@.| | 6.@.| 4.7.6.7.t.7.t.t.7.e.7.7.t.t.5.6.s.a.#.6.7.6.7.a.t.| 7.y.t.a.a.a.t.a.i.t.i.i.t.i.t.i.d.i.t.u.a.a.t.s.s.t.6.4.7.a.t.6.7.6.+.t.t...6.a.t.d.a.s.e.7.t.t.t.t.7.e.t.t.7.q.7.t.7.t.t.7.$.t.6.| 7.e.+.` } 1.| e.t.| ..6.@.e.#.&.$.$.t.t.t.a.t.i.t.t.a.d.t.a.d.d.i.t.t.d.a.@.7.n.a.7.6.a.7.i.M.s.6.a.n.a.d.n.a.g.d.d.d.d.d.s.a.n.d.d.n.v.n.d.d.v.d.n.n.t.@.t.d.i.+.t.a.t.d.d.e.7.d.g.d.d.v.g.d.d.d.a.d.g.a.d.d.d.d.d.i.v.n.a.a.t.u.u.7.r.Z.d.#.7.7.e.i.a.7.@.s.i.t.i.t.t.u.t.t.t.t.u.i.t.t.a.a.i.d.u.i.u.t.t.a.a.6...s.d.#.+.r.6.7.t.t.+.6.t.7.t.t.7.e.t.t.t.a.t.u.t.t.t.t.7.t.t.t.#.6.@.#.7.7.+.7.7.+.| 7.6.#.t.s.| 6.s.e.a.t.t.a.t.t.a.y.d.t.t.u.t.t.a.d.a.g.a.i.t.t.a.e...7.s.e.| 6.@.e.t.t.+.} 6.t.q.6.6.t.7.6.7.7.6.7.7.e.e.s.t.t.e.+.+.e.$.@.$.5.} | 7.+.` ..6.' ..e.| { 7.6.@.+.@.7.@.6.@.+.@.6.| | | | +.$.#.#.6.@.| ` +.+._ ..+.{ _ | _ _ | +.} W _ } | ` { | { | .._ Q } [ ) ) Q } { } ..{ } { | ..} Q _ <.R U ) [ W _ <._ U Q { R W E Q Q E W ) _ Q ) W E Q W E Q Q ) W R ( W Q W W } ) U V U W [ W S U S c W U W E U U U R R U U Y W U E E W U V x F W E B B F F f B B B B Z ",
"W W W B B F } W E R Q T _ Q Q _ _ R R R } { | { { | | } { | | } | ....+._ ( } { _ T U U R _ T b R R R R ` ` ` ( ' | | +.@.@.@.| | ..+.6.6.+.+...+.+._ } 6.6.7.| _ { 6.7...} +.+.+.6.7.7.6.+.+.+.+.+.@.7.7.7.7.t.t.t.t.7.7.7.7.t.6.4.a.a.t.6.4.t.t.a.t.+.7.a.t.a.a.a.t.t.t.s.t.t.t.i.y.i.i.i.t.t.t.u.t.t.t.a.7.4.e.t.a.t.+.+.t.a.7.4.6.a.t.d.y.t.t.t.e.t.t.y.t.t.i.t.q.q.t.t.t.t.e.7.$.t.6.| @.7.#.+.| +.$.&.7.| | e.e.t.t.e.$.e.7.t.t.t.t.u.t.i.d.d.d.a.a.a.i.a.u.a.d.6.7.a.d.i.6.7.t.n.d.d.6.a.n.d.d.d.d.n.g.d.a.d.d.d.d.n.n.n.v.n.n.d.d.d.n.g.n.s.@.u.i.i.t.#.q.n.n.n.t.t.d.n.d.d.d.n.n.g.d.d.d.g.d.d.d.d.d.d.d.d.v.d.i.u.i.a.7.7.d.n.a.7.7.d.d.a.7.@.t.i.u.u.i.i.u.t.t.t.t.u.i.i.i.d.d.d.d.i.u.t.s.t.s.a.7...t.s.u.6.+.7.a.t.t.4.6.t.t.t.u.t.t.e.t.t.t.s.s.t.t.t.t.t.t.t.t.7.t.7.#.6.6.| 6.e.7.6.6.4.s.a.r...6.p.t.t.t.a.a.a.t.t.i.t.a.t.i.t.t.t.d.a.y.t.t.t.u.t.p...7.s.a.6.@.6.a.t.t.+.| 7.7.7.7.7.e.7.7.4.4.7.t.7.a.t.a.t.t.7.+.@.7.$.@.@.6.} | 6.#.@.4...+.#.7.| | 7.7.@.@.4.6.6.#.@.@.@.@.@.+.| | +.#.7.7.@.+.| | | | _ | +.+.| _ Q } @.+.{ R } | _ ` { | | | | } _ ( } | } } { { | | } } ..| | <.Q ) } _ Q Q Q ) } | _ U Q { R R Q W Q W W ) _ Q W U W Q R W ) ,.[ Q Q W ) Q W R _ R W W U _ } W S W E U U U S c S H T U U S U E W U W W W W U V U S U V l F E V l f M F E ",
"U Q W B F W R U U R W ( _ R ( R ) ) W W } { } { ` | +.{ ` { | { 4.| | 4._ R ( { | _ ( W R Q U b R _ _ R { | ` ( } { ` | @.+.+.| { | +.+.+.+.+.+.4.4.( } +.@.7.4.4.4.6.@.} } 4.+.| @.7.@.@.+.{ { +.+.+.6.7.@.@.7.e.t.t.7.7.7.e.t.6.4.t.t.t.t.t.a.q.t.t.+.7.a.t.a.y.t.t.t.a.a.a.a.t.t.a.i.t.y.t.t.t.t.u.t.t.a.7.4.t.7.t.a.$.t.d.t.@.6.4.a.t.t.t.7.t.t.t.t.t.a.i.i.a.t.t.t.e.t.t.7.6.t.t.t.@.| +.+.t.t.@.6.7.+.+.| } t.t.7.t.#.e.e.7.e.t.t.t.t.t.d.i.a.i.t.t.a.a.d.i.t.d.7.7.t.t.d.t.a.n.n.t.s.7.d.d.g.d.d.z.d.z.d.a.g.d.n.d.d.n.n.d.n.c.M.c.d.n.d.n.s.6.a.t.y.c.a.d.d.i.d.q.a.V.n.g.a.a.d.g.d.g.d.d.g.a.a.c.g.a.a.d.d.d.v.a.d.g.s.7.7.p.a.s.a.d.d.t.t.e.@.t.d.u.t.i.i.i.t.$.t.t.t.t.d.i.u.i.i.u.t.t.s.a.t.t.s.7.+.7.6.t.7.6.a.i.$.t.7.@.t.t.t.s.u.e.#.t.t.t.s.e.e.t.t.t.t.t.t.%.t.a.q.7.t.+.' 7.6.t.p.t.0.s.7.7.+.6.a.t.t.a.t.a.a.t.t.a.t.a.t.t.i.i.t.s.t.7.e.a.a.a.t.p.+.6.t.t.t.t.t.q.+.7.6...7.6.6.t.7.7.t.7.4.4.7.7.7.t.7.7.a.t.6.#.#.#.$.$.+.@.} | @.+.@.#.| 7.@.| | ..7.6.@.6.@.6.6.@.@.6.+...| +.| | | +.#.@.| | | +.+.{ _ { | @.+.| | +.| { { R } .._ | | _ | | { } _ Q _ } | | } | | } } 1.| { | ..( Q { { | Q Q { | Q Q T Q { Q ) [ W W W U W ) _ U R R W W W W ) W E W W [ Q U Q Q R { { _ _ _ W U Q Q U U R T U S c S V V S S V W E U Q Q E W U V x U B l l F U V M E Z V ",
"F W U U Q S W c U E ) ( _ Q ( W ) ) ) _ } { { _ } | +.| { { { | +.+.+.4.) W ) _ { | | R H U W U T R ` ` | | | { { ` o.| | | o.| ..` | | ..+.@.@.@.4._ | +.] @.6.7.4.{ | { ' +.@.| ..+.+.@.+.{ { { +.6.6.@.+.@.7.e.7.7.t.t.e.7.t.e.4.7.6.6.t.a.s.6.7.q.@.7.i.y.y.y.y.t.a.s.a.a.d.a.7.t.a.i.i.i.i.u.a.a.a.a.a.q.6.p.7.7.t.i.a.7.#.6.7.+.a.t.t.t.t.e.t.t.t.t.7.t.t.t.t.t.t.7.7.6.7.7.a.t.i.7.| 4...#.t.$.t.#...@.1.} e.e.$.#.7.e.t.e.e.7.t.t.7.e.i.i.i.t.t.t.t.a.a.a.i.d.7.7.t.#.t.v.P.d.t.7.s.7.a.Z.g.d.g.d.d.s.d.d.d.g.n.d.d.g.g.g.g.n.n.n.n.c.n.n.a.6.a.u.$.y.D.D.u.7.d.a.p.Z.n.d.d.d.g.d.g.d.g.D.d.e.t.g.n.d.n.n.d.d.d.d.d.g.d.7.7.t.e.e.d.Z.a.#.e.e.+.t.d.i.i.i.i.u.t.e.e.t.t.p.t.u.u.u.t.t.t.t.s.a.a.i.a.6.4.7.@.#.7.a.a.7.#.t.6.6.s.t.t.u.t.7.#.7.7.a.t.4.6.a.t.t.t.t.t.t.t.t.t.i.t.4.' 7.6.#.7.d.s.9.+.7.+.7.s.t.a.s.t.a.t.t.t.t.a.a.t.t.y.t.t.t.7.t.t.a.a.t.d.a.+.7.7.#.#.a.a.@.| 6.7.+.7.7.7.t.t.a.t.q.7.7.7.e.+.+.6.t.t.t.$.7.#.e.7.@.O.#.{ | +.] +.6.7.7.| } | ..7.7.7.7.7.7.6.6.7.6.+...| ....| | +.| | | +.4.@.@.+._ | +.{ } 4.7.+.R _ { ( } o.{ | | { } } _ _ } } _ [ [ { _ _ } } } | o.| | } _ ) { _ } | 1.{ ( R Q T _ { ( _ [ [ ) U S U Q Q W U Q R ) R R W U E Q ) { _ E Q ) T Q } } ( ) U W R ) W U T Q R W S S b U S S x F U U U U S U V Z V S F B f B Z U U E B f ",
"F V U Q Q V S U S S } Q _ _ _ Q ( Q } { { | _ Q | | | | | ` } ....| +...W U ) R _ { ( H b W R b b ( | ` { { +.| | +.@.| ` _ { +.+.| | | ..+.4.@.+.6.{ } 1.` | 4.6.| _ | ..` ..@...] | @.@.+.@...{ +.#.@.+.+.6.6.7.6.t.t.7.7.7.a.7.+.7.6.6.t.p.7.+.7.t.+.6.a.t.t.a.t.a.d.a.a.d.s.7.5.7.a.d.a.i.d.d.a.a.a.a.a.t.4.a.e.+.7.t.7.+.#.7.6...a.t.7.t.t.7.e.7.e.7.7.t.y.t.i.t.t.7.6.7.t.t.t.t.t.7...4.....6.t.7...` 7.6.} 6.t.$.#.t.7.t.e.7.7.t.7.6.6.t.d.d.t.t.t.t.a.a.a.d.d.7.7.a.7.6.a.n.p.7.t.d.7.a.D.n.d.d.a.d.s.Z.d.d.n.d.d.n.d.g.d.n.n.c.c.n.c.d.n.a.#.a.s.#.7.a.d.e.7.s.p.7.V.n.a.n.g.d.n.d.d.n.k.a.r.0.t.d.n.c.d.i.t.a.d.i.i.d.7.r.a.7.#.t.s.7.+.e.7.+.t.i.y.i.u.t.t.u.t.t.t.t.7.$.t.t.t.u.u.t.s.t.a.a.i.t.4.+.p.7.+.4.a.e.+.@.t.@.6.a.t.t.t.7.t.7.e.t.a.7.4.4.r.t.7.7.t.&.t.7.e.t.t.t.+.' 7.7.| 6.s.r.....e.+.7.s.e.t.7.a.a.e.a.t.t.u.s.t.t.t.t.t.t.t.s.a.t.t.t.a.e...0.7.4.+.t.t.+...7.6...7.t.q.t.a.t.7.q.7.t.q.@.....4.t.7.t.$.#.#.7.#.+.+.6.} | @.` ' 4.7.+._ +...{ 6.t.7.7.7.6.+.6.6.@.| | +.@.| { | | { | | 4.4.| #.+.( | +._ R } 4.} T _ { ( { | { | | | ` ` { { } { ) Q ) } } { _ ( { } 4.| ` { ) _ } W ( 1.1.Q U ( ) U ! [ _ ( _ [ _ ) ) U U W W U W ( R _ _ _ } [ } Q _ _ U Q ) U E Q W W W U W U Q W c U _ R W T W U U c l l l U W S V V V S U x V U Z M M M F F Z m n ",
"F B F Q U V U S F S Q _ { { } ( { { ` ' ..{ { _ +.+.| ` | { { { 4.| | | R E ) R ( T b b U T R S U R { ....{ ] | @.#.+.} _ _ } | +.4.+.+.+.| +.+.+.6.{ } 1.{ } 1.1.} ` +...' +.#.+...| +.#.+.+.@.@.@.@.+.@.@.6.6.#.7.7.t.t.t.a.a.4...0.7.6.0.0.4.4.e.t.4.7.t.t.t.t.a.d.a.a.d.a.7.7.0.7.7.s.d.a.a.d.d.d.a.u.a.7.4.a.r.6.7.7.4.4.6.7.7.+.t.t.t.t.t.t.t.7.7.6.t.7.t.i.i.y.t.t.t.7.t.t.t.#.q.$.+.6.4.| ..6.4.| ..6.6.| 7.t.$.e.t.e.e.7.t.t.7.4.6.7.7.t.d.d.d.i.i.t.i.d.i.d.7.6.s.e.7.r.t.7.e.t.d.7.u.Z.Z.a.d.d.d.d.d.g.n.n.n.d.n.n.Z.d.n.n.n.d.d.d.d.Z.a.6.s.s.7.7.7.7.t.7.s.a.7.a.g.d.v.n.n.d.g.n.g.a.p.p.p.7.t.a.d.u.t.t.u.d.f.d.d.e.e.s.t.6.7.0.6.6.e.7.+.e.i.t.t.u.u.i.i.d.d.d.e.#.7.t.t.t.i.i.u.i.d.d.t.u.s.6...t.e.4.4.7.4.6.6.t.6.6.s.u.t.t.t.t.e.t.s.t.4.4.4.6.6.t.t.q.t.t.q.e.#.7.t.6.' r.7.| 1.0.6...6.7.+.7.s.t.7.7.p.p.t.s.a.d.t.t.t.t.t.t.t.a.a.a.i.t.t.u.u.7...7.7.6.4.7.7.4.4.6.6.+.7.t.7.7.6.7.7.q.t.t.6...| 4.+.6.e.t.$.$.+.#.#.#.@.6.| { 4.| } +.4.| } 4...' 6.7.7.7.#.+.| ..+.+.+.@.@.#.+.| | | { 4.4.6.@.+....._ | 4._ W ) } { ( [ { ( { | ` | | ` ` { | | { Q ) [ ) _ 4.4.| { | +.{ ` { } ( _ } Q W ) ) W W _ ) H ! } _ ( R Q _ } [ ) ) Q U S W R R _ { { { _ _ { [ R U Q ) W W U E S R W U U ) W S U ( Q Q _ ) U c x V B B F W U F x U S V S E U B M B M B B M n B ",
"A B B E Z x W V F b U ( { _ ( R _ _ { { | ) _ { | | } _ | { _ { _ { | | ) W W ) R S S c W H U S U H ( } { ` | | +.+.} _ } } } _ | 6.6.+.4.+.| +.@.6._ { 4.| } } } _ { 4.| } +.+.+.+.] ..@.+.+.+.#.+.+.+.#.#.@.#.#.7.7.7.t.y.t.t.+...t.7.4.6.7.4.4.t.0.4.7.t.t.t.7.s.a.a.a.d.7.4.7.0.7.4.7.s.a.a.a.d.a.t.t.a.7.4.t.7.6.6.6.4.4.6.6.6.+.t.t.t.t.t.t.t.t.t.t.t.7.7.t.y.i.t.q.t.7.6.7.7.$.t.7.| 4.+.| | 1.| } +.@.4...7.e.t.$.t.t.e.7.t.e.4.4.7.7.7.6.t.d.d.d.a.t.u.i.i.d.7.7.a.7.7.7.9.7.t.q.s.7.a.d.a.d.a.d.n.d.d.g.n.d.a.d.n.D.d.d.c.n.n.d.d.d.v.n.a.7.a.t.6.7.7.7.t.7.s.s.7.a.n.d.d.n.n.d.g.g.a.7.a.p.t.r.7.e.s.a.i.d.u.d.g.d.d.t.7.s.t.6.6.6.7.6.7.7.+.t.t.t.i.i.d.d.i.d.g.d.t.7.t.t.$.t.t.t.d.i.u.t.t.t.a.6...7.7.4.1.1.4.6.4.7.#.6.s.t.t.u.t.7.e.a.t.6.1.4.4.1...7.7.t.t.t.7.#.#.t.t.6.| t.6.| | 1.4.+.6.7.+.7.a.s.t.t.7.p.s.a.a.a.t.t.t.t.t.7.t.t.t.t.i.a.t.t.t.p.+.7.r.4.4.4.4.7.4.4.7...6.6.7.@.7.t.7.7.7.4.| | | ..| ..6.7.e.#.+.#.@.e.$.6.| | 4.| { | | | | 4...' +.6.$.#.#.6.+.| +.+.@.$.@.@.@.| { 4.+.+.+.| | +.o.4.{ { | ( ( _ _ } } _ } Q ` +.` ' { | ` | | } R W _ } Q W { +.o.+.+.| { _ { | Q R [ W S E W Q ) _ Q T _ { _ Q R Q _ Q _ } [ W x f U _ _ Q _ _ Q ! _ } _ W U Q W U S U S F W U F S W Q W U T ( _ W E c x B E U F B F E S V F V S U W V l M B M M M M n C ",
"A B Z Z A V S W S S W ( } ( R R _ _ { _ ( ( } ! { _ { } | } } _ ( } | ..) W ) ) ) S S S H K T b U T ) R _ } | +.| } _ { | | | } ' | 4.6.4.4.@.4.@.6.} { 4...| [ } } ' 4.4.` +.#.+.#.+.+.+.O.+.+.#.#.+.+.#.7.7.$.#.7.t.t.t.t.7.t.4.+.t.7.6.4.4.4.4.7.t.4.7.a.t.t.t.t.t.a.a.t.6.6.9.7.9.7.6.0.a.d.s.s.t.i.i.a.7.@.t.7.6.4.4.4.4.6.7.6.+.a.t.t.t.t.t.t.t.t.t.t.t.t.t.t.t.t.t.t.q.t.6.7.e.t.t...+.4...+.| 1.} | 6.7...7.t.u.t.t.e.t.t.e.4.4.4.6.7.7.6.7.t.d.i.y.t.a.t.t.d.e.7.a.e.6.7.7.7.7.t.k.7.a.a.d.u.a.g.n.n.n.d.d.a.d.d.n.n.d.u.d.n.n.c.n.d.d.n.a.$.s.t.6.6.7.7.7.e.s.s.7.d.n.n.n.g.g.n.g.p.t.t.p.p.p.t.r.7.p.d.n.d.d.g.d.v.v.t.e.s.p.7.9.9.7.6.t.7.@.t.u.t.i.g.n.d.d.d.i.d.i.t.t.t.t.e.t.t.u.t.e.e.t.t.t.4...r.6...1.4.4.6.6.e.6.7.t.t.t.t.t.t.a.e.@.4.4.4.+.4.+...@.a.t.7.#.7.7.t.t.6.6.p.4.| | 1.1.4.6.0.6.7.a.a.a.s.p.a.s.t.7.7.t.a.t.t.t.t.7.t.t.a.t.a.t.t.a.a.@.e.e.4.4.4.4.7.4.6.7.| @.6.@.7.q.7.q.7.+.+.} | | | | ..{ +.6.#.#.#.$.$.$.e.| | 6.| | ..} ..{ +.4.' +.#.#.#.#.7.6.#.@.@.#.$.#.7.@.| { +.+.@.| { { | @.7.| | { _ ) } _ _ _ | | ( { +.` ` ` | | +.} R W Q _ _ _ _ ( Q ` { { } } _ { { Q Q ) W W W W W R [ [ R ` } _ Q Q ) ( ( ) Q Q U x l W _ _ Q Q ( _ Q ( R _ R W [ E c U E F S U W E S W _ R U R R R S V x V V F U F V A V F U U W Q F S V M M B M M M M m M ",
"Z F Z B F B V W S c R Q _ R T Q } _ _ _ Q { | _ _ { | { { { | ` } { { ..R R ) R R U W b v H U c U R ( ( _ { | | } ( } | | } | { _ _ | 4.@.+.4.@.@.7.{ } <.| } _ | } R | .._ ..#.+.+.#.+.+.#...+.+...+.+.+.6.7.$.7.7.6.6.6.#.t.t.4.4.7.7.6.4.4.4...6.7.4.7.i.t.t.t.t.t.a.t.6.4.6.6.7.7.0.5.4.e.s.t.t.t.d.y.a.e.+.t.7.+.4.4.4.+.6.e.4.@.d.t.t.t.t.t.i.t.q.t.t.i.t.q.t.t.t.t.y.t.t.7.e.7.7.e.| 4.4.+.4.| 1.} | 6.7.| 7.t.t.t.7.7.t.e.6.4.4.4.4.6.7.6.6.6.t.t.i.t.t.t.i.a.7.e.a.e.6.6.r.7.6.r.j.7.t.d.a.s.s.a.g.n.d.d.g.d.n.d.d.n.d.a.d.n.n.n.n.c.d.n.a.7.s.t.6.6.7.7.7.7.j.s.t.d.n.n.n.d.n.Z.s.e.t.a.e.e.p.0.r.r.e.t.d.d.d.d.i.v.c.e.t.s.t.7.0.9.4.6.t.7.@.a.g.u.t.i.d.d.i.i.d.i.u.u.t.t.t.$.t.t.t.&.e.t.7.e.t.....e.4.| 1.4.1.4.6.t.#.6.t.t.7.t.t.t.7.#.+.7.7.6.4.4.4.| | 6.6.#.5.t.7.q.t.@.+.t.4.| 1.4.<.1.4.p.4.6.a.t.t.a.a.a.t.t.7.t.7.t.t.t.t.7.7.a.t.t.t.a.t.t.a.a.@.7.7.+.1.6.| 4.4.7.4.{ 6.7.#.t.7.7.t.6...| | { } [ } | } { { 6.6.@.#.@.$.t.| | 4.| | | { | } | .._ @.#.+.#.#.#.7.7.+.@.@.#.#.#.+.+.| | +.+.+.+.| } +.4.{ | { _ _ ) _ ) ) [ [ _ { | ` | ' { | _ R W W Q R W Q ) Q Q ( { { } { _ { { Q Q R R Q Q Q U W } [ U _ { Q _ _ Q _ _ ) Q R U E E _ W R _ Q R Q Q Q Q [ U S ) U S W S E V U Q W b U Q Q R ( U U S F V S B V Z V F V l Z U W E F x x F B f M B B n M m m ",
"Z A F M A V S U c c ( ` _ R Q ( { _ { _ { } { } { { { { | | | | | ' | | ) R ) ) W U W b b b b S U _ ' _ ` | +.{ _ _ } | ..| } _ _ { { | 4.+.| +.4.7.} } 1.} { [ | } ( ' { ` +.#.+. .+.+.+.#.#.+.` ` ..6.6.+.+.#.7.6.6.@.@.7.t.t.6.4.0.7.4.4.4.4.1.6.7.+.7.a.t.e.t.a.a.a.7.6.6.6.7.7.7.7.9.0.7.t.t.t.t.i.i.d.t.+.t.7.+.4.4.4.+.4.7.6.@.d.i.a.t.t.t.u.t.7.7.t.t.t.t.t.t.y.t.t.t.t.t.t.$.7.#.| 6.4.| 4.1.1.| | 4.6...t.t.7.#.e.t.t.6.4.6.6.4.4.7.7.6.7.6.6.7.a.i.i.t.i.d.7.7.s.7.6.6.0.0.7.e.s.6.a.d.a.d.d.a.d.d.d.d.n.v.n.v.n.n.n.n.n.d.n.n.c.n.n.n.a.7.a.t.7.7.7.7.7.7.s.s.t.n.n.v.n.n.n.a.p.p.s.t.p.e.r.r.r.p.t.e.t.n.n.i.i.f.d.7.t.d.t.7.0.9.6.6.t.e.#.d.g.u.t.t.t.i.i.i.g.i.u.t.t.e.7.7.t.*.t.e.t.t.e.t.t...| 7.4...1.4.1.1.7.t.6.7.t.7.e.t.t.e.+.4.7.7.6.6.6.4.4.4.1...+.7.7.t.t.t.t.+.` 7.4.1.1.4.1.1.6.r.1.4.t.t.t.s.a.a.t.a.a.a.t.e.7.t.t.7.t.t.t.t.t.t.t.t.a.t.+.7.7.+.4.6.......7.4.| 7.7.#.$.t.t.7.#.+.4.| | } } } } } } } ..4.$.+.#.&.e.| ..4.| } | | | } | } } 6.6.@.#.#.7.6.@.@.@.#.$.#.#.@.@.+.6.@.+.@.6.@.....+._ } } _ _ _ _ ) R ) } _ { | ] | { _ ) W W ) Q R R Q W Q [ ) R R } | ` _ } { R R ) R Q Q Q W R } _ U Q _ _ { } } [ _ _ _ ( W Q ( Q Q Q ( ) U W Q Q Q [ W x E U S E U U S U Q W U U W T Q ( W U S E F B B F B V A F B M B U V B l V U B B B M M m M M M ",
"F Z B M M A B F S x Q ` _ R _ Q _ { { ( } ` { _ { ` { ` | ` | | | | o.| ( ) ) W R U S U b c U b H } } _ } | | _ ) _ } { } } { _ } { } { | +.+.+.+.6.} { | _ _ [ [ } _ { 4.{ | #.+.O.+.#.+.#.7.+.] | #.#.6.@.@.@.6.7.7.@.6.q.6.t.4.| 0.6.4.4.2.1.4.6.6.+.7.a.t.t.a.a.t.7.6.7.7.7.7.7.7.7.0.r.7.7.e.a.t.t.i.i.t.+.e.7.4.4.4.4.4.+.7.6.@.a.i.y.t.t.t.t.t.$.#.t.t.t.t.t.t.t.t.t.t.t.t.7.7.t.#...4.4...4.1.<.1.| 4.4...t.t.7.e.t.e.6.4.7.6.6.4.4.6.6.7.7.6.6.6.t.a.i.y.t.d.7.7.s.6.7.9.0.0.6.7.p.6.a.a.n.d.d.d.i.u.d.a.d.d.d.d.n.d.n.Z.n.n.a.i.n.n.d.n.a.$.s.t.6.7.7.0.7.7.s.s.t.n.M.d.n.n.s.t.t.p.s.p.p.e.7.r.p.t.t.e.e.a.Z.c.d.i.i.7.7.d.e.7.9.9.7.@.p.t.#.a.d.i.a.t.t.t.d.g.a.d.u.e.t.t.$.7.$.$.t.t.t.t.t.t.7.4.| 6...1.1.1.4...6.e.#.e.t.#.7.t.6.+.4.7.6.6.4.6.4.+.4.6.4.4.4.7.7.t.q.a.t.+.| 4.4.4.1.4.4...6.7...+.a.a.t.a.a.t.t.a.t.s.a.a.7.q.7.t.7.t.a.t.7.e.a.t.a.#...7.7.4.4.4.4.....7.+.+.t.$.$.t.7.7.4.+.4.+.} 1.| _ _ } } } { _ | 7.+.$.$.6.' ..6.| { | | ..} | { o.7.@.#.@.@.#.+.| | +.+.+.+.+.+.+.+.+.@.#.+.+.4.| ....( { | Q ) ) _ ) W ) } R ` +.] { | _ R ) [ [ Q W Q Q W Q ) Q W W _ | | _ { { R ) [ W W Q Q ) R _ R K Q Q _ { } { _ _ _ Q _ _ U T Q Q ( W E S U Q _ R _ Q x W W c U U S F U W W U U W U W R E U U U S V B V F U V F Z f d M F V z E V M B B f M m n M M ",
"F A M m M B S W U c W R ( _ _ _ _ { { ` | o.{ _ ` } ..| +.| | { | +.+.+.) ) ) W U D F S b U W b T _ { | | _ ( ( } _ _ _ _ _ } [ } } | | { | 4.4.4.4.} [ <.{ _ [ } [ { +.+.| +.#.#.+.#.$.$.$.$.#.#.#.$.$.#.7.7.6.6.7.6.6.6.6.7.t.4.| 7.6.4.4.2.2.4.6.7.+.7.a.t.s.s.t.7.7.4.7.7.7.0.7.7.r.0.r.e.7.7.t.a.d.i.d.t.+.t.7.4.4.4.4.+.6.t.4.#.a.t.t.t.t.t.t.t.t.t.t.t.t.q.t.t.t.t.t.t.t.7.7.t.t.7.+.4.6.+.1.1.1.| ..6.6...t.t.t.t.a.7.4.4.6.7.7.7.4.4.7.6.6.4.7.7.7.q.d.d.i.c.7.7.a.7.6.9.0.0.6.e.s.6.a.d.d.n.n.d.a.i.i.d.d.a.d.a.d.n.n.Z.Z.d.i.i.c.n.n.D.a.$.a.u.7.7.7.0.7.p.Z.s.t.n.M.M.D.d.p.t.a.a.p.s.a.p.r.t.t.t.t.t.e.7.a.Z.n.x.i.7.e.d.t.7.9.9.6.6.s.t.6.d.d.i.d.a.u.i.d.d.d.d.a.t.t.t.t.t.$.&.*.t.t.u.t.t.a.4.+.e.4...1.1.1...7.e.#.e.t.t.a.t.4.4.6.6.6.7.7.4.+.6.6.4.4.6.4.4.6.t.a.t.s.6.| 7.7.1.4.4.4...7.7.| 6.a.s.t.a.a.a.t.t.t.t.d.a.t.t.t.t.t.a.a.t.7.t.t.t.7.#...7.t.+.4.6.1...#.t.@.+.7.t.q.7.4.4.<.4.+.1.1.<.} _ { <.} } { } } 4.7.$.$.6.` +.6...| <.| | | 4.o.o.7.7.#.#.+.+.+.+.o.+.| | | ..| | ` _ +.7.4.+...| +.+._ } <._ ) ) ) ) R { | _ ` +.+.@.+.} ) _ } [ [ _ W W ) Q W R Q Q Q { 4.| | [ R _ } ( Q Q ) Q W _ Q K ! { { { _ W _ { _ ) _ _ U c W ) ( U S S W Q Q W _ R V W Q S U U F S W ) W V W ) W U W V F U S F F Z V F S F F A B n m B F S U F l M B f m m M n M ",
"E F M f C B U _ U c U U R Q _ ( { ` _ _ { +.} _ | { | ..{ { ` { +.| +.4._ W } R S S U b c R R b H Q } _ ( R ( { } _ ) _ _ ) [ } { } | } | { | 4.5.4.{ { 4.| ( ) ,.[ } 7.+.{ @.@.#.#.@.#.$.@.@.#.$.7.$.#.e.t.7.7.@.@.7.7.6.6.7.7.| | 0.6.1.2.2.2.4.e.7.+.6.t.t.a.7.6.7.7.4.4.4.0.7.7.7.0.0.0.r.7.6.7.a.a.t.d.t.@.t.t.+.4.6.4...6.a.4.@.d.t.t.q.t.t.t.t.d.t.t.t.t.t.t.t.t.t.a.t.q.e.t.7.t.a.+.@.e.+.| <.1.} 4.a.6...7.t.a.a.r.6.4.4.4.6.7.4.7.6.6.4.4.4.7.7.6.@.t.d.c.n.7.#.d.t.6.6.0.6.6.s.s.4.a.n.d.g.n.g.d.i.d.a.d.d.u.u.d.d.c.n.n.c.d.d.a.n.n.n.a.$.a.a.7.6.7.7.6.d.C.a.t.g.n.n.d.p.r.p.a.p.p.p.p.t.p.p.e.t.t.e.e.7.7.p.d.n.d.7.7.d.t.4.9.9.4.7.k.t.@.a.g.i.i.i.d.d.t.i.d.d.i.u.t.t.t.t.$.$.e.t.t.t.t.i.y.4.+.s.6...6.8.1.+.t.t.+.7.a.a.e.4.6.6.4.4.4.7.6.4.4.6.6.4.4.6.6.4.+.7.t.t.a.7.+.s.p.1.1.6.1.+.s.t.| 0.a.t.a.t.s.a.t.t.t.t.t.a.t.a.t.t.a.a.t.e.$.t.7.$.e.7...t.p.+.+.6.....t.t.@...7.e.@...| 4.| 1.} <.<.| } | } } } } } | } | 4.#.$.6.} ..7.4.} | 1.} | t.4.{ 6.7.@.#.@.$.@.5.#.+.+.@.| ' ' ..| ` | 4.6.@.+.+.+.+.{ { 1.} W ) ) W _ +.| _ o.@.+.+.} R Q Q Q [ [ ) W W ) ) W Q ) R R ( } } } } R R } _ W Q ) U W [ Q H _ } _ Q Q Q ) Q _ Q ( _ c x E R R T U U Q E W R R W U E ) S V U F V R ) U U Q [ W F V B B S F V F V F V S F Z B B B M f B S S F l M A f y n M n B ",
"W E A M A S R { U c U U ( T ( _ _ _ { T _ { _ ` | ` } _ } _ ` | +.+.+.4._ ) <._ W S S b H R R b H Q R b U ( { { } } } _ [ _ [ _ } | } | ..} } { | 4.[ { 7.4.[ [ ,.} 1.7.+.{ +.#.#.6.#.#.#.@.#.#.$.q.q.#.#.t.t.6.@.@.6.7.7.e.e.e...4.s.0.1.,.,.2.6.t.e.+.6.a.t.7.6.7.7.7.4.4.4.7.7.7.7.7.7.0.7.7.7.7.6.t.t.d.t.#.a.a.#.4.4.4.+.e.s.6.7.d.t.t.t.t.t.t.i.a.i.d.u.t.t.t.t.t.t.t.t.q.7.t.t.a.a.+.@.t.6...| 1.| 7.a.7...t.t.t.7.6.4.6.4.4.4.4.6.9.4.4.4.4.4.4.4.7.6.7.e.d.D.e.7.n.a.7.6.r.6.7.k.s.6.s.a.d.d.d.d.g.g.g.d.d.d.a.a.d.d.n.v.n.v.M.n.d.d.v.n.a.7.d.d.t.6.7.7.t.n.G.a.t.Z.g.a.t.r.p.p.a.a.a.t.p.p.t.p.a.p.r.7.e.t.r.7.e.d.a.7.e.c.s.6.0.0.4.t.D.t.#.i.d.i.i.i.d.d.i.u.t.a.i.t.t.e.#.#.$.t.t.t.t.t.t.t.t.6.#.s.e.#.4.6.1.#.d.a.@.e.a.7.6.4.6.6.6.6.6.7.6.6.4.4.6.7.7.6.6.4.1.4.4.a.a.7.+.a.s.7.4.8.1.6.k.p.4.e.a.t.t.t.t.a.u.a.t.u.e.t.a.a.t.a.t.t.#.#.7.t.6.$.t.7.+.t.a.6...6...6.t.t.@.+.7.#...1.1.4.1.1.} <.} ..| 4.} | | } } | | | | ..@.7.| +.t.6.| | | } +.a.4.{ #.#.@.@.6.$.#.#.#.#.@.@.+.| _ +.6.+.| +.+.@.@.+.@.4.{ } 4.} W Q Q ) | @.| _ +.+.` _ Q W W W Q ) ) Q ) ) Q Q ) W R ) [ _ Q R } | ( ( | _ W Q Q U Q <.Q R [ Q R ) ) ) Q Q _ ( ) R S S W U R R W W R Q R U W E S Q [ U V F A F _ { W W [ _ U V V B B A U V V F U F F V Z B V Z B M M x U V M Z U B n n m n Z ",
"W W E B B W _ _ c c ) T T T R _ ( ( { ( Q _ { ( _ { ` _ ..{ | { | +.4.+.Q ( | | } U b H R R H c H R H S W Q _ _ [ } } _ } } _ _ } { | } | <.} Q { 4.{ _ 4.7.4.[ [ <.4.7.| { 4.@.| +.6.@.#.#.#.#.#.7.t.@...7.e.@.@.#.4.7.7.t.6.7.4.4.t.p.6.<.,.4.t.t.7.+.6.a.7.4.7.7.5.7.7.4.4.4.7.7.6.7.7.7.7.r.7.7.7.6.t.d.t.@.a.d.t.6...4.7.a.t.@.t.a.t.a.t.q.e.t.y.y.y.t.t.7.t.t.7.$.t.t.q.t.6.7.t.t.t.{ @.t.t.6.} ..7.t.t.6...t.t.6.6.6.4.9.4.4.6.7.6.4.4.4.4.0.7.4.4.0.7.6.@.t.n.7.7.d.V.p.6.9.7.s.V.a.4.s.a.u.d.i.i.d.g.d.d.d.a.d.d.a.n.d.d.d.c.n.n.n.a.i.n.a.7.s.d.g.7.6.6.d.D.Z.p.7.Z.d.e.t.t.p.t.p.a.a.t.p.t.p.t.t.r.e.0.r.t.r.0.7.t.d.e.7.d.Z.t.7.9.7.a.n.t.#.a.i.t.i.i.a.d.u.e.t.t.t.t.7.$.$.$.t.t.*.*.t.y.t.t.t.6.+.t.a.$.+.8.+.t.d.t.+.t.t.+.6.0.6.6.4.6.4.4.6.7.4.4.4.6.7.6.4.4.4.+.+.7.a.6.| 7.d.t.4.1.4.s.s.7.+.6.a.u.t.a.t.a.a.a.t.t.t.t.t.t.t.y.t.7.$.e.#.7.7.q.7.7.+.7.s.a.+.4.+.s.t.t.#.+.7.4.| 4.4.| 4.1.1.| <.4.| 1.| | } } } | | | } { 6.7.} @.t.7.+.{ } +.7.t.@.` @.@.@.#.@.#.$.#.@.6.#.+.@.{ _ o.6.@.+.+...+.+.| +.4._ ( +.4._ R R { +.+.( _ | { ` _ Q _ ) W Q W Q [ _ ) Q W Q W Q [ [ ) W R { } R _ <.} Q U W W [ <.W W ) b U [ _ W ) ( W Q Q W W V U ( U U R U R _ R U W E c E { W S B F Q { ~ W S Q W c V V V F V F S V V V F Z V B Z Z B B Z M f S V l Z U V B y n V U ",
"W ) Q S S Q ( _ x b _ Q ( R R R ( } | ` } { { _ } } ` | ..| ..{ | ..+...R Q +...` ) T R ( K b x U R T S W U ) { { _ _ } | <.} _ _ } ..} <.<.} _ { 4.} _ 4.7.7.| [ 4.0.7.| { 6.4.| | @.$.#.#.$.$.#.q.t.@.+.6.6.6.@.@.7.7.6.+.+.6.6.4.t.a.p.1.<.0.a.t.t.4.6.a.7.6.6.7.6.7.7.6.4.6.7.e.7.7.7.7.r.t.r.7.7.7.e.d.t.+.t.d.d.t.6.7.i.i.t.+.7.d.t.t.t.t.t.t.i.a.t.t.7.t.t.t.7.7.7.t.t.t.7.7.#.$.#.{ @.t.t.t.4.@.a.t.t.6...t.t.6.6.7.6.6.7.7.7.r.6.4.1.4.6.7.7.r.7.7.7.7.6.t.d.7.$.g.D.d.r.0.s.Z.n.t.4.s.a.u.t.i.i.i.u.i.i.i.d.d.a.i.d.d.i.d.a.d.M.n.a.u.d.s.7.a.d.n.a.7.7.n.M.Z.t.7.D.d.e.p.p.p.a.a.s.p.p.t.p.s.r.r.7.t.t.t.e.r.r.e.a.n.t.e.n.D.d.t.0.a.n.c.7.#.d.i.t.i.i.a.a.t.e.e.t.t.t.e.$.t.t.t.t.t.t.t.t.t.*.t.6.] e.i.t.7.6.7.d.d.t.+.e.t.6.6.0.7.0.7.4...4.4.6.6.6.4.4.4.4.4.4.4.4...#.a.7.| 7.a.s.7.4.7.d.a.7...7.a.t.t.a.t.a.a.a.t.t.t.t.e.i.t.t.t.t.t.t.#.7.7.$.t.t.+.7.s.a.7.4.7.i.t.t.#.+.7.7...1.1.4.4.4.4.4.4.| 4.4.| [ [ <.} | | <.} | 6.7.| 4.7.t.6.4.| 7.7.t.+.` 6.#.@.$.#.#.6.#.#.#.@.#.@.{ ` 4.6.+.+.+.+.+...+.....( R | +.| | | | +.+.( ( +.| ` } { _ _ [ ) W Q ) [ [ _ Q W Q [ [ Q Q Q R { } R ( 1.<.[ Q Q [ 1.} W U W U U [ { _ _ _ Q [ [ _ ) W W T U E W R Q W W R Q W S b ) W W U W _ _ Q S V W U A B V A U F F F S x V B l M V Z Z B B B B l V V l B E U V f B U U ",
"R Q Q U W W _ R f V Q ( Q R R R _ { { } } _ { { | _ ` +.| ` | | | { { { R W | | ` ( ( R K c S x c W R U U W R _ } _ } } { <.<._ { } } } } { [ { +.4.{ _ +.6.6.4.1.7.0.7.{ { 4.6.@.+.@.#.#.@.#.7.$.7.7.#.@.5.6.#.@.7.6.7.7.+.+.0.4...t.t.t.6.6.p.t.t.t...6.a.7.7.6.6.7.6.6.4.6.7.7.7.7.7.7.t.0.r.r.7.7.7.7.a.t.+.7.i.i.d.u.a.i.t.7.| 6.t.t.t.t.t.t.t.i.t.t.t.q.t.t.t.t.$.$.t.q.t.e.#.#.7.+.{ +.7.t.t.7.t.t.7.u.+.| e.t.7.4.6.6.4.6.7.7.7.6.6.1.4.6.6.7.7.7.7.7.7.7.a.d.e.#.a.d.d.a.s.k.s.n.t.4.t.a.t.e.i.i.i.t.u.i.i.d.a.u.i.i.g.d.a.a.a.c.c.a.a.d.a.6.t.a.d.n.a.a.v.v.n.7.e.Z.s.e.e.t.r.t.a.p.p.r.a.a.a.p.e.7.r.t.r.7.7.7.e.d.n.e.e.d.n.g.d.s.d.c.d.6.4.a.d.i.t.t.i.t.t.t.7.t.t.$.*.t.t.t.*.*.t.t.t.t.t.t.t.6.` #.t.i.t.7.t.i.i.7...7.d.7.4.9.0.7.7.6.4.7.4.4.7.7.4.4.4.4.4.6.4.4.+.7.s.7.] 7.t.t.t.r.t.a.t.7.| 7.t.e.t.s.a.a.t.t.q.t.7.#.7.7.t.t.7.t.q.#.$.t.#.#.t.t.+.6.a.a.a.a.t.t.e.t...{ 7.6.| } 1.1.<.6...4.| ..4.4.} } [ <.} } } <.} | @.7.| | 7.7.7.7.7.6.#.t.{ ` 7.$.+.#.#.#.@.#.#.7.@.@.@.{ ` @.@.6.+.| ..+.+.4.+.| _ R { | | ..+.{ | @.( R +.| ` | } _ _ [ ) ) Q W } [ _ [ _ Q [ ) W Q [ R _ <.R R } <.} } <.{ | _ U E [ _ R W _ { _ Q { } [ W U W W U W W W U U U W W W W c c W W ) W Q Q Q Q x S W U A M M B Z E U S V V F V A l B B M B B M B B V V f f Z F V x U V S ",
"Q W ) R ) R ) U h V ) T U T ( R } ( R R _ ` } ` ..{ ` { | | | } ` { | } T R { ` ` _ _ R T b S x c Q R W ) R ( _ } | ..| | | <.} { } | } | [ _ } +.6.{ ` 4.@.@.6.7.t.t.4.| { 4.7.7.@.4.@.#.7.#.#.#.$.7.7.7.7.6.#.7.t.7.e.t.7.7.a.7...e.t.7.t.7.t.t.t.7...6.a.e.7.7.7.4.6.4.4.7.7.7.r.7.7.7.t.t.r.7.7.7.7.e.d.t...7.t.t.d.i.i.t.t.7.+.7.t.t.t.t.t.t.t.t.i.a.t.t.t.t.t.t.7.7.t.t.e.7.7.7.e.7.| @.t.$.t.t.t.t.t.t.+.| p.a.7.7.7.6.6.6.6.6.4.7.7.6.6.4.7.0.7.7.7.4.6.7.a.d.e.#.d.d.d.d.d.d.a.d.r.4.s.s.t.t.t.i.v.d.g.i.d.d.i.t.i.d.d.d.d.a.d.a.d.d.d.g.a.@.t.i.d.n.d.d.v.f.n.t.e.D.a.e.r.e.e.r.p.p.p.t.p.a.s.s.p.r.r.0.r.t.r.7.e.d.n.e.e.d.v.g.n.n.n.d.a.7.4.a.d.i.t.t.t.t.t.t.t.t.e.t.t.i.t.e.$.t.t.t.t.t.e.t.t...] 7.t.i.u.i.t.y.i.7...p.s.e.6.9.7.7.4.6.7.7.7.r.6.6.6.6.4.4.4.6.4.4.6.a.d.7.] 7.t.t.t.s.a.t.7.7...7.t.t.e.a.a.t.t.t.t.t.t.#.+.7.t.t.e.t.7.#.$.7.7.7.t.t...6.p.t.t.s.t.t.e.e...| 7.@.| <.} <.1.4.4.4.+.4.4.1.} <.} } } | } } <...6.7.} { 6.7.#.7.6.6.#.7.{ } 6.7.#.6.e.7...+.7.7.#.#.#.#.@.@.@.6.@...+.@.6.@.@.6._ Q | | ' | ..| +.4.} ( { | } | } _ ) ) ) [ ) Q ) } } _ _ ) Q W Q ) Q R _ } Q R } } } } <.[ } _ W U ) } _ Q ( Q _ Q Q _ Q S B U Q _ _ Q W b U E W S U U z V W W Q W W W _ W V F Q E Z B M f B V F U A B F U U V V V B B Z B Z l S V f f B B V S E U F ",
"R Q Q _ Q _ T S V V T b U U ( U T R T R | _ ( ' | ` ` ( } | { ' } { | | U T | ` ` _ R R ( T S x S ) W T T W _ Q { { } { { } } { | { } } { _ [ | | 6.| { 4.@.@.#.7.7.7.4...} | 6.#.5.6.6.@.@.#.+.#.q.q.6.6.6.@.@.7.q.t.q.7.t.7.q.6.| 7.7.t.q.7.7.t.e.4.| 7.a.7.7.9.7.4.4.4.6.6.6.7.7.7.7.7.7.7.6.7.0.7.7.t.a.t...6.u.t.i.i.t.t.a.7.+.t.t.7.t.t.t.t.t.t.a.t.t.t.7.t.t.q.t.@.6.t.7.7.t.7.q.a.| @.t.#.t.t.7.a.t.7.6.} p.p.6.7.7.4.6.6.4.6.7.6.7.7.4.6.0.7.0.4.4.4.6.6.e.d.t.+.d.a.d.a.a.d.d.a.7.6.s.a.d.t.t.i.g.d.i.i.i.d.t.t.i.a.i.d.n.d.d.t.d.g.s.k.a.+.s.i.d.d.c.d.v.d.n.t.6.D.a.7.r.7.e.r.e.p.p.p.t.a.s.p.p.t.r.r.r.t.0.7.7.a.n.e.$.a.v.i.d.D.n.i.a.6.6.d.i.i.y.$.t.a.t.t.t.e.7.t.y.y.y.*.$.t.t.$.+.$.&.$.e.| | e.$.t.t.t.t.i.t.6...p.s.7.9.6.4.4.4.6.4.4.7.7.7.6.4.6.4.4.4.4.6.6.6.t.s.6.' 6.t.t.e.a.a.7.t.r.| 6.s.e.$.t.i.t.t.i.t.t.i.t.$.t.t.$.*.t.$.$.@.7.7.7.7.7.| 7.t.7.t.t.7.t.7.6.| ` 7.e.+.4.| 1.<.1.4.4.1.| 4.| } 1.| <.} <.} [ [ | 6.4._ } 4.7.#.5.7.7.+.#.` { +.#.7.7.e.@.| ..#.6.#.7.#.7.#.+.@.4.@.@.....#.+.+.4.( ( ..{ ` +.| | o.+.| ( { +.{ Q Q R _ } _ _ [ ) ) _ ) Q ) ) Q W Q ) ) T _ } W R } { _ _ } [ { [ W U T Q _ { ! Q ) R W _ _ W E U Q Q Q E U W R E E W U W U z Q W U Q W E Q W F V Q U B B B M B l S V V V F V F U S z V B Z B B l l V M f B B S V U U B ",
"Q Q U _ ) T R S U W W H ( T T b U T W _ { ` _ R _ | { ( } _ | { | | | .._ T | o.] ` _ R R R W c U _ U c U T R _ { _ _ _ _ [ } } | | | { { { } | +.@.} } 4.#.6.@.@.@.6.6.| } +.@.@.#.e.7.@.+.+.@.6.t.q.+.+.6.6.#.@.t.t.t.7.#.#.7...| e.7.7.7.e.t.e.e.4.| 7.a.7.6.4.4.6.4.6.7.7.6.4.7.e.7.4.6.6.7.7.0.7.7.t.d.t.+.e.a.i.i.i.i.y.d.t.4.7.i.t.a.a.t.7.t.u.a.t.t.t.t.t.t.t.t.@.@.6.7.t.t.t.t.e.| 6.t.7.t.t.t.7.t.t.7.| t.a.7.6.4.6.6.6.4.7.7.7.7.7.7.7.0.6.6.4.4.4.6.4.7.d.t.#.s.d.a.a.t.d.d.d.t.6.a.c.v.a.i.t.t.*.t.t.i.i.i.t.i.i.d.d.d.a.a.d.d.d.d.s.p.#.s.a.d.d.d.d.v.v.M.t.7.Z.a.7.0.e.r.r.t.p.p.p.p.p.a.p.p.p.a.s.p.r.7.7.e.i.n.e.#.a.d.i.d.n.d.d.a.6.6.d.d.d.y.t.t.i.t.e.7.7.t.i.i.i.i.t.*.t.+.+.@.7.&.$.+.....7.$.t.7.t.t.u.t.7...t.d.7.4.4.4.4.4.6.4.4.4.4.7.7.6.4.4.6.4.6.6.6.+.7.a.6.] 7.t.t.7.e.e.t.t.t...7.s.t.t.t.t.t.t.i.y.d.i.i.y.y.t.t.*.t.t.t.7.e.7.$.$.7...7.t.t.t.t.t.t.t.q.| | t.t.6.4.4.4.| 4.4.4.| 1.| <.| 1.<.<.} } } } [ | +.4._ } 4.6.#.6.6.6.@.7.{ { +.+.+.#.6.@.+.+.@.7.7.t.6.@.+.#.#.@.6.@.+.....+.@.4._ _ ..+.| +...+.| +.| { +.4.| Q W ) [ } { [ } [ _ Q W ) [ ) Q Q W ) _ R _ 1.Q U [ _ _ [ [ _ } [ W W W E ) { { _ Q Q _ Q Q Q ) W U S U c U R _ Q ) Q R W U U Q W W Q W W Q Q U U Q E V B V Z A B B B F V F U S B V F U F Z m m f l F B M V S U V V M M ",
"W R Q Q R b W c U U R Q T U b H ( T U _ ` | { R ` _ } _ { _ ( ( { | ` ..{ T { +.` _ ` R K R W c H Q H U Q W W ) _ { { { } _ [ } { | | { | } _ | +.+.` ' 6.#.+.@.@.@.6.4.} } +.+.#.6.6.7.7.+.@.7.7.t.7.` ..7.7.#.@.7.6.#.$.$.7.t.| | t.t.6.7.e.7.t.t.4.| 7.y.7.4.4.4.+.6.7.6.7.+.6.7.7.7.6.4.6.0.7.0.0.7.t.d.q.+.a.y.t.i.t.i.t.i.t.+.7.a.d.d.a.t.t.t.t.y.i.t.7.t.q.t.t.q.6.@.7.t.q.7.t.t.6.{ 6.a.t.7.t.t.7.t.t.0.+.a.t.+.6.4.6.7.4.7.6.7.7.7.7.0.7.6.4.4.4.6.4.4.4.t.d.e.#.a.d.i.t.a.a.a.g.t.4.a.d.i.d.u.t.t.t.d.d.v.i.i.i.t.a.d.a.a.a.d.d.d.d.a.a.p.6.p.d.i.d.v.i.d.n.D.t.6.Z.d.7.6.0.7.t.p.e.p.p.p.r.p.p.t.t.p.p.t.7.0.7.7.d.d.7.7.a.i.i.d.d.a.d.d.6.4.d.d.t.a.i.t.a.t.$.6.t.y.t.i.i.t.t.t.#.#.#.t.t.t.$.+...| 6.e.$.7.t.t.t.t.7...t.s.6.4.4.7.6.4.4.4...4.7.4.6.6.6.4.4.+.6.4.+.+.e.t.@.` 7.7.$.e.e.6.t.t.6...7.a.t.t.t.q.t.t.t.t.u.t.t.t.y.t.t.$.$.t.t.t.t.#.#.7.e...6.p.t.7.t.q.t.t.7.| ..t.7.4.1...4.4.1.4.| <.4.| <.| } 1.<.[ [ [ <.} } +.7.{ } 7.@.@.6.+.#.7.7.{ { 4.+.+.7.@.7.6.@.7.e.6.+.+.+.+.@.#.6.@.+.+.@.+.+.+.+.} ( | +.{ { ..+...| { } 4.+.{ _ [ ,.[ _ } [ [ [ _ ) ) Q ) ) ) W W Q R ( } <.W b [ } _ _ [ ) } ) U W R T R Q } _ Q Q ( W R R Q U z S U S S U R _ W T W U c S Q R U W R T W W S W ) b x U S V F F V V F V Z U S x V F F V M f m f F U l x U V V V x f B ",
"E W ) _ _ T T S S c R ( b b T T ( T T ( | ..| ' { _ | | | _ R R _ _ ` | { R } o.` _ _ ( R R W c U Q H U Q Q ) _ _ _ { _ } } { { { } { ` { } } } +.4.' ` @.$.#.+.#.7.7.@.| | 4.6.#.$.7.t.t.7.7.$.$.t.6.| 6.7.7.#.7.#.@.#.$.t.t.t.@...t.t.e.7.e.q.t.a.7.4.7.i.7.4.7.4.4.4.6.7.4.4.7.7.7.7.6.6.7.0.0.7.6.6.t.s.t.4.t.d.t.t.t.d.i.t.7.4.t.d.t.t.q.q.t.t.t.t.t.t.t.i.a.a.t.t.7.7.t.t.t.t.t.t.6.| 6.t.t.t.7.t.t.t.7.r.4.a.t.#.6.0.6.6.6.6.7.r.7.7.7.0.4.4.4.4.6.7.6.6.6.t.d.t.#.s.d.t.t.a.a.d.d.t.6.a.i.i.i.d.d.u.t.i.d.d.i.d.i.d.d.a.t.t.s.d.d.c.d.a.d.a.6.s.i.i.d.d.i.v.n.Z.t.6.Z.d.7.0.7.6.7.e.p.t.t.t.p.p.p.p.p.e.7.7.7.r.0.e.a.d.7.6.a.d.g.d.a.d.d.s.6.+.a.i.i.i.t.a.a.#.7.t.a.u.t.t.u.t.t.$.+.#.t.t.*.t.t.7.+.| 7.t.e.e.t.e.u.s.7.4.r.a.7.6.4.6.7.7.7.4.4.4.6.7.7.4.4.4.4.......4.@.e.t.6.] e.t.t.e.e.e.t.e.6.| 7.a.t.t.t.t.t.t.t.t.$.$.t.t.t.t.t.$.7.#.t.7.7.#.$.e.t.+.7.a.t.t.t.t.t.t.e.| ..a.7...<.4.4.4.1.} } <.1.<.<.} <.1.<._ } } <.} | 6.7.| ..6.@.+.4.4.7.#.7.| } 4.+.@.7.7.7.7.7.7.6.| { | 4.@.@.@.6.@.+.@.6.@...+.6.{ _ | | { | | +...| _ ) ..| { | | } [ { } } ) Q [ [ [ ) R Q ) R W W Q _ { <.E c ) } { _ { } } Q S U Q Q R ) } { Q W W Q _ Q E S V U Q W S c W W U U U W V x Q R E W ) Q R S S F Q V B F F F F F F B A F E E F B V V Z M M M M B U U V l U S S V Z B F ",
"W U T } _ ) U c c h T R c H ( K R R b H } | { _ ` ` ` } ) R _ _ _ { | { _ W Q { | ! _ Q Q T b x T Q b S E R R ( } _ _ _ _ } { { } { { } { } } ` +.4.` { +.+.@.+.#.t.6.....{ +.7.#.#.q.7.6.7.$.#.$.t.7.6.7.7.#.7.7.7.t.7.@.e.q.7.6.| 6.t.t.7.t.t.t.t.7.4.e.d.7.6.6.6...| 4.4.4.7.7.7.7.6.6.0.6.7.0.7.4.4.7.a.7.+.a.t.t.t.u.a.i.7.e.4.7.d.t.$.t.t.t.t.t.$.$.t.a.d.d.u.t.t.t.s.t.t.t.t.7.7.6.| 7.6.7.t.q.s.a.e.t.7.+.t.t.t.6.0.6.4.7.7.0.0.7.7.7.6.4.4.4.6.4.4.6.0.6.t.d.t.+.t.a.d.t.a.d.g.t.7.6.e.a.g.d.d.d.d.i.t.7.t.a.d.i.d.d.a.t.d.Z.d.a.d.d.d.n.a.4.s.t.t.d.d.i.d.u.s.e.7.Z.d.7.7.7.6.4.7.r.t.0.r.p.p.p.p.p.e.7.e.7.6.0.7.a.d.7.6.s.d.d.d.a.g.d.0.4.4.t.d.i.t.t.t.7.@.7.a.t.t.t.t.$.t.t.@.@.#.7.7.$.q.t.t.+.| 6.#.e.t.7.t.a.t.7.6.6.a.7.4.4.1.4.7.7.4.6.4.4.7.4.1.+.4.6.4.1.+.4.+.7.a.6.` 6.t.t.$.t.t.t.#.+.| 7.t.t.t.7.7.t.t.d.t.t.#.t.t.t.t.t.7.#.@.@.@.7.7.t.t.7.+.7.e.t.t.t.p.a.7.4.{ { t.@.| 4.1.4.4.4.| <.<.<.1.1.<.} <.<.[ } <.} } +.4.7.} | 4.@.+.4.4.7.+.4.| { +.7.6.6.7.7.#.7.6.| { +.4.6.+.+.+.4...@.@.+.@.+.+.4.} { { _ | | | 4.| _ ( ( { +.{ [ | _ _ } [ _ _ ) ) ) [ ) R ) Q R W R _ Q } <.S V W ) _ [ } | [ S S R ) E R { [ Q U Q Q U R W V S W W W W U c U R W U W U V z U U R W W W W V x V Q V V B V S V V F B Z E E F F B B V M l C M M V c U l f V U S B F Z Z ",
"W U U S W U S U S x R R c K R R Q K b b _ { } ( _ } } ( Q Q } { | | | | _ W R _ | ` } R R H b c T Q U U U U T ( { { } { } _ } _ { { | | | | | | +.@.` { +.O.+.#.7.$.+.+.+.| @.7.7.7.$.#.@.#.$.7.7.#.7.t.t.t.7.#.#.t.t.t.$.7.t.t.4.+.7.#.7.t.t.t.6.@.7.6.7.a.e.6.4.4.4...4.4.6.7.0.6.4.6.6.7.6.7.4.6.7.6.7.a.t.@.t.7.+.t.d.s.t.t.t.4.e.d.t.t.t.t.t.t.t.q.t.t.q.t.t.t.t.t.t.t.t.u.t.t.7.t.7.| 7.7.@.t.a.a.e.7.t.e.+.t.s.t.7.0.6.6.7.7.4.4.4.7.6.7.6.4.6.7.4.4.6.6.7.t.d.t...7.t.a.a.d.a.s.7.7.6.t.d.d.d.d.d.g.d.a.t.7.t.a.d.g.d.d.a.c.Z.g.d.d.d.d.n.a.6.d.u.t.d.n.d.t.$.a.r.7.D.g.7.6.7.0.7.7.7.r.r.t.t.p.p.p.p.p.r.e.7.7.6.7.d.d.7.7.s.t.t.n.n.d.t.7.9.7.t.d.d.i.t.t.7.6.t.t.t.i.t.7.7.t.t.$.7.#.#.$.t.7.t.t.6.+.4.+.7.a.s.a.s.7.6.7.7.d.e.7.6.1.4.4.7.7.6.4.6.4.4.4.4.7.7.6.6.4.+.+.6.a.6.] 6.#.$.t.u.7.#.+.4.| 7.t.t.t.t.t.t.t.a.a.t.$.e.t.t.t.t.7.7.#.#.#.t.t.t.t.e.+.7.e.7.t.d.a.e.@.@.| | 7.@...4.1.4.4.4.4.6.1.1.| 1.<.<.| <.} <.| } } { 4.7._ | 4.| +.6.7.6.| +.} } 4.6.#.7.6.#.6.7.6.@...6.@.+.@.@.+.+.+.#.+.@.#.@.@.+._ { } R { 4.+.+._ _ _ _ | +.} } } _ _ [ [ } [ [ ) Q ) Q ) ) ) R R ) _ _ } } U S E R _ } } W U U W W ) Q ) _ Q W W Q R T T U U W R R Q U U U U U Y Y W E z V U U Q _ Q U U F V V ) W F E F V V F F V F E U F E V B B M B Z M M l S B l f B x F U Z B m ",
"E W S V F x x W U h U R K H T R ( b U T ( R R _ { _ _ Q } _ _ } +.| } .._ U ) W ( } } _ T b U x b R U U U U ) R ( _ } _ } _ _ _ { } } | | { | | +.4._ ` 6.] ] @.7.+.] @.+.| +.7.t.7.6.#.7.7.6.7.$.#.$.7.7.7.#.+.7.t.7.t.$.#.7.7.| +.7...+.t.t.6...6.7...@.u.7.4.4.+.4.4.| 4.6.7.6.4.4.4.6.4.6.7.4.6.4.6.7.t.7...7.t.@.6.a.t.@.t.t.4.e.d.t.t.t.t.t.q.t.t.q.t.t.7.t.t.t.t.t.t.t.t.t.t.q.a.7.{ 7.p.+.6.e.e.+.t.t.7.+.a.a.e.7.7.4.7.4.7.4.6.1.4.0.7.4.7.4.6.6.4.4.6.7.a.a.6...7.#.t.t.a.t.6.q.0.@.a.d.d.i.d.d.i.a.d.d.d.e.t.a.d.d.d.d.n.d.d.d.d.d.a.g.a.@.s.d.7.t.n.d.7.7.k.r.6.A.d.7.6.4.0.7.7.7.r.r.7.r.p.p.s.r.r.t.7.7.7.6.9.s.d.6.6.d.e.+.a.n.t.6.a.r.4.a.d.i.a.t.a.a.t.t.7.t.a.t.#.7.t.#.#.7.7.$.e.t.6.7.t.6.| 4...| 7.s.a.6.+.w.+.7.k.t.7.6.4.1.4.4.4.4.4.4.1.1.| 4.4.4.7.6.4...+.7.t.+.' @.+...$.t.7.] #.7.{ 6.t.t.t.a.t.t.i.t.a.t.7.e.t.t.7.$.$.t.7.t.t.t.7.e.t.7.| 7.7.+.7.t.7.+.+.7...{ t.6.| 4.4.4.4.4.4.4.4.| } <.<.} <.1.<.{ } <.{ } 4.4.) } 4.} | 6.t.| ' 7.} _ 4.@.6.7.6.6.@.4.6.7.@.+.@.+.@.@...4.4.@.6.6.@.+.@...( _ 4.R ( 4.4.} R | } Q | +.} } _ [ _ ) [ } [ ) Q Q W Q ) R Q _ Q W _ { _ } E V W R W Q W S E Q W V Q { ( Q T W Q U R ( Q W R H H Q U H T U U U E U U U x V Q c U ) W S U W U x W E Z W U V E E E U E B Z F F B B l B B B M M f l V B f B f B B B l B ",
"Q Q W U E S U _ U x R ( L H R K R R ( ` _ T T _ | ` _ _ { ` | | | | } .._ R _ [ ( T ) W U W R b H ( T U W R ( ( ) ( ) _ } } _ ( } } } } } _ } } +.6._ { 6.+.' ..7.+.| t.6.` #.7.7.7.6.7.t.7.7.7.7.7.#.#.#.6.@.#.e.t.t.7.$.$.7.7.....t.6...6.e.6.@.t.p...@.t.7.4.4.4.4.4.4.4.7.6.4.6.6.4.4.7.7.7.7.0.7.6.7.y.7.+.7.d.t.6.4.7.7.a.a.4.7.d.t.t.t.t.t.t.t.y.t.t.t.t.t.t.t.a.t.t.t.t.t.t.t.t.t.+.7.a.7.6...6.7.s.s.7.+.a.s.t.6.7.7.6.6.7.7.4.4.7.t.0.7.7.6.6.4.4.4.6.6.p.a.6.4.s.e.6.7.s.r.7.s.t.6.t.d.d.a.d.d.a.i.a.d.n.a.t.t.d.d.a.d.n.n.d.d.d.d.d.d.t.6.a.c.t.7.d.a.e.a.Z.t.7.Z.d.7.7.6.7.7.7.7.r.0.7.s.k.r.r.p.t.r.r.9.6.9.7.s.a.6.7.n.a.6.r.d.7.7.s.r.6.a.d.i.u.u.d.d.a.t.e.e.7.7.7.7.6.$.$.7.t.t.t.t.t.t.t.7.| 7.7.| 4.e.6...e.s.@.e.z.a.7.4.4.4.4.4.4.4.4.4.7.4.| ..4.4.4.4.4.4.+.7.e...' 6.e.+.+.e.#.@.t.e.| 6.t.t.t.i.y.u.t.y.t.t.t.t.7.t.7.$.e.t.t.t.t.t.e.t.t.7...7.p.4...6.+.@.6.t.4.| a.7.4.4.4.<.4.6.4.2.,.} 4.4.} <.1.<.<.} | 1.} | +.4.( <.4.1.} 4.9.| 4.0.| { ..#.#.#.7.7.+.+.6.7.#.+.@.@.+.+.4.6.7.7.6.@.+.+.+.+.( _ +.| R } 1._ { 4.| ( +.4.{ _ [ [ ) [ } [ [ ) [ { _ _ ) ) _ _ ( Q ) ( } } W U [ } W F F W [ _ U V W _ _ R T _ Q W R ( ( Q T U T U H W W U U R W U U c x Z Q U x c S S W Q U c R U x V B B F F F Z C M Z E F M B B F V A B M f B S l M F B f n M Z F ",
"U W Q U F R Q E c c ( U T R T H R ( ( } R S R _ _ _ } ( { | | ( ) } | } ) R | 4.} W W U R R W S T ( H U ( R R ( _ ( R { +.+.| ) ( [ } [ | } _ } +.5._ _ 4.6.@.{ | | #.t.+.` 6.$.$.7.$.6.7.t.7.#.7.7.@.+.e.7.7.7.@.t.t.$.@.#.e.t...| 7.t.@.1.1.6.7.t.7...6.t.#.+.4.4.4.4.6.7.4...6.a.e.4.+.7.7.6.7.7.7.4.7.a.7.+.7.d.v.t.| 7.d.t.t.6.6.a.$.t.t.t.7.$.e.t.t.t.t.t.q.t.t.t.a.a.t.t.t.t.a.t.a.| 6.e.t.7.<.4.t.a.p.7.+.a.c.e.6.7.7.6.4.7.7.6.7.a.s.e.4.4.6.4.4.6.4.4.4.7.s.4.6.z.s.4.6.r.6.p.d.t.@.s.d.i.d.i.a.d.d.d.d.a.n.d.t.u.d.i.d.d.d.a.i.d.d.d.s.7.+.a.a.a.t.7.6.d.n.k.r.6.k.s.6.7.7.6.6.7.0.0.6.r.D.C.s.e.r.r.7.9.8.4.6.6.p.s.6.6.a.n.u.7.7.7.a.s.6.@.a.d.t.t.i.t.a.t.t.t.7.6.6.e.e.@.$.t.t.7.t.e.t.t.t.t.4.{ 7.s.7.@.7.+.7.d.a.@.t.d.t.7.4.5.6.4.4.4.4.+.q.t.7.| { +.+...4.+.4...@.7.| ' 7.y.$...+.+.t.t.6.+.7.7.t.t.t.t.t.t.e.7.t.t.t.e.e.$.t.t.e.7.#.#.t.e.t.e.+.| 7.d.e.+.4.+.t.q.7.+.+.t.6.4.4.<.4.<.1.1.<._ <.7.6.| [ <.2.[ | | <.<.| +.4.Q } 0.6.} <.| 7.7.4.| { | 6.@.@.7.7.4.| +.6.@.6.@.+...+.4.6.6.#.+.+.+.#.+.o._ R | +.( ) _ | | } } } 4.4._ [ [ ) ) [ ,.Q R { | +.} _ Q _ Q R R W W R { [ W ) <.{ R S Q [ Q W U c V Q ( U E Q Q Q R R Q U U W U H T H U W U E U H U B M x W W l l S z U Q U U ) V l Z S B B B Z B M F W E F f M F F S F M f f S V f l U V d y B Z B ",
"V W Q R ) U U S V S ( R L R R T R ( ( R T U ) _ _ R ( _ <.{ _ R ) } } 4.[ R | 4..._ Q _ } T U b W Q U U ( _ } _ _ ( _ | +.+.+.} _ ) } } <.| | } +.7.{ { @.#.7...} | t.q.+.| 6.q.7.t.t.6.6.7.7.7.t.7.#.7.7.7.t.$.7.t.t.$.#.7.e.t.4.| e.s.t...1.p.t.t.7.+.6.t.6.+.4.6.4.4.6.6...4.t.t.t.7.+.+.6.7.6.4.4.4.e.d.t.#.t.t.i.a.t.d.t.#.t.7.#.d.t.t.y.t.7.7.$.t.q.t.t.t.t.t.t.e.t.a.t.t.t.a.a.d.t.| 7.e.t.p.4.7.d.a.7.7.6.a.d.t.6.7.6.7.6.7.7.e.a.t.t.a.6.4.1.4.4.4.4.4.+.7.d.6.6.d.d.s.6.6.a.D.a.p.6.a.d.a.i.a.a.g.d.d.d.d.d.d.a.t.s.d.d.a.a.a.a.d.a.a.d.7.@.a.a.t.d.e.t.n.n.k.0.7.d.s.7.7.0.7.6.0.r.7.7.z.Z.n.D.s.7.r.0.6.6.9.8.8.s.d.7.7.s.g.d.t.7.a.d.a.7.6.a.d.i.i.a.a.t.t.t.t.p.t.7.e.t.6.7.t.t.t.t.t.e.e.e.7.7...6.t.t.t.6.7.d.7.7.6.t.d.6.4.7.6.7.6.4.4.4.7.t.t.t.5...{ ..+.4.4.....#.7.+.] 7.t.$.+.7.6.t.7.6.+.t.7.t.7.t.t.a.t.e.7.t.t.t.e.7.t.i.t.e.#.7.#.t.$.e.7.#.| 7.p.s.6.@.t.a.#.4.4.+.a.7...4.1.4.<.2.<.} | 7.#.7.@.| } <.<.| 4.<.<.| 6.6.) } 7.e.1.4.4.a.6.| 1.} 4.6.@.6.7.e.4.+...6.6.@.@.@.+.+...4.@.+.+.@.+.@.@.@._ ( | +.| { | 6.+.} } { 6.4.} _ ) _ } } ) W ) } | | | _ W W R Q R W W R } } R _ <._ R W ) _ U U W c U _ R U U W ) W R _ R E U H W ( R R ( T U V U U U V B B U E U U W c E Q W U [ U B F U Z B C Z V U R ( U E B l A E F B l M l S S B l U Z l V E B l ",
"F x V ) Q S l U U x R ( L R R H b W R R ) R T Q [ W R _ | } ( ( <.[ { | _ T ) _ } { <.[ R S V V U Q W S S ) [ _ R ( | o.+.] +.4.| ( } } } | | } @.6.{ | @.O.#.6.7.7.@.+.4.| @.t.q.$.$.$.7.6.7.t.t.@.#.7.#.#.7.7.t.7.6.#.7.7.#.t.4.+.7.6.6.6.t.t.+.+.6.+.#.t.7.4.1.4.4.6.4.1.4.t.t.$.$.t.$.+.+.6.4.4.4.4.7.a.y.6.t.#.#.i.d.a.@.+.t.6.@.d.t.t.t.t.t.t.7.7.7.t.t.7.t.t.t.#.#.t.t.t.a.a.a.a.7.{ 7.7.@.p.a.a.t.7.6.e.6.a.s.t.6.6.4.7.7.6.4.t.t.*.t.t.t.7...4.4.4.6.4...t.a.6.#.t.a.d.6.s.s.d.6.7.7.t.d.d.y.a.a.d.d.s.a.d.d.d.a.t.t.d.a.d.a.d.d.a.a.d.z.r.6.d.s.$.s.Z.d.s.a.s.0.6.s.a.6.7.0.7.7.0.6.7.d.D.d.d.n.d.e.7.0.0.7.9.6.7.s.a.7.r.a.t.t.a.d.d.7.7.7.6.t.a.a.t.t.a.t.t.t.t.t.t.e.7.7.7.$.7.t.t.e.7.7.#.#.7.7.4.7.@.#.t.7.t.t.+.6.7.7.a.#.4.6.4.4.6.4...6.t.t.7.q.t.6.| ..+.+.4.....@.t.6.] #.t.+.7.a.7.| +.7.| 7.t.e.7.t.t.t.t.t.t.t.q.t.7.t.t.t.t.$.#.7.7.#.e.7.#.6.| 7.+.7.#.t.7.7.| 6.4.| t.6.| 4.1.1.4.1.} | 7.$.+.+.$.#.{ } 1.| ..<.[ | 4.6._ _ 1.4.| 7.t.7...| | } 6.@.+.7.7.7.6.@.+.+.4.+.+.6.6.+...| +.4.+.@.@.+.@.+._ ( { ..| +.7.+._ } } { 4.7.{ _ [ _ } [ W Q | | ` } { ( W W Q R W R W U _ } ) R ) R U _ } W S W E c R _ W U W W W T Q ) W U S k U Q Q ) W c z S U V U F l V V x E W W W W U V V W U l V A B Z A B U ) T U b U U B l A B l f B l c U x f B Z U U Z f y ",
"F B V U U x c W S c R R R R H b U U R ( _ Q ( _ } _ _ ( } _ _ <.4.| | | _ R [ ) ) [ | Q S c U S U ) Q S S S W R ) { +.| | | +.+.+.| | } | | | | #.t.| | 6.+.] @.r.6.{ +.6.| @.t.t.$.$.7.e.7.e.t.7.#.7.7.$.7.@.@.#.@.@.7.7.%.q.t.4.#.e.| { q.t.+.' +.e.@.#.t.7.+.1.4.4.4.1.4.7.t.*.$.$.*.t.#.+.4.4.6.4.4.e.d.t.6.7.6.@.e.a.7.@.#.t.7.#.a.t.t.t.t.t.t.t.t.t.a.t.e.7.a.t.7.7.q.t.t.t.a.t.a.4.| r.7.+.7.d.s.4.@.6.e.6.s.c.t.6.7.6.6.4.6.7.t.t.t.t.t.i.t.7.6.4.6.4.+.+.t.d.6.#.p.7.t.t.Z.s.7.@.p.7.t.d.n.d.c.d.d.d.d.a.g.d.d.d.a.a.d.d.d.d.d.d.d.d.d.z.p.7.d.d.#.e.D.z.e.6.s.r.7.d.t.6.7.9.7.9.9.7.d.n.d.d.d.d.g.d.t.7.r.e.r.r.t.i.d.7.e.a.7.#.a.Z.7.+.t.e.@.t.a.t.t.t.t.a.i.t.t.t.t.t.t.t.t.7.$.t.7.e.e.6.6.6.7.7.4.7.+.| e.t.t.@.+.t.7.t.a.7.+.6.6.4.4.4.7.a.t.t.t.t.t.t.e.+.| 4.......#.t.7.+.#.e.| +.a.@.' @.7.+.7.t.t.t.s.a.t.t.t.t.t.t.t.t.t.t.t.t.e.7.t.$.$.$.$.7.#...7.+.+.6.a.7.+.] e.@...t.6.| 4.1.1.1.<.| 7.6.#.@.@.@.$.#.| { 1.} [ [ | @.6.} _ } _ | 7.t.7.{ +.| } 4.7.@.7.e.7.@.4.4.4.| | +.6.6.6.+...+.@.4.6.@.@.+.+._ ) ..| _ +.7.| R } } _ 6.7.} { } } [ ) ) | | | { ` ` { { R W R ) R W T _ | ( Q R U W ) } W U ( R S R { } _ _ W Q } } Q T E E S c V W U c z B U U S U S x F V l V F E V V B B c W V l A A V A V U R R U U c S U U l M M B l B x S A M f M B F B f y M ",
"F Z x S S h U U x x U U R U H H R U U ) Q _ W Q } } Q R Q Q | } } ..{ } Q ) | ) W Q Q R U U W V S ) W S U S W R | +.| { { | +.| ..+.| [ } } | | @.q.] | 6. .] { | | { +.6.{ | 7.7.#.7.7.7.7.$.@.@.$.7.7.7.#.7.$.#.#.@.#.#.$.t.7...+.7.| _ 4.4.} | 7.6...$.t.6.+...4.<.| 4.e.t.7.$.*.*.*.$.t.$.+.4.4.+...t.d.t.+.7.7.+.@.7.4.4.7.7.7.@.t.t.t.t.t.t.t.t.t.t.t.t.7.t.t.a.a.7.7.t.t.t.t.t.a.4.4.7.7.4...r.7...6.7.7.6.a.n.t.4.7.6.6.4.t.d.i.t.t.$.u.t.t.u.7.+.4.4.4.+.7.d.6.+.e.@.#.6.a.p.@.6.a.6.7.d.a.a.y.d.d.i.d.a.d.a.d.a.d.a.a.d.a.a.a.d.c.d.a.d.p.6.s.d.6.4.s.s.6.6.s.0.6.j.p.4.6.7.7.4.6.d.Z.d.d.d.n.d.d.n.d.7.7.e.e.7.e.d.g.e.7.a.7.+.7.r.@.@.s.t...t.d.t.t.t.a.d.t.t.t.t.a.t.t.t.t.t.t.t.t.t.7.7.6.6.7.+.+.7.@.' ..7.#.| 6.t.@.e.d.7.4.4.6.4.+.7.i.y.q.t.t.t.q.t.t.7.| | +...| q.t.7.+.7.$.] | +.@.| 5.7.| #.t.t.t.a.t.t.t.t.7.e.t.t.$.$.t.y.t.t.q.7.7.t.7.e.7.4.| e.7.| ..7.6.| | t.+.] t.#...1.1.1.<.| 6.7.@.@.@.@.+.#.7.6.{ _ _ } _ [ @.6._ _ | } _ <.r.+.{ 4.| _ 4.e.4.4.4.6.+.+.6.4.| +.+.+.6.6.@.+.| ..4.+.@.@.+.+.{ Q } [ W _ 4._ R | } ( +.6.} _ } } ( ( { +.| ` ` ` | | ..} R T R R E U { { T ) ( U U U ) W U Q W c E } { { _ ( _ { _ T H E W S c V U W S c U V U W E V l F S B F F Z l l Z V l S S B B V S B B E W U U T S c z U U x f B l l B V x M f m y M n p t n ",
"F A S S S x S U V l U R R T R T R T ) R _ ( W W _ { ( ( Q _ { { } { { | ( ( <.} ) W Q W W W E S S ) W S U U ( } o.| +.| { ' | | ..+.4.} ( _ | | @.#.` | #.+.| ' } { { +.4.| ..@.6.$.$.7.7.7.#.+.#.t.t.6.@.7.t.t.7.t.t.6.#.t.t.7.| ..7.+.| +.4.{ ..7.6.+.7.t.7.4.1.4.<.4.7.t.e.t.7.#.$.t.*.=.t.#...4.1...e.d.t.+.e.7.4.6.4.6.4.7.t.7.+.t.t.t.y.t.t.t.t.t.t.t.i.t.t.i.t.a.t.t.t.t.t.t.t.a.7...7.6.+.4.6.6.6.6.7.r.6.a.n.t.6.7.7.6.t.d.i.i.i.e.#.t.t.u.i.t.7.+...4.+.t.a.6.6.e.7.6...7.7.6.7.a.6.t.d.t.t.t.a.d.d.d.a.u.s.d.d.a.d.d.a.t.t.d.a.d.d.d.d.t.7.a.s.6.4.e.e.6.7.p.0.7.k.s.6.6.4.6.6.s.n.d.d.n.d.d.n.n.g.n.d.e.7.7.7.e.i.d.e.e.s.6.4.7.6.4.6.s.p.#.t.d.y.a.a.d.d.i.t.t.u.i.u.t.t.t.t.u.t.u.s.t.t.t.7.e.@.+.e.6.| ..4.+.+.6.7.#.t.d.7.@.4.4.6.7.a.y.i.i.t.$.t.t.t.t.t.+.{ | +...$.t.t.#.7.7...| +.+.+.7.6...$.t.t.t.t.t.t.t.t.t.e.t.t.$.$.7.t.t.t.t.t.t.t.t.7.t.7.+.e.7.4.| 6.4.+.+.7.+...t.#...1.<.<.} 4.7.$.$.7.@.+.#.#.#.7.4.{ ) } _ ' @.4.) _ 4...) 1.6.| } | } _ 4.t.6...| 4.@.4.4.4.4.6.+.@.@.@.6.4.+.+.+.+.+.+.@.+.} ) ) ) R ) | _ ) | } ) ..6.} _ [ _ ) } +.+.+.| ` } | | ....{ ( T Q Q R } { T ( _ R U S W W R R R U W ( _ R Q ) _ ) W U U E E W U U W U R W U U U U E U l x F V U F B f x Z Z l S U B Z V B V U Q W U U E c c V U U U V B x x z c x V B M f m y n y d ",
"Z V U B B x x U S h W W H T R U T W W U T Q ( U U ( } T ) Q _ } _ ( | } Q Q } } ) W Q U W U S V U R c S F S _ | ` ` +.+.` ( _ | +...4.| [ _ _ | @.@.` { +...' { ..| _ ....{ | +.#.#.#.7.q.$.7.7.$.7.7.6.@.#.7.q.t.q.7.7.7.7.7.@...+.6.4.+.| ..| | 6.7.@.7.t.6.+.4.| 4.t.t.7.t.t.+.| ..7.t.%.%.*.@.| { 4.6.i.t.+.7.7.4.4.4.4.+.4.t.4.+.i.t.t.i.t.i.t.$.$.7.t.t.u.t.t.t.q.t.t.t.t.t.t.7.a.0.| 7.+...6.6.6.6.4.e.r.#.t.d.7.6.6.4.7.i.i.y.i.e.+.| +.t.t.t.i.t.@.{ ..4.7.t.+.+.p.7.+.4.6.4.7.6.t.6.$.a.d.t.i.t.u.i.i.t.a.a.a.a.s.d.a.t.a.a.a.a.a.d.d.d.p.6.s.a.+.+.6.6.6.7.t.0.6.s.d.7.7.4.4.a.n.d.a.d.s.r.7.a.c.d.d.n.a.7.7.0.7.i.d.7.e.a.6.4.0.4.4.+.7.t.7.t.a.u.i.i.a.a.t.t.u.u.t.u.t.7.t.t.t.i.t.t.e.7.t.7.7.7.+.e.+.....| | +...6.#.t.s.6.4.4.+.7.i.y.t.i.t.6...4.t.t.q.t.t.+.` | +.@.t.t.+.@.@.+.+.6.| ..4.7.| 7.7.7.t.t.q.t.t.t.t.t.t.t.$.6.#.t.t.t.t.a.t.t.7.7.t.7.+.7.7.6.| +.| +.| 7.+.] 7.#.| 1.} } 4.7.@.@.#.#.| _ +.7.@.#.$.#.{ ) [ { +.4.( _ 6..._ } } | { [ } _ ..4.6.| ..4...+.4.6.4.4.6.@.+.@.@.4.4.+.| ..| +.6.| ( _ ) _ ) Q _ { _ } | ( | 4._ ( _ Q } +.o.| +.{ Q R _ ..] ` | { W E Q R _ } W W _ W U W U W R U W U U S T _ ) R _ W S U Q U c U U c U U U W E U U c U S f B F x V F x B V B M l U U B V B l S Q W U U V l l l U U c U U V V V x U z V x Z B f y n y t ",
"F F F V V x c U S b ) ( R T R R _ R U S W ) ) W W _ _ ) _ } ..{ _ _ | | Q ) } _ R W Q T W W U V E W c V F Q { ` ` | | _ ( Q ) } +.+.+.4.1._ } | @.@.{ | +.] ' { ..| } | +.| ..#.7.#.#.e.7.q.t.t.7.7.q.7.#.@.#.7.t.7.7.7.7.7.#.6...+.7.4.+.@...` | 7.e.+.#.t.#.| | 6.t.t.t.t.t.+.{ | | +.#.%.*.=.t.#.| ..7.d.t.+.t.t.4.+.4.4.| +.7.4.@.t.t.t.t.t.t.t.$.$.7.t.t.t.t.t.t.t.e.t.t.t.a.t.t.s.0...6.4.4.6.6.9...4.7.r.7.a.t.#.6.6.7.i.y.i.i.t.4.| | ..6.t.i.i.i.a.#.+.+.t.t.6.4.t.7.+.4.4.4.6.6.t.+.$.a.d.a.d.i.i.t.t.a.a.d.a.t.a.d.a.a.d.d.a.d.d.d.i.d.s.6.s.t.+.4.6.6.6.7.p.7.6.s.d.e.7.7.a.c.d.d.g.s.0.6.6.0.s.d.d.d.d.a.7.6.7.d.g.e.e.s.6.6.7.7.6.4.7.r.@.t.a.t.t.t.d.a.t.t.s.i.i.u.t.$.t.u.u.a.t.e.#.7.7.t.t.6.#.p.6.....| | ..+.7.#.$.a.6...4.6.u.u.u.d.a.6.+.4.4.6.t.t.t.t.e...| ..#.t.7.+.#.+...+.4...| +.7.| 6.7.7.7.t.a.a.t.a.t.t.t.t.7.7.7.7.7.u.t.t.7.7.7.t.7.7.+.e.7.4...........7.+...t.6.| } } 4.7.$.#.7.@.| } _ } @.7.7.#.&.+.{ } { +.+.} ..7.| _ } [ } _ } } _ { 4.4.+.4.9.+.+.4.6.5.7.7.+.| +.@.7.6.+...+.@.+.@.| Q _ { _ _ ) [ _ _ | | ( +.6.' ( ) { | +.+.@.| _ R R ) ` | | ] ..| ( Q R } 1._ [ { W U W W W W W W S S c b Q _ _ _ W U Q Q U S c U U S U S S W W W E Q E l V F V S V V V V V l x Q W S V F U Q Q W U V l f f l S U U U W U l l V U U S V V B f m n n y ",
"Z Z l V F z S V S b W _ K R ( R ( ) U U ) W Q W R _ R _ { | | _ _ _ _ ..W T } ( _ Q U W U T E x S U V B U ) _ ( { } _ U Q R T ) { +.@.@.6.4.} { @.#.' | +.' { { } | ' { | ] $.t.#.$.$.#.q.7.7.t.$.$.t.q.#.7.7.#.+.@.q.q.#.#.7.7.| | 7.+...+.| | { 7.6.{ @.e.+.| +.t.t.e.t.t.@.{ | +.+.| +.t.*.$.*.t.@.] 7.a.$.+.7.7.+...4.4.| 4.4.+.| q.7.t.7.t.7.7.7.q.7.t.t.t.t.t.q.t.e.7.t.q.t.t.t.t.7.| 4.4...6.4.1.4...7.p.6.t.y.7.+.4.t.u.=.i.t.4.1.4.1.4.| e.i.i.y.i.y.@.+.t.t.6.4.7.7.+.+.6.4...7.7.+.e.a.t.d.i.d.i.t.a.a.t.d.d.t.a.d.d.a.a.d.c.a.d.d.d.d.a.6.t.7.#.+.9.6.6.7.s.7.6.s.a.7.6.a.n.d.i.d.s.0.4.9.0.4.7.s.d.d.d.d.t.6.7.d.g.e.e.a.6.4.7.7.6.4.7.7.@.t.d.t.t.a.a.t.t.t.t.t.a.t.t.t.q.u.i.y.t.7.6.7.7.7.t.6.+.e.6.| ..+.{ | 6.e.+.$.a.#...6.t.u.t.i.t.7.4.4.7.6.+.7.u.t.*.t.t...{ #.t.#. .$.+.{ ....+.' +.7.] @.t.t.q.a.t.t.a.t.q.t.a.t.$.t.t.6.7.t.t.#.@.7.#.$.t.7.| 6.7.| | 1.| | ..7.....t.#.| { #.t.#.#.#.@.} _ } | _ { 6.6.#.@.+.@.{ ' @.4.} 4.4._ _ } _ ) _ <.4._ ..6.+.4.4.4.6.6.@.@.6.7.@...| +.6.4.4.| { 4.6.+.@.| R _ } ) ( _ ) ( _ 1.} ( +.+.{ ) _ | o.| +.+.[ Q Q _ ) Q {  .` ` +.{ Q R | } Q R ( W S U W U U R U x c U c b ) [ R R W U W T c c W W c S W S S U E Q W S l B B B V x V l M V B B E V h B U ) ) U S B f f l f M B S W U S S l f B S U x V F f f n n y n ",
"F B B B F V S E U S R U H ( _ R ( R Q ) _ _ _ Q ( _ { ` } R ( { ..{ { ..T W } _ R Q Q W U W E S U W U S ) Q _ ` _ W W R W W ( Q _ | 6.@.6.7...{ @.6.| | +.' { | { | { ..| ] 7.t.t.q.$.$.t.t.7.7.#.$.t.t.7.q.t.7.+.+.t.t.t.7.t.e.+...6.+.| | | ..| 6.@.} #.7.....7.t.&.t.t.6.| | ..+.+.+...@.t.t.*.=.$.@.#.t.t.+.7.7.+.4.4.4.4.4.7.+.| t.t.t.t.t.7.t.t.t.t.i.t.t.t.t.t.t.t.t.t.e.7.t.s.t.7.| 7.6...6.4.4...+.p.p.6.t.d.t.#.t.i.i.i.t.6.4.4.4.1.4.4.6.t.i.i.i.y.q.4.7.i.6.4.7.@.+.4.7.6.4.6.7.@.t.d.i.i.d.i.i.a.d.t.a.d.d.t.t.s.d.a.d.d.d.t.a.a.d.c.a.#.e.7.6.4.6.6.6.7.s.r.7.k.r.6.p.d.d.i.d.s.7.4.9.0.r.0.7.7.s.d.a.d.d.t.e.i.v.e.t.s.6.4.9.9.6.6.t.t.6.t.d.i.a.a.a.t.a.t.t.t.t.d.a.t.t.i.i.i.t.t.t.e.7.t.a.7...6.@.....+.| +.7.t.#.t.d.7.#.t.i.y.i.t.7.4.6.7.6.9.6.#.7.t.t.t.t.7.+.+.*.$. .$.+.| | | | ' +.t.+.q.t.t.t.t.t.t.t.t.q.t.t.y.7.7.t.q.t.t.7.7.6.7.6.7.t.e.| 6.6.| ..4.| ..+.7.6.+.t.7.+.@.7.$.#.6...} [ } } ..{ } } 4.6.+.@.@...| @.7.{ | | _ [ } [ } { | +.} 4.7.6.7.6.4.6.@.@.6.@.@.+.+.+.6.4.4.+.| | 4.6.7.6.+._ } | _ ( _ _ ) _ 1.<._ 4.4._ _ | +.+.+.+.} [ [ _ _ [ { } | ..| | | } _ | ..W U R R U U W U U W S k W Q U b R R Q ) R W Q T U S U W W U R W S z b W U x y Z F B B B B l l Z V V F l f B U U T S V f l f l V V l V U S S F B M y F W V V F M y y m f d ",
"F B B l B S c W c U R c T K Q _ ( R _ Q R _ _ R U R ` ` ( T ( _ | { { } S W <._ U E Q U U T U U R R U R Q R _ ( W U R T Q _ Q Q _ _ | 6.@.+.4.| | 6.| ` +.| ' } | { ' +.+.` @.t.q.7.$.$.#.7.#.@.#.$.q.q.q.#.7.t.t.#.@.t.t.7.#.t.4.| 4...{ } | | | @.+.` +.#.+.#.q.$.$.t.6.| ..+.| | ..@.| ` #.t.t.%.q.#.+.t.7.| 7.e.| 1.4.4.4.+.t.+.| t.t.t.t.t.t.t.t.t.a.a.7.#.t.t.q.q.t.t.q.t.7.e.t.t.7.| 6.7.....6.6...6.a.p.6.t.i.y.t.y.y.d.t.4.4.7.4.4.4.4.4.4.+.t.y.y.y.t.@.#.i.6.+.7.+...4.6.7.+.6.7.+.7.d.i.t.a.t.a.y.a.d.i.d.d.t.t.t.a.d.d.a.u.t.d.a.t.g.a. .e.7.+.6.4.6.6.7.s.0.7.s.t.e.d.d.y.d.s.7.6.6.7.7.7.6.7.6.0.a.d.i.d.d.t.u.g.7.e.s.7.4.8.9.4.4.s.t.6.a.i.t.d.a.t.t.t.p.t.t.i.y.a.d.i.t.t.t.i.a.a.t.7.t.a.6.+.7.+.| ......+.7.t.#.$.i.=.t.i.t.i.t.6.6.7.4.6.6.6.@.....7.t.*.&.t.$.#.t.7.| #.7.| } | { } 6.7.] t.t.$.t.t.t.t.7.t.t.e.a.t.$.t.t.7.t.t.7.t.7.#.7.e.t.6.| 6.@...| 1.1.| @.r.+.+.t.#.+.7.#.$.#.+.{ [ } } | ..{ { } | o.#.+.+.@.O.@...) | 1._ ) [ ,._ { 4.} ` 4.+.6.4.6.4...4.4.+.+.+...4.4.@.#.#.o.+.4.4.4.4.+.4.} _ | } R [ [ ( } 4.} _ 4.4._ _ o.+.+.+._ [ } _ _ ) ) _ ( ( | ] ` ` { _ ' | U U ) W U E W U H R S c _ } R U U Q ) T Q _ U S W U z U W H E W c c U E W S x F E l f l f M B A l x V x U U U c S V l M M l x S V l l B x z E U S l S U B B Z B t y n m t ",
"Z F F M V B c U V U Q R R R ( ( _ ( _ Q R R U T R R ) _ ( ( } ( _ +.7.| b Q 4.{ W F W S H ( ) U ( R T R R ( R U W W T R { ..{ Q _ _ } | +.@.6.@.+.#.` ` +.+.| } ..| ' #.@.` #.$.@.#.7.#.#.#.@.#.$.$.q.t.t.6.@.$.t.t.7.7.$.7.7.7.+...7.6.{ | 1.} | #.#.| @.e.#.@.$.*.7.6.1.4.4...+.+.+.| o.....#.7.t.*.t.$.t.7.+.e.t.+...4.4...7.t.6.6.t.t.t.t.t.t.t.t.a.i.t.#.6.e.t.t.t.t.t.a.a.t.t.7.t.t.| 7.t.+...6.6...e.a.p.7.t.d.u.y.d.d.u.4.4.6.6.6.7.a.7.4.4.+.6.t.y.y.y.t.t.t.7.+.7.6...4.6.4.@.t.t.+.7.s.d.s.s.d.g.a.a.s.i.g.d.t.s.t.s.a.d.a.i.t.d.a.i.g.t.#.t.a.6...6.6.6.t.s.7.7.d.d.n.n.d.c.s.0.4.9.9.4.t.s.7.4.0.7.7.a.d.d.a.i.u.d.e.e.d.t.6.6.9.4.7.d.a.6.a.d.a.a.t.t.t.t.t.e.t.t.t.t.t.t.t.t.t.y.t.a.a.t.t.a.7.+.t.7.....1.| 6.t.7.@.t.i.*.i.i.i.u.7.4.6.6.4.7.t.6.+.+...+.#.t.*.t.*.t.t.t. .$.7...| ..} | 7.e.| 7.y.t.t.t.t.t.7.t.t.t.t.q.7.t.q.t.t.t.t.t.q.7.7.t.t.6.| 7.7...1.1.....7.t.+...7.+.#.$.$.t.7.1.} <.{ { 6.6.| { } | { #.#.@.#.+.@.| ) ..6.} ) [ ) ) | 4.{ _ +.@.+.+.| ....4.4...+.+.+.+.@.6.7.6.6.7.6.6.| ` ` 4.| } ..} ( } } _ ..6.} _ 6.7...| +.@.| { ) [ [ _ | 1._ Q ( R ( ` { ` ' ` | { T W { R U E W U R ) U H _ ) R W Q _ ) Q _ R b S W W b c U W U U b b U U ) W V E W x d m m l U F l l S U Q W U S V l C f l V U U F x l l B x S U W U U F l B F B y n m d d ",
"F E Z B V x S S x c R R U _ ( H K R R Q R T R R ( W R R { _ } _ _ ` 4.4.H W | | ( S U S H ( T x U U R U R R U U R W H { | ` | { Q _ _ ( } +.6.+.+.@.` ` @.@.{ _ } } ` 6.@.` +.$.$.#.@.#.#.@.$.7.#.$.t.t.7.7.6.@.@.t.t.6.6.#.7.7.| | t.7.} } <.} | e.@.` @.t.@.@.e.e.@.| 2.4.| o.7.e.@.| | | | { +.t.t.t.t.t.#...t.a.7...1.4...7.t.@.#.t.$.7.t.t.q.t.i.a.t.7.6.7.7.t.t.t.t.t.t.t.t.q.7.t.t.| $.t.$.+.4.4.+.t.a.e.#.d.d.y.t.d.u.6.4.9.4.4.t.d.d.i.+.4.4...+.a.t.t.y.t.y.6...t.7.| ..4...6.a.t.+.7.a.d.a.d.a.a.u.t.t.d.d.s.t.t.a.s.t.t.y.d.i.a.d.d.d.t.+.t.d.e...6.4.6.a.d.7.6.k.D.d.c.n.a.6.8.0.6.4.7.a.i.a.4.4.9.4.7.a.d.a.i.i.i.7.e.d.s.6.4.8.1.t.d.e.#.a.d.t.t.7.7.t.t.t.p.e.7.t.t.t.t.e.e.t.t.t.t.t.t.t.y.t...t.a.+.' | | 7.t.7.+.$.y.=.t.i.u.7.4.7.6.4.6.i.i.e.+.+.+...| 7.t.*.*.*.t.#.] #.7.+.} 1.} ' e.7.] +.t.t.q.t.7.7.7.7.t.t.q.t.#.7.t.t.t.t.7.t.t.t.#.q.t.7.| 7.e...| 1.} +.t.7...| 6.$.@.$.t.7.| <.<.[ } 6.#.@.@.| _ } { { @.#.@.+.+.4._ ..4.| R [ ) ) ..4.{ Q ..7.@.4.| ..+.| +.4.| +.6.| ..6.@.6.6.@.6.6.+.| | ..{ { +.4._ _ } _ +.7.{ ( 4.6.+.@.4.| _ ) [ [ _ | 7.6.{ W W W U ) } ` ` _ ` { W W } _ S U E S ( _ b H _ W U U R Q Q ) W b b E W U S V E E S S U V V W U V x U U V f d m l U U f l V E U U W V M M M l V U H c S V f y B B l V S c U B y M S V m t M y y ",
"U W A B V V S W S c W T U R H b H H R T ( _ _ R ( Q Q R ( R _ { | ( _ 4.R T +.+.[ U U U Q ( c h S W R T R T T T W R ( ` | ` ..{ _ ( _ _ _ | 6.@.@.@.` ` 6.#.+._ _ | +.7.4.| @.7.t.7.#.#.#.$.*.7.$.t.t.7.#.q.t.6.+.#.6.7.t.7.6.7.| | t.t.4.} } 1.6.t.#.| #.&.$.t.e.+...1.1.4.+.6.t.t.e.7.] | | | | #.e.u.t.t.7.+.t.a.t.6...4.#.t.t.@.6.t.+.#.t.t.t.u.t.t.e.7.7.t.7.t.t.t.t.t.t.t.t.t.t.t.t.+.#.i.t.#.+.4.7.i.a.7.#.d.a.d.d.a.6.6.4.6.6.t.i.d.y.i.t.6.+.+.+.6.t.d.i.y.d.7.+.u.t.+.| 1.4.t.d.s.+.7.a.s.a.d.t.t.t.t.s.g.d.d.t.t.d.d.t.t.t.d.a.a.d.i.i.t.#.t.d.a.6.4.4.7.s.g.7.6.k.n.n.n.a.6.6.9.6.6.r.a.y.t.i.a.4.6.0.6.7.s.d.i.u.a.7.t.d.d.e.4.1.6.a.n.e.#.a.a.t.t.t.t.7.6.p.a.t.t.t.t.t.t.t.t.t.t.i.t.t.t.y.d.e...t.d.t.| | 7.t.t.t.+.7.d.=.i.a.7.6.6.6.4.7.a.i.t.i.e.6.+.+... .$.t.*.*.*.#. .$.t.7.| } { +.t.7.] +.7.t.t.t.7.7.t.t.7.7.t.t.$.t.t.i.t.7.e.p.7.#.@.#.t.7.+.e.t.6.| 1.1.6.t.t.....t.$.$.t.@.4.<.<.1.| 6.e.#.@.7.@.{ { } { | 4.@.@.+.6.} ..@.4.) ) ) { +.6.| _ 4.@.6.7.6.+...+.+.....6.6...| +.+.@.6.@.+.4.@.4.@.4.} } 6.7.| _ _ } 4.7.{ ( | +.+.4.| _ ) [ [ _ | 6.6.@.+._ R W T K ( | ] _ ` { R ( | _ E F E T _ _ U U _ R W U W Q Q W W S T ) ) E U S U W U S U S S U S V l z W U B d f S U U l x U U U U U S V M M F E U U S S V B l M M x V V x S l y f V S M d y d l ",
"E E V l F B S Q c c U U R R b b R U U U W R Q W Q Q ) W W Q ( } | { R _ R W | | } Q ) T R ( b S ) W R T H H W R T U _ { _ ` ` { } R _ ` _ _ | 7.#.+.` { +.@.@.` _ 4.6.@.+.{ 6.7.@.6.6.@.$.7.$.7.t.t.6.@.#.7.7.7.7.6.6.7.7.7.@.4...| 7.t.e.| } 7.t.7.+.{ @.$.$.t.6.| 1.4.| | 6.t.7.$.t.7.@.| | 4.| | 4.p.y.t.7.+.7.t.u.7...4.t.t.7.| 4.t.#.@.6.t.q.t.t.7.7.t.7.7.q.t.q.t.t.t.t.7.t.t.q.t.t.+.@.t.y.t.+.@.t.i.t.6...t.a.i.a.7.4.0.4.6.7.d.i.y.y.t.i.t.+.4.4...#.a.i.y.i.7.@.t.a.t.| | t.d.t.t.+.7.a.e.t.a.t.a.t.d.d.a.d.a.t.a.a.d.a.t.t.t.a.d.a.t.i.u.#.7.d.d.7.+.7.d.d.d.7.6.s.n.d.s.6.4.7.6.4.7.a.a.t.t.t.t.7.4.9.7.4.7.k.a.y.a.7.7.d.d.a.6.4.s.d.a.7.+.t.t.e.t.t.t.7.4.6.t.t.t.t.7.q.t.t.7.e.t.t.t.t.7.t.a.6.] 6.t.t.7.#.t.t.t.t.+.7.y.t.d.7.4.7.6.4.@.t.i.=.*.t.t.7.+.4...' ..e.t.$.t.#.] #.e.$.#.+.+.7.#.6.| 4.4.#.#.7.7.t.$.e.#.$.t.7.t.a.t.t.q.t.7.6.7.7.@.#.+.6.+.6.a.e.+.| 6.t.$.e.| ..t.#.t.7.| <.<.} } 6.7.7.#.7.@.#.@.} ) } _ } o.#.+.+.} { 4.4.} Q [ 4.+.4.{ { 4.| +.7.6.+.| +...| +.7.6.| | 6.+.| +.@.+.@.@.| +.4._ _ 4.6.+.{ _ +.7.5.} R { 4.+.| { ) [ [ Q { 4.7.@.+.@.| R T R H K _ { ` ` { Q Q | | R V E ) _ ( U U ( Q T W W U W S S W Q W E W T S U R U c S U b b W V f x U U V f l U U V f B U c S S x l M f B W U c S c z S U B M l B l l B l B y d x V x f f f U ",
"W F B B F V W ) S c S U ( T U R R H R R U b T R _ _ _ ( R _ | _ | } { ( R R | | ` _ { R ( R S W ( Q R b K T R W W ) _ _ } ` ` { | } _ ( _ _ ' +.#.@.' ` @.+.+.+.@.7.@.+.+.{ @.7.+.| @.7.$.$.$.7.t.7.+.+.7.t.7.6.6.7.t.e.6.#.#.6.....7.t.e.6.6.t.t.#.+.| | e.*.6.+...4.4.4.+.e.t.t.t.$.$.t.6.4...| ..| 6.t.s.7.+.t.t.t.t.e.t.t.t.6.} 4.a.e.#.7.t.t.t.t.q.t.t.7.#.7.t.t.t.t.y.%.t.t.t.t.t.t.+.#.t.t.y.t.t.u.t.t.#...t.a.i.e.7.7.6.6.e.s.i.t.i.y.y.i.i.t.6.4.4...7.y.d.i.7.6.t.i.t.7.7.a.i.t.p.+.t.s.p.e.s.d.d.d.d.d.d.a.a.s.d.i.d.d.a.t.t.t.y.t.t.i.d.#.7.a.d.a.7.a.n.d.d.7.4.a.n.a.7.7.0.7.6.e.a.i.u.d.a.t.t.a.7.4.9.7.6.0.t.i.d.7.7.s.i.a.s.a.d.d.a.7.+.p.a.t.t.t.a.a.t.t.t.t.t.t.t.t.t.t.t.t.t.t.t.t.t.t.i.7.' 6.t.t.t.t.t.t.t.t.+.6.y.t.e.4.4.9.4.6.t.u.t.t.t.t.t.t.7.+...| ' +.7.*.t.#.+.7.$.*.t.t.t.t.$.6...4.7.7.+.#.e.t.t.t.7.7.7.t.t.t.6.6.t.t.7.7.7.t.e.7.+.+.| @.t.t.7.7.7.t.$.7.....e.u.e.4...1.<.| 4.t.q.#.6.7.#.$.7.+.} } _ _ [ +.+.#.} | +.+...| 4.#.+.6.} { 4.....6.4.6.+.o.| +.7.7.@.+.@.6.@.+.| +.@.6.@.+...+.} _ +.7.6.+.| 7.q.6.} ) } 4.4.| [ [ [ _ { 4.6.@.@.+.+.+.| ( T T U T _ ` ` } ( ( { | _ R ) _ _ ( U S R Q ( ) Q U U S S Q R U V S U W R U b V U U S S U V l x F S U c U W R U V B U E S B M f m M U U U S V x V V U F Z B V l M l x V f f B l V x S F U ",
"W U U F F W R R c x W U R U c W T H R ( H b ) ( R _ _ R W _ } | { _ { { U T _ ` | ` _ _ ( T c S U R U x S R R U T _ } _ _ _ ` ` ` | _ R _ _ R ` +.+._ ' +.X.+.+.@.q.+.+.| _ ..7.7.+...#.#.#.7.7.#.+.4.7.7.7.e.6.+.7.e.7.@.@.7.t.| { 7.#.6.7.7.7.@.#.+.{ | #.#.+.} 1.6.1.4.e.*.$.$.$.@.#.$.t.6.4.| 1.| | 6.a.6.| 7.t.$.t.7.t.t.$.4.` 7.a.7.e.@.6.t.t.7.t.7.e.7.t.6.e.t.t.t.t.t.t.7.a.t.t.7...#.t.$.i.t.t.t.t.i.#.+.a.t.t.4.0.7.6.6.a.a.i.t.t.t.i.t.i.a.t.+.4.4...6.i.a.4.+.t.t.t.t.t.t.7.t.e.+.7.d.s.e.e.a.d.a.d.a.t.t.a.a.t.d.d.a.i.t.t.t.i.t.a.a.a.#.#.t.a.y.a.a.a.d.d.6.4.a.a.t.7.7.0.4.7.a.i.t.a.u.t.t.t.t.p.4.4.7.4.1.9.u.a.6.6.t.u.i.a.d.a.i.a.6.4.a.t.t.7.7.t.a.d.i.t.t.t.7.e.t.t.t.i.t.t.t.t.s.t.t.a.@.' 6.t.t.7.t.$.%.t.7...6.y.e.1.4.6.4.+.t.u.t.7.$.$.$.q.u.t.7.....} [ +.e.7.+...@.*.=.*.t.$.@.#.6.' +.a.e.#.#.#.t.u.t.t.7.#.t.t.6.@.e.6.7.e.6.#.t.t.t.e.6.| @.#.t.$.t.7.#.$.t.| | 7.t.6.<.4.1.} | 7.#.#.#.#.7.#.@.#.7.4._ _ _ Q } +.4._ ( { ..| 4.+.......( ) 4...| | @.6.+.+.+.@.6.+.| @.@.@.@.@.| +.@.+.+.+.] +.{ ( ..6.@.4.6.6.7.6.[ ) <.4.| } [ } [ _ | #.@.+.@.+.| +.+.} R U U b H ( ' _ R ) } ` } _ [ R R ( U S U W ( R R W S b E E U U S S U U E S c S U V S c V F x l B U U U U U T W V B U V M d f y y B U c U b x V S B z F U B l n M y B l B f l B z x F S B ",
"W Q [ W ) R R W c S Q U ( T b b T ` ` R R W _ Q ( ( _ Q R T W _ { { { | R T _ ' | | ` ( R R b x H R b b S S T R { { | ` } ' ` ` | | | ` _ ( R ( | | L ! ..O.O.+.+.$.+.+.+._ ..7.7.6.@.+.#.7.7.$.@.@.7.7.7.7.t.7.#.6.6.#.@.7.t.t.@.| 6.#.#.7.t.7.#.7.| _ | 7.@.{ } ..4.4.7.t.*.$.#.#.$.7.$.t.t.e...| <.| 4.p.6.| 4.7.$.e.$.t.t.$.+.{ 7.s.t.t.#.#.7.e.t.t.$.7.t.t.e.t.t.7.+.6.q.t.a.e.$.7.7.+.#.t.t.t.t.y.t.t.a.6.#.d.t.t.6.6.6.7.a.a.i.d.i.t.y.i.i.a.a.a.t.4.4.4.+.7.i.6.+.t.t.t.*.t.e.7.t.t.6.t.g.d.a.t.t.s.u.t.t.t.t.s.a.t.d.a.t.a.i.d.i.i.u.i.a.t.#.#.t.d.y.a.a.a.t.a.7.6.a.a.6.7.r.6.7.a.t.i.i.a.t.t.t.t.t.p.p.7.4.9.4.6.s.d.7.6.t.u.u.s.a.a.i.t.7.7.a.d.u.t.t.t.t.t.t.t.t.t.t.t.t.u.s.t.7.t.i.y.t.t.i.a.@.| 7.t.t.t.t.7.%.t.7.+.7.a.6.1.4.4.6.7.t.t.t.t.e.$.e.t.t.t.u.$...| | | 6.7.@...#.e.t.$.$.#.+.#.6.| 6.t.t.t.t.$.t.t.t.#.#.#.7.7.e.t.a.6.7.@.7.7.t.$.e.t.7.| @.7.t.$.7.#.#.*.t.....7.7...4.4.1.1.7.#.#.+.7.7.#.@.7.$.e.4.| Q [ ) ) ..6.( R { +...| ..4.| } Q _ 4.+.{ ....+.4.@.@.@.+...+.6.#.6.@.+.+.+.+.| | | @.+.} _ ..6.@.6.7.7.#.@.} [ <.4.| | ,._ { | +.@.@.@.+.+.o...+.4.} T H b H T _ _ T R } | _ _ ) R ( ( U S U U W Q _ Q S W ) W W U U U U c V x S E W S U U U V B f B W U U W c S V V V U B f y Z f B F U W W U S S S V V F F B y y n l B x B l x x x l B l B ",
"R R W ( ( R U W b S U R U U T c T _ _ K K Q R R ( R W W Q W R T ( { ` | ( H [ ` ' ` ` L ( R b l T U x x b b R ' | ` ` | ] ' _ ` ` ` +.| R U R R ` | R R | O.] O.+.+.+.#.| ( ..#.+.$.#.+.+.6.#.#.#.7.7.7.7.7.7.7.$.#.@.#.7.e.$.t.4.{ 4.#.+.6.7.@.#.#.@.| | 7.@.{ } | | 6.t.e.#.$.+.@.$.7.#.$.t.t.6.{ } 1...7.7.| 6.7.#.#.t.t.#.e.6.| 4.t.t.$.7.#.#.7.7.7.t.t.$.t.t.t.6.#.@.#.@.t.t.7.#.t.7...6.t.t.t.t.t.t.i.t.6.6.a.a.6.8.4.4.s.a.a.a.a.y.d.t.t.y.a.t.d.i.4.+.7.4.#.t.@.+.t.$.*.t.t.7.t.t.r.+.t.d.d.d.a.t.u.i.i.a.a.s.t.t.s.t.a.t.t.y.a.t.y.a.t.a.t.+.7.s.t.a.a.p.t.t.a.6.@.s.p.4.7.6.6.t.i.t.u.i.t.t.t.t.t.t.t.a.e.4.4.6.4.t.d.6.6.s.t.u.i.t.t.t.t.7.@.a.d.t.d.t.7.t.i.q.t.e.7.t.a.t.s.t.7.7.t.i.i.a.t.u.t.+...t.t.t.t.q.$.t.%.7.+.6.a.6.1.4.4.e.i.t.t.t.t.t.$.$.7.7.t.t.t.#.{ 1.| @.e.+. .7.#.$.$.#.@.7.+.+.| #.t.t.t.t.$.$.t.t.7.t.7.t.7.t.t.t.7.@.6.t.#.#.e.6.7.4.| 6.7.#.&.#.#.t.$.7.| | t.@.| 4.<.| 7.7.@.@.@.7.#.6.@.@.7.@.@.+.( _ [ R | +.Q { | { | +.| | } .._ R 1.+.{ +...+.@.+.@.@.| @.@.+.@.#.| | @.+.+.#.@.+.5.+._ _ +.@.#.5.@.6.+.4.} Q 1.4.| [ _ [ | @.+.| +.@.| { | { | @.{ R b U W b R _ U R { ` ( R R ( _ T b U W S U W _ Q S U Q _ T U W U U U x f B E U R W S S B f f F U U U S z x x V h S c M M l V F x B S S S T V V S U U B x V y t y l Z y l V h c V x l V ",
") W R ( ( T U R U S W ( Q ( _ T R R R T R R _ _ ( R W _ } { } _ ( _ } | ( R } { ' ` ( L ( R S v W T x l S ( { _ ` ` ` ` { ` | ` | ` ` ` _ R U T } .._ { +.+.X.] +.@.#.7.4._ +.#.#.#.#.#.@.@.#.#.$.7.6.7.t.$.7.7.7.$.7.$.$.&.7.7.| ..7.#.#.6.6.6.+.7.7.+.+.7.+.| } ..6.t.t.t.t.$.$.$.$.$.$.t.%.t.7.4.| 1...7.6.| e.e.#.$.e.7.7.t.t...4.t.$.$.e.7.7.t.$.e.*.$.t.t.$.7.7.7.7.$.7.u.t.7.e.a.7...7.s.t.t.t.t.t.a.a.6.6.a.a.6.1.6.p.d.a.d.d.a.i.d.i.i.y.i.i.i.s.a.+.4.6.7.t.@.@.t.t.t.t.t.t.i.a.a.+.t.g.d.d.d.a.i.i.i.a.d.i.a.t.t.a.d.t.t.t.t.i.i.t.u.u.e.+.e.d.a.a.a.a.t.s.d.7.6.s.p.6.4.6.a.i.u.t.t.t.u.i.a.t.t.a.t.t.t.e.4.4.6.t.a.6.7.a.i.i.i.t.t.u.d.e.#.t.a.y.i.t.7.t.t.s.s.7.6.7.t.t.7.e.t.t.t.a.d.d.t.t.u.6...a.t.t.t.t.t.t.t.7.+.7.a.e.4.4.p.i.t.t.t.t.t.t.t.7.$.t.t.7.7.t.4...| $.t.+. .7.7.&.$.@.$.$.@.+.} 6.t.$.#.#.$.e.#.$.t.t.t.t.t.t.7.7.#.7.7.7.$.e.$.$.#.4.| 6.7.#.7.$.7.t.t.e.+.@.t.6.| 1.| 4.t.t.#.6.7.#.7.e.#.@.+.+.@.#...} } _ | | ( | 4.| ..+.......7.} _ | ..+.+.+.#.@.@.#.@.@.#.@.@.#.+.| +.6.@.+.7.#.#.@.@.{ _ +.6.@.6.6.5.7.7.1._ 4.4._ ) } 4.@.@.+.| | +.+.| | { | | } _ R U W U R _ T ( | ` R R ( ( _ R S W Q W U T Q W U c U U R W W U U S V l l V W U S x z B B M W E U U F x V x x V U V M n M x V x B l c S W U F x c F Z B S l y 7 f F M f x x V B V B B ",
"W R R T W H U E S U _ L { _ ( ( T H Q ( ( H R ( Q ( _ Q _ ` | _ R R ` { R Q } { ' L R R K R S l U R v l U R L L R _ ' _ ` { { ` _ ` ` ` | _ Q R ` | ! { @.X.O.` ] #.@.6.o._ ..#.#.+.@.6.#.+.+.#.7.$.6.6.#.$.7.7.#.7.$.#.@.$.$.#.| } 6.6.@.@.@.@.+.7.4.{ | #...} { @.t.*.$.t.$.#.$.*.#.#.$.t.$.@.*.e.| } 1.7.4.{ 7.e.#.#.4.7.7.7.7.| @.7.$.t.#.t.t.7.$.@.$.t.%.*.$.$.q.t.#.#.t.t.$.7.t.t.t.| 6.a.t.t.t.t.t.a.a.+.6.a.t.+...7.d.a.a.d.d.a.y.a.a.d.t.t.y.t.t.a.7.+.+.#.t.#.+.t.t.*.7.t.t.t.a.7.+.7.d.v.a.d.s.t.t.a.t.t.a.a.t.7.a.d.t.t.t.t.i.i.t.i.u.e...7.s.a.t.a.t.t.a.s.4.6.a.7...4.t.i.t.t.t.t.t.s.u.t.t.t.t.t.q.t.t.6.1...7.a.6.4.a.d.i.t.t.t.t.a.6.+.7.t.u.t.t.t.t.t.i.a.t.7.6.6.e.t.a.t.t.t.t.t.t.t.t.t.6...e.y.t.q.t.t.t.i.7.+.7.t.7...6.d.u.t.t.t.t.t.t.t.t.t.e.7.$.$.t.7.| { #.t.@.] @.e.$.+.$.@.#.#..._ +.e.#.#.7.$.t.@.+.#.#.7.#.7.$.t.7.+.7.$.6.7.e.@.+.#.6.' 4.7.$.#.7.6.7.t.e.| ..6.4...} 6.t.$.7.#.#.#.t.7.7.#.+.| +.o.+.#.{ [ { | { R | +.+.| | | | | 4.| ( } +.+.@.@.@.@.@...+.@...+.#.+.| ..+.+.#.#.+.#.6.+.| _ ( 4.7.@.4.4.4.6.7.| { 3.4.( R | 6.+.o.+.+.` { | | { ' ` _ _ ' ` W S H _ _ U R { _ K ( _ R _ R x c W R U S U Q U S V V T U U T b V U B f l S x x V U V f M W W c U x c U B f S W f y M B x S S x B S c U S B f f B Z l l S M q h Z w f V l l V B l l ",
"E R ( U R R ( W c W ( R ( R K R R T Q _ _ ( R U R R _ R R R ( T H ( { } R U } | ` R _ ( L R b x T R K b U b b K _ _ ' ' ' ` | ' ` ` { ` ` +.+.| ` | _ ` | ] O.] ] $.@.+.| } +.7.#.#.7.7.7.#.@.#.6.7.7.7.#.$.t.7.#.$.$.#.#.$.7.#.| } 4.7.#.@.@.7.7.6.| _ | 7.| ` +.t.*.*.t.e.#.#.t.t.&.t.$.$.$.$.&.t.6.| ..t.7.| 6.7.$.$.@.7.t.t.4.| 4.7.t.t.7.e.7.#.+.#.t.t.*.t.$.$.t.*.7.t.$.e.7.t.i.t.e...6.t.t.t.t.u.i.t.t.+.6.d.t.#.6.a.i.i.i.d.a.d.a.t.d.d.t.t.t.a.t.i.y.t.@.$.a.$.+.t.t.t.$.t.y.i.t.7.+.e.a.d.d.d.t.e.7.t.a.y.i.i.t.u.s.t.7.s.t.t.t.i.i.t.d.t.+.7.d.a.a.s.a.a.d.s.+.7.a.#.+.a.d.i.t.t.t.t.t.s.u.i.t.7.7.t.t.t.t.p.7.| @.a.7.6.t.u.i.t.t.i.u.t.6.+.e.u.t.u.u.t.t.d.g.a.a.t.t.e.e.t.t.t.d.t.e.7.t.t.t.t.7...e.y.t.t.t.t.y.t.6.#.t.t.#.#.s.i.t.t.t.t.t.t.t.t.t.t.7.7.t.$.*.t.7.+.$.i.#.| +.+.$.#.&.$.7.+...' 4.6.7.q.t.t.t.$.6.+.+.#.@.#.7.t.7.#.$.$.t.7.#.@.#.#.6.{ 4.7.7.$.e.7.e.t.6.' ..e.+.} 4.t.t.7.7.6.@.7.t.$.7.#.@.+.+.| @.#.@.| ` +.| ( | | | +.....#.| { { ( ..+...6.6.6...` ' | | @.+.+.+.+.@.@.@.#.@.#.#.#.+.+.} _ +.7.6.6.6.6.4.+.} } 4.4.} { 4.#.+.+.+.| | +.+.+.| ` _ } ` ` } _ W K ` } U U Q R R _ _ ( ( U l x E U c S U R W U E U b V U U U U U S B B B B F U E S B l U U U U z c U V l S S e f F S c S V V S S b U S x f M B V l h V B l c U e h F x x B l l V ",
"U U R R Q _ Q W b S R R b T ( H _ Q U R _ _ L K Q T R ( R _ Q T R Q Q } U b ) ` ` _ _ ` L H x l R U R K T U K Q { _ _ ' _ ` ` ` ] { ` ` _ ` +.] +.{ R _ ' _ ] +.] @.] ] .._ +.6.#.7.6.7.q.$.#.#.@.7.7.#.#.7.7.7.@.| ..6.$.#.7.7.{ } 4.+.7.6.#.6.6..._ _ | @.+...@.t.$.%.t.$.#.#.#.t.t.*.$.$.$.7.@.e.t.6.@.t.6.{ 6.+.+.7.q.t.6.@.+.| 6.t.#.*.$.$.%.t.#.@.#.$.t.$.$.%.$.$.&.t.$.$.t.i.t.t.e...6.6.e.a.t.a.a.7.6...+.a.t.u.t.i.t.t.i.t.a.a.a.i.a.a.t.q.q.i.t.t.i.i.q.t.t.6.+.7.+.6.t.t.y.t.7.7.+.7.a.d.a.a.t.t.t.t.t.t.t.t.t.t.a.t.7.d.a.t.t.a.i.t.a.t.4.7.t.a.a.a.a.d.p.7...6.t.t.t.i.i.t.t.t.t.t.a.t.t.t.t.t.t.t.t.7.7.t.t.6.7.t.4.6.e.7.e.t.t.u.e.@.5.4.e.t.t.t.t.t.t.t.t.t.7.t.i.t.e.t.t.u.t.t.7.e.t.t.t.a.6.+.7.7.t.t.t.y.t.+.#.@.e.i.t.t.i.t.t.*.7.7.t.t.t.t.t.$.$.7.t.$.$.t.t.#.t.t.@.| +.] +.#.$.t.#.' { } +.t.e.7.t.t.7.t.7.@.#.@.e.6.7.6.7.#.#.6.7.+.+.@.7.@.4.} 4.@.+.7.6.#.t.@.| { | 4.@.| 6.t.7.7.7.@.@.+.#.7.@.+.7.#.+...| +.#.| ` +.{ Q | { ( | @.| | ) _ _ } | +.+.@.#.#.+.` { +.+.....+.+.@.+.+.+.@.#.#.@.+.+.@.{ _ | @.6.@.@.7.| _ { { | +.....| | o.+.| | | | +...{ ` _ { { Q _ } _ R ` _ b S U T ( R R _ W x l c U U U b U V U T U U c S U c U S V c V x V U E z U E z f V V S z F x c S f x S c U S c c c S S V b U S c V V S M M x l h V l k U l h V S V l x l V ",
"U U W _ ` R c E U U [ R U R ) ( _ R _ _ ) R _ _ _ R R _ _ ` ` _ _ _ { } R b R R | ` _ R K K c x W R R R R T R _ ` ` ' _ ` { ` ` | | { ' ` ` ` | +.{ R ( } _ ' ..+.+.' | .._ | 7.7.6.6.6.7.7.e.#.#.$.7.#.$.7.7.e.@.` | 6.7.$.t.e...} ..| +.6.7.4.| | | { +.7.7.$.#.$.$.%.$.$.e.7.#.#.$.$.t.%.7.t.t.t.t.t.e.e.4.| 4.+.| #.e.7.....6.+.7.t.%.*.q.$.t.t.*.%.+.@.$.$.*.*.$.e.t.t.q.t.t.u.t.a.t.+.4.6.#.t.a.t.7.@.7.+.#.t.i.i.t.t.t.t.t.i.a.a.t.i.d.a.t.t.t.t.t.t.q.t.t.y.i.6.+.6.+.#.t.d.t.#.7.t.6.7.d.d.a.a.a.d.i.a.s.u.u.d.i.a.d.t.t.a.a.i.t.t.t.d.d.t.6.7.6.e.a.d.a.t.$.e.6.4.t.d.d.i.t.i.i.u.i.i.y.i.t.t.t.t.s.a.t.t.t.t.t.t.t.t.4.7.t.#.#.t.a.7...6.7.6.t.u.i.t.t.t.t.t.t.t.t.t.a.t.e.t.a.i.a.t.e.t.t.t.t.i.7.4.6.#.$.t.a.7.+.#.7.#.e.d.d.i.i.t.t.$.e.7.t.t.t.$.#.#.7.e.t.&.&.&.t.t.t.t.#.| @.|  .+.t.7.] ] 4.} +.t.t.t.7.7.t.7.7.7.7.6.6.7.7.7.7.7.7.#.@...#.6.#.7.6.{ 4...| 6.e.6.$...4.4...6.7.7.7.@.7.@.6.6.#...#.+.#.@.#.#.6.@.+.@.@.@.+.4.} R | } ( } 6.| ( R | | } +.7.+.@.+.@.@.+.@.#.+.@.+.@.+.+.$.@.@.7.#.#.+.@.+.@.| { | ..+.7.6.4.' { | ' | +.+.| { ` ] | | +.| ` ` { ` { } _ _ _ _ | { _ _ ( b b U U T Q ( U S V B S W U T T U U T b c c U W R T T S c c S V V W U S U S V M Z V S V S x x B f l U U W b b c c S U c S U U S S V S z V c x V V h c U f M Z f x V V l B ",
"U c U R R b U W c U Q ( H b R _ _ R _ } R H R _ _ _ _ Q ` _ ` Q R } { _ R U ) _ ( ( T K _ K S x S R L K R T K ( _ ` ` _ _ ` | ` ` { | ` _ ` ` ' { { T R <.' R _ 4._ ` +.{ _ | +.@.6.+.+.6.#.#.7.$.#.@.#.6.q.t.#.#.@.+.@.@.7.7.6.| { 4..._ | +...` #.6._ { 7.$.$.@.@.@.#.@.#.6.7.+.+.#.e.#.%.t.t.t.7.$.7.$.7.+.' 7.e.+.| ..4.@.t.7.| @.t.*.*.%.t.t.t.t.%.@.+.+.#.#.7.t.%.t.t.*.$.$.t.y.t.7.+.6.p.@.6.6.7.+.e.a.+...t.t.t.t.t.$.t.t.u.a.i.t.t.a.y.t.y.t.t.t.t.q.t.y.t.a.#...t.6.| 4.p.e.+.7.t.4.t.a.i.a.d.i.y.d.i.t.i.t.t.d.d.t.i.t.t.a.d.t.t.a.t.d.t.+.t.r.7.7.a.p.#.7.k.6.+.y.i.y.t.t.t.t.i.i.t.t.y.u.a.t.t.t.t.t.a.t.7.7.e.t.p...4.a.7.| @.t.+.+.a.7.| 7.u.t.t.t.t.t.u.t.a.s.7.t.t.e.7.u.a.t.t.t.t.t.t.i.t.6.+.t.t.O.#.t.#.#.t.t.+.$.u.t.i.t.t.$.$.t.q.7.t.t.$.#.7.t.$.7.$.$.$.t.$.*.u.+.{ 4.6...` 7.@.' +.6._ | 7.6.7.@.6.7.$.e.6.7.@.@.6.7.6.7.6.7.#.@.+.7.@.+.7.6._ 4.6.} | 7.#.+.| e.4.' @.t.7.7.+.#.@.7.@.6.@.+.@.#.@.+.@.#.+.+.+.+.@.6.+.( W _ 1._ W } [ [ } 4.} ( +.6.+.| | #.+.+.+.+.+.#.@.+.+.#.+.@.#.6.@.+.@.#.+...{ { 4..._ ..4.} _ 1.| R ` +.` | | | { ' { } { { ` | { ` { Q _ ` _ ( ( R _ ( c U Q U b U S U W x l S E S U T Y R T c x S U U W W b V c c S x c U U U c B M B W F l A B l c V l f S b c b c x S c S S c S S c V l x z V x h S V h h l w f V y t M B x d ",
"W H T S U U _ _ S U Q U S U W T { } { } R b b T Q R R Q _ ` ` R R ` } _ R W [ _ _ H H R _ R R b W R T K R T K ( _ ` ` ( R { | | { ' ` ` } _ } _ ` ..R ( +.| _ ( } { | 4.| _ | { ..+.+.+.6.7.#.$.#.+.6.#.@.7.6.@.7.7.7.@.@.#.#.6.} { 4.4.| } } ..+.t.6._ { #.$.7.$.#.@.#.$.t.q.7.@.+.7.t.$.t.t.t.#.#.7.7.$.t.+.' e.t.6.+.{ 4.q.t.q.| 6.t.$.$.t.y.*.t.t.t.*.#.@.$.$.t.%.*.$.t.*.$.$.t.t.t.t...7.d.t.7...6.7.a.t.6.+.a.t.$.t.t.t.i.t.i.t.t.t.t.t.t.t.t.t.t.i.y.t.t.y.t.i.#...t.e.7...6.6.6.a.t.4.a.d.a.i.d.i.i.t.t.t.i.t.t.t.t.u.d.i.a.d.d.i.i.i.u.a.t.+.e.d.d.7.7.6.t.a.s.6.+.y.u.t.i.t.$.$.t.t.t.t.a.t.t.t.a.t.d.t.e.7.7.7.7.t.t.+.+.a.s.6.4.4.6.t.a.6...7.t.7.e.t.t.t.t.i.d.d.t.t.7.e.t.a.t.t.t.t.t.t.i.a.t.7...t.d.7.+.@.7.a.y.t.@.#.t.t.t.i.i.t.t.t.t.t.i.t.$.t.t.t.t.t.$.#.$.u.t.u.t.@.{ 6.t.7.| | { +.7.@.} ..@.+...+.#.7.7.t.7.7.7.7.6.6.t.t.$.e.q.#.#.7.#.#.7.6.} 6.r...| 4.+.+.6.t.+.' #.t.t.7.#.6.6.t.6.6.6.#.7.7.+.@.@.+.` | ..6.+.+.| _ W ) 1.+.( Q ) +.+...{ { +.+.] | +.#.+.+.@.+.+.#.@.+.+.@.@.6.7.#.+.+.+.#.@.#.{ | 7.6._ _ [ | | +.| ( ' | | ] | +.| | { ` { { | ..{ { } _ _ } ( T R R _ _ b S Q R U x x W W x B V U R U U W U W S c U U U U c c U T c c S U U S x z Z B B Q U l f B l U W l x E c x x S S S S V x S U S x l B B l x z b U U x f f y f S l y r M B d ",
"I U U z S U ! _ c U W S W b U U _ { { R _ R T R R K ( ( R _ _ ( _ R ( Q ( T Q { { R ( R K R R b W b v K H U R T R ' } _ _ _ ' | ` ` ' ` | { _ _ | | R R } +...R _ +.| { { _ | ....+.@.#.+.#.#.+.@.#.@.@.@.+.@.@.+.$.$.@.+.+.#.@.{ _ | 4.6.| _ | @.7.| ( | @.+.6.$.@.+.#.t.t.q.@.@.6.7.$.*.$.#.$.7.e.#.#.e.e..._ +.6.7.#.| 7.7.@.q.o.@.7.@.$.$.q.t.t.$.*.%.%.%.*.*.%.$.q.q.t.$.t.%.t.t.t.7...6.t.a.t.+.7.t.6.7.+.+.t.t.t.$.t.t.t.t.t.t.t.t.t.t.t.t.$.7.t.i.y.t.q.t.t.t.@...7.t.t.+.7.4.4.a.0.+.7.d.a.t.t.i.d.t.t.i.t.t.t.t.t.t.a.a.a.t.a.d.i.u.a.u.e.+.t.a.d.t.6.7.a.t.t.4.+.t.t.t.t.t.i.t.7.e.t.t.t.7.t.t.7.t.a.t.7.7.p.e.#.7.t.+...7.t.t.+.| t.a.7.+...7.t.$.t.t.t.t.t.i.i.a.i.q.t.u.t.t.t.t.t.u.d.a.i.t.t.6.| 6.i.y.6.6.t.t.#.t.@.+.t.t.t.y.t.u.t.$.7.i.y.q.$.t.q.7.t.t.$.*.$.7.t.t.$...} +.t.t.@.+.+.| 6.+.` | 7.#.@.7.@.4.7.7.7.#.#.7.#.7.q.$.$.t.#.7.+.#.#.#.@.4.{ +.7.7.+.1.} 6.7.+.+.' 6.7.7.e.@.6.7.4.7.#.@.7.7.#.#.#.+.@.+.@.+.+.+.+.` | Q R } 4._ ) [ ..| | _ _ +.+.] +.....+.+.+.@.+.+.+.@.+.+.#.@.@.#.+.+.+.| +.6.} ` 6.7.+.{ | 6.| ` } _ _ | ` | | { | { | | ` ` { { | | { { } _ Q R R ( _ W S c E ) T x S W c x x l U R K H U R U H U c b W U c H W U b c c U V z S F l M f B W x y B h U E h x U S x l c U S z S x S S x f l l l f l x c U B f t f f y B V Z f f f m ",
"U U W Q ) T Q W c Q _ R _ ( R ( _ _ _ R _ R R Q R R ! _ { ( ( T ( R _ _ ( W ) _ ` { } R H ( T c S c b U H U R K R _ ` ` ` ` ` ] ` ` | +.....| ` { +._ ( } ` ..| +.6.| _ _ _ 4.+.+.+.@.#.@.#.#.+.#.7.6.+.@.@.@.#.#.6.#.#.+.+.#.6.| } | @.7.@.+.4.@.6.{ _ 4.#.+.+.@.#.$.7.#.#.+.@.7.7.$.7.#.#.#.#.t.t.7.7.$.e.4.} ..+.@.#.7.q.#.#.7.@.#.q.$.$.#.$.#.$.$.$.$.*.*.$.$.t.q.t.*.t.7.t.t.*.t.u.e.+.6.7.7.t.t.s.7.#.7.6.#.t.t.t.t.t.e.$.@.e.t.t.t.y.t.i.t.t.t.t.t.q.t.t.t.t.i.6.+.7.7.t.q.d.a.6.t.a.4.7.a.d.i.a.d.d.i.u.t.u.d.a.e.a.a.a.d.d.a.d.s.d.a.d.a.t.e.s.a.t.t.p.t.a.7.t.6.+.t.u.t.t.t.t.y.t.7.t.a.t.7.t.t.t.t.e.7.7.t.a.e.7.e.t.+.4.4.6.t.7.7.a.t.6.6.@.7.t.t.t.s.t.t.i.i.i.d.a.t.t.a.t.t.t.t.i.d.d.a.t.t.t.7.4.6.t.t.t.d.i.#.#.t.6.#.u.u.t.i.i.i.t.t.t.i.i.$.$.t.t.t.7.#.$.t.#.$.#.$.#...` +.7.@.+.t.t.] ..6.| ..t.7.#.7.@.6.6.7.@.7.7.6.@.6.6.@.@.$.$.#.+.$.$.+.#.7.| 4.7.7.#.4.+.t.$.+.+.] 6.7.7.t.7.6.6.4.@.6.7.t.7.@.+.@.6.7.#.#.@.+.+.+.+.4._ ) } } } 4.6...' +.| _ | @.+.#.#.+.+.....+.+.@.@.@.+.+.+.#.@.@.#.#.+.| ] +.| { @.#.+.+.7.7.' ` | _ ' +.` ] +.| } _ ` { { { { { } _ _ _ { _ _ _ ( Q _ _ H c U ( ) R _ U f c S l U R K U W W W U U U T R E b U E U T S c U S c S F B l f M V U S S x U c l c U S S x S U U S S V A l l l V V c x M f l x l f f M f f B V F B n f C ",
"U z U [ { U c E S W _ _ Q _ { R ( R R R ) U x U { _ Q ( _ R T U R { { { W R _ R Q { { R R R b c c z U b U b H T K K _ _ ` | +.] | ..] o.| | o.{ ` | _ _ } R _ | 6.| R } ) ( | @.@...| @.7.#.@.+.+.7.+.{ 6.7.+.+.#.+.@.@.+.@.@.4.} [ 4.{ | 6.7.4.` +.| ` +.6.+.+.@.@.@.#.@.+.+.$.@.#.*.$.#.#.@.7.#.7.7.7.@.6.+.} 4.| { @.6.5.| @.q.4.+.7.#.+.$.#.+.@.@.@.@.$.$.+.+.t.y.*.%.$.$.t.$.t.t.t.7.| 6.7.+.e.a.p...+.e.+...s.7.$.t.t.t.&.$.t.t.t.t.t.y.t.t.t.&.$.$.t.t.t.t.t.i.@.+.7...+.t.d.t.@.t.a.+.7.a.a.a.d.a.i.i.t.t.a.s.7.4.r.a.a.a.a.a.a.s.a.a.t.a.s.7.a.t.@.t.d.d.7.+.t.7...t.u.$.q.q.q.t.t.$.7.t.t.7.7.t.t.t.t.t.7.t.t.7.e.t.7.4.4.4.+.+.6.a.a.+.6.t.+.6.t.t.t.t.u.a.y.t.a.d.t.6.7.e.a.t.t.a.a.a.a.t.t.t.7.6.1.6.e.+.#.d.t...#.t.+.@.t.t.i.t.i.t.t.t.y.y.7.$.$.$.7.t.$.$.#.#.#.#.+.7.@.6._ | #.| ' #.7.( } +.' +.7.@.+.@.#.6.@.@.@.6.7...} | 7.#.O.@.%.@. .@.q.#.$.7.| @.4.| +.#.7.7...@.6.' #.t.6.7.6.+.+.4.+.6.7.$.7.+.| 4.4.@.@.@...@.+.| @.4.[ _ } _ R 4.r.} _ +.{ _ ..+.+.+.+.+.| | | | @.@.] | @.+.| +.@.#.+.@.+.| | +.} ` +...` | 7...( } } _ | | { | | | { _ Q _ { ` ` | { R ( _ Q _ _ W R R ( _ U x S U T Q _ S h S V h c U U R W U S b c b R W V x U Q T b U U U S U z V B y B B f F R W S S l f x S c S c x V U W F V l f x B V l V B l f f l V f M n y f B l M f y y B ",
"F F S E W V S R E W } Q U T R R _ T _ _ R S z S W Q } ( Q U T R { } | { Q W ) Q R _ [ Q H R H c U S b U R L R T H K _ _ L L ` ` ] ` | o.| +.4.+.+.| _ } } ( _ } ' _ ` } _ ( { @.6.+.....#.$.#.#.#.7...{ 6.7.#.@.@.@.@.@.@.$.7.@.{ | 4.{ } 4.o._ ` @...} @.#.+.+.$.#.+.#.+.@.7.7.#.$.*.t.t.t.*.t.7.e.#.#.#.7.+.} 1.| ..+.+...{ +.t.4...6.+.@.$.$.@.#.@.$.$.7.@.+.+.6.t.t.$.$.t.t.*.t.t.t.$...7.7.+.6.e.6...#.r.6.+.t.t.t.t.t.t.i.t.t.$.t.i.i.t.t.t.t.t.*.t.t.t.t.t.t.t.@.@.e.+.+.t.7.@.#.t.a.4.e.a.a.t.a.i.a.t.t.t.a.7.4.4.7.7.s.a.a.a.d.d.s.e.e.a.d.7.s.t.@.6.d.a.#.+.p.7.+.t.t.$.$.t.t.t.t.t.$.7.t.t.t.t.t.i.a.t.t.t.t.t.7.t.a.4.+.e.6.| 4.a.7...e.t.@.t.u.t.$.7.e.s.i.d.d.s.7.7.6.6.7.a.d.a.t.t.t.t.a.s.t.6...7.t.+.4.t.7.+.7.t.@.#.t.t.i.y.i.u.t.t.t.t.q.t.t.$.#.t.t.t.#.7.$.#.#.e.t.7.| +.+...' @.+.( | 6.' ..7.7.#.#.e.7.@.+.6.7.+.| } | +.7.#.$.$.#.+.+.7.#.#.6.+.6...| | e.t.+.| @.6.| 6.t.7.e.6.@.@.7.6.7.#.7.#.+...6.@.+...| +.#.@.@.#.7.} _ 4.} R } 4._ } 4.{ _ +.+.| | ' | | +.] +.6.+.` } +.+.| +.#.$.+.+.#.$.#.#.} ` @..._ } 4.} ( | | ` | @...| | | ..| _ _ { ` { ..' { _ ` _ ( _ _ _ _ _ _ U b W T b H U S c S V x S U T b U z c c S U U S x x F W W U U U U W W U E V f B Z l l S U x x l l f S c S S c V S V x l l B U S V l l f B B x V S c V M t m C l d t f y m ",
"F F B V F V W Q b W ( ( _ U b W Q W Q ( U S U S S W Q ( Q R ( { | _ { } T U Q R U ( R U b R b c W H c T L Q ( H T K R ` R K L ` | ` ` { | | ..@.5.| R _ ..` R _ _ ( } } ( R ..4.+.@.+.{ +.@.#.7.#.| ..<.} 4.7.@.@.#.+.@.#.#.7.+.` } 4...{ [ _ Q _ o.{ _ +.+.+.#.#.@.#.@.$.t.#.$.$.+.@.t.t.$.$.$.t.#.+.+.6.7.+._ | +.| 1.} } } ..4.| ' @.+.@.@.#.$.#.$.%.7.+...4.+.| @.t.$.t.t.t.i.i.t.t.7.+.6.7.+...4.....6.6...+.t.t.t.$.$.t.t.t.*.*.t.i.y.$.$.t.t.$.t.t.q.t.t.y.t.t.+.+.t.#...6.6.+.e.t.p.4.7.a.s.t.t.t.u.t.t.t.t.4.4.6.7.@.e.s.t.a.a.a.s.7.t.a.t.7.t.t.6.4.7.7.+.@.t.6...7.$.$.t.t.t.7.t.t.7.6.t.t.7.7.t.a.t.t.t.t.t.t.7.t.t.4.4.7.7...| 4.4.+.7.7.+.t.i.$.#.7.t.t.t.d.s.7.4.0.7.6.6.t.a.a.t.t.t.a.a.a.p.4.+.7.e.6.+.4.6.5.6.7.@.@.t.t.t.t.t.t.t.t.q.q.t.y.t.t.$.$.#.7.q.#.#.t.#.#.t.@.| @.| #.` | o._ | +.' | 6.7.#.@.@.6.@.7.@.+.} <.<.} _ +.6.#.$.#. .#.@.+.#.@.| 7.+.| } 6.4.' } 4...' 4.6.t.q.7.t.7.q.t.@.@.#.@.@...o.@.@.| +.+.+.@.@.#.4.{ } ..[ ) Q [ _ _ | { ( | ..] | | @.+.| | @.| { _ _ ` | O.@.@.@.+.#.@.#.7.@.' _ ..| ) [ [ ) _ } } _ | @.| | | { { | ..{ _ ` { { { _ _ { _ _ _ _ { } Q ( R c W R c c V S S x c V V H U c z V S x V S c x V V B V W T S S U U W R W B y M V l f M l l V f l f l S S S S x x c V x S V S V h h x V x f B x x c x B f y l l y f M d n ",
"F A Z A F S R Q W U Q _ | Q R U R _ Q T U U Q U W U R ) _ { | { { _ _ [ T E ) R R W W c b R b b R R U R T b H T T R _ ` _ R _ ` { ` ` { | | | | | { _ _ | } _ ) ) _ } | _ ) | 7.6.#.@.+.4.+.4.6...| 4.4.| | +.7.$.#.#.#.7.7.#.@.| } 4...{ } _ _ { 4.{ _ | @.#.$.$.t.$.$.@.$.$.t.6.| o.@.@.+.+.$.t.$.+.@.7.t.6.| 4.6...{ } | } ..o.' ' 6.#.$.@.$.*.*.t.6.+.| 4.4.....+.6.t.t.t.u.t.t.&.t.t.+.6.7.+.........6.7.6.+.t.t.$.$.t.t.t.t.t.t.i.t.$.$.e.t.t.t.y.t.t.t.u.t.t.u.@.#.p.7.6.4.6.4.7.t.a.6.e.a.u.t.t.t.s.i.s.t.7.6.7.6.7.7.6.t.d.a.a.a.a.s.s.s.t.$.a.t.6.4.6.6.6.#.p.7...$.*.t.t.t.t.*.t.i.t.7.t.t.t.7.t.y.d.y.i.s.7.7.t.t.t.4.7.e.6.+...4.4.+.7.7.@.e.t.t.t.t.t.t.i.d.t.6.7.0.7.e.e.e.t.d.u.t.a.d.a.a.a.6.4.t.t.4.4.4.6.6.6.t.6.#.u.u.t.u.y.i.t.t.t.t.t.t.t.t.t.7.+.+.#.7.t.t.$.7.7.@.| 6.+...| +.| ` ..+.' ..7.#.| | { | +.6.| } } 2.<.<.} | | 7.$.+.+.7.@.#.t.e.+.6.6...| 4.+.| | 4...| @.6.@.6.6.7.7.7.4.+.+.e.$.6.+.+.+.+.+.#.+.6.@.+.+.4.} ..6.| ) _ [ | ( | } ( } | +.6.#.6.@.@.+.| } { { } _ ` +.#.@.#.#.#.+.+.+.@.} } +...[ } [ _ _ _ } ` { +.+.| | +.} { +.{ ` | ` | | _ Q _ } ' R R _ _ _ _ R U W T c b S S S x V c U R T c b E S V F V x B F S B B S U U U U S U U U z f B F f f f f M V l f f f S S S E V V S S U U b S B x l V U S x x V l f B V m y M f f d m m M ",
"A F F B F U S [ H U { R _ } ( U W ) U S W W U W W U W E [ | } _ Q Q } ) W U W R ) U S S b T U c U R ( ( H x H b U ( _ / ` ` ` _ { | | } _ | +.` | } R _ } } _ R ) _ _ } } ( } 4.7.@.#.@.+.6.+.} | | <.1.1.} { +.6.#.#.6.+.| +.6.| { 4.{ ` { | { _ | | _ +.#.+.#.7.$.$.@.O.+.#.#...| o.+.+.6.#.t.7.@.+.6.6.@.t.| 4.4.| { } <.{ } 4.{ ' 7.@.+.$.$.@.e.#...{ ....| | ..| +.7.t.t.t.t.$.$.t.7.+.7.7.......1.....7.4...7.*.*.t.y.t.t.7.t.t.y.t.t.$.t.q.t.t.t.t.y.y.t.t.t.y.@.6.7.7.+...6.4.4.t.s.#.e.t.t.t.t.t.a.a.p.6.7.7.7.4.6.6.4.6.s.a.i.t.a.d.t.a.s.#.t.e.+.4.6.4.6.4.7.7.+.#.t.t.t.t.y.t.t.t.u.e.7.t.t.t.6.e.i.a.t.7.7.e.#.t.e...+.7.6.| 1.4.4.+.4.6.+.#.i.t.t.i.t.i.a.e.7.7.7.6.6.e.e.7.e.a.a.i.a.a.a.t.t.7.+.t.7.| 4.4.4.4.6.t.@.6.t.t.u.t.t.i.t.t.t.t.t.t.t.t.t.q.#.+.+.7.$.7.t.$.@.+.' @.+.{ ..{ { | { 4._ ] 7.@.+.+.{ ..| | } | 1.<.} <.<.} } +.@.7.+.@.t.t.t.7.+.4.4.| | ..| +.| | 4.` 4.6.4.6.+.4.6.7.+.+.6.7.7.+...+.| ..+.+.@.@.| ] +.4._ } 6.} W } [ _ ( } _ _ } { +.@.@.+.@.@.| { { } { } { { { +.7.7.@.+.+.@.+.@.{ _ ..} } } ) [ _ ( } _ ` | | { | | { { { { ` ` | | } Q U ( ( R ( R R R ( R T R U c x c S c l l x b W U U K T G U F B l l B x x Z f f S W S S S z x U S l l V f t f M f l l f d B x c S S U c x S c x S x x V f l V V U S l l y f B t d f y f y y f B ",
"F F F F F S W [ U U } { { } } Q ) Q U S W Q W W Q W W W _ } } ) ) _ } } R W ) R T U E U b R T b R K R ( Q U R T ( _ ` _ ` { ` | | { { _ [ } { | 4.| ( { | _ ( ( _ _ _ | | _ | ..+.@.@.6.6.6.+.} } 1.| | 1.| } { +.7.7.+.{ ` | 6.+.| | { { { } { { 4.+.` @.$.$.7.7.6.+.@.#.+.o.@.+.+.@.#.7.e.7.t.7.+.| 4.7.7.4.{ } <.{ } } | { | 7.| | t.+.@.+.#.7.6.+.| | +.+.| { | ..4.+.7.t.t.$.$.*.i.t.+.7.$.......1.....6.1...7.t.t.t.y.t.i.t.t.*.t.t.i.t.u.t.t.q.t.t.a.t.t.t.t.t.#.7.7.4.+.4.6.4.+.e.t.6.t.a.a.a.d.d.a.t.6.7.7.7.7.7.6.4.6.6.t.s.i.t.a.d.d.d.a.#.t.e.4.4.6.4.6.6.p.7.#.t.u.t.u.t.t.t.t.t.i.t.7.t.t.t.t.7.7.t.7.7.t.e.$.t.7...+.7.4...4.4.6.+.6.6...$.t.i.i.i.i.a.t.7.0.q.e.t.t.e.e.p.e.7.s.d.a.s.t.a.a.7.4.7.6...4.4.4.4.7.t.@.7.u.t.i.d.i.y.t.t.i.i.t.t.t.t.7.t.t.$.#.t.*.t.#.@.@.#.| 6.+.} } { } } } 6._ ] @.+.@.@.+.4.| } _ 1.1.1.1.<.| <.| ..+.7.#.7.7.7.7...| 7...{ 1.....4.+.7.4.| +.e.7.7.+.4.7.7.7.7.6.e.@...| ..+.#.+.+.| | ..| +.6.[ ) <.} ) } } } ( | | | | ..` | +.@.@.@.| { { | { { } { _ } @.6.+.+.+.#.@.+.} { ..| [ [ [ [ _ { <._ _ | | | @...{ { { ..| { | } } ( T Q _ Q ( _ R R R U b U U b c c c c x h z U R H U R R Q W b l f M B V B B l f x U U W S x x S S x V F l d f l l l l B S U S U b U c x V S l V f B V V l M y l B B B B f l l d t d d f y y f M ",
"F A F F F S W Q c S Q ( _ W W _ _ W W U U U W W W U W Q W [ _ Q } _ _ } T R ) W U S W U v ) T b ) K K K _ _ J ( } ( R _ ` _ _ { | _ _ ( _ { | o.| ..{ { } R ( _ ( ) _ | { _ | { { +.+.@.7.+.| | | } } } | 1.| } ..@.6.@.+.+.| @.+.{ } { _ } _ _ { +.| ` o.7.t.7.#.+.+.#.+.+.+.+.#.@.| @.7.$.#.7.7.....6.@.e.4.{ 1.| _ } } } } +.5.| | 7.#.O.+.#.#...{ | +.+.| | { | 4.+.+.+.7.t.7.t.t.t.t.] #.#...6.........4...| e.t.t.t.%.t.y.t.t.t.t.t.t.t.t.t.t.7.7.e.t.q.t.7.t.i.+.6.7...4.4.4.4.4.7.7.+.e.d.a.t.d.s.t.6.4.7.7.4.7.7.6.4.6.6.4.e.d.u.t.a.a.a.7.@.e.7.@.4.6.6.1.+.t.6.+.t.t.u.u.q.$.$.t.t.t.t.e.7.7.e.t.7.7.#.#.7.6.t.t.t.a.6.+.4.4.1.<.4.4...7.6...6.t.t.t.t.i.e.7.r.e.7.7.r.0.7.7.7.7.7.6.p.d.a.t.t.t.6.4.7.4.1.4.4.4.+.6.e.@.6.t.t.t.i.t.t.t.y.t.y.i.i.t.t.q.t.$.$.t.t.$.t.#.$.#.@.| +.+._ } | _ ( | .._ ` @.6.o.+.6.4._ } | } } 1.1.} [ <.<.| } 1.7.7.+.#.7.| | 4.| } } 1.} 1.1.6.+._ 4.7.6.r.6.+.@.t.7.7.@.7.@.| @.6.@.+.+.| | 4.| +.+.1.[ ( ) } _ ) } } ( | | ` +.+.| ..@.#.+.{ { { { { } } { | } { { | | @.7.+.@.+._ { ..[ ) [ ) ) _ } } Q _ +.| { | | { Q { | | { ` | _ ( R U Q T R { T H Q R c H U c V x l x x x x x U H c U R W V l f l l f x x l l B f f U U z l l Z x l U W x y f f l l f x S F S c S S x x x S S x f l B B V B f f y M l x B f x d t n t y d f y f ",
"E F F F F S R W c S Q U R W Q Q Q W Q W W U W E U U Q W Q R ) } 2.} ` | R R ( T T U ) T K ( R H T K ( L R L _ _ Q R ( R _ ` | { { ` ` | | | +.| ..| ( _ _ ( ( _ ) R _ | } ( } ....| 6.6.+...| ....} } | ..+.4.1.1...+.6.7.6.@.6.| { 4.} } } [ _ { +.4.} | @.#.@.@.@.#.6.$.$.@.@.+.+.+.#.#.$.7.7.#.@.6.7.6.e.@.| 4.| _ | } } _ | 5.+.+.7.+.@.$.7.....| +.+.+.+...| ..+.4.+.+.+.7.t.i.*.t.t.] #.#. .6.......+.7.4...t.*.t.=.t.t.t.%.t.t.i.$.$.$.t.t.t.t.t.7.7.t.t.$.t.d.+.+.7.+.4.4.4.4.4.7.e.+.e.t.d.a.s.7.6.6.7.6.6.7.7.6.6.6.6.6.7.6.t.a.a.t.t.t.7.#.t.7.+.4.6.4.4.+.r.6.+.t.u.*.&.$.#.7.t.t.t.t.t.e.t.t.t.t.7.#.t.t.t.t.t.t.a.7.6.7.4...1.4.4...7.t.@.7.p.t.u.s.t.7.e.t.t.0.6.4.4.6.e.7.e.e.7.7.a.d.a.a.a.6.4.t.6.4.4.4.4.+.6.7.@.7.t.t.q.t.$.q.y.i.t.t.&.t.t.t.t.t.$.&.t.t.7.7.e.t.7.6...6.+._ } | } [ | 4.' ] 6.$.#.7.4.} } } | | } <.,.} ,.<.<.<.} | +.6.@.7.e.....6.} | } 1.| | | 4.4.` @.t.7.t.t.@.6.t.t.7.t.7.6.@.6.6.@.@.+.| ..4...+.+.4.} _ _ [ [ [ ,.} _ 4.} | 6.@.@.@.4.+.{ _ { } { [ } } } 1.| | [ } | 4.7.6.+.+._ { .._ Q [ ) ) Q _ [ Q { +.....| ..| { ..| } _ { | { } _ ( R R _ _ T H _ ( c U U c c B x l x S c x V b c U U B B l M B l f l l l B S f f l V x l S S x l V S x l M M f l B x l B h h x S c V c U S V l x B l V F V B f M B V x V V y m M y y y d d l ",
"E W F V S S U Q W W _ [ [ E Q U U W Q W E U F F W U W Q R E W ,.<.| | } T R { R H W T Q L R K H ( K L ( R K K _ R K _ L _ ` ] ` ` | 4.| +.| { ` { _ R T [ _ T R _ Q R } } Q { 4.+.| ....} } 1.| } | } } ..| | 4.| } } | 4.6.#.@.' { 4.| _ [ } _ _ +.+._ | +.| +.@.7.7.q.t.$.+.+.+.+.+.@.+.@.$.#.+.#.@.@.7.@.| { 4.4._ { | } _ | 7.o.] 6.+.7.6.+.{ | ..+.| +.+...| +.4.+...4...+.7.t.y.y.%.] +.e.....+...| +.t.4...q.t.t.*.t.y.t.$.t.t.t.e.@.7.t.7.t.a.t.#.6.7.t.t.q.a.+.+.t.4.1.2.4.4.+.t.7.+.6.t.a.a.7.4.4.6.6.4.4.4.7.4.4.6.4.6.7.7.7.7.t.a.a.a.t.@.7.t.@.4.4.6...+.0...@.t.t.t.$.$.t.t.t.t.u.t.t.t.t.t.t.*.t.t.t.t.t.7.$.t.7.4.6.7.4.| 1.4.1...e.7.+.7.t.t.t.e.6.e.t.7.7.7.6.4.6.6.4.7.7.7.7.7.7.s.d.a.s.6.4.a.7...4.4.1.+.t.7.+.6.y.t.i.t.$.$.t.t.y.t.$.$.t.t.#.7.$.t.t.7.t.t.$.7.t.6.| 6.6.[ _ | | ( ..6.` ` 7.6.7.4.[ _ } | [ | } [ [ } <.} } <.} } [ 4.7.+.e.4.{ 4.{ } } <.} _ | 7.o.' @.7.7.7.6.7.#.#.q.7.7.7.@.#.@.@.#.@.| +.| | ..` +.4.{ | 1._ R [ [ ) } 4.{ ` 4.+.+.6.4.} { } [ } [ _ _ | } } | <.} [ { } 6.7.+.+._ _ | _ R Q ) Q W { { Q { | | +.| { ` ` | | _ R ( _ ` _ _ ( T R _ T c K Q W c c U c l x x f x U k l c U U c x l f l B l l x f d l l B B f f l x S x V V y V V h l y l l B V h B V V F l V V x S c S S l l l V V x B V V S x B h x l f y B d r r d t V ",
"W ) F B A c U _ ( E [ } [ Q E U W W Q Q Q E U U E W Q Q Q W ) Q 1.} { } R ( | _ R T ( R L ` R H _ ( R R R T R R ( _ ( ` { ` ` ` ` ` | { } { ` { } } R R ..} T ) [ ) R +.| ` 4.6.+.| } _ } | 1.1.| | } | 1...1.<.} } } } | @.7.6.{ ..7.+._ } | _ ` 4.4.{ ..@.+.+.@.7.7.7.+.+.+.@.@.#.#.@.+.#.+.#.@.#.@.6.@.@.+.{ 7.6.{ } ..} _ @.e.+...6.@.4.| } | +...+.+.+.+...| +.6.4.+.4.4.4.+.t.y.y.t.O.@.t.+...6.....7.a.6.+.t.t.t.t.y.y.t.t.i.t.e.e.t.t.t.t.t.i.t.7.t.7.t.t.t.d.#.@.a.7.1.1.8.4.@.s.s.@.7.a.a.7.6.4.7.7.7.6.4...4.4.7.4.7.7.7.7.7.7.6.t.a.d.a.@.t.d.7.4.4.4.4.7.t...6.t.t.u.t.t.u.t.t.t.u.t.t.i.i.t.t.t.u.t.t.t.7.$.$.t.t.+.6.t.7...1.4.1.6.s.e.+.e.d.a.7.6.7.e.t.e.7.r.7.7.r.7.6.7.7.7.e.e.e.p.a.d.s.7.4.s.7.4.4.8...6.a.t.+.6.t.t.i.a.t.t.7.u.y.t.$.e.t.t.7.#.e.t.t.t.t.t.q.t.t.7.| 7.e..._ | | ' #.t.| +.t.e.| } _ <.| | | | } _ } 2.<.1.1.1.1.| } 1.6.6.e.4.| 6.4.} | <.[ _ 6.e.+.} 6.7.4.4.5.t.#.7.7.7.@.@.+.@.@.#.@.+.@.#.+.+.+...+.4._ | 4.1.) } [ ) | 7.{ { 4.7.@.4.| } | 4...<.| | } | | 4.1.} } | } } 1.6.#.6.{ { 4.| ) Q Q Q _ | } _ } | | +.| ` { } _ _ _ _ Q R R R R Q ( ( R H b R _ Q b H W x h V B h b R c k E W U c l f l M B l l B y y B Z B f f f l x U U E x f F U S V f f f S U l f S U U c S V x V b S S V V B S U V S U V Z l h B f l f f Z m 7 r n l V ",
"W Q U l B V Q Q W S W W Q W U F Q E W Q Q U W F F Q Q W W W W W ) { { { Q R { ` ( H R T R } R K R ( K R _ R R H ( R _ | { R _ ` ` _ _ } _ { | { ...._ ( | | W U ) W _ 4.} { +.#.| _ } } | | } | } _ | <.| 1.<.} { } | } } | @.@.| | 7.@.| [ [ _ | 6.o._ | 6.#.@.+.+.#.+.+.+.+.@.| +.+.+.@.+.| +.O.+.#.@.+.#.| } 4.@.| } } { | 6.5.+.| 7.+._ _ } { | | | +.+.| | +.+.+.4.4.+.4.4.4.4.7.y.t.+.#.t.#.....| +.t.q.+.@.t.q.t.y.y.7.t.t.t.i.t.t.s.q.t.t.t.t.7.#.t.7.6.$.i.a.+.7.y.t.6.| 4.4.7.a.p.@.t.a.7.6.6.7.7.4.7.7.4.1.+.7.7.4.7.6.7.7.0.7.7.6.e.d.t.+.e.a.a.4.6.4.+.t.p.| @.t.i.*.t.t.t.t.t.$.*.t.y.y.i.t.$.&.e.t.t.$.#.t.t.t.7.....t.p.6.| 1.4.7.a.7.+.t.d.e.+.4.e.7.6.7.r.7.7.7.6.7.7.6.7.7.6.7.a.t.7.t.a.7.+.a.a.6.<.1.6.a.a.7.+.6.7.7.t.t.i.t.t.t.t.i.t.#.t.t.$.$.t.t.t.t.t.t.t.t.7.+.` @.t.6._ } } ..7.q.| +.t.#.{ [ } | } } | } [ <.[ [ ,.4.1.<.| 1.<.| ..+.6.| } 7.5.4.{ ,._ <.7.7.o.{ 6.6.@.7.6.6.#.7.@.#.6.@.@.#.+.#.+.| @.@.@.7.+.@...| ) _ 4.4._ [ ) ) ..4.{ { 4.6.4.} _ } <.<.1.1.| | } | 4.4.<._ ) } } } _ | 6.6.{ _ | ..) ) Q E { 4.} Q } +.| { ` { { _ _ _ ` _ Q K H R T T R R K T Q K R R k b U c x l x k U E x x U U c x h M B f f l l f f y B B f y x V l f x U U x y x E W U V f x U F f f B x V S V x x h S c x V F B l S U U F B l l V h B l t f B f y 7 y B l ",
"W [ Q V B U [ R W S U E W U W W Q W R Q ) Q U U W ) ) U W Q Q W W ) | | _ ( | +.` R R R ' } H b T K R R _ _ ( R ( _ { ` ( R ` | +.| | { _ } ..| | +.{ _ 4.+._ ) ) ( | 6.| _ ..@.| } 1.<.| | | | } } <.1.1.1.<.<.| | 1.<.| | +.7.....7.e.+.{ { | 5.7.| _ +.#.#.#.@.#.#.+.+.#.@.+.] X.+.@.O.6.+.X.O.@.#.@.@.6...' +.7.| } | | #.7.@.+...7.+._ } | | { | +.| ..| ..+.4...4.+.4.4.6.1...+.y.t.+.$.t.t.+.| | 7.y.q...+.t.t.t.$.$.$.7.t.i.t.t.t.y.t.t.t.t.t.t.$.t.t.7.7.t.t.| 4.y.i.e.4.4.6.a.d.t.+.t.a.7.+.7.7.6.6.7.7.7.4.7.4.7.7.7.7.7.7.7.7.r.6.7.t.t.@.t.a.d.7.+.4.7.s.s.+.+.t.i.t.t.t.t.t.t.*.t.t.i.i.t.*.t.t.e.$.$.$.t.t.t.t.s.+...t.a.t.4.4.7.a.a.7.4.a.t.+.4.6.e.7.7.7.7.7.e.t.7.7.7.6.7.7.7.t.s.t.6.t.d.7.+.a.a.e.4.4.t.d.t.7...6.e.7.$.t.t.t.t.t.t.i.t.e.$.t.t.t.i.t.$.q.$.e.t.t.7.+._ 6.t.e...} } #.t.7._ #.a.@.| 1.<.| } | } 1.<.<.} 4.4.4.4.1.| 8.| 1.{ ` 6.+.} 7.q.7.| [ } 7.6.5.| | 6.+.#.t.7.t.7.7.#.6.7.#.@.#.@.7.@.+.| +.#.@.+.| | | ( } 6.6...} Q | 6.4._ } 4.| _ [ } | } } { | } } | ..4.1.} [ [ ,.} } [ | +.6.| _ | 4.} Q W [ | 4.) R | | | | { | | { ` { ` _ { R U R R Q ( R R _ ( K R R c b R R b x S U R U c c U U c l V V x l x B x B Z M n y f M F V V f l x V V f B F V z l f S W S f f B B V S U S S S U U V x S l f B F V B f l l V c F x f y x V B y f l B ",
"U Q Q E U R Q W S S ) ) U F E Q Q _ _ Q W W W E Q Q E U U E Q U E U _ ..R R ` _ ` ` { _ _ _ b H R H K ( R _ _ R T R ` _ L _ { _ { +..._ _ { | { ` ..} R } +.+._ R } +.+.Q ( 4.o.} } <.| { | 1.| _ [ } 1.4.1.} { ..| } <.| } | 6.| { 6.$.#.+.+.4.@.@.{ R +.#.+.#.$.#.+.+.$.+.X.@.$.#.@.@.q.#.+.` ] +.+.#.+.+.+._ +.@.+.+.{ @.#.@.6.' ..6...{ | | } | | | } { ..+.| +.+.| | 4.....1.| +.t.t. .#.*.t.$.+.#.t.t.t.{ +.t.t.q.7.@.#.t.q.t.t.t.t.t.t.t.7.$.q.t.$.6.q.t.q.t.7...+.t.t.t.6.4.p.t.a.6.+.t.t.7.+.4.7.6.6.6.4.7.6.@.7.7.7.0.0.7.6.4.7.0.7.#.t.a.+.7.i.i.t.@.6.t.t.t.| +.t.e.t.t.*.t.t.t.t.#.$.e.$.$.$.t.t.$.#.#.t.t.7.$.t.s...| 7.s.t.t.7.t.u.t.6...7.7.+.4.7.6.7.7.7.7.7.7.7.7.7.7.7.4.4.7.7.0.6.6.t.a.7.+.t.t.t.7.7.t.t.t.6.| 6.t.t.7.7.t.t.t.t.t.t.u.t.#.7.t.i.t.t.$.q.t.t.7.7.t.4._ +.t.7.6.+.@.t.$.6.L +.t.@.} 1.} } ..1.,.} } <.6.4.6.3.} | | | | } { ..4.4._ | 7.q.4.| 4.6.@.4.` { 5.6.@.6.t.7.7.7.7.7.@.6.+.+.6.#.6.+.| ..+.+.+.{ +.4.) _ ..4...} } +.4.4._ [ 4.| ) _ } <.} { } } } ....| +.1.[ } [ ) [ ,.<._ | 6.} _ | +.} ) ) | +.{ E W | | ` { | ` ` ` ` R R ! R R R R ( R H K R R T R L H c c R R U T H H R b h x U x h f B V x V V l V F V l t y M l l V B f f x S x l l B V c h V z U V e f F x x B S S x F W U x l B B x M B Z l l M B B V x V y y z z V V V f l ",
"T U ! Q _ Q ) W U E [ _ U U W U Q ) W W W W ) Q ) Q U W Q U W W W U _ | T K { _ | | { ( _ _ b T ( T T Q R ( _ T U _ ] _ R _ | _ _ ` { { { _ { | | ..} ( } +.+.{ { | @...Q ( 4.4.| [ } | | | } | } _ | 4.| } } <.| ..| | | } +.7...} @.@.#.6.@.@.| +.| _ +.$.#.#.7.#.+.O.+.@.$.#.+.] ` +.$.@.] +.+.#.@.#.+.@.| _ +.@.#.7.@.6.@.#.| ' 4.e.+._ } ..| +.| | } | ..+.+.+.4.| 4.4.| ..1.| +.t.$.+.#.7.$.t.$.t.t.t.t.| 4.t.q.t.7.@.7.t.7.t.t.t.q.t.t.t.t.t.t.u.t.q.t.i.t.t.t.@...t.t.t.7.7.a.t.t.#.@.i.i.t.+.4.4.7.6.7.6.6.4.6.7.7.e.t.0.4.4.7.7.0.7.e.a.s.+.e.t.i.u.t.t.t.u.t.+.@.7.&.$.t.t.t.t.$.$.t.e.#.+.e.t.t.t.t.$.t.*.t.t.t.t.t.....7.t.t.d.a.t.t.t.r...7.t.6.6.7.7.7.7.7.7.r.7.7.6.7.t.7.6.7.7.6.4.6.6.t.a.7.+.t.t.t.t.t.a.t.t.7.| 7.s.t.t.t.e.t.t.i.i.i.t.t.t.q.e.i.t.t.t.t.t.t.t.t.t.7.' 6.t.$.7.7.7.t.#.4.( #.t.@.| ..<.| | | [ } } <.| 6.} <.} 4...<.} } { +.6.6.{ | 4.q.7.7.4.4.@.6.` { 7.7.7.t.t.6.+.6.7.7.7.#.+.#.7.7.#.@.@.6.+.6.6.+.+.4._ _ +.+.+.4.4.6...| { } 0.6.} 1.} } | <.} } | ..| | ..1.<.<.} [ [ <.<.} +.6.} _ | ..| ..4.| | } W R } | { { | ` _ ' ` ` _ L R ( T K K H b U R R ( _ R H c H U H K b U T H k x c U c l l B B x V B M l l l y y M B f B V l f f B U V l B V z S S W V U V f M F V S S S B l l F c l B B B V M Z B V l l U V f l l y f V z U U U x B ",
"W H R ( ( R W U R U _ [ U U U E U W W U Q Q W W Q W ) E Q E U Q ) R Q { R R ` ` ` | _ R ` Q U U T R R R _ R R K R _ } R R R ( _ _ R ` { } _ { | +.| Q R | { { { ..o.| | Q R } 4.} ( ) { ..{ | | | } _ } | { } <.} | ..{ { | { 6..._ +.+...@.+.| +.6.{ _ 4.#.+.#.#.@.+.+.+.+.+...` ] +.@.] ] ] o.+.$.q.+.] +.{ } | +.+.@.7.@.@.#.| | +.6...{ } } | ....` { ..{ ..@.6.+.4...| | | [ 1.4.7.7.` #.7.@.7.7.t.t.t.7.| 4.q.q.t.q.q.7.$.t.t.$.t.t.$.t.t.%.t.t.t.t.t.t.t.t.q.a.4.+.7.t.t.q.t.t.t.7.7.@.t.a.t.4.6.+.6.6.7.4.4.4.6.6.7.7.0.6.4.4.7.6.4.7.6.a.a...6.t.i.t.t.i.t.t.y.+.+.t.t.@.$.t.i.t.*.$.%.7.+.+.7.t.t.t.t.t.$.$.t.t.t.$.7...| 6.t.t.t.a.t.t.t.6.+.e.t.#.6.7.7.7.6.7.7.7.t.7.6.7.t.7.7.6.6.7.7.7.4.7.a.6.+.a.q.t.t.7.7.t.%.6.| 7.t.t.t.t.$.&.t.t.i.t.*.t.t.q.t.t.t.i.t.7.7.t.t.e.7.7.{ @.e.$.@.7.7.@.$.7.R 6.t.| { } } | } 1.<.1.} } | <.| <.} | 1.| } | } | 7.4.} +.o.q.@.7.4.+.@.6.` ` 6.#.t.t.#.@.+.6.6.#.7.7.@.+.7.#.+.#.@.#.@.6.@.@...| _ | | ..| 6.7.4.| +._ _ r.4.} } } ..| } } | } | ..+.| | | } } } [ [ ,.} ..4._ _ } { | +.+.{ ` | Q W _ { | +.{ ` ( L _ ` L L K H T L H H U b H R ( T H U c k H K b c T H c c c l V S x f l B B l B f h V l M Z M f B B l l f f f V S f l S x V V V U S B f f Z U S c V x x x V V V V Z M M M B B B l V F l f x l f t l S c U S B x ",
"W U R U Q T W W W W ,.[ U W W E U W Q Q [ Q U S Q Q Q Q Q Q W Q ) R _ } Q _ | ` ` ` _ _ { { R T T T H R _ R R R _ ` { ` ( T R ' { _ _ _ { } { | +.+.( ( | | | { | | { | _ W | 4._ ( _ [ | | 1.1.1.| _ } | | 1.1.| | | | ..| | 7.| ` 4.+.+.+.| | @.7..._ +.$.$.7.+.+.@.@.+.+.X.+.@.7.7.+.` ] @.] ] q.t.@.+.+.{ } +.@.+.@.#.#.6.7.@.+.+.7.+.| } | | | | | | +.| +.4.6...4.....| } } 1.+.t.7.] @.7.$.7.7.7.t.t.t.4.4.t.t.t.t.t.7.t.t.t.&.t.e.t.t.7.$.t.t.t.t.t.t.t.t.t.t.6.#.7.t.t.t.t.t.t.t.7.@.t.a.t.7.4.7.7.7.7.4.4.4.7.6.e.7.7.6.7.7.7.7.9.6.7.s.p...7.t.u.t.t.t.t.t.a.6.+.t.i.t.t.&.t.i.i.t.q.7.#.6.t.$.e.t.$.$.t.$.$.7.#.$.t.6...7.t.t.e.t.t.t.s.6.6.p.t.7.7.e.t.7.7.7.7.t.t.t.t.p.p.r.7.7.7.7.7.7.6.7.a.7.4.a.t.t.t.t.q.t.t.6...e.t.t.t.t.&.*.t.t.$.$.t.t.q.t.t.t.t.i.t.t.#.7.#.t.t.7.| 6.t.7.#.7.#.#.&.7.| 6.q.+.} } | 4.4.4.4.4.1.1.| 1.1.<.} 1.} | | 1.} ..e.4.} 6.6.q.7.6.4.4.#.6.' } +.+.7.#.7.@.7.6.+.#.#.7.@.+...6.#.@.@.6.#.4...| | .._ | +.@...4.4.| ..6.{ } 6.} _ [ } 1.| } } | } } | +...4.<.} } [ [ ,.[ } 4.4.) _ | ..| | | { ` ..[ R } { _ _ { { _ R R ( _ J K R R L K R T H H H b c c U b c H H U U U c k H b l U R b x B V S B M f B F B B S l M l x B B l l f V F f B F V x f l c S S f f V c z S U S F V V x V V V B B B B f M V U F l l F V f y B U U V B B B ",
"U W U R T U R W S U } Q S W W U U U W [ [ Q W F U Q W W Q Q R Q Q W { } T _ | ` ` _ { { ` } T T R K R R ( ` ` _ _ ` | ` R U _ } } _ R ( { ` | { { | _ ( | | | { { ` | | Q W { o.{ ) _ [ [ | } } | | ..} } 4.4.| 4.| { { } ..+.@.| _ +.#.+.| | +.@.7.| ( ..6.7.6.@.+.o.o.+.#.#.+.+.#.+.' | @.] ] ` O.7.+.+.4.{ ( 4.@.| +.+.6.#.4.6...@.7.+.{ ..| } | { | | | +.| ..+.+...| ..} } [ } 4.t.#.` +.7.$.7.#.t.#.t.t.o.4.p.t.$.q.t.$.$.t.$.t.t.7.e.7.t.#.7.t.t.#.t.t.i.t.t.t.4.+.t.t.t.t.a.t.7.a.6.+.y.t.6.4.0.7.r.7.4.<.4.7.7.7.7.7.4.4.7.4.4.7.0.4.+.t.7.| 7.t.t.t.t.7.t.t.t.4.@.t.t.y.t.t.$.$.t.7.#.+.6.t.7.7.t.$.7.$.$.*.e.#.e.t.e.+.+.t.e.$.t.7.e.t.t.6.+.t.a.7.7.e.6.e.7.7.t.7.7.t.t.t.t.6.4.7.7.7.4.4.6.7.t.6.+.a.a.q.q.t.6.t.t.4.| 7.t.$.e.t.$.t.t.t.$.$.t.t.$.$.t.t.t.t.t.7.#.7.e.t.t.6.{ 6.t.#.#.@.@.7.#.4.} +.t.+.{ | 4.4...| | 4.4.1.1.1.| 1.<.} } | | } | ..7..._ 4.7.5.7.5.+.6.@.4.{ _ +.+.+.q.@.7.@.6.@.@.+.@.#...| #.@.+.@.@.@.+.| +.@.4.) } 6...+...{ +.| +.} ` +.} { <.} } | | { | | } } | 4.| } _ [ } [ [ ) ) | <.) _ | | { | { _ | | ) R { ` R ( _ _ ` ` H b T K R _ K H T K U R H b b H U c x b U b U T c z c z c c U U H U U V S l y f V B x x l f y d M M B B f x V B f l F S z x V x S V y f B x S V U S B M l B V B B V Z B M f M V F B B x V V l f l S V x V f V ",
"U W R R W T ) W W U _ Q U Q Q Q W U E E W [ ) U W W Q Q Q W ) Q Q R { <.R _ | { ` { +.` { ` T R } ` { ` ` | | ` } _ _ _ R Q | ` { _ ( _ _ { +.{ { { _ { 4...{ | } | +.+.| _ { +.| _ _ } | | } } } ..4.1.| ..4.4.+.| ..| } | | 6.4._ 4.7.+.| @.#.6.6.{ _ ..+.+.@.#.#.#.7.#.@.+.+.] ..] o.@.+.+.+.] +.o.@.@.#.| _ 4.#.@.@.@.@.@.6.+.+.6.7...} ..+.....{ | | ....| | +.+.+.....| 1.<.1...e.7.| #.t.#.#.7.t.7.t.t.4.1.7.7.t.t.t.t.$.$.t.$.t.7.7.e.t.6.7.t.7.t.t.7.t.t.7.t.6.+.t.t.t.t.t.t.t.s.7.+.t.t.4.4.7.7.7.4.1.4.7.7.7.7.7.6.7.4.6.4.6.6.4.4.6.7.e...7.a.t.t.t.7.t.u.a.4.+.t.i.t.i.t.$.@.#.$.#.@.7.t.t.t.t.t.t.t.t.t.t.t.t.t.t.+.6.a.t.e.t.t.u.t.t.7.+.t.t.#.#.6.6.6.6.7.t.t.q.t.t.e.7.6.6.7.7.7.7.6.6.7.a.7.+.p.t.t.t.t.e.t.t.7.4.7.7.7.t.t.t.t.t.t.t.t.t.t.t.7.7.t.t.s.t.7.t.a.a.a.t.7.| t.t.#.#.@.6.e.#.7.} +.7.+.| 4.4.| { | | 4.+.1.4.1.1.6.1.1.} | | ,.| +.7.4._ 4.7.6.7.6.4.7.6.4.` { 7.@.6.e.7.t.$.7.7.+...#.7.@.+.7.#.#.7.6.+.+.+.@.#.7.} ..4.+.+.+.+.7.+.4.| _ 4...} 1.} | } } } } | ..{ | 1.{ } _ } 1.} } [ ) _ | ) _ | | { | } { | 4.) Q { } ( ` _ ` | | ( b c ( _ L H b K R K H H T Q R T c c b U H T U H U U U S c U H b c V x l y y M V V S B f y m M M f f f y f x F f M Z V x S F B S V f f V V U V V h f f B B V B B F F B M B B M B B U V V V B f l y x V F x F ",
"c H Q U U T Q ) T c W R U W Q Q W U U U Q Q ) Q W E Q Q Q W Q W ) W _ <.R R _ _ | { { | .._ H T } } _ } | ` ` } ` ( _ ( } { ` } _ R _ _ _ { { { | _ U ) 1.+.{ ` | | | 4.| Q { +.{ _ _ } | { { } | | | ..| { | 4.+.| | +.| { ` #.+._ | @.@.+.| @.6.| _ _ | +.....| @.7.#.@.+.+.@.@.+.@.#.o.| ] O.#.@.o.#.+.+.+.` | +.@.+.@.6.@.+.{ { +.6.| { | ......| _ { ..{ ....+.| ..| { ..4.4.| | 7.7.| 4.7.$.$.@.7.t.t.7.| | 4.#.t.q.7.q.t.7.&.#.#.#.t.t.t.7.$.#.t.t.t.7.t.q.t.t.4.+.7.t.a.q.q.q.t.a.4.+.7.7.6.4.4.6.4.4.4.4.4.4.7.7.4.4.4.4.4.4.4.4.7.4.6.7.0.| 6.t.t.q.7.7.t.t.7...+.e.t.t.t.t.t.t.t.t.t.t.$.$.t.&.$.t.t.%.$.@.$.t.$.*.t.@...7.t.&.7.t.t.t.7.@...7.7.+.4.4.7.7.6.6.7.0.7.7.t.7.4.4.7.6.4.4.6.6.4.e.a.6.| 6.t.t.7.7.t.t.7.6.4.@.t.t.7.t.i.t.$.#.t.t.$.t.t.7.6.$.t.t.7.7.t.a.t.t.t.7.{ 7.t.+.@.6.4.6.7.4.R | 6.+.} } | { { ..| | 4.4.<.4.4.4.9.<._ } } 1.} ..6.4.{ | 4.7.4.6.5.6.7.@.{ { 4.6.6.4.6.@.6.#.+.@.+.+.+.6.@.+.6.7.7.6.| ..4.| @.7.} { 4.6.| ..+.+.#.@.{ _ 6..._ } <.| _ [ } { | <.} _ } 1._ _ } } | <._ ( { | ) Q } ..{ { { { o.{ R ( ` { | ` ` ` ` { | L K R R c k H H H H K R R R R R U c x U R K G H U T E c h b U c x V S l l M n l V S l f B B l M f y y f y B V f M V x B x V V B l y M U V c V l f l f M B B V F Z B f n B Z l B B S z V M y l x y f B V B B ",
"k H Q R Q R Q U U S W ) E W W W U W Q Q [ ) ) ) Q Q Q ) Q Q Q W ) R { 4.) R ( _ | | +.| ` T U W ( Q R _ { { | { } _ ` { | { { ` _ _ _ Q ` | +.| | } W U _ | | | +.+.+.| ) T { 4.| _ _ } { } ..| ....+.4...| <.| 4.4.| ..| +.+.@.@.} | +.#.@.4.6.+.{ _ } | @.6.+.......+.O.+.7.6.+.@.+.+.+.+.] +.$.@.7.7.+.@.+.} +.@.@.7.6.+...+.| | | 7.+.| | ..| { } } } | | ..+.+.| ......| | } } ..e.7.+.4.6.7.t.6.t.t.e.+.| <.6.7.e.$.t.t.t.e.$.#.@.#.t.t.t.7.$.t.d.t.t.t.t.t.t.a.6.+.5.7.a.t.t.t.q.7.6.+.7.t.7.4.4.6.4.4.9.7.4.4.7.4.7.6.9.4.4.4.4.4.7.6.6.a.p...6.t.t.t.t.t.t.e.+.| 6.e.t.t.t.*.t.t.t.t.t.t.t.*.t.t.u.t.t.y.t.t.t.t.t.t.t.@.+.7.t.t.u.t.t.t.7.+.+.7.7.+.4.7.7.7.6.7.7.0.7.7.e.7.7.7.r.7.6.7.7.7.4.7.t.6.| 4.7.t.t.t.t.7.+.7.6.7.a.s.t.u.u.7.@.$.u.t.t.t.t.t.7.7.7.t.%.t.a.t.t.t.7.6.` 6.7.#.7.e.5.6.6.| ( } 7.4._ } } } | 4.<.| 4.4.1.1.1.9.4.| } } } 1.| ..7.7.} ..+.6.6.e.7.6.@.| | | 4.e.7.#.| | ..+.4.6.@.#.@.7.#.6.5.6.6.+.+.4.+.+.#.r.} _ +.+.@.6.@.+.| +.} | t.6.} } } [ } <._ } 1.} } | <.| } <.| | } [ [ ) 4.4._ ) _ { | | | | | _ R _ { } ` ` ` | { | | ` ( R K c c K H c H R ` _ R R R R U c U R R R T b S x h x U T c B F V x V B l V V S M B B V B V B f l l l U U f d V V S x V S x f y V W c S S V V A l B B B F F M y n Z Z B B V B B S S l t M F x x f B S B ",
"c k U Q Q R U c S c R ) S W U E Q W W ) ) [ ) W Q ) Q Q Q Q ) Q R R { <.Q ) { R ` | | ( T W S U R R ( Q _ } | } _ ) } ..{ { ' ( _ _ ( } | +.+.} _ { Q U } } Q } 4.+.4.{ ( R | 4.{ ) Q _ | { } <.| ..4.| | | } | 1.....} { 4.6.@.+.} | | ..@.5.+.` { } _ +.#.@.7.@.@.@.@.7.7.@.6.+.] +.@.#.+.] +.+.@.$.+.| +.{ _ @.| { #.@.` | 4.{ _ | 7.| } | { { | { | _ } ..+.| +.+...| | { } } 1.| 7.7.| 6...+.t.t.t.7.+.6.4.} 7.t.$.&.t.t.$.$.t.7.p.#.#.e.t.#.$.t.t.i.t.q.t.t.q.a.7.| 7.@.6.7.t.7.+.6.4.] t.q.7.4.4.4.4.7.4.4.4.4.4.4.4.7.4.6.6.4.4.4.4.7.#.t.a.| 6.t.+.7.u.t.7.+.4.4.+.t.t.*.t.*.$.7.$.$.t.7.$.*.t.t.t.7.*.t.i.t.t.7.e.t.7.+.+.6.+.7.t.t.t.#.#.6.| 6.t.+.+.7.7.7.r.7.4.4.6.7.7.7.7.7.7.7.7.7.4.4.4.#.7.+.| 7.6.@.q.y.7.| #.t.+.7.s.a.s.t.t.t.7.7.t.t.t.t.t.t.t.#.$.t.t.a.t.t.t.7.7.4.` 4.| +.t.#.6.6.' } _ | 7.| } { } | | | <.4.| 4.1.<.1.1.1.| } <.} } | ..7.4.{ 4.| +.6.7.7.6.` 4.| ` 6.#.7.+...@.@.6.+.@.@...4.7.7.@.@.@.+.4.+.| ..@.6.4._ _ } } ..6.6...' | _ ` 0.4.{ [ [ <.[ } [ } [ | { } <.<.| | <.| _ [ ) } +.4._ { { ) _ | +.` ( } Q R } ' _ _ _ _ ' ` _ R R K c c c c b k b R R ( R H H R H c T H T T K b x x l h U S x V B B B l B Z A B M M B l x S V l B f f V U U y y M B V U U x h l y l S U b c U V V Z V B Z B l f B M V B B B V B B V V l d t f F V f M V y ",
"U c W U W c V U R S _ ( S E U E Q Q ) [ [ ) W E Q [ [ Q [ _ ) Q R R } 4.) _ 1.R ` | { Q ( { W U R _ } _ [ } } ) R R _ ` | } } ` } { } | | { ` _ _ } _ Q 1.4.( R <.4.} _ } { | 4.{ ) Q _ } } } 1.1.| | | 1.1.1.1.| ..| | | +.6.6...| 4.} | 6.6.| { 4.+._ +.7.#.7.7.@.@.7.7.7.#.6.@.| +.@.@.+.+.+.+.$.+.+.| { _ _ 6..._ +.+.| ..7.o.{ 4.t.+.| | { | ......} } | 4.6.+.| ..} | | | <.1...7.7...7.4...7.a.t.6.+.a.@...7.e.t.t.e.$.#.#.t.t.t.t.e.#.e.$.t.q.t.t.t.t.i.t.t.a.7.4.t.6.4.+.7.@.+.7.6.| t.a.7.4.4.4.6.4.4.4.4.4.4.4.4...6.4.4.4.6.4.4.6.$.t.t.+.7.t.+...t.a.#.@.s.7.#.t.t.t.t.t.t.#.#.7.t.*.t.t.$.#.$.7.t.t.t.$.#.$.t.t.e.6.+.7.6.+.7.a.7.#.t.t...7.t.+.4.7.7.7.7.6.4.4.6.7.7.7.7.7.7.7.7.7.4.4.+.6.t.6.+.a.t.+.#.t.+.+.a.t.@.7.s.a.t.s.u.a.a.t.t.t.t.t.$.e.6.#.t.t.u.a.s.a.e.7.t.6.} 7.6.] 7.t.6.| ..4.{ @.7.4.{ { | +.| | <.4.4.4.| <.| 1.} 1.1.1.} | | 4.7.6.| 7.4.4.+.e.6.{ | 7.+.{ #.6.@.@.+.6.#.#.@.@.#.6.@.6.4.4.6.6.@.7.6.+.4.6.4.4._ } 4.| [ 4..._ _ 4._ { 7.4.} } } 1.<.<.<.<.,.} _ } | 1.} } } _ _ ,.[ { @.4.( _ 1.} W _ | _ _ 1.( T _ ` _ } } _ ( R R R R T H b H c c b T ( R R ( K K ( U U ) b c U K H c S S x R W c x V S S B Z Z B M l B B l B B l B V M M x E S f l M f V V V x F V f f x c U U W U F B l M l M Z V F B B V V l V S U V V x l y t y V V F B f ",
"E W U k S x U U R U R ) S U W U U Q _ ) ) W Q Q ) W Q [ ) [ W W ) W _ 1.R R <.{ ` ( _ T _ | T b _ _ _ } } ( ( ( _ } _ ( ( _ { { | ` { { ` ` _ } { { ) R { 5.| R Q { { _ [ { { 4.| Q Q _ _ } 1.| | | | <.} | <.<.| } | | } { 4.4.{ { 4.+.| ..| _ | 4.{ _ | +.#.#.#.@.o.@.6.@.$.7...| @.@.+.@.+.+.#.#.| | ..4._ ( 4.+.| { _ | +.6.6.| 4.q.6.{ [ } } | | 4.| { +.#.6.+.[ { } | } <.} } 4.e.6.] 4.e.@...7.7...t.7.....6.#.t.t.t.$.e.7.#.$.t.t.e.#.t.e.#.t.t.t.y.t.t.t.t.7.7.+.q.a.+.| 6.+.5.t.6.] 7.p.4.4.4.<.<.4.4.2.1.| 4.t.6.| | 4.4.4.4.4.4.4.#.t.t.+.#.i.t.| 7.7.#.t.t.@.+.q.t.*.t.t.&.#.7.7.7.t.t.t.$.$.t.t.$.t.t.q.t.t.7.e.t.+.+.a.a.@.+.+.#.7.t.t.+.6.t.+.4.4.4.4.4.4.4.6.4.7.r.7.4.6.6.4.6.4.6.4...7.a.4.| 7.a.@.| 6.@.t.t.7.+.@.p.t.t.t.u.t.t.u.t.t.t.+.$.7.#.t.7.t.t.t.t.t.e.t.7.4._ 7.e.| | 7.+.| ..4.( | 7.@._ } | { 1.4.4.1.| 4.4..._ } ,.| 1.| 1.1.<...6.6.{ 4.t.4.| 4.{ | 6.7.{ ` 6.#.+.#.+.| 4.6.6.6.6.6.+.| +.7.4.4.6.5.4.6.4...| ..Q | 7.| Q _ ) } | | _ _ 4.| ) } ,.} 1.1.} <.[ ) 1.6.| _ } <.[ } } ) ) _ +...R Q } .._ R U R | } Q T R _ ` _ _ _ R T R Q R K K T H k k U ( R T T T K R R b K _ b h U T k S U x b Q U x l B B V F Z M m f V V x f M M l l B l f l x z z B S z x e f f V V y x B f c S V U V l M f Z Z F Z V B B B B B Z Z V x V f f m m r f V U M y ",
"Y _ Q U z S ( Q R T _ ( T W ) T U W [ ) Q Q } <.[ R Q Q Q Q W W ) R _ <.( R | +.| ( Q ` ] { Q T { ` ` } } ( ( } 4.+.| ) R ( } { { { | | ..{ { { { | } R { +.| ( [ } } _ [ _ | 5.{ ( [ ) [ } | <.} | 7.4.| } [ <.<.} | 1.| | ..4.+.{ 4.7.#.+.{ { 6.6.} ` +.+.#.#.+.+.@.@.#.$.@.#.@...| #.@.+.@.$.@.#.+.+.@.6.} _ +.@.+.{ ( 4.7.6.{ | 4.t.| ( { | } | 1.| | | $.t.$.#.} _ | ..| 4.1.....t.7.| 6.e.$.6.| ..7.a.7.| +.7.t.&.t.t.t.t.e.$.t.t.7.e.e.t.t.t.t.t.t.i.t.7.a.t.7.t.+.t.u.6.| 4.t.a.7.7.+.7.7.+.4.6.<.1.<.2.2.1.4.t.t.t.@...4.7.4.4.4.6.+.+.t.a.#.7.t.t.$.6.+.t.a.7.+.+.t.u.t.t.t.t.t.t.t.7.t.t.e.t.t.t.t.e.e.t.t.t.t.&.t.t.4.+.t.d.t.+...e.a.t.6.+.e.t.@.4.4.4.4.4.4.4.4.4.t.s.t.4.4.6.6.6.6.6.6.@.e.s.6.+.7.t.t.6.6.q.i.t.7.+.7.p.7.7.t.t.i.t.t.t.t.&.$.#.e.t.t.t.t.t.t.e.t.t.t.t.6.' 6.t.#.| ..+.e.@.| ) +.7.+.} { } | | 4.1...+.7.e.6.} } } 1.| 1.<.1.} | 6.7.{ +.e.t.+.{ { t.@.+.| { @.#.@.7.@...| +.@.7.4.+.| | 4.7.6.7.6.7.+.+.4.{ { 1.) } 4.4.} Q ) 6.4.| _ } 4.| _ } } ,.} ,.} ,.[ 1.7.e.4.[ [ <.} <.} [ ) } | | R ( } | } ) E ( ..| _ Q } { ' } { ( R R R _ ( K H H U T R R ( ( ( K T R R Q U H _ T c W R U R R c x U c x A M f B B B Z B V W T S f f B B l M l M f l x V x U U V B f h S V f V U h l V S V F F V B U F B B Z F V B Z Z B f B V V l f f B B A x S f y ",
"c G Q U W U Q U c S _ Q U Q W R W W R Q [ } 3.| | _ E W Q E Q W W R _ | ( ( { ` | ! { ] +.! W U ( { | ` _ { +.+.| ..| _ { { { _ ` | | | | { { _ ` | _ R _ _ { | 4.1.Q ) [ R | 4.{ Q [ _ _ } } _ } 4.6.7.7.| { [ } | | <.| } ..6.| } | 4.6.@.+.5.+.+.} ` +.+.] +.$.#.+.+.+.+.+.@.+.| +.#.+.+.#.$.+.+.+.+.o.@.| _ @.] ' 4.+.6.o.| { ..| 7.| _ [ _ _ } ..} ` #.$.%.$.#.+.{ _ | 1.1.1.} ..t.6.| 4.@.7.t.+.7.t.$.6.| ..e.#.t.$.t.t.t.$.$.t.$.#.$.t.7.7.t.t.t.t.t.t.a.t.#.t.t.| 6.6.7.6.a.t.t.#.6.| 7.4.4.1.4.4.<.<.2.<.4.t.t.%.q.7.6.| 4.4.4.+.4.+.@.t.t.#.$.+.#.$.#.7.t.e.6...+.7.e.t.t.$.t.t.7.t.t.t.7.#.#.e.t.t.t.e.$.t.7.e.t.t.7.4...7.t.7.7.t.a.t.#.@.+.7.t.+.4.1.| 1.4.4.1.4.t.a.t.a.t.+.+.6.4.6.4.4.4.7.s.6.+.4.@.6.7.t.q.7.6.6.+.7.a.7.t.t.t.t.t.t.7.t.t.t.7.t.$.t.t.t.t.t.q.t.7.7.t.6.` @.@.7.@.#.7.7...| ( +.6...` _ { } { | } | 7.q.7.7.4.} _ | | } } } [ | 4.7.{ | 4.6.+.+.5.6.| | { ` +.+.@.#.7.@.` | +.+.4.4.+.4.4.4.6.7.7.+.+.4.| +.+.| ) _ | ..| | <.4.{ } } _ +.+.{ _ [ [ [ } [ ) 1.7.6.6.6.4._ _ } [ [ [ ) _ { | R T } { R { | | _ _ R W | { _ { { R T ( _ _ ( T c c K ( _ R R ( ( R R H K ( H h U R T U U R R U x z U S S B B M l B Z x U W U H S V B l c B M l f f S f d l f B V x F V z f e B U B f l V B S F U F V F l f B F Z F F M f f B B B l y y B F B V l l V ",
"b c b T _ U b c S S ( { W W ) U Q R ) _ <.| | | +.{ Q W ) Q ) Q W R { | _ } { R ' ` +.{ R R ) U ) | | { o.| +.| | | { } | | | { | } } _ _ { { { +.{ ( ( _ ( _ 4.4._ R _ } ( | 7.} Q _ } } [ } } ..7.#.@.7.7.4.} | 4.| | | } +.7...{ ..{ | @.7.7.| | | ` +.+.] +.$.$.$.#.+.+.#.7.@.@.+.+.@.$.$.$.+.@.@.@.+.@.+.| 6.{ ` 6.7...` | 4.4.| 7.@.| | } _ | | ..@.q.$.@.@.#.7.+.} ..1.<.} } +.t.7...6.6.+.7.e.s.6.@.6...+.t.$.t.t.t.t.*.&.e.7.$.$.7.t.t.7.$.i.i.t.t.t.a.7.+.t.t.+.7.@.@.t.d.q.@.#.7.+.7.q.6.4.4.4.4.4.4.4.e.t.t.t.t.t.t.4.+.@.@.+.+.+.#.t.t.#.#.+.#.@.t.a.t.#.7.6.+.7.t.$.#.7.t.t.t.t.u.t.7.#.7.t.t.t.u.t.t.t.t.t.e.#.e.6.4.7.@.+.6.a.t.| +.6.+.7.t.+.+.4.1.1.4.4.4.r.u.t.t.t.a.7.6.6.4.6.4.4.4.t.s.6.+.6.4.+.7.d.t.@.+.7.6.7.a.t.t.a.t.u.u.t.7.e.e.7.t.t.t.t.t.t.t.t.t.t.e.7.t.6.} 6.+.#.@.s.t.| ' 4._ +.7.+._ | { } } | } 4.t.t.$.7.7.4.} } } | | } | +.6.7.| ..| | +.t.q.+._ +.{ ` @.@.+.6.6.6.4.+...4.@.7.6.7.@.6.7.7.4.| +.6.4.@.#.4.( } | { | 7.4.{ R } | ` +.6.{ ,.} } [ | [ <.7.7.6.4.6.7..._ _ } [ ) [ _ } 1.) W { _ U ) | { R _ ( R } | } { _ ( R R ( { { ( K R _ R R ( _ ( R R K H R ( S h c R R W T H H c c U T U U Z F B B S S V E W H H U T S V V z B B l l B M f y f f V S S V l y f f F V l x B V U c F V U E B f M B Z V B f y B F x V B f f l x U B f M F ",
"S l x U T U c c E c R _ U W U W W T ( } { { +.| { { } Q W Q W Q W U { | Q } } R R ` { ) H R _ H T _ | ` o.+.{ { { | ..} ` | +.| | { } _ } } _ { +.} R _ } _ Q [ _ W { } _ R | 7.{ _ [ [ } { _ ..4.+.@.@.@.$.6.4.| | +.} <.| ..7.+.} | } _ { 4.| _ +.| ( { +.] O.+.#.$.#.$.$.$.7.#.+.#.#.#.q.q.+.+.#.+.+.@.6...' @..._ +.6.` { 4...4.{ 6.+.{ 4.| { } { 5.7.@.+.+.+.@.+.@...{ } } _ <.| q.e...4...` ..6.7.| ..7.| | q.t.t.q.t.$.$.$.7.6.#.#.e.7.e.#.#.7.a.a.y.t.t.#.7.t.6...e.@.| 7.t.#.+.7.7.] 7.p.4.4.4.<.4.4...7.t.q.t.t.t.q.t.7.@.| +.o.4.+.+.t.$.O.$.#.+.| #.t.#.+.t.6.| 6.7.#.#.7.t.t.t.t.t.q.t.t.#.7.u.t.t.t.t.t.t.t.$.@.7.6...7.#.| | 7.6.` @.6.` 7.t.+.| 1.4.| | 4.t.a.7.t.t.e.7.t.6.+.4.4.4.4.4.e.a.+.+.7.+.| 4.t.#.' ..7.+.#.a.t.t.t.t.t.t.t.t.t.7.7.#.t.t.q.t.t.7.7.t.7.7.e.7.+.} 7.@...' #.7.' ..6.( +.q...{ { } | { } +.q.7.$.%.$.#.7.4.} { <.{ } | | 7.6.{ 4.| ` { 7.6.` _ | _ _ @.#.| | | #.@.7.6.6.4.@.4.6.7.5.+.7.@.| ..4.4.| @.6.) [ | R ( 1.| ) R <.[ _ +.+.| } [ | [ _ | 7.5.+.+.4.+.5.6.| ( [ [ [ ) ) } <.) W R R W U ) Q U _ _ H R { ` _ ( _ R T R Q _ ` _ _ _ L K R _ R K K T b K W U c V S U U H b c U W c b b c V B V S B z U U H T U U U W V x S Z l l V U V B l B l x B l y f y f f z c F x l x V F V V U F Z B B M V B M M B B V V V l M y f f l y y t y ",
"V c S U S x S U R b R _ U W W T R ) } ` { { ..{ { { ..{ Q R Q Q R T { 1.R { } R _ _ ( R ( _ _ U T _ | | | { | | { +.4.| | | | } ....| | | | | +.4.| R } | _ _ [ _ { } <.[ R ..7.| } [ } } { | 6.6.@.@.@.#.#.7.7.+.| | | <.<.+.e.+.} <.{ | | } } ` @.+.( ' | ] +.+.+.+.$.$.$.7.#.| +.$.$.+.@.@.$.@.#.+.+.7.6.| ' 6...{ | { | | +.+...| 7.+.| | { } | +.7.@.$.7.7...+.+.6.4.{ } } } 1.+.t.t.......| ....4.| +.7...| 7.7.t.t.t.$.$.7.e.7.#.7.t.7.t.7.#.6.t.t.t.7.7.7.t.t.5...e.6.4.| 7.6.@.7.7...t.a.6.4.4.4.4.+.7.t.t.t.t.t.t.t.t.t.t.+.| +.4.+.#.u.e.+.7.7.#.+.+.+.+.@.p.7...7.7.$.7.t.t.t.t.t.t.t.i.t.e.e.t.t.t.t.i.t.6.7.e.t.7.6.4.7.6.| | 6.#.] 6.6.` 7.e.+.4.1.1...4.t.s.t.t.t.7.7.7.a.e.4.4.4.6.6.4.t.a.6.@.e.6...4.6...| 6.7.+.#.u.t.t.s.t.t.t.u.t.d.t.t.7.t.t.t.t.t.e.7.7.t.t.7.7.+.| 7.6..._ ..4.| 6.6._ @.7.+.} } | | } | 7.t.$.t.7.7.6.7.7.4.| | | 4.+.@.7.6.| 4.+.} _ 1.| { { | _ ` | | | { | @.+.7.7.4.| +.+.4.@.4.6.6.6.4...4.4.+.+.4.) } 1._ W [ [ ( _ | } } +.6.| <.} } } } 6.7.#.4.4.@.+.4.7.6.} ) ) [ ) _ <.<.( R ) _ R W Q R R } _ U R } { ` _ _ ( ( ( T L _ ` ( R L L ( ( ( ( R R K R R T W U U S S U S b T R H U T U S B F S c S T R W T U R T R U V B B B l F ) U c F F B M d f f l l y f V U U S S B B V V F U S A l B Z F B F V F B F V V f f y B l f y f t t ",
"A x c S x f U U U b R R b W R U W { | ! { { _ ( { { { | } W W W R T { +.R _ ` R _ _ Q R _ _ ( U ) } ` { | { } } +.+.o.| } { | | | | +.| { | +.+.4.{ Q [ } { { ) } } _ | <.Q { 6.| [ ,.[ [ | 5.5.@.@.| | +.+.+.@.+.{ } 1.| | 6.t.| ` 1.| { } _ _ { +.| _ { X.+.#.+.+.+.+.O.+.#.+.] o.+.+.@.+.X.@.@.#.#.@.#.+.| ` +.| | } _ | { | 4.4.{ @.+.' | | { @.7.#.+.#.6.4...| +.@.@.4._ _ <.[ 6.t.7.} ..4.| | | } | +.7.} { @.@.$.#.$.#.7.6.7.$.t.7.$.t.q.7.t.7.6.@.7.7.t.t.$.t.4...7.6...| 4.4.4.6.7.+.t.a.@.4.6.4.| 6.t.q.t.i.t.@.6.t.t.t.t.7.+.| 1.+.$.t.t.+.@.6.+.| ..} ..+.7.7...+.6.t.t.t.q.t.i.t.t.t.t.t.t.6.e.u.t.t.t.7.7.7.#.7.t.6.@.6.+.| | +.4.| +.+.` #.$.| +.1.| +.t.t.q.t.t.#...6.t.7.t.7.4.4.9.4.6.t.s.7.+.7.6...4.....+...6.+.+.e.t.t.u.e.$.$.t.t.t.u.t.t.t.q.t.q.t.7.7.7.t.a.7.t.@.| 6.6.| [ | 1...+.6.` +.7.+._ } { } ..q.7.$.7.6...+.7.7.7.7...} | | 4.+.#.6.` +.| } _ [ ) { { } _ _ +.+...+...| 6.@.4.+.| | 4.6.+...4.7.4.6.| { +.+.o.1.( _ 1.( W Q Q _ _ { } ` 4.4.{ } [ [ } 6.6.@.6.7.4.| ..4.4.4.4.} Q Q ) ) [ <.R ( { R Q ) W R R Q [ W _ | ` _ _ R R _ _ R K K _ _ K R _ R R ` R T ( _ K K T U T S x x x S U c c H R U c x V B V U U U T H z c W W U W c B B f f x W U x c V B f t t f l f f y F S S F S B B x S V S U S B B B V F U B B V B B x f l y M f e f M y t ",
"A V S x x l S W U T { ( U W R T { +.| { { Q T W { | | o.o.{ Q W ) R { ..L _ { _ _ ( Q Q _ { ( T } | | { { { { | +.+.4.| _ _ 1.+.+.+.+.+.+.| @.@.4..._ } | _ _ _ } } _ | <.( | 6.| [ [ [ [ 4.7.6.@.+.{ { | +.+.7.7.+.} <.| { #.t.+.{ 4.4.} { _ _ { @.+._ ] #.#.#.+.+.O.O.+.#.#.+.| @.@.+.#.$.+.+.+.#.+.+.@.+.+.| @.| ' } } } _ } 4.4.{ 6.+.` ..| | 7.7.7.#.+.` { { +.6.5.6.t.+.| } ,...7.0.` 4.7.+...| | } +.6...' #.7.7.#.7.$.e.7.7.t.t.t.t.t.q.t.t.t.t.7.7.t.t.t.$.t.4.4.7.4.1.1.1.1.4.7.7.+.a.t.+.4.6.4.4.a.t.t.i.q.@.| o.6.t.q.t.t.7...| o.7.a.t.@.6.7...} ..<.....7.6...6.t.t.t.t.t.t.t.t.i.t.t.t.7.6.t.t.t.t.t.7.t.7.6.t.a.7.+.4.4...| 4.4.+.4.4.` $.$.| +.1.| 7.t.t.t.e.+.| | 4.t.t.t.s.7.4.6.6.4.7.s.7.6.p.6...4.1.4.+.4.7.6. .7.e.7.e.$.#.e.t.q.t.$.t.t.t.t.7.t.t.t.t.@.7.7.q.t.6.| 6.+.| } ..4.| +.4.' #.t.#.{ { _ | 7.t.$.7.@.| { } 4.q.7.7.7.4._ } | ..7.7.| 4...| [ _ _ | { 4.{ _ @.7.@.@.+.+.#.6.4.@...4.6.6.4.4.+.6.7.7.+...| +.@.6.} } } R W ) Q _ _ 1.| ` 6.6.} { _ [ 4.7.6.+.@...} _ { 4.4.4.6.6.[ Q ) ) } <.) } | _ ( ( Q ) ( ) Q R | 4.' ` ' ` _ _ { } R R ' _ R ( _ _ ( R K K T T R R T U S x x B c U U x l x R R x x V l S R R U U x h x F W R U S c U x f f F V x F V f t a f f l M f l F U S x S V F S U V S V V F A B Z F E F Z S Z l x V x M M d y f f y f ",
"B S x l V l l E S U _ R T U W ` +.` | | ! W Q E E { +.` o.+.{ W W R { { K ( { ` _ R R R R ` _ H _ | ` ` | | 4.+.o.+.+.| _ { | ..+.| | +.4...| { +.+.( } | ( _ [ ) ) _ } } ( 1.4.[ _ ) _ 1.4.4.@.| } } } _ ..6.+.#.7.{ { <.| +.7.+.{ 4.| } _ [ [ _ +.+.R { #.+.@.#.O.+.@.+.+.+.#.@.+.+.+.X.@.$.+.+.+.+.+.+.#.] | @.` } | _ _ ) _ | } ` 4.| } { { 6.$.@.7.@.{ _ _ _ | 4.@.#.7.t.4._ } | r.4.| 4.4.+.| { | } | 7...| t.q.$.@.#.7.t.$.t.t.t.t.t.q.t.7.7.q.t.t.t.6.e.7.7.7...4.6...4.<.4.1...7.7.] t.7.@.4.4.5.t.t.t.t.t.@.| | +.| 4.t.t.t.t.#...` +.a.7.+.7.@.' } 1.1.} | 7...} 6.t.7.7.t.7.7.7.t.i.t.t.q.t.e.6.t.t.t.t.t.t.q.@.t.t.+.+.4.4...} ....| 6.+.` 7.e.] | | 6.t.$.*.t.@.{ { +...4.t.t.t.a.7.4.6.6.7.p.7.@.p.6.| ..4.| ..6.7.+...t.e.7.7.7.t.7.7.t.t.q.t.t.t.7.t.t.t.t.7.7.@.@.t.q.@...6.+.1.} ....} ..4._ 6.7.+.{ _ | 7.7.#.7.@.{ } | | { 5.t.7.7.6.| { _ +.6.6.| ..4.} _ } [ _ { 4.} _ ..+.@.+.| @.+.6.+.....6.+.6.6.4...+.7.6.+.+.| | #.7.} _ ) R W ) ) R ( | | | 6.4.{ R _ 4.6.@.+.@.| ) R { { { +.@.@.4.1.) U W _ <.Q _ <._ R ) Q W R [ W H } | | { _ ` ` ` ` _ ( ( ( _ _ R ( ( K _ _ R H U T H U b x x x l b b b U x h W U x x x U W W T U x x V x x S W U S V c E l l F l l B l f f y f y f M y B U V l x V U S V U U S V F c F B B B F E E W F f x B f B f t y e y y n ",
"B V x l S x x E x b _ _ T T Q +.+.o.| _ Q W Q W W W { o.+.+.+.{ ( R { | R _ ` _ ( R ) R ( _ _ T _ } ` | 4.@.@.+.@.......| | +.| +.+.+.+.+.| } ` +.4._ { } _ [ [ ) ) _ } } _ 4.6.{ _ _ 1.7.#.4.4.} _ <.| { } 4.6.#.t.#.{ { | +.7.+.| +.| } { } } } +.| _ +.@.+.#.+.+.+.+.+.@.@.#.+.+.#.@.+.+.+.$.O.+.#.@.@.$.| | +.] | | } } ( ' } } ' 4.| _ { +.#.$.7.6.| { } } ( } ' 7.#.7.6.6.| { ..r.7...4.4...| } <.} | 6...+.t.#.+.#.7.6.q.t.y.t.t.%.t.7.t.7.t.q.7.7.7.7.7.7.q.t.+.+.6.+.4.1.4.1...6.6. .t.7.@.4.+.t.i.y.a.t.6.+.+.+.@.+.+.6.t.$.t.t.7.| ..t.#.] #.#.] } 1.1.| ..7.4.| 7.a.t.a.t.t.7.t.t.t.t.q.t.t.t.t.t.t.t.t.t.t.t.7.7.7...6.7.4...| 1...' @.+.` e.t.+...@.t.t.$.t.e.+...| ......7.t.i.i.a.7.4.6.e.s.7.| 6.+.| 4.4.......6.+.+.p.t.t.t.t.t.t.t.d.t.t.t.7.e.e.t.q.7.$.7.7.e.7.a.t.@...7.+...| ..1.| ..4.| e.t.+.` { 6.t.#.7.+.| { } +.4.} 4.7.t.7.t.7...{ +.7.7...4.1.} [ ,.[ } ` 4.| } { } | @.@.@.6.6.+.| 6.6.5.5.6.7.4.4.+.+...| ..@.+.+.( ( _ ) ) ) ) ) ) } | +.7.+._ _ 4.7.7.4.6.6..._ Q } } _ | 4.+.4.6...) U Q 1._ _ } _ R ) ) R R _ W T { { ' ` _ } } | } ( _ _ _ } ' ( R T R { { _ ( ( T S U b c S S V S c S E S c W U x x S ) ( R W S c B F V S V S U U U W S V S W S l l l f f f M f B l B S U V l x V S E U F V S U U S S U B l Z V E U B l V x f f f y d y y y y ",
"A l l f B B c S x c R _ K T ` ` | | ( U W U U W W S U _ | { | | { R ` { R ( } R R R R ( ( _ ) T ( { | +.o.+.o.| | | +.| { +.@.| +.6.6.6.4.+...o.| +._ ) | { _ _ [ ) ( | } ( | 7.+.| 1.6.4.#.+.[ _ _ [ [ [ [ } +.+.#.t.+.| | | 6.+.` @.| { [ [ [ } 4.| _ +.@.O.] +.@.o.+.#.@.+.+.+.+.+.@.#.o.] +.@.#.+.@.@.@.+.` | | ` } | } ( _ | } _ +.{ _ | @.+.7.@.{ _ | _ _ } _ _ } @.#.+.6.@.4.| 6.0.{ +.+.{ | } } } { +.| { @.@.+.6.7.#.@.t.t.t.%.7.t.t.6.7.t.7.6.#.7.7.t.@.q.t.+...7.+.<.1.2.4.| 6.6. .7.t.+.+.7.t.t.t.t.4.| | 4.+.| | +.{ @.q.q.t.t.6.+.#.+.` #.#.| { } 4.| ..7.1...7.t.s.a.a.t.7.6.7.t.$.t.t.7.q.t.7.t.e.7.t.q.7.t.t.7...4.7.+.| } <.| ' @.+._ #.t.O.+.7.7.$.t.7.| | ..| | ....| 6.t.t.t.t.7.+.7.a.4.| #.@.| | 4...} | 4.+.+.7.e.t.t.7.7.7.t.t.e.#.6.7.t.7.7.$.#.7.t.@.7.7.q.a.+.| 6.4.| | | 4.| | 4.` #.t...| 6.7.#.$.@.} { } { } } | { <.7.7.7.q.t.+.| 7.7.{ 4...} _ [ <._ _ 4.{ _ | _ ' +.4.+.4...| o.4.5.4.@.6.7.+.{ | +.| 6.+.| +.4.( ( } Q Q Q _ ) R } _ ` 6.| ` 4.5.4.+.4.4.| _ _ ) W _ } Q } 4.@.@.6.+.{ { } ( ( [ _ ( Q [ R T [ R U { | _ _ _ Q _ { _ } _ _ _ _ [ ( K R ( W _ } ( Q ( W S x U F x V S S b S S c H W U U ) Q R R S B B x B U S l l S W c S W c c W F f l x y f f M V S l l S V h B l l B S S V x x V S E U U Z B B B F F B l B B y y M t t p y y n ",
"V x B f M x c W S b ( ( K _ | ` _ ( W E U W Q Q W S U S ( { { | | { | { _ _ ` ( ( R R ) _ _ _ R _ | +.+.+.o.| | | +.+.| ' { | | | | 4.6.+.+.6.@.@.6._ ( 4...( _ [ _ _ 4.1.) ..4.| ..7.6.6.4.| _ [ } } | ( ) } 1.6.o.+.7.6.+.| #.+.| 4.+.{ } [ [ | 7.4._ +.7.+.] @.#.+.@.#.@.+.+.@.+.+.#.$.+.] +.#.$.@.#.@.#.+.` @.+.' } | _ _ | 4.{ ` +.+.| +.+.@.@.| } _ _ } | { } _ { ' +.7.7.7.e.@.7.7.| ..+.| ..| | } { +...' +.@.#.$.7.@.#.$.t.t.%.7.t.t.7.@.6.6.#.#.7.q.q.7.t.t.4.+.e.#.1.1.1.1...7.e.O.t.t.@.7.t.t.t.q.@.| 4.+.@.$.6.] | | | @.t.$.t.t.$.7.#.] $.7.#.| | 1...#.t.4.4.e.t.e.t.7.e.t.7.e.t.t.t.t.t.7.t.t.t.t.7.t.i.t.t.i.t.6.7.7.+.| | <.| ] 7.6.` #.&.O.$.&.e.t.7...} <...@.6...| 1...#.t.i.t.t.6.e.t.6.+.q.7...| 1.....+.7.+.#.7.7.t.t.6.#.t.t.7.6.6.7.7.q.t.7.#.7.t.t.t.7.#.6.7.+...7.6...| 1.1.....6.' @.$.+.#.t.7.#.#.| } } } | 4.| } <.} 4.6.q.7.7.7.5.7.6.{ +.6.| _ } <.} | 4._ { 4.' | +.+.4.+.| { 4.4.6.4.6.7.4.| } { +.@.6.6.@.6.7.} } } _ ) ) [ ) ( } _ ' | | | 6.@.+.+.+.} ) _ | _ _ _ } _ ) } @.+.o.+.4.+.| _ _ { ' _ ) ) ) ( | ) T { | } | } ( R R ( ` { ' ` _ } ( T ( _ Q _ _ R T _ ( S b R ) V V S b H W U U Q ( R R R W R T S V B V S U B l x V U U U T W V S B h B V f f m B B V l M B V x x B V B V x z V V l V V V V Z Z F F E F V B S V y M Z y t y n y n ",
"A Z l f m f V W S x ( L ( _ ` ( W U W F U ) | } Q U V S U T { { { | { | R _ | ` ( H R T ( { { R } | | o.o.| { o.+.o.| | ' ` | | | | | | +.| | 4.4.+._ _ 4.4._ ) [ _ | 4.} _ | | | +.4.6.+.{ } <.[ _ | 4.| ) Q [ +.+.+.@.#.5.+.+.| | +.5.| } [ { 4.7.| { @.#.+.] +.@.@.@.+.| +.#.+.+.@.#.+.+.+.+.+.$.$.+.O.#.| | #.+.' _ } _ } 4.o.` | 6.] +.#.#.+.{ ( } ( ! ..6.| _ { } _ | @.7.7.6.6.6.+.{ | 4.{ } | | _ | @.{ ' 6.@.#.@.$.$.+.#.t.q.t.q.q.t.+.+.7.6.t.6.6.7.t.q.#.t.6...e.7.| <.1.| +.e.7.X.$.t.t.q.t.t.#.+.+.1.| +.@.e.$.+.{ { | | @.7.t.$.$.7.4.+.@.7.7.{ | <.} 7.t.4.<.7.t.7.7.t.t.7.t.7.7.t.t.t.t.7.q.t.a.t.t.t.t.t.t.t.t.7.6.t.7.| [ ,.{ +.q.@.` +.$.O.+.$.t.7.| | <.} | 7.t.@.| | +...4.a.t.t.q.$.t.6.o.7.t.+.{ 1.{ +.p.7.| +.t.6.#.7.$.7.6.e.@.+.6.t.6.7.t.7.+.#.t.%.t.t.6.7.7.6.| 6.6...[ 1.| | 6.4.` +.@.#.6.6.#.@.{ | | } _ +.e.4.{ <.<.} ..7.q.7.6.6.6.| ` 4...| ( } } _ +.4.R _ 4...{ | | +.' { } | 4.7.5.4.7.4.} | | | +.+.+.#.@.+._ _ <.} R ) [ R } 4._ { { | ..| +.4.o.{ ) } _ _ | .._ _ { ( W ( { @.| { +.+.Q ` | } R _ ) U { | R T _ { { { { ( R ( ( R ( _ ` | { ( R T R _ Q T R Q R R U c R _ x x c c R ( U H ( ( T W R E U U U B M B U S x x V l c U W U U U V l l B x x f d B f l B f x U S F x V x x V F B V l f V F B Z B Z U U B F c x B f l B l t r p y t ",
"U F C f f f F R W b R _ ` { { R W W W E ) } { { | ) U U W W _ { | | | +._ _ +.o.{ R T R _ ..| _ | | | | | | ..+.@.+.+...{ } | +.+.+.{ ' | ......+.4._ _ 7.7.| ) [ } @.7.+.{ ..+.6.6.4.+.| } 4.1.} | 4.6.6.| _ [ } ..4.4.@.#.$.#.....6.7.+.} _ } 7.t..._ 4.7.+.@.+.+.@.#.@.+.@.@.@.$.@.+.+.+.@.+.+.#.@.O.@.$.+...7.7.| _ _ } | 7.+._ | #.+.+.#.+.' _ _ [ ( ` @.$.@.| { | } } | 6.q.q.7.t.7.{ 4.7...} } | _ | 7.| | e.@.$.$.#.$.#.#.q.%.y.%.t.t.@.#.t.q.t.7.7.6.q.t.$.t.6.+.t.e...| 4...#.t.t.] %.t.u.t.t.t.6.| 4...| 6.t.$.*.$.+.{ ..| | #.7.7.e.t.t...#.t.t.+.| } | e.s.4.4.0.e.7.t.t.7.7.t.q.t.t.i.s.t.t.t.t.7.7.t.7.6.7.7.t.t.e.7.u.a.1.} ,.| #.t.#.` #.$.+.$.t.e.@.1.1.<.1.6.t.t.t.4.| +.4.4.7.t.a.t.t.t.7.+.$.t.#.| | 4.e.s.e...6.t.7.+.#.t.t.7.e.6.@.7.e.7.t.t.6.@.6.q.t.t.t.t.t.t.7.| 6.t.6.| ....+.p.7.} 6.e.t.7.7.6.+.| 1.| | ..7.7.7.1.<.<.1.| 4.7.t.7.7.t.+.' 6.+..._ _ _ _ 7.6.R } 4.....6.+.+...| ....@.7.@.6.6.4.| ..| +.+.+.+.@.| } ) _ 4.| R [ [ R +.7.{ { 6.+.+.4.6.6...} [ [ _ <.4.@.| } [ _ R R _ 4.4.+.#.4._ { +.+._ Q W W | 4.R U _ | { _ _ ( _ { _ ) ( R { } _ } ( R R Q W R R R R ( W b ( ( b x S b ( ( b x H R ( Q Q U E E F B B F T U S S S c c c U U W W U V x S U b f d f f S F B l U R W U S V V c S S U x x B V F F B M l l B F V V V l B V V y t p y y ",
"F E F f f A U Q b b _ ` | } R S W U U Q [ { { { } _ ) U U R T _ | | +.| R ( { +.| ( T ) | o.{ _ } | +.{ { | +.+.+.+.+.{ ..| { | 4.+.| | +.+...| ..@._ _ @.7.+._ _ 4.6.6.| _ 6.7.#.#.| { | | | } { @.7.@.@.#.| _ _ } { | 6.#.#.t.+.{ 6.7.6.} { 4.7.7...R ..@.@.+.+.@.#.@.+.@.+.#.$.$.+.O.+.@.+.+.@.@.+.+.O.+...` 6.#.+.' ( | @.@.| R | @.] @...' R { _ ( ( +.@.+.+.@.' { | } _ | 4.t.t.e.6.{ +.7.#.| _ } ..5.5._ _ @.$.@.@.$.@.$.#.@.t.7.t.t.q.7.7.7.t.q.7.7.@.6.7.t.t.+...7.t.e.| ..6.t.*.$.] @.%.t.t.q.4.4...| | 6.7.$.$.$.%.$.| { | | { @.t.7.t.e.| +.&.t.@.| { 6.e.t.....7.4.6.t.7.7.$.$.t.t.t.t.t.t.e.t.7.7.e.t.t.t.t.e.t.t.6.7.t.a.7.| [ 6.7.t.#.` #.#.+.t.7...1.4.1.} 4.t.q.$.t.t.4.| 4.4.+.4.t.t.t.t.@.| #.t.7.+.{ 4.t.7.6.| +.e.$.+.#.#.t.t.$.@.6.6.6.t.t.4.#.@.7.#.$.$.e.#.7.t.+.} 6.7.9...{ 4.t.q.7.} 7.a.#.t.6.| | ..| _ | 7.$.@.7.7.<.[ 1.1.<.4.7.t.7.q.5.` +.6.6.{ _ ) ..@.4.U } 4.` | 4.+.| ..6.+.| | 4.7.6.+.4.| } +.+.| @...| | | R R | | ( ) ) { 4.+._ { 4.+.@.6.+.| _ } _ Q | @.o.| ..| Q ) ) R W } 6.6.6.4._ _ +.@.| Q W } | { W U _ } _ T T _ _ Q _ } _ Q Q _ _ ( ( W T R R R Q U K ( W c R ( b x S T L Q U c U ( R W U W W F B V U S c U T c c V x l l V U U W V f V E b f e f l S F x f V U U W V x S x c S S S B x V V Z V l f B M B x V V y M F x M t t t M ",
"U W U Z Z E W E S b } _ _ R W U U U Q _ _ R _ { { { } R W R Q ) } { ` } Q ( ..` o.} ) } +.+.} ( { | { { { | +.+.+.@.+.o.+.+.| | | +.o.+.6.@.+.+.4.@.` } @.$.#.| +.6.$.6.{ _ 7.t.7.@.{ { | ..{ } 4.$.$.$.#.$.6.<._ _ } } @.6.7.t.@.} 4.t.7.| +.q.$.#...R } @.#...+.#.@.@.@.$.#.#.+.+.+.+.@.#.+.+.#.@.@.#.O.#.+._ ..7.#.| } @.#.@.{ R | #.+.#.| ( _ { { } | +.+.+.@.#...| _ _ } } { 4.5.5.4.| ..6.7.4.} | 6.7.@._ _ @.$.@.$.%.$.*.$.$.#.$.$.7.q.t.7.7.q.t.q.7.7.e.6.7.e.+.| 7.t.t.7.6.q.t.@.$.] +.t.t.$.6.<.4.4.| 4.t.t.$.$.*.%.*.#.| { { { ..6.e.t.7.` #.$.$.*.e.7.t.t.t...4.6.@.6.t.e.7.$.e.t.t.$.#.t.i.t.7.7.t.t.t.u.t.t.t.t.a.6.7.a.a.t.7.4.e.t.t.7...#.&.$.t.+.<.2.4.4.4.7.t.t.q.t.t.t.@...+.+.+.7.t.*.7.+...6.q.t.7.4.7.t.7.6.| 6.e.$.7.#.@.e.7.6.6.7.6.6.$.7.#.6.q.t.$.7.#.$.@.#.#.+.} 6.7.t.6.@.7.t.q.7.| 7.y.t.7.+.| 1.| | | 6.#.$.$.7.7.7.<.| <.<.<.4.7.7.t.7.} 4.6.+.....+.6.@.4.T } 4.+.+.| { { ..6.4.4.| 4.6.6.4.4.| } +.+.+.4.+...+.4.) ( | +.} ) _ +.6.| ( _ 1.6.6.+.| _ _ } _ } +.#.o.| | +.| _ Q ) ) [ 1.{ o.6.} ` +.+.| | | | ] ` W W _ _ R T R _ { _ _ { { Q _ } _ ( _ _ _ ( Q _ ( R R _ T c R _ K S W R R _ ) U R ( U U U F U V B E ) S l c W U S l f l B x S S U x f l U S x S S z U V V l V S U F S S S c S U S x c z S V F F B V F B Z x V l t f V V A f t y F ",
"W S U U W S E V x c R Q R U W U F U _ { _ Q R ( { _ { _ R U W R ) ( { { Q R { | ` ' } +.| +.{ T _ { } ` { } { +.4.+.+.+.| @.+.` +.+.| ..| @.7.+.| 4.` _ 4.@.#.#.#.#.@.@.} ( +.6.@.{ _ } [ } | @.#.#.@.#.$.@.@.4.| ( _ { } 4.7.7..._ @.7.#.#.5.7.#.7.{ R | +...+...+.#.@.@.@.@.+.+.#.+.+.+.+.$.#.+.+.#.+.#.#.| ( | @.@.@.+.#.+.#.` ( | +.+.@.| } { _ ` +.+.O.| +.o.+.@.+._ _ _ _ } { +.7.4._ | 6.6.@.+.4.6.+.6.( _ @.+.$.@.$.%.%.$.$.$.$.#.t.7.7.7.7.6.$.#.q.7.e.@.+.7.+.| 7.@.e.t.t.t.@.@.@.' @.q.$...} | <.} 4.7.q.%.*.$.@.*.$.$.#.{ { { { +.7.7.6.' +.$.*.$.t.t.$.$.t.| | 7.7.+.6.7.#.#.t.t.$.#.7.t.t.t.t.t.7.t.t.t.t.t.t.7.t.6...e.a.t.t.t.e.t.t.#.| #.t.e.4.} <.1.} 1.7.q.6.#.7.7.6.t.7...| 4...| #.#.#.+.{ 6.t.$.$.e.6.#.e.4.} 6.#.+.e.$.#.+.@.#.#.#.@.#.@.#.6.7.$.7.t.#.+.@.#.#.@.+._ +.7.$.#.7.7.t.t.7._ 4.t.e.+.} | | _ | 6.7.@.@.#.#.@.5.4.| { <.<.<.| 6.q.+._ +.| +.` 6.6.+.+.4.R _ | @.+.| _ ..| | o.+.| | | 4.+.o.4.+.| #.+.+...@.| 1._ R { +.| 1.4.+.+...Q _ | ....[ R ) ) ) } ..o.| +.@.{ +...{ Q Q ) ) [ { | 4._ _ o.+.] | o.{ _ _ W U _ } W W R R Q { _ ( ( _ { { } } _ _ _ ) Q R R _ _ Q S v Q ( R ) R T _ Q U U R Q E B B A V B U W W S x x S U U V x f l l f V V x f f x z b c S U b z V l x F F z S x S S c U x x S z x V V x F x x F V l l B y y l x V M n B B ",
"E E U V U U W S c S ) T R W W W W ) { { { { ( _ { { } ( W W W W ) ( | | ( ( _ ` | | @.+.+.+.{ R } { { | | } | | ..| | | +.@.@.{ +.@.6.....+.6.+.+.4.{ { 6.@.@.6.#.6.@.@.| ( ..6...} _ } } | 7.7.#.#.#.#.#.#.#.7.6.| _ { { ..6.q.+.` 6.7.#.$.#.$.$.7..._ ..@.@.6.+.+.+.$.$.@.+.+.#.#.+.#.@.#.#.+.+.+.@.#.+.#..._ +.#.+.#.#.#.+.#.{ _ | #.] { ` | _ _ | +.O.O.+.+.+.@.@.7.@.| _ } } _ ..e.4.} | 7.@.#.#.6.6.#.@.` | #.+.$.$.$.@.@.#.t.q.$.t.t.q.t.t.t.#.@.#.t.#.@.+.+.7.+.| 7.$.$.$.*.*.$.@.@.` #.t.$.| } <.| +.7.t.q.$.t.$.@.#.q.t.t.4.} | } | +.6.7.| +.$.*.$.$.7.#.7.p.....t.t.#.6.$.7.7.t.t.$.#.t.t.t.t.t.t.t.t.u.t.e.7.7.e.t.4...7.t.e.t.t.7.e.#.+.+.7.e.$...<.1.<.| 7.t.t.7.7.#.7.7.t.t.6.+.4.4.....#.7.6.| 6.t.$.7.t.7.7.e.6...@.e.#.@.e.+.+.#.$.#.e.#.7.#.#.$.e.7.7.#.+.@.6.7.7.6.+._ +.7.#.$.t.7.t.t.6.[ 6.t.7.| | } } | 7.7.$.#.#.@.#.@.6.6.4.[ } <.1.} +.7.+._ +.+.+.+.6.4.+.+.7.) _ | 4.4...| 6.+.+.+.6.....| 4.+...| ..@.7.@.+.| +.+.4.} _ +.@.+.7.4.o.@.+._ } | | _ R R _ ( _ ..4.| { | | +.+.+...} ) ) ) Q } 4.4.[ ( | +.] | | { _ _ W E _ { _ } ) W ) _ Q W _ | } [ _ _ Q R R Q W W W T T U U K _ _ R R ( R ( K c b _ _ S M B Z V S ) R U U S S U c U T U x B f l l B V x l x c T U U b V S B l S S S F S V S c S V z c S V V x B Z V V V F F x x V M f B x S V F B V ",
"U U V V U U U W S c Q U W W S S ( } ` _ { Q ( Q _ } _ Q _ R W S W ) _ | Q R { _ ` | | @.+.] ' T _ | | | o.| | { { { +...| @.+.{ { +.7.6.4.5.6.6.@.| } | 4.#.@.+.#.+.@.6.} _ 4.o.{ } _ ) { 4.6.#.@.@.#.@.+.#.+.+.#.@.{ _ { { +.7.+.| 4.$.@.@.#.#.+.$.4.{ { @.@.6.6.+.o.#.7.@.+.@.@.@.#.@.+.+.@.+.+.+.+.+.@.@.{ { +.+.+.#.+.@.$.+.| ( +.@._ _ R _ ( ] ..| ` +.+.+.+.+.O.o.+.@.` ` ( } { #.6.` } +.@.@.+.6.@.#.@.} } 4...+.#.$.+.O.#.7.$.$.7.7.t.t.7.7.#.6.@.#.#.#.@.7.t...` 7.e.#.@.$.#.$.O.#.{ +.t.+.{ 1.[ | 7.t.%.t.%.q.$.$.+.#.q.7.7.4.{ | | | 6.7.{ #.$.#.$.#.@.7.7.r.| ..t.t.t.t.#.#.t.7.#.7.7.7.t.t.t.7.t.t.t.t.t.7.6.7.7.7.4.| 7.t.e.7.t.t.6.#.+.` #.e...} <.} | 7.t.7.q.t.e.@.#.7.$.7.t.6...| ..| 6.7.+.| @.#.$.q.7.7.7.#.6.| 6.7. .+.+.#.$.+.@.7.#.t.#.#.$.@.#.$.#.+.@.7.7.@.7.7.| _ 4.@.$.#.7.7.t.#.4.( 6.7.+.| +._ { 7.7.#.#.#.@.+.@.$.6.+.4.4.| [ <.} { 7.4._ 4.{ +.@.4.| | +.4._ _ | { | 4.+.| @.4.@.| ..6.4.+.} ..} | @.#.6.| } | +.| ( } | +.+.+...` +.4.{ Q 1.| W ) ) W ( ..+.| } _ } ..| | +.+...| Q Q Q R ..4.R _ | ] ] o.| _ ` { W U Q Q { _ _ } R T T Q { } { Q R W Q ( W Q _ ) R H b W U H _ _ K T R ( R K c k Q R c x V l S W W T b H T b c U H c T U B l f h V x x h V c S U S l l B l f B U V S F V x S c x c x V S V f l B V z S F M f B B f B S c z B V B B ",
"E E S U W U W _ T S ) ( T W U W { { ` ( Q _ _ T ( _ _ _ { { } R W ( { | _ Q _ ` ` | | | ] O.{ R _ { ` | 4.@.+.| | | +.+.+...+.| +.+.@.+.| 6.4.| +.4.| +.4.#.+.@.6.@.#.7.| } 6.4.| _ _ | 4.+.+.@.#.#.#.$.$.#.+.] +.$.4.{ { } +.7.6.#.6.7.@.@.#.#.+.$.6.{ | 6.@.+.+.+.@.@.@.#.$.$.@.#.$.+.] +.6.@.#.#.| +.#.6.| | @.+.#.#.+.@.+.@.+._ | 6.` { R R } #.+.+.] +.+.#.@.#.] ` | +.@..._ } | @.7.` } ..+.@.@.6.+.@.7.| } @.] +.+.7.$.$.@.#.q.t.#.6.7.t.t.7.7.7.#.6.7.7.7.t.t.+.| 7.e.#.@.$.$.$.@.6.` +.t.| | ....7.$.e.#.t.$.$.%.t.#.@.@.7.t.p.4.<.} ..e.r.| 7.7.$.$.$.#.7.e.t...+.7.t.t.q.+.#.7.7.7.t.e.7.t.t.t.t.t.t.t.t.t.t.7.e.7.7.6.4.t.a.t.t.p.t.t.t.6.| 7.e.+.| 1.<.7.t.t.q.t.t.t.6.7.7.q.7.t.t.6...| | $.t.+.] #.7.7.7.7.#.$.7.6.| @.+...+.#.$.$.@.$.$.7.7.7.$.$.#.#.#.#.@.7.t.7.@.#.@.+.' 5.#.$.$.7.7.7.7.6.| 7.#.7.| | { 6.e.$.7.7.#.#.#.7.6.7.4.#.7.6.} } } ..7.4.| @.+.@.#.@.| | @.6._ } | | { 4.@.+.6.+.| +.4.4.4.{ } ..| +.| 6.6.| | ..| .._ | +.@.+.{ } | +.4.{ _ 4...( ) ) R | @.+.| ` ' { ....| | | @.+._ ) Q ) | <.R _ ..| | +.| ` ` } Q U _ ( R } } _ ( T R } } _ ) _ ) W R Q Q _ { } _ T U ) T K ` _ K R _ R _ ( b c Q R c c S x U T U U H H R U S c b b b c l l l x S c x S U b c x l l S V f f B S U S U S S S S c b c V U S f l B F x V B f f B Z M l V x x V F B V ",
"U U W U U W ) Q c U _ R W b U ) { _ _ _ { } } _ _ Q { _ _ { .._ R T _ { R T { ` _ ' ` _ ` ` ` R _ _ | ..o.+...| ..| | +.+.{ +...| @.+.` | o...' | 4.{ | 7.o.+.@.@.@.@.7.| _ 4.@.{ ) _ 4.#.+.| { +.#.+.#.7.+.+.@.#.$.#.| _ { +.7.@.+.7.#.@.$.@.#.@.#.@.` ..6...+.#.#.@.@.@.#.#.#.6.#.+.] | +.@.@.#.+.]  .#.#.| ` #.#.+.+.| | | @.| ( { #...` ( R | ..| +.] ] +.@.@.+.+.+.{ ] +.+._ ( ' @.+.( _ +.| | +.+.+.+.6.{ { +.+.+.] +.%.t.$.q.7.$.@.#.+.#.$.7.#.7.7.7.@.7.t.#.t.| ` 7.@.#.+.@.$.@.$.@._ ] #.] ` | 7.t.#.+.@.#.q.%.$.%.7.#.+.@.7.t.6.| { ..t.7.` @.t.*.+.#.#.#.e.t.| { 7.7.#.7.@.+.7.t.$.7.7.e.7.7.t.t.t.7.$.t.t.a.t.$.t.7.+.7.s.t.t.a.t.7.t.t.@.+.6.7.+.{ | 6.t.7.7.7.7.6.t.q.7.#.7.t.$.t.t.6.{ _ @.t.+.` #.7.+.#.#.+.#.7..._ | 7.7.#.#.+.@.$.$.@.+.+.$.#.#.#.#.+.#.t.t.#.#.@.+.@.+._ +.7.$.#.7.@.7.7.4.} $.t.+.| { 6.t.#.#.#.#.@.@.#.#.@.4.#.6.@.6.4.| _ | 7...` 6.@.+.+.+.{ | +.4._ _ 4.{ { | 6.+.+.+.| | ..| { } } { 4.+.| +.@.+.| +.| | ( _ 4.+.{ 4.| ..{ } _ _ | | _ R W } ....| +.| ..| { ..| ` } | | | ) W R { } W R | | | | ` _ _ [ E W _ R T ( _ R R R _ { ` _ _ } ) W U R _ Q { } R T Q Q U H _ R K T ( L L ( c x T R c x S W U b U b H b H T b x z S b c S l f l c V x S S c x l c x S B t f C x S V S W W U U z x V S S x l M M x V V B Z f f V f f x x V x V B x ",
"S E Q E W W _ W x U } Q T U R } { _ _ _ | { | } { _ } _ _ _ { { _ Q _ { R R } ` ` ` ` ` ` _ R R _ { +.+.+.+.| | +.| | +.+.| 4.+.| +.+.| @.4.| ' +.6.} | 6.@.#.+.6.6.6.6.{ } 7.@._ { 4.7.$.+.| | +.@.@.7.7.@.@.7.t.$.q.6.{ } +.t.@.] #.$.#.$.#.6.@.#.+.` +.7.+.@.e.e.#.#.7.@.@.7.6.#...] +.6.@.#.@.@.| +.7.6.| { @.#.+.| o.@.o...} ( | 7.| R R | ..] ` | ` ..+.@.+.+.@.6.| +.+.@.| ( _ 7.6._ | @.| +.+.+.@.#.+.) } @.#.#.+.+.@.*.t.t.q.#.#.6.7.#.@.7.#.#.7.#.#.7.$.$.t...' 6.7.$.#.+.$.$.O.@.` O.6.' { 6.t.t.#.@.+.+.$.t.$.%.q.t.#.7.#.7.7.+.| +.t.e.' @.t.t.$.7.#.7.e.e.| | 7.7.$.t.7.@.7.t.t.t.q.t.7.7.t.i.t.7.6.t.i.y.t.t.t.t.@.7.s.t.t.t.t.t.t.a.6.+.e.e...| +.t.t.#.@.@.7.7.7.t.7.#.7.&.t.t.$.7.+.{ +.7.@...7.#.@.+.@.#.#.#.| ( | e.e.$.$.@.#.$.e.@.|  .#.#.#.$.$.#.#.7.q.#.7.+.+.6.4.{ +.$.$.$.7.#.7.7.7.| 7.#.` ..7.t.*.$.7.#.@.@.7.+.7.@.6.6.7.@.@.7.4.} } 4.4.` 6.4.@.+.| ..#.4.4.( _ ..{ { 4.| +.6.#.| { +.4.| 4.+.+.#.@.| | | 4.4.@.+.| _ } 4.o.| 4.+.6.| | ( _ 4...R R [ ....+.| +...+...| ..{ _ } { ..+.| Q W } <.R ( | o.| | ` ` ` { W E _ _ R Q ( R R ` } _ _ { { } _ R W Q ( _ [ { Q Q _ _ T H _ _ ( R R ( _ R c c R R c S Q T U H U U U b U H b c S S U U W S V h V S f V E c k U W b U V y M V x S S W U U b S S V x S V B B Z l V V c F F l x F f f V V S V B B B ",
"V V U W ) E S S l F _ _ ( Q } { ` _ W Q { { { Q { { _ ` _ R _ ` | ` _ } Q T ( ` ] / ` ` _ L ( H ( | | +.| ` | | | | | } { 4.+.+.6.+.@.+.+.+.@.4.+.5.| { | +.@.@.6.7.6.+.} { 6.6.` +.t.#.@.+.@.@.+.| @.6.+.] 6.q.$.$.7.q.+._ ` 7.+.` +.#.+.+.7.#.O.+.+._ ..6.#.7.#.#.$.@.#.7.@.+.+.+.+.@.@.@.#.#.+...+.6.@.6.+.| +...+.+.+.#.@.| { _ ' @.] _ ` +.` ] ` | ` | @.+.+.@.O.@.#.#.] @.| _ +.#.@.` | +.@.@.| +.+.@.| Q } 6.+.#.#.+.+.#.7.t.$.+.#.e.6.6.@.#.@.+.+.7.$.#.#.&.7.| { +.7.7.#.$.#.+.] +.( X.#.` @.t.#.#.7.6...+.#.7.7.7.#.7.t.t.$.*.t.7.7.7.e.6.` +.7.7.$.#.#.t.7.4.{ ..6.e.7.7.7.7.#.7.t.t.t.t.t.i.y.t.t.7.7.e.t.t.t.t.t.a.6.6.p.a.t.7.q.t.a.7.@.| 7.t.....7.e.7.7.#.+.e.t.#.7.e.@.#.e.e.$.#.+.e.6.+.7.@.` $.t.+.+.+.@.#...{ ( ..#.@.$.$.#.+.#.@.#.#.o.+.#.7.#.7.+.+.+.#.$.#.@.7.@.+.` 4.@.+.q.$.7.t.6.4.| @.+.+.O.t.7.$.$.#.+.@.+.+.@.@.7.7.4.+.| 4.| 4.| _ ..4._ | 4.6.| +.| @.6.| R _ { ..| | +.4.4.4.| +.4.+.7.@.| @.o.4.| ` } 4.@.| +.4._ _ } { ..| +.4.+.} ( ( 4...R ( ..+.| +.+.| { { +.+.| { _ } ' ' | ..{ { } } W _ } { { { _ _ { _ U S R _ ( T U R Q _ _ W T _ { Q _ ) R W ( } _ Q _ _ R { W c R ' ( R R ' ( b c c K W U b W U H R H c U K H b U b V c U H U W U x c z w l S c b c S U S z l f V V c W U S b b c c x l l B V x B S V x V z Z B x B y t B S l V U V V ",
"x l U Q E S x F S S ) _ _ _ } ( ( R Q R _ ( ( Q _ _ } { ( R _ ` ..{ { | ( T ( _ ` | | ` ( R ` K _ +.+.| | o.@.+.| #..._ { | 4.4.+.+.6.#.@.+.#.@.4.7.| { | { @.7.7.6.| +.| { @.7.#.7.q.7.#.@.#.@.+.+.#.#.| | 7.q.7.7.q.q.7.| +.t.@.| 4.@.+.#.#.#.] #.4.` ..6.$.$.6.6.#.#.6.7.#.| | @.#.7.#.6.$.7.@.+.#.6.@.7.| } | ' | #.#.+.| ' ..{ ` @.O.+.@.+.] ..| | +.+.+.#.+.#.+.#.#.+.+.#.+.+.#.7.+.| { | +.@.#.6.+.` +._ } 6.#.#.#.@.+.#.+.6.#.#.#.t.7.e.7.#.+.+.@.7.#.t.7.t.$.+.} +.+.7.7.7.7.] ] @.( +.7.+.q.t.$.7.#.#.6.$.+.6.$.#.7.7.$.t.*.t.7.7.t.e.$.6.} 4.+.$.t.t.7.t.6.+.| +.7.t.7.7.7.7.7.e.7.e.e.e.t.t.t.7.7.t.t.t.t.t.y.t.t.t.7.7.e.7.t.p.p.t.t.4.....6.7.$.t.t.7.e.t.7.7.t.t.t.t.t.$.#.7.#.7.#.#.7.7.7.t.4.' +.@.+.7.7.@.+.| | ' ..#.#.#.6.+.+.@.#.#.e.+.+.7.$.7.7.+.o.@.7.$.7.7.7.7.+._ 5.| O.q.q.7.7.@...| @.7.#.+.e.#.7.+.+.+.6.@.@.+.+.@.6.+.| +.o.o.6.@.| 4.4.` ..| +.@.7.+.6...[ ) } | +.+.4.4.7.4.} } +.| | { 4.4.+.4.6.| } | 4.@...+.4.) R Q _ | 4.6.4.{ } { _ +.| ' ..+...| +...| { | ..| { ..| | | ....@.@...| } R _ | R R | { ` _ R U U R Q R T T R Q Q T U R { { _ ) _ ( R _ { _ _ { ` _ } R b W ( _ _ ` _ H c b c U _ R U W U U H U S U U H R R U U U b b U U U U U z e l x c U c V c c U V l B c S W W U U b U V S x l x V B B F V V S B Z V V V f y l V S S F x l ",
"B l x F S l F W x V ) T T R ( ( R W ( R R R ) Q W ( { } ( R } _ ' { | { R T _ R R _ ' R ( _ _ H { o.| ` { | +.+.+.+...{ _ } ..| @.@.+.@.5.+.+.4.6.6.{ _ 4.} | 4.4.{ | 4.} } 7.$.#.7.#.#.$.#.+.+.@.+.@.@.{ | @.7.7.7.$.#.#.7.@.7.6.` +.+.| @.4.| ` #.+._ +.@.+.7.7.6.+.#.6.6.7.+...6.6.#.7.7.7.#.#.#.@.@.6.4.{ _ ...._ ' ..' _ | { _ ` +.] +.@.X.] +.+.@.] +.| #.#.#.#.#.O.@.| ] +.$.+.@.| _ | | ` | +.+.{ | 5._ ( @.#.@.+.+.+.+.7.7.@.7.#.@.$.t.#.+...#.@.@.7.7.7.#.$.| { 6.....+.#.` ..] | R +.@.#.#.$.7.%.#.e.@.#.#.@.@.#.@.#.6.$.$.$.#.+.6.+.#.7.` | 6...@.t.t.6...4...| e.t.7.7.#.7.e.7.7.$.#.7.7.7.7.7.t.t.t.t.t.t.t.t.t.7.4.7.0.4.6.a.a.7.+.#.4.| @.7.$.t.t.t.7.6.t.7.7.t.i.t.7.#.#.@.$.#.7.+.@.7.$.#.| ` | +.] | 7.+.` | | ( ] 7.#.+.+.@.#...+.#.#.#.#.#.7.$.+.+.@.6.#.@.7.7.@.7..._ 5.5.` @.q.7.+.| 4.` @.t.+.@.+.$.$.@.@.+.o.@.+.| +.@.4.+.4.| +.+.o.+.4.4.| _ 4.} } ..6.6.| } <.) ) ..+.+.7.4...} | } | } +.| ..| 4.@.4.| { | +.+.@.+.} R R [ _ R | 4.} _ | { Q | ..| +.| { | | +.+.| ` { | { | | ' | @.+.| | | .._ U _ { R b _ | _ K W W b T ( T R R U R _ W ) [ ~ _ { Q W Q _ { { Q _ } ( { { U c Y R K R ` L k H U h H Q Q T U T H U W b b S U K U W W b c c S c U b c V y f V h h c c l c S B l B f x S U W W U S V V x B l l l V B V V z V F V x l M y l f S V l f l ",
"F B B B S V R Q c V ) W U U R ( ( ( _ R W Q _ ( Q ) { _ { _ } ` ` { { | T W } _ _ T ( R | ` _ H } | _ _ { { ..+.+.+.4.| } <.+.+.@.@.4.6.6.+...6.6.6.} } 7.@.{ { +.@.6.6.| | 6.#.+.#.7.7.#.@.+.@.#.+.@.#.#.6.6.7.q.7.#.@.7.7.$.7.+.{ 6.#.....| | | t.+.( ..#.#.7.7.#.+.6.7.7.7.6.6.7.#.#.$.#.#.7.#.#.@.#.@.+.} _ 6.6.` } { | ` #.| _ _ @.O.+.+.+.] ` #.#.+...] +.#.6.+.+.+.#.+.+.@.#. .@.| _ +.+.` | } } ` @.#.} _ +.+.+.#.7.@.$.t.7.#.$.#.7.7.6.@.+.+.7.@.7.t.e.#.O.#.+.{ 7.#.+.} ....7.O.] _ | #.t.7.q.#.7.t.t.7.7.7.7.#.7.$.#.$.t.#.$.#.@.+...#.7.{ +.t.| | e.e...+.r.....7.e.7.7.7.7.e.7.#.#.$.t.e.7.7.t.t.t.t.t.t.t.t.*.t.7.4.7.t.7.4.7.t.6.+.t.7.] #.t.$.$.t.t.t.t.t.t.7.7.t.t.t.7.6.7.e.7.7.#.@.+.+.$..._ +.e.+.' ..| +.6.6._ ..7.#.+.@.e.$.+.+.#.#.$.$.#.7.#.#.@.7.7.$.#.7.7.7.@.| ` 5.t.+.+.7.4.| @.7.` 6.$.#.+.+.#.7.7.7.@.@.7.+.+.7.+.4.4.@.4.+...4.@.6.7.<.( 4.4.| ( 4.4.| | 6._ ( ..+.4.4.} [ } 4.4.| +.7.4.| ..7.6.4...| 4.4.+.#...| ) R 4.4.Q _ } ( { 6.} R | +.+.+...} ' | +.@...{ | ..| | | { { | ` ..| | | _ T ( } { W Q { R T } R b R ( R _ ( R R _ _ } { ( _ _ Q ) ) Q _ _ ! } } _ ` _ b c Q _ H U _ R K R U h b Q ( U U R U W W U H U R R R U S V S S S b U c z V l B F h l x V x U U S V V l l V E S S x x x B V Z B f B U F S V V V F B l l M M A f l l B f A ",
"V U S l S U E W x V W W Q U T U ) ( Q _ _ Q ( ( R _ Q T _ { _ { } _ ` } T W { | ..R T } ' ` ` U ( { { { | { ` | +.| { | 4.4.@.+.+.@.6.4.4.| | ..@.4.{ { 7.#.| { @.7.+.4..._ +.+.#.#.@.6.@.+.@.+.+.@.$.$.q.7.$.7.7.#.#.#.@.#.#.@.{ ` 4.6.#.` ( | +.7.+.R | 4.$.6.4.#.@.@.6.6.@.6.7.7.@.+.@.6.#.#.@.4.6.@.@.4.{ _ +.@.+.` R | +.@.4.R _ +. .X.@.@.] ` ] +.+.] ] +...+.+.@.+.| +.@.+.| +.6.{ ( +.@.@.| ( _ +.+.+.{ _ +.+.#.#.$.#.#.#.7.$.#.@.7.@.@.+.#.@.@.7.q.q.#.+.+.@.| ' +.7.7.{ { 7.@.O.+.( ` #.e.7.7.+.@.7.7.t.t.#.@.7.t.$.7.$.$.q.7.#.+.#.$.#.4.} | t.7.] 4...+.6.7...` 4.#.@.7.e.7.7.e.#.@.7.t.t.t.t.7.t.u.t.t.t.t.7.t.t.6.4.4.t.a.7.6.4.+.7.q.4.| #.&.$.#.#.7.t.t.7.7.#.$.7.$.#.$.7.$.t.t.#.+.+.+.#.#...R ..t.7.| R { 6.@.+.{ ` +.+.#.$.#.7.$.+.+.7.#.6.#.#.+.#.#.6.@.$.$.7.6.#.@.+.` 4.7.@.5.+.| 6.7.4.} +.6.#.@.6.+.@.#.6.7.7.@.7.+.4.6.4.| 4.+...4.7.4.4.+.} Q | 7...{ } { +.+.+._ _ | | | | _ [ <.4.+.} +.6.4.o.+.6.6.| { 4.+.4.+.+.+.1.R W 4.+...| R } | | { R } +.+.+.| _ _ ..| +.| | { { | ..} ` ` { { | | { { _ U ( [ { { Q U R _ _ W U R _ R R _ _ Q R _ _ _ [ Q Q _ Q R R W ) } [ { _ R Q b S } } R R T H R R S c c W R b U R R U U U H R W R T c V x V U V F V c c x h x V b x f l x U E x V Z f B B S U B x B M M B V V V F U U F x c V B f l d y M Z x f t l B B ",
"V W W F E U W U x S Q Q _ Q R R Q _ _ { } _ } R ( | R H ) { _ } { _ { | R Q _ } { _ } +.' ' | K R | { | 4.| ..+.+...| +.6.+.| | @.@.6.@.+.{ ..| +.5.} | 6.| @.7.6.@.| +...[ ..@.$.#.6.@.+.@.#.@.+.$.t.q.7.7.t.7.@.@.@.@.+.@.+.+...} { +.7.+.} 4.@.#...( ..+...@.+.#.6.4.+.6.6.7.6.4.+.@.@.7.#.@.@.6.6.@.@.6.| } +.+.+.@.| @.@...| ( ' @.+.] +.#.+.+.' +.+.+.+.@.| +.+.#.+.+.#.#...] @.7.| _ | +.+.+.` | $.+.` } } @.#.t.#.7.t.#.#.6.#.7.6.7.6.6.@.#.@.6.7.7.e.@.+.$.#.| ` +.#.7.+.+.e.+.] @.` | 7.7.+.+.+.6.@.6.q.t.@.o.+.7.t.t.t.t.t.t.$.@.7.t.$.7...+.e.t.@...4.a.t.6...| 6.#.+.6.7.7.t.e.$.7.#.7.t.t.7.7.e.t.t.t.t.t.t.t.t.7.4.4.7.a.t.4...7.t.6.....$.t.$.@.+.6.7.t.7.#.7.t.e.7.#.$.e.$.e.e.@.@.6.#.@.@.+.` +.7.#.+.{ ..6.@.@.' ] #.+.#.e.#.#.@.+.#.$.#.6.@.#.#.7.$.7.$.7.$.7.@.#.#.6.{ 6.+.@.7.@.4.t.5.4._ @.7.+.6.6.@.@.+.@.6.7.6.4.| +.@.@.4.4.+.7.4.7.4.| ..<._ 2.4.+.4.| } 6.4.4.{ _ { ..| 4.} | } 4.4.4.6.4...+.4.4.+.| | 6.@.4.@.+...| [ ) | | | 4.| 6.o.+._ R | +.| { { } } ..+.+.+.+.| | ..| _ ( } 4.o.| | { ` _ T _ _ ` ` { W ` { R Q R Q { ` _ _ _ Q _ Q _ { Q _ _ ( E W Q R _ } { { ( R _ U U { { { ( H H _ R S c c ) R U W R T R W U U R W b b b U V S U U U S b U z x l F U c l x S U S c V U S F V F V V S F B M m Z B x F U V V V V V B l l f m f V F B f B F x ",
"B B U Q Q V x U S z W Q Q _ _ R W Q _ R _ { _ { { _ ( T R ( ( } { { ' | T ) _ R _ _ { } ( _ } U ( _ { { | +.+.| | | 4.4...| | | +.+.@.+...| | o.4.4._ | 6._ ] q.@.` { ..} ( +.6.@.6.7.+.+.+.+.@.%.t.7.{ _ #.7.#.7.6.@.@.@.@.@.5.{ { +.` | 6.6.4.` +...( | | ] +.6.6.+.4.+.@.7.6.| | +.6.6.@.@.@.@.6.@.4.@.4..._ @.| / #.7.+.` ' ..` ` @.]  .] +.#.+.] ` { +.+.+.@.+.| +.#.$.7.+.] +.+.@.+.( ` ..` +.+.@.+.] ` .._ @.7.$.q.7.#.#.@.@.@.7.6.+.+.7.7.#.#.@.#.6.@.$.#.+.7.+.' +.] +.@.@.@.' ] #.` | 7.+...@.6.6.7.7.+.@.q.7.+.+.#.t.t.t.q.q.@.$.7.#.$.t.+.+.+.#.#.7.t.t.#.@.+.| 5.7.#.@.#.e.t.7.$.#.#.7.#.#.t.t.7.6.7.t.t.t.t.$.t.7.+.4.4.4.7.6.6.t.7...+.+.#.t.$.q.7.#.#.$.$.+.t.y.7.#.7.#.#.t.#.#.$.$.$.+.@.7.+.( | @.` { 6.4.{ | +.` | @.+. .#.#.+.+.@.+.#.7.@.| +.6.#.@.7.$.#.#.#.@.7.@.+.| 6.+.] 5.7.6.@.+.4._ 4.@.6.@.@.@.4.+.+.+.#.6.+.+.@.o.4.+.+.4.7.4.1.| ..} 4.Q <.| ` | 4.4.4.{ | { ( ..4.{ | ..| { | +.6.4.| { { +.5.| ..| o.@.4.+.+.{ | } } 4.` ( +.4.` +.+._ R } | | | { +.| { ] +.+.| _ | { } ( _ | | +.+.| ` { { T R _ ( Q Q _ _ T T Q H R { { _ R Q _ _ Q Q Q _ _ R R Q W W ) R { { _ R { ! U U R Q { _ ( K R R c c U W W U U W U T T b b U U U U E W S x V U E U b U U x l x x S U E U U z x S U S U V B B S V V V Z M f M B B B V S z V l B x l M f y l Z z V V l f ",
"B l F Q W V x U U c W _ Q _ _ Q _ _ Q T Q R Q { { { } T ( R _ _ | { } ..T _ _ R [ _ ) ) ( ' } T ( { | { { | | { ..+.1.} } { <.+.@.+.+.+.6.4.4.#.7.6.' | 6.' } 7.+.' { 4.| ) 4.7.#.7.7.@.@.@.6.7.t.7.@.| | 4.t.q.q.t.7.7.q.$.q.t...+.6.` _ @.6...` +.+.) } ....#.t.7.6.6.#.7.7.4.| } <.6.7.7.@.@.#.6.@.6.6.5.| { 6...` | +.+.| ' 4.| ` 7.+...] +.X.+.+.| | +.+.+.+.+.+.+...#.@.+.+.#.+.@.+._ | | ` ] +.$.+._ | +._ @.#.7.7.7.7.6.@.6.6.6.+.| | +.6.+.+.+.7.7.6.t.#.6.7.| { +.] ....6...` ] #.` | @.+.#.e.6.#.t.7.+.+.t.t.7.#.+.#.7.t.$.#.#.q.7.#.7.t.+.+...+.+.t.t.+.| 6.#.+.7.t.#.#.6.#.#.7.#.7.7.#.+.4.e.s.t.7.t.t.t.t.t.%.t.7.+.4.6.+.+.6.a.t.+...6.@.#.t.$.t.t.t.t.7.#.$.t.q.@.7.t.#.7.$.#.7.e.#.$.#.7.6.| ( | ..` ' #.6.' ' +.` ..+...+.$.+.o.+.#.@.7.#.+.| | @.7.$.7.#.#.7.#.7.t.6.+.| 7.+.} 7.p.4.{ +.6.| 5.7.t.#.6.6.@.+.4.| 7.6.+.#.6.4.4.4.4.6.4.| } | 4.| 4._ | 4._ } 7.4.{ ( <.{ { 4.4.....4.1.1.4.} 4.1.} [ | | 5.@.6.+.4.+.4.4.+.| 4.| | +.} ( ..4.} } | { { | ..+.@.+.4.+.{ ] +.+.` R ' ..| _ | | | ..+.| _ { } W R _ R W { { ( S U _ R R { ` L R _ Q { _ Y Q } ) U W [ ) Q _ ( { | ` _ ` ` U U W R W _ _ H U U U U W R R U U W T R R U S S U T R T W U S B A F V x F S V l l l V S W z z B x S W S V x x B S V S E U B n M A B V V U V F B B l B F M f B l B l B d f ",
"B l f A S l V S S S W W Q R Q Q { { U T } Q R W } { Q ( _ ( ( _ { } ` { R W [ R ) _ Q W _ { } U Q | ` | | { { { | 4.[ R [ [ [ } 4.4.@.5.4.5.7.@.@.6.` { +.{ { | } } | | | _ | 7.q.#.6.7.@.@.7.6.@.+.6.7.4.6.7.q.q.q.t.7.$.q.$.7.+.` 5...{ | ..} { 4.| ( ..@.] #.7.7.e.#.#.7.6.<.<.2.} | 7.7.@.+.@.6.6.@.6.5.{ ` 4..._ ( _ | _ | | } | #.#.+.+.+.] +.o.o...| +.| | ..+.+.| | | @.+.+.+.@.+.R ` ..' _ { +.` ` | { } @.+.$.$.q.7.6.@.7.7.o.| 4.4.| | 4.| 4.6.6.7.7.7.7.4._ _ ...._ } ..{ | ` | { ` @.7.6.6.#.#.7.7.@.@.#.$.t.t.#.6.#.$.#.@.+.@.e.$.7.6.` +.6.+.{ 6.7.+.| 7.@.] 7.7.$.e.#.#.#.#.@.7.#.+...4.4.0.a.t.7.7.t.t.t.t.*.$...4.6...| ..7.6.| +.6.] #.t.*.$.&.t.t.$.$.#.t.6.| 6.t.#.#.e.7.#.#.#.7.t.6.+.} _ { | } ( | +.` ..+.` ] #.+.@.#.@.+.+.+.7.6.| { | } ' #.#.@.+.#.@.$.7.7.7.+.' 6.+.} 4.7.+.{ 4.4.{ +.t.t.t.$.@.6.+.+.+.+.6.+.+.@.4.6.+.4.4.4.} } 4.| 4.<.( 1.| ) _ <...( _ 1.{ _ o.+.@.+.| 4.| | 4.4.{ [ } _ [ <.5.6.+.+.4.+.| @.+.| } _ } } ( _ | _ ( ..{ ( ..@.| | @.+.+.+.] ..| { _ } | { } } { +.| | { ` { _ U ( ) U U _ _ U c R _ K R _ T R Q R Q _ Q Q ) Q W E U U ) { R Q { { ` R ` ` H U Q U U U T U c b R H T ) U U W U T T T U b c U W T U U W V l x x V c F Z h l V x h l l f x V h V E c h x V B B V S V Z d y m B Z Z B V F F V B l c S M f f f f d d y B ",
"B l l f B x S U S S W W _ Q { _ _ R W R } { ( T _ } { ( _ ( Q ` } ` } } R ) } ) Q ) Q W _ | 1.W ( } { { | | +.o.4.1._ ) ,.,._ _ | 4.4.+.4.6.7.6.6.6.{ | @.| { } _ } | | 1._ { #.@.7.7.7.7.@.+.+.+.#.7.6.@.6.7.$.t.t.t.q.q.%.$.7.| ] 7.+.{ | | } { @..._ +.@.@.@.@.#.#.7.7.7.4.<.1.4.<.| 4.7.#.@.@.5.6.6.+.4.o.{ 4.} ( _ [ } _ } | } ' @.+.+.#.@.+.+.+.#.+...` ] ..7.+.@.+.| +.#.+.+.@.#.+._ ' +.` ' _ } { | +.| { @.#.7.#.7.7.7.7.7.6...4.6.4.4.| 6.6.7.@.7.7.7.+.@.+.` } | ' ( ) } { +.` ..` ` 6.t.7.7.6.@.5.7.7.7.#.7.7.$.q.t.6.#.#.@.+.6.e.7.7.@.` @.e.4.} 1.4.+.+.7.6.| 7.7.$.e.7.$.+.#.$.$.#.| +.6.4.4.7.t.t.t.t.y.t.$.t.q.+.6.7.4.....4.+.| 4.6.| #.t.*.t.t.7.$.#.7.7.t.6.@.6.7.@.#.t.q.7.$.$.6.@.@.+.{ _ { ..} ( } | ` +.+.' ..#.$.$.#.$.#.+.#.@.| ' } ..| { @.$.#.#.7.$.t.7.7.7.+.` 6.@.| { +...| 4.6.{ 6.7.#.@.+.6.7.@.@.+.+.+.+.+.6.@.4.+.4.6.6.+.4.4.4.4.<._ 4.<._ ) } } { } ..{ { 4.4.+.@.+.6.+.4.6.4._ [ | } [ } | 6.5.@.+.+...@.@.| _ _ } | _ [ | _ ( | } { | +.| | | +.@.@.| | | +.| | { +.| | | | | { { | { _ T ) _ T S R Q U S ( [ W R Q U R R _ _ R R _ W U W W U F Q _ Q _ { { } _ ` { U W _ W U c S U b S W U W W U T W U W R U U U U T U U U E U F B x V U U W S x V E c l f f f S V f x W S x S F B B F U B m y m B f Z E x Z U U M M V U B y y f f M d y y l ",
"f M M d f l l E S l U W Q { } _ R W _ W Q { { T U _ _ W W W _ _ { _ _ } U ) } Q W E ) W W [ <.W R } } _ { +.| +.4.{ _ } } } <.[ } | 4.| +.+.@.6.6.+.` | +.{ } _ ( ) ( | | ( { +.@.#.7.6.@.@.o.+.6.7.@.@.@.@.#.#.7.7.6.7.6.@.7.4.{ +.6.| { { } } ` +.+._ { @.@.@.+.@.@.7.6.+.| 1.<.| 4...| 4.6.#.+.4.@.+.@.4.| { +._ _ | _ _ _ ( } [ _ +.+.@.+.@.@.@.#.+.+...` | @.+.7.#.+.@.o.| ..+.+.+.@.` ' | ` _ ( } _ | 6.} | 7.7.7.7.$.#.7.q.6.| 4.4.+.4.4.3.{ 4.e.5.7.#.@...@.4.` | | } } ( } { ' ' +.` ' 6.6.7.7.#.7.7.q.7.7.7.t.#.7.$.7.7.e.@.7.6.@.6.#.7.6.| +.6..._ | | 4.| +.6.| @.7.@.$.7.#.#.$.t.#...+.4.4.4.4.| 6.t.t.t.t.7.%.t.7.+.4.7.6...| | ....+.4.| @.#.#.7.7.6.@.7.7.#.$.e.7.6.6.@.#.6.7.7.q.#.+.+.#.6.| _ ..| ` _ ( _ ' } ..] ' +.#.#.#.+.+.#.#.` ` | | { ..+.o.@.7.#.6.t.q.7.7.@.+.` @.@._ } | _ ..{ 4.| @.6.+.+.@.@.6.#.+.| +.| +...@.+.| +.6.+.4.+.4.| } } } Q <.<.( _ } _ } _ } } { +.+.{ | +.o.4.7.| [ _ } _ [ } <.[ | 4.@.+.| | | +..._ | } _ ) [ _ _ ( ) _ { | | +.+...| +.| | +.| | | | | | ..4.+.| | ..{ ` | | T Q _ U S W U U U R _ U U ) W K Q _ R _ ( U U W U U W U F W _ ( { | ` _ _ _ T U Q R b S S S U c S U c U W U W W U U U W U U U T U U U S U S U W Y U E E x x U c e l B f l V f x E c S B F B V V V f t y B M l y V U W V B f B B V B y f M d f d d t y ",
"M M B M M f M V l h U _ Q U W U _ Q { Q Q _ _ R Q Q W b E R } { { _ _ } W W } R W W ) W W R ) U ( | ` ` | | +.4.| } [ } | } <.<.| } 4.4.4.+.+.+.@.4.{ +.+.` _ _ [ ) ( } } _ | 5.7.#.7.q.$.#.@.5.7.$.6.@.@.@.6.$.$.@.+.+.| o.@.4.| +.6.| _ { } } ` +.+._ | #.#.#.#.6.6.6...| <.1.1.1...1.1.4.+.6.@.#.@.+.#.6.| ` ..` _ | [ _ ) _ } | } +.@.#.@.#.7.$.+.@.#.+.+.@.+.#.@.+.@.@.+.+.#.$.+.#.7.` ` | ` _ ' | ) ' ..} | t.7.$.7.7.6.e.6.4.4.4.4.4.1.4.<.<.| 4.7.7.@.+.+.7.6.} { ..} _ _ } { _ _ | _ | 6.#.6.6.7.t.q.q.7.q.7.6.6.7.6.7.q.&.#.e.7.7.7.#.e.7.| 6.7.| _ } | +.| 4.6.` @.7.$.$.$.$.*.t.6.+...6.4.4.4.4.1.1.7.t.t.#.#.*.t.7.+.6.7.4.....1.1...+.4.| @.$.@.+.#.7.#.e.t.$.7.e.t.7.7.6.@.6.t.t.t.#.@.7.7.@...| 4.| _ _ _ _ _ _ } _ ' 7.#.#.$.@.#.7.+.| o.+.+.| ..+.+.4.6.@.+.+.@.7.q.6...| @.+._ } } _ | { ..' @.7.#.+.7.@.#.#.+.+.#.@.6.+.+.+.| +.#.4.4.@.4.@.| +.4._ 1.| ( [ ,._ } _ } | { | { { 4.| 4.4.4.{ _ [ } _ [ | <.} | | 4.+.+...@.4...{ ..| _ _ _ _ } ) ) ( _ ..+.+.@.+.+.+.| ] +.o.| ....' _ _ { | +...+.} _ } { W _ ) b U W U W U E W b R _ R R T R ` _ R U W W U U W W U W _ { } _ R _ { [ R U ( T b U U S U V U S b W R U U c c S U R R U U T U U U U U U W U U U W E x c U x s x V l V Z l V Q U W F Z F F B f y n n B x B y f S W x l B U c U Z f l l d d d d t d ",
"B f M M f f l l f l E W R H c U Q _ _ _ _ Q Q W Q Q U B F _ { { } _ _ } T U Q W R W W W W E R W ( { { { { { ..} _ _ } _ _ [ _ ,.<.[ { 1.5.+.+.| o.+.` | .._ { _ ) ) R } ..( | 7.@.$.$.q.q.#.$.$.#.#.@.+.+.4.#.#.6.#.6.@.+.o.{ 1.{ | 7.{ _ } _ _ ` ..| ( ..6.+.+.6.7.6.| } | 1.<.| <.} } 4.4.| | 6.#.+.@.@.5.| ( | } _ _ } } ( ( | } ` 6.+.+.@.#.+.+...+.| @.@.+.| ] +.+.O.@.#.#.+.@.+.+.+._ { | _ ` ( } } ` | } _ 4.7.7.@.7.6.4...4.4.4.1.4.1.| } <.} { 4.7.@.4.| @.6._ } | _ _ ( _ } { ( _ _ ` @.$.#.6.7.t.t.t.7.6.6.q.@.7.7.7.#.7.$.@.7.q.$.#.7.+.| 7.@.` _ | } | { +.+.{ 6.#.@.$.$.t.7.6...| 1.4.+.1.| 1.4.| ..7.q.$.$.$.t.7.+.6.7.4.} <.1.| | 4...` 6.t.@.@.@.6.7.6.7.t.7.#.7.e.7.#.6.4.7.7.@.@.7.#.#.6.} _ +.| ( _ { ) _ | | ` ..#.@.+.@.6.6...] | | { | | { | 4.| | +.4.+.+.+.7.6.| ` 4.| _ _ | } _ } ..) ..7.#.#.@.6.#.+.+.+.@.7.6.+.+.| +.| +.@.4.o.+.6.5.7.4._ <._ _ [ [ [ [ _ <.} _ } | | | ..4.<._ _ } [ _ [ ) [ } 1.| { | +.6.+...4.4.{ | ..{ Q [ ) ) ) _ R R | 4.| | +.+.o.+.| ` | +.| | ' _ ( } ` ` | { { ( ( _ U Q W U U U U F U W S c W Q Q R K _ { R T W U F E U U W W U U { { R R R _ { W W Q U S S U S c S S x b W U U U c c x b W W T U H U U U V S U U V E W E V l V V h h f l f B Z l x W W U U U V B l M f M f f B M f m f B x V F V b S B l f f f f y y y d ",
"B B M M M l l l l x W W Q R E W Q U ! _ Q Q _ Q ( Q R U Q } { { } _ _ } R U Q U Q W W W W ) [ R _ | | { | { _ ( _ } } _ _ ) >.[ } } } { 4.5.6.+.+.@.' ....` } } _ _ ( | 4._ | q.#.#.7.$.#.$.$.$.7.#.@.+.4.6.6.#.@.#.7.7.7.6.+.+.} | 4._ _ } _ ) { +.| _ ..7.#.$.7.6...} } <...1.} _ [ <.4.4.| | o.6.7.7.@.6.| _ ..} _ } } } ) [ 4.| | 7.6.4.+.+.` | | @.| @.+.+.` ' +.#.+.+.O.O.] ] O.@.@.` ' | ` ' _ [ } | 4.| [ 4.7.7.7.q.7...| 4.4.6.4.4.1.<.1.4.<.<.| 4.6.6.+.+.6.' } } _ _ _ _ } { _ | ` ` #.q.7.t.7.q.t.t.7.6.6.7.6.e.7.7.7.$.$.7.7.6.+.#.e.+.} 4.+.{ { | | } } 4.+.+.7.#.$.t.7.#.+.+...4.....4.4.<.4.4.1.1.4.6.t.q.@.t.t.+.4.7.+.| <.1.| | +.+.{ 7.t.7.7.6.7.e.#.#.#.#.7.7.#.6.7.6.+...| @.6.t.6.#.7.| ) ..| _ } } _ } +.+.] +.6.@.$.6.+.] ' | ....} } ' | ..4.+...| 4.0.7.4.6.6.{ | 6...} _ ..} _ } 4.' ..@...+.@.6.$.@.$.+.@.+.| ..6.+.@.| +.@.5.+.+.| +.+.{ Q } { _ } ) [ ) ) 1.} _ ..4.| | 4.4.} [ [ } _ [ ) ) [ <.1.<.} { | 7.@.+.6.4.} | ..[ ( } _ ) ) [ _ _ | 6.@.+.+.| | +.| ..` | | _ _ | | | { { { | | R _ } U Q Q U U W U S E Q U U R _ _ R _ _ T U W W E U U W E W Q E U W Q { _ R _ { T W ) U S S U S S S U x b Q _ Q R R U c b c W W U U U U U c V W U V U U E U l l S l x x l f l x V x E U U Q W B M B A B C M l M f M Z M B x U V x b S l l M M f f y y n m ",
"B B f d l f f V z x S R Q U _ R W U Y Q ! Q _ ( W U T W ) Q } _ _ _ { { W U Q T W W W U E ) [ U ( | { { | Q W Q _ ) [ _ [ [ [ [ } [ | { { 4.6.4.o.+.` ` | } _ } } ( _ ...._ | @.#.#.$.$.$.$.#.$.$.@.@.+.4.@.@.@.#.#.@.$.6.@.#.4.{ ` 3.} _ [ _ ) _ ..| ( { @.#.e.6.| } } | | | <.} } _ } <.| 4.| { +.7.7.q.@.' ( | } ( _ } _ _ ' 4.} | 7.5.+.| | +.@.+.+.| ] 6...` ` | +.+.] ' ] | @.+.+.+._ _ ..` _ [ } ` | 6.| ( 6.7.6.q.t.+.| <.4.4.4.4.4.| 4.<.1.4.4.} | 7.+.+.@.@._ } | _ Q ) _ _ _ ] @.` ` @.6.7.7.7.7.7.7.7.6.+.+.7.7.7.t.$.@.#.q.$.#.@.#.7.+._ ..| { [ [ | } ' 4...| 7.t.$.7.@.+.+.6.4.1.<.| 4.4.1.1.| 1.+...@.6.t.t.t.#.| +.4.| } <.4.1.{ 4.4.{ 4.q.7.#.6.7.7.#.+.#.7.#.#.#.#.#.@.+.| { @.6.#.6.#.@.{ ` +.} ( _ } } _ | +.` ] @.#.#.#.' ` | | | | { ' _ | ....4...| ..4.7.0.6.4.| { 6.+._ [ [ | _ } .._ | @.+.| #.@.@.+.@.#.#.| ` ` +.+.+.+.+.+.+.+.+.| ` o.| W <.} Q >.>.Q ) [ <.[ Q | 4.@.4.| } _ } _ _ _ [ [ ,.[ { <.} } } } +.7.@.4.+.} ..| _ ( [ } ( ( } _ ( +.+.+.@...| | +.+...` ` ` } } _ } _ { | { { { _ ` { U R Q H W W W U U Q W c R _ R { _ T U T U S U E U U E U E W U S W ( { { _ Q U T R S S S S S c S W c U R Q R R U W W U U U H S S U V c c U W E U S V E U f l U h f V l y f B x x U S U U F l f M B M M M B f M f B B x l x S S x x y f B M y d y y y n ",
"Z M d d M f x W U x S T R R _ ! Q U U W [ ! Q R U U W T W W R R _ _ { [ W W [ W U W W F T } } T Q } ..} Q W R Q _ _ _ { <.} ,.<.} | | | | ..+.{ ` { _ | 4.| ( } } _ } 4.+._ ` +.$.7.#.$.$.$.#.$.$.#.6.7.@.#.#.@.#.#.@.@.@.@.@.6.} _ 4.1.) [ } ) { +.| _ ` +.@.6.4...| | | | } | 4.1.} | ......1.| ..@.7.$.+.| ( ....( ( | [ ) | 7.} { 7.+...+.4.6.7.@.@...+.+.@.| ..` ..] ] ] ..@.#.+.@.6._ } 4.' _ } | } +.t.4.} 7.7.t.7.6.....1.+...4.4.4.1.4.1.4.4.4.1.1.4.4.| +.+._ } 4.{ ) ) [ ) _ +.#.` | ..@.@.4.7.7.6.7.7.5.+.+.4.t.t.t.$.7.$.t.$.$.$.e.t.4.} ..+.{ { } } ' | 6...| 7.t.$.+...4.4.6.4.1.| 4.| 4.4.4.1.1...6.+.+.7.$.q.7...+.7.+.| | 4.1.| 7.6.{ 6.6.@.7.7.e.e.6.+.7.t.6.#.#.#.@.#.@.+.4.6.#.#.#.#.@.| { @.| _ _ _ _ ' 6.+.` ] 7.7.+.} } | | | { ....| | ..+.4.+...| | | 4.7.7.7.+.| 7.6.} [ _ } [ | 4._ | 7.#.@.#.#.+.+.+.@.+.@.+.` ..| | ..@.o.4.+.4.| | 6.4.( 4.| ) ,.>.) ) <.4.} ( } 4.6.4.} [ } } { _ _ _ } <.[ } } } } | { | 4.@.6.4.{ | 4.| ) [ } ) _ 4.{ ` +.6.+.+...+.| @.+.] +.| { ..| ` | { | +.{ { ` { ` } ( R ( H W W U U R [ R U W _ ` _ R T W R T U U W U U W W U U W W W T ( R W Q T R Q U U S S S b W R U U U c H T R U U U S c S U S E c c U Q U W E U U W U l l U l l V M f l U x x W U U Z M l B M l f t M B B B l l V x l V S U x x f y M B f d y n y M ",
"Z B l y d f U U c x U b U R R _ _ U K W Q Q R U U U U S U R R W _ _ Q _ U E { Q W U E S W { } U Q { { ( W R _ Q ) _ } [ } ,.} [ ,.} } <.| | ..| +.4._ ' 5.| ( ) [ _ } 4...R { +.+.$.7.@.+.@.$.$.+.@.$.$.$.@.@.$.@.@.@.@.+.@.+.+.} _ 5.4.) _ [ _ | +.{ ( | @.+.| | | | { { } 1.| } 1.1.| } | } 1...| +.+.+.@.{ ( | | _ ( _ _ ( +.4._ _ 4.+.+.4.6.@.@.#.+.` ] +.| ] | +.O...@.+.@.+.+.+.@.@._ } +.| _ } } } #.q...[ 6.7.7.4...+.4.| ....+.<.4.| 1.4.4.| 4...<.<...{ | 4.( } +.| ( Q ) R ' @.+._ { +.+.| +.6.7.7.7.5.7.+.| +.e.t.7.#.$.7.+.+.6.7.#.7.4.{ +.7.| _ } _ ` #.7.| | 7.7.+.4.4.6.+...4.4.1.| ..1.4.4.<.| 1.4.4.6.+.+.$.7.| 4.t.7.| } 4.| ..0.4.| +.@.@.6.e.e.7.#.@.#.q.t.#.@.@.@.@.+.#.6.@.@.7.@.+.@.+.` +.6._ ( } ( | #.+.' | +...| } | | ' ] ....] ..] { +.+.| } } 1.1...| 6.6.| +.7.6...( } ) _ ...._ +.6.@.#.#.+.@. .] +.+.X.#.+...` | ` | +.o.| +.o...+.4.Q { 4.} _ >.Q [ 4.4.[ _ <.} } } ) _ { [ _ _ ) ) | [ [ _ [ <.{ } } | { +.6.4._ | 4...) ) [ ) } 4.{ _ | @.+.| ] +.| ] +.+.] | ` ` { | | | ..| _ } } R ` { _ R Q R U W S S _ _ W U R _ R K U R T U W W U S U E W W U F E W W R W U R Q R T ( U V U S l S R U S U c c T T U U S b c U V c U U c V W U U U U E S S U l y V c x M f f V U z x W S x B B B S V B f f d M B l M l f l l V B l l V l t f B f t y n y B ",
"B F F f d x W U x x c U R U W W W R Q U R Q R U R Q Q W E ) Q Q } R ) _ S U } { ) U F E _ { _ U _ { ( T ) _ } _ _ [ } } ,.} ) ) } <.<.} } | | | 6.7.} ' 6.#.{ ( ( | +.#.| L ..@.] +.#.@.#.#.@.@.+.+.@.#.7.7.7.$.+.+.#.$.@.@.+.@.| _ 5.7.| [ _ } 7.6.| _ +.7.+.{ | ..| { _ } ..| | 1.1.| { } | | ......| | #.| ( | +.| } ( _ ' 6.4.( _ | @.@.+.@.+.+.#.+.] +.+.] ' | #.O.+.#.+.+.O.+.#.$.+._ { 7.+.} _ | ..t.7.| ) 6.t.6.| 4.+.@.+.| 4.+.4.6.1.4.4.4.1.4.| 1.| } } | +._ [ 4.+.[ W Q ( +.#.` _ | 4.4...+.4.0.7.7.7.4.+.| 4.7.@.+.@.t.#.O.+.#.7.+.7.@.` 6.t.6.} _ } +.7.e...| 4...} 4.6.+.4.4.4.4.4.<...4.<.1.| 1.4.4.7.7.4.+.$.7.4.6.t.t.6.<.<...7.p.4.| 7.7.7.7.e.7.7.#.$.$.q.t.$.@.@.#.#.@.#.$.6.@.+...+.6.+.' @.6.} ( _ } @.#.+.` | ..| { } | | } | | ] | ..| | ....} } | 1.<...| 6.6.| | 7.7.6.( ) _ ..4..._ 6.6.@.@.+.#.6...| O.#.+.+.+...+.| ' ..+...] ` +.+.+.4.Q } 7.4.[ ) } 4.4.4.} } <._ Q _ ) [ [ { } } ) _ [ ) ) [ <.<.} } | | { ..4.4._ | 4.6.} ) ) _ 4.4.( _ +.+.] ] | +.| ` | +.] +.| ` ` _ ` | { { _ | { _ ` | R R { ` T U U R { { W T _ _ K H U R T U E W U E W U S S U W U S W R W W Q Q W ) _ U V F V x W ) c z W S b R W U W U V U E U U U c U E U U U U U E U U U V V W z V M f l W U c V E V f B A B B B Z V B f B x M d f f B B l f d f S B y f Z l y t i n F ",
"V S F V z c U c s x U b U R U U W Y W U R U W Q Q R _ T W U R _ Q R R Q S S _ } { W U R { _ _ H R { R W ) } _ { _ ) _ } | } [ [ } } } } } _ } | +.6._ _ +.$.@._ _ ..@.@._ K | @.] ] +.@.@.#.+.+.+.+.] +.#.@.+.@.@.#.7.7.#.+.+.@.{ _ +.7.4.{ [ 4.4.4.| _ | 6.| { } } { } _ [ } | | | } { _ [ | | | ..{ { o.+.} ) } @.@.| ( _ +.4.| T ) | { +.+.| +.@.o...+.+.` ' ' ..] +.O.+.+.+.@.6.@.+.| ( { 7.+...} ..7.#.7.{ _ 7.7.+.| +.+.+.+.4.+.+.4.4...| 4.4.<.<...| } ..| | | ( ( | 4.| R W } @.O.` R +.| +.+.+.4.7.7.7.4.+.| 4.4.| ` 4.@.#.@.X.+.#.@.+.@.| ( { q.7.{ ( | 7.#.7...| +...} | ..4.4.4.1.1...4.4...| | <.4.4.4.4.4.1.| @.t.4.+.q.p.6.4.<.+.t.a.| { 7.t.7.e.6.+.@.#.#.+.#.7.+.#.#.+.+.#.@.@.#.+.| | @.@...' | 6.+._ _ +.#.+..._ | @.` { } _ ' | | ` ] | | { | ..| } 1.} } <.1.} ..6...' 6.7.6.| [ } +.4.| R 4.t.#.+.@.+.#.+...] ..@.@.+.+.] ..| { +.] ` { | ] @.4.R { 7.4.} [ 1.6.| <._ _ 4.} Q ) } } _ [ _ [ [ } _ } ) [ } } } } } | | { +.4._ _ 4.4.| [ Q } 4.4.R ` +.` { ..| | | ` ` ` | +...` ( _ { { { { { _ } { ` _ K H ` | Q W R _ ' _ U S ( R b H U S U U V S U U W W V F U F U U U W R U W Q U R _ Q b x S U Q T l x U U U U E W E U U V U W U c S S U F V V U S V U U V c U E c c f V c U U l V U x B B C l l M B B B M B l M y f n f B f t f f B V f f x B f r t n Z ",
"U V U U b z V x h x W U W R U W ( U U Q W R Q Q ( Q _ ( R U Q } [ W W Q F S ) _ _ ( R _ ' ` _ S W { _ R Q _ } { } _ } } | } ,.<.} } ,.} _ _ } } +.4.R _ @.#.@.+.+.@.+.+.' R +.$.+.] ..#.#.+.+.+.#.+.] +.+.+.+.+.+.#.7.#.+.+.+.@.{ ` @.7.6.| 4.7.4.+.{ _ +.@.{ } | | { } { } | | | } _ { } | } | ....{ { +.5.| ( | +.+.+.| | @.+.{ ) _ ..| ..+.+.@.#.+.@.@.+.' _ ` +...+.+.+.+.+.+.6...] .._ | 7.#.#.@.6.#.#.7.| { t.7.@.| ..| | | +.| 4.6.4.| } 4.4.1.<...| } ..| 4.4._ ( | +.+.| | +.+.] ` _ +.+.+.+.+.| 4.6.4.+.@.+.4.4.{ | 7.$.$.$.@.#.7.@.#.#...( } @.#.@.| 4.7.@.7...' 7.e...| 1.4.4.4.1.| <.4.4.4.4...4.4.4.6.1.} } | 6.t.6.+.7.7.7.7.7.6.t.q.| | 7.e.6.+.+.+.@.#.#.+.+.+.@.7.7.@.@.#.#.4.@.@.@.+.@.+...' | 7.#.+.4.+.+.+.| _ +.6.+...| ` | | | { ] ....} { | ..4.4.| | <.<.| @.t.+._ 6.6.6.@.4.+.@.@.| K 1.6.+.+.#.@.#.#...` | | ] +.+.] +...| | ..` +.| | 6.4.R _ 4.6.+.4.4.4.| | ( { 4.1.[ } { } { | [ } _ } } | } } [ | } | } | | | ..6._ ( { +.+.1.[ | @.+.R } +...] +.| | +.] ` ..+.| ` ` _ | } _ } ..{ ` | ..` R H H _ { _ } _ _ ' R b b R R H U U U U E U W U U W E V U W U S U U W Q U R [ T H _ _ T R Q R ( T x x U U T U W W U S U c S U U U U S W S x V V S S S F h y f V S U V U c U U x V W c Z B l B B M M f M B V B M l M y M M f f f f x U B f V V V l M l V ",
"V V b x c h x l x l V T Q U T U Q Q ! Q _ Q W U R ( Q W R W R { W U R W Z S Q R _ ( ( _ _ ' R b W } { Q W Q } _ _ | <.} { [ <.[ } } } ) _ [ ) _ +.4._ _ @.+.+.+.+.@.+.+.` R +.+.+.+.+.#.+.]  .+.+.+.+.o.+.| | ] ] +.+.+.+.+.+.+.| _ @.@.@.5.@.6.+.| { _ | +._ { <.} { _ } } } | [ } } | } | } | | 1.} _ | 7.4.R } +.| +.| | +.{ _ _ | } { | { ..4.+.@.6...' _ { ` ' +.@...+.] @.| ..] +.| ( | @.+.7.#.7.+.+.#.+.} 6.7...| | | | } | | ..4.| } <.1.4.1...} <.} { | 4.7._ ( _ { +.o.+.X.] ] ` R | +.+.{ | | +.| 4.+.+.@.4.{ | 5.@.@.$.@.7.@.#.7.@.@.{ R { +.#.+.| @.@.@.7.{ ' 7.7.4.4.| | 4.1.| | <.| 4.6.4.4.4.4.4...| } } | 6.w.4.+.6.7.#.7.a.q.@.7.| { 6.@...| | @.@.+.+.@.+.] +.#.#.#.+...@.#.@.@.6.+.] +..._ | @.#.#.@.] O.+.| R +.+.| +.| | } } | { ` ..| _ [ } 1.1.1.1.| } } } 4.p.4.( 4.6.#.+.6.@.o.] | K { +...+.@.#.#.| | | ..` | ] ..+.| +.| ` | | | +.+.4.| W [ | @.+.4.1.{ | | R _ 4...} } [ } } } } ( _ } } } { | } } { { } | } } +.4._ ) { | | 4.4.o.o.+.R _ | +.| | | +.| | ` ` | ` _ ] ' _ _ } ` _ { | +.| R _ W U Q ` ` ` _ ( L Q b x U R b S U U b b W W W W E E F V E W U U W U T R ( ) S b R R R R ( R L W c h S U U W E U S c V S c c S S U E U V c x A B S V z l f l S c U U c U U c l B U F x V B l Z M f l M M B A Z f f l f f f d y f V Z f f x x V V V B V ",
"V S S z S c S S c h x c b U ) Q Q W R Q Q W E U W R Q R ) W Q ) U U ) W F F Q Q { _ _ { _ ' R U } } | ) Q Q ) _ | } } _ _ } | [ } } _ _ [ ) _ } | 6.| } +.+.+.| +.+.+.#.{ R +.#.@.+.+.+.] ] +.+.+.+.+.X.+.+.+.@.+.| | | +.#.+.#...` @.@.@.6.4.4.+.o.| _ | +.} _ _ _ { { } 1.} } _ { | ..} } | | | 1.} _ } 4.} W } ..+..._ _ } { _ _ ..+...| ` | +.#.@.+.{ _ } ..' ' ] +.| +.+.@.+.| | @.+.} | #.#.#.+.+.+.#.7.4.{ 7.7.| ..| | | { ..| 4.4...| 4.1.1.1.| } | } | +.4.4._ ) [ ' | ` ..| ] ] | R { +.| | | 4.4.+.6.+.+.@.+.| 6.7.+.| +.$.q.#.#.#.+.@.} ( +.#.$.@.+.+.+.@.$.| | 7.6...| | 1.| } | <.<.<.4.4.+.4.4.4.4.4.| 1.2.| #.t.+.+.7.7.7.6.t.7.#.t.+.| 6.+.+.| ..6.6.@.#.#.+.#.@.@.7.$.+.+.6.7.@.| | ..+.@.+.' +.#.#.@.@.+.X.$.+.R ..+.| } { } } } | | ..| } _ { <.1.} <.} } <.<.} 7.p.1._ ..6.#...+.+.O.+.6.L | 4.] +.7.6.#...+.+.$.+.+.| +.+.o.+.+.+.+.| | +.@.| { Q [ { 4.+.4.1.{ | 4.R _ 4.| _ _ } | _ [ ) ) ) | { { } | { _ _ } } | } } +.4.( _ +.@.{ 4.6.+.+.4.( _ 4...` ..+.+.` _ _ _ ] ` ` +.| ` ) _ _ | | | { } _ { ) U R { ' _ _ R _ } W c T Q b x S c b U S S E E E Q W S U W U W W T W U Q _ b S ( R T H W Q R ( U x U S S W W U S V V V c V S c S U U S S S S V S c V x B S S z U U U U U c h B U V V V B B B B n M B f B B B l M f f f M d f f V B d d l B S z B V V ",
"S z z S c c W W x f x l x V W ) W U U R W U W E E E W R R Q ( U W W W Q F B Q Q Q _ _ Q _ _ T R ..{ { _ ) W Q ) } [ Q ) } } } [ _ _ [ [ [ ) _ _ | 6.` } @.+.O.` ..O.+.6.' L ] @.O.O.+.o.| ..| +.+.] ] ] ] +.#.@.@...| +.o.+.#.7.| _ | @.+.+.#.+.| +.{ _ | | _ Q ) ) R } } } } _ { } } | | | } } | { { _ _ | _ U } +.| | { _ ( } R W | @.@.+.| | +.@.+.{ _ ` } | ` | ` ` | +.@.@.| ..{ { 6.{ { 7.+.+...@.@.#.7.| | 6.@.+.} | } | ..| ..4.<.} 1.4.4.1.} { | | } } | { | ( ( } _ _ ' | | ` +.| R ` { +.| 4.+.4.+.+.+.+.+.+.+.+.@.@.] ] 7.$.#.#.+.+.4.{ _ 6.#.@.+.+.` | +.@.{ ` 6.+.} | | | } } | } <.4.<.1.4.4.4.6.4.1.<.<.<.| #.t...| 7.6.#.7.6.4.$.7.4.| +.6.+.+.+...#.7.#.#.6.@.@.#.$.#.+.+.@.#.+.] ..+.@.| | { +.7.+.+.@.+.+.@.| R { 6.{ _ } { | } _ } ..| _ _ <.} } } { } | } <.<.4.7.{ ( 1.+.+.] | { ] +.@._ | @.] +.7.#.+. .@.+.+.+.@.+.| ..| ` ..@.@.| +.| ..{ { W ) 4.| +.| { | | 3.) _ 4.} ) [ _ _ [ [ Q ) ) _ } | } } _ Q _ | { } } } ..4.R } 4.+.+.+.4.{ +.4.R ( ..| { ..+.{ _ ` ` ` _ ' ` | ..| Q R _ ` { { _ { ' _ W T _ ` ` ` R R R _ R b T R b S V S S S S x B U W W R U S U W T W R U H R Q c c ( R b S W U R Q U c U U b V U E S x V x V V b c V S b S U V U E c z F x h V V c V H U c c S l l F f l Z B B B l M M M B l f l l l f l f f f m d l B t f B x z x B x x ",
"V V V U S x c V f f F V U c E W V V W W Q W ) Q W W Q T R ( _ R _ W W ) U V [ _ Q _ Q Q ` _ ) W [ { { [ ) Q ) [ [ _ Q ) | } [ [ ) ) } [ } [ _ _ +.6.{ ' @.+.] | +.+.+.@.} R ` O. .] +.+.@.+...+.+.O.+.o.o.o.o.| | ] +.+.] +.+.+.| ` +.6.o.+.6.+.+.6.| _ | | _ _ } ) ) { } } _ _ } | } | | } } } | } { _ } 4.} R | 4.| | ..| } } Q W ( +.| | { ` | +.+.| | ..` | +.+.' ` +.@.@.+.+.@.| | ..{ | 6.+.+.#.7.+.#.7...} $.7.| | ..} | | | 1.<.| | | 4.4.| } } | | } | } ' | _ _ } } } ] +.` ` +.| R _ { @.@.6.+.+.@.+.+.@.+.+.4.@.6.6.+.@.@.7.#.#.+.#.7.| { 6.$.@.+.+.+.+.+.6.| ' 4.| } 1.| } } ..| } <.4.4.4.4.4.1.1.<.} | 1.<.+.7.t.| | 7.7.#.7.5.6.q.q.4.{ 4.@.@.7.+...+.@.@.@.@.@.+.+.+.+.#.#.@.+.+.#.$.+.+.+.+.` @.$.O.#.@.+.@.@.@.R { +.} | | } | } } } } } } } 1.} } } { } ..} <.[ | 4.| ) 4.4.#.+.| | +.X.+.` ` 7.#.+.@...+...@.+.+.+.+.{ ` ' | { ..| @.@.+.| ` ..| Q } | o.@.+.{ +.+.4.) { 4.{ _ <.[ } } } ) [ Q [ [ } } _ { [ { | } } } | +.4.( | 7.+.+.@.+.| +.4.R R ..+.+.+.+.{ ` | ..` _ ] ` ` +.+.} { { } } { { | ] _ W R { _ _ _ R _ _ ! R H R R b c U W E S U S B U Q Q ) W S W W W R W U U R Q W W ) W U R R U R Q b c E W S c S c c V x h c U U b U S b U U V S S V S U x l B S U G U H c H U B l V f f B Z l M M B B Z B B M l f B M f f l l m y f V f l V x x V B l x ",
"x V S S x f x y f x F E S V S V U E Q U W R W E Q Q Q R H T ) Q Q Q R W U V Q [ _ W R Q ( _ R F E ) _ Q ) ) ) [ [ ) ) [ } } } ) ) [ [ _ [ } } { | 5.` _ { | +.| | +.#.+.( ( +.+.+...] +.#.+.+.| +.+.+.] | | ` ` ` | | o.+.] ] | ` [ 4.4.+.+.+.+.+.@.} R { { ( _ [ _ _ _ _ _ ( _ [ } } { _ } } } _ _ ) ( } 4.| ( } | +.o.` { ..| Q U ) } | ..` | ' ` | +.| +.+.+.| +.+.@.#.@.+.| +.@.| ' { [ ' +.+.@.#.@.$.q.@.| | 7.6.| | 4.| { } ..} | } } } <.| } _ } [ { | | _ _ ..Q ( } ` ] ] ] X.+.+.` R ` { | 6.#.+.+.| o.+.+.+.+.+.@.@.#.#.+.@.@.+.@.#.@.6.+.` +.#.@.O.+.+.#.6.4.} } +.| } | | | | | } } | 1.4.4.4.1.<.} ,.<.<.<.<...#.t.| } 4.q.6.@.6.4.7.6.| { { @.@.#.6.@.| { ....+.@.+.` | @.@.@.+.| +.4.#.#.+.+.+._ | @.+.+.@.@.+.7.+.R } | } } | | } } } _ } _ | } } <.} [ } [ } <.} _ } 4.1.( | @.#.@.+.+.#.+.| R ` #.+.] ] | @.+.+.| @.+.| ` ' _ | ..| ` | +.+.| | { { ( { +.4.| | | { +.| T _ o.| _ [ } | _ [ } [ ) _ _ { _ } _ } _ _ } | } { | 4.( { 5.@.o.+.o.@.+.| T T | +.@.+.| | | ` ' } _ _ ` +.| { +.+.| { _ } { { ` { R K _ ` L R Q _ _ T c b T R c x S U W W U F F V U ) Q Q E U E W T U U b R _ ( ( Q U R W R R W U k z U E W T S c c l x b U b c U U U U S H b z z U c V V h x U c U c c U T U l B F l M M M l f B B M M B B l x l f l l f l l d r f B f f B V V l B l B ",
"V l V V x x F x x c U V V V S S Q Y Q W W E W Q ) R U c W W R T E R R Q W S W ) _ R [ R R ) U S D ) [ Q ) ) ) [ ) ) } [ _ } } _ [ _ { } } } | { { 4.` ( { ] +.+.@.#.+.` ( _ @.#.@.+.] +.@.@.@.+.o.o.+.+.o.| { ` | | { +.+.` | | { _ } 4.6.+.+.6.+.{ _ ( | | _ _ } } _ } _ Q ) ) Q ) ( _ _ _ } } ( ( ) ) | +.4._ { | ` ..| | ` _ Q E ) } ..+.+.@.| ..| | } { +.+.| +.@.@.| +.+.@.+.@.+.+.4._ ' | +.$.#.#.7.$...| | 7.7.4...1.[ ( } 1.| 4.<.[ | <.| | } } _ } | | _ ` 4._ ( { ..+.] | ] +.` _ Q | { | | +.6.+.| +.| | | | +.#.+.@.@.+.6.@...+.7.#.7.4._ | +.+.+.#.@.6.@.+.{ { 4.@.| <.| ..| } 1.<.<.1.4.4.1.<.} <.<.4.1.| | | #.t.+.} | 4.7.7.6.6.6.| [ _ | @.#.#.7.7.@.| | @.6.6.+.| ..#.#.+.+.+.@.| #.$.@.+.| } ` ..#.+.@.@.#.@.{ R } 6.| } | } { | } } } _ | ..} } } } | _ } } [ ) 1.0.4.) | +.@.#.7.+.] ` ' ` +.+.+...| +.#.+.+.+.@...o.| | ` ..| +.] | { | | +.{ | { } +.4.+.4.| | ..} R { 4.| { <.| } _ [ } <.[ ) _ } { | { } { _ } | _ _ ..6._ } @.+.| 4.+.#.+.{ R ( } ..+.| { ..| | ] | ] ' | { _ { { { { _ _ } { ` } } U c R ` L Q ` _ R b z b R R S S S b S U U W W F U W Q ) R U W R U U W U ( { U U R _ R U W _ R S x b W U R R W W U z c W W U H b U T T U U U k c U c V S l l B x U c U S b x l x U S A l M f l B Z l l V V x S l l B x f f f y t B V f f B V z B B x V ",
"B f f l V x z U l x S x x V W U U U R Q E V E Q W c S b W U U U Q E U ) W V W U U Q R Q W W U c ) ) ) ) Q ) ) ) ) ) [ [ _ _ [ [ _ _ <.} } { _ _ | 4.R ( | _ ' +.@.+.` ` { _ | @.+.+.+.| +.@.@.+.+.+.+.$.#.+.| | ` ` | o.X.+.| | _ W _ } | 4.@.+.` ( ( _ ] | _ ( ) _ { ( _ _ Q ) Q W W ) _ _ } _ ( R R ) _ +...( | | ( } ..| _ Q ) W R | ' ` | | | | { } ` ` ' { | @.| | | @.+.#.+.| @.6.6.( ' +.] +.@.#.+...| ..{ #.7.+.+.| } } } } 1.4.<.<.| 1.} } | | } } _ _ _ ` | _ _ } ] X.` ] ` _ ( [ R _ o.| _ ' +.4.+.} { } } } ..+.+.| +.@.+.+...@.@.#.6.| ( | { ` +.#.5.+.' | { _ 4.@.| 1.} { } 4.| <.<.<.| 1.| } <.1.1.| | | } } @.7.| | | ` +.7.5.6...{ } { { @.+.@.#.#.#.+.@.7.6.+.| | +.+.+.#.+.+.+.+.@.#.O.+.+._ } | ` @.#.@.+.' } Q | 6.{ | { } } } } [ _ } | } } [ } } } } [ ) [ <.4.7.<._ | | ' | #.+.` _ | _ | 6.+.| +.| +.+.@.+.+.| +.} ( { +.` ..| { _ { | | | _ Q } _ } 4.4.o.+._ Q _ _ 4.| { } { _ _ } [ [ [ [ _ _ } { { { ` ` { _ ) ' | 4._ ' +.` ` +.@.@.` } { R { +.{ { } { | | +.+.` _ _ _ ( _ ' { _ { { { { | ` _ R T K R _ R Q ) c c S x U Q b S S c x S U E W Q E U W W R Q R W U U W U ( _ c c U T R R ( ( U x z V U R K H W Q R b c U E U U U E b U U E U c z V c S x f x V l z U U l h x B f S S B B l y f B B V V B V V x V B l x l f y f d f V l y l f B l B V B ",
"l l f f S c U S s f V b c U W U U E W E W U Q W U V S T T W U W ) W U ) W S W V S E ) Q W ) ) E } } Q ) W Q ) ) } [ [ [ ) ) [ [ [ [ ,.} _ _ _ _ +.4.R _ 4._ _ | +.' _ +.| _ | @.+.+.@.+...@.@.+.@.$.$.@.+.X.+.| ` ] +.o.+.+.| | _ Q _ R _ @.@..._ ` | ( ` +.` R W ( _ _ { _ R ) _ ) ) ) _ } _ _ ( R ) _ ` 6.| Q { | ' _ ( | _ { } ) R | | ' ' _ ` | } ` | { _ ..+.@.| ` @.#.+.@.@.@.+.@.+._ | #.` ..+.#...{ | 4.| #.e...| | | 1.} | | <.| | } } } <.} } } _ ( ( _ ' +.{ ' } L ` ` ..| / ` { R _ @.@.{ } | 6.@.+.} { ` +.+.+.+.+.@.#.@...+.#.@.+.6...( | | ' | @.6.` _ 4.} ( 4.6.| } { [ } 4.4.2.1.| } <.<.1.<.<.| } } } } ..@.7.| +.5.{ } 4.6.+.{ +.4.{ ` #.#.+.+.6.#.#.$.+.+.{ } ..@.+.#.$.#.+.+.#.#.+.O.$.@.' +.+.' ..$.+.` ` ..` 6.7.| } { | { } 1.} } | } _ [ [ | } } } } [ ,.<.4.7.4.R 4.6.' ' @.+.` | @._ | 6.+.@.#.+.+.| @.@.@....._ R _ | +.+.| ..} | { _ ( R ( | _ _ { 4.4.| ( <.} { 4.1._ _ [ _ [ <.[ >.[ [ ) _ _ } } { { | { _ _ | ..4._ | +.` ( | 4...( | | _ | +.| ..| | { | +.{ _ R _ } ( ( } { { ..{ { } } } { R _ W H L _ _ T x E W x U R b S U b c U U E E U U F U W R W R T U U E W Q W U W S x W ( ) U c S S c U R K T W U T c k S W U c b c x l z S z b U V V U V x V U c B B x f h S B f F F l l M f f n B A B B B l f f x x V l f d l f l V M f f y V x B M f ",
"l e f y l U U f w x S x S U U U E E U c U Q W V V l B T U c U W Q Q W R U V Q E S c W U U { [ W _ } ) E Q W Q [ _ [ ) ) ) _ ) R ) [ [ ) _ ) _ _ | +.R ( 3.{ _ ( _ _ | @.{ ( | +.o.+.+.+.+.| +.+.+.#.#.| ` ] | ] o.X.] o.+.+.+.| Q Q } { _ _ | ` _ +.] L ] O.` R R R R _ _ _ ) Q ( } _ R Q { _ R R _ _ _ | +.| K { | ` ( R ) R { { T ) | { ` ` { } { ` | } } } ..+.| { o...+.@.#.o.@.| | | _ { @.+._ } 4.` ..+.| ` #.@.} | | { | } | } | } } { _ { _ _ _ ) _ _ } ( ( 4._ ( | ( H R | _ ` o.{ T _ +.+.+.| { @.6.+.{ { | +.+.6.@.6.4.+.| +.@.@.@.@.@.| R | 6.{ ( | } ` +.5._ R +.@.} _ _ } [ } 1.1.| | 1.4.| | <.<.} | } { <.| @.7.{ } 7.4._ } 1.| ' 4.4._ ` 7.#.+.+.+.+.@.@.+.| { ..+.@.+.@.@.@.#.6.+.@.| +.#.+.` +.7.` _ | ` +.7.+.` 7.7.} } | } { } | <.} [ } } _ ) } } [ [ <.} [ { +.7.| R +.6.{ _ | } { o.| ` | +.....@.@.+...@.+.+.{ { _ R ( | | ..| ..{ } _ } ) ) Q } 4.| R } { _ { 4._ _ 4.} ) [ _ } [ ,.} ,.) _ | 3._ _ _ _ _ { } } _ ' @.7.( _ 4.+.( _ } _ ` | { _ { | ..4.+.| { | { } _ Q ( _ _ ( ( } | | | { { ` ` _ U H _ R c T ( U c U E c H U c c c S b S U T S S S U S S U U S U U S U W W U U Q W x c U U x c U c x U T T T U H H H H b U S h x x x c S U S U V V V U U l l W U h f B f V B l f S S l l M f f f M B f l V B f e f B l l l f d d x V f f B y y B M y f ",
"l l x y l V S f y S S c S U W U S R W c U Q Q V h c U U b c W R W ) R R F c ) _ ( U U W } [ Q R } | ) W W W ) ) ) ) ) R } ..{ R R [ _ ) } _ _ _ { ..R ( 4.@...( R | 6.4.{ ( ..+.+.+.+.@.+.o.+.] ` ..] ` ` | ..] ] X.+.+.+...] | _ ( @.#.` _ _ ` ] +.| L ` O._ ( _ R ( { ) ) ) Q _ ..{ R R ) ( R R _ { _ ` +.{ K _ | ` ] R U ( | { T R { { | | +.| } { | | 4...| } | +.@.| +.@.+.@.@.+.| .._ ' #.#._ ) | +.$.7.| ` 7.4.| | ..{ } 1.<.| | } ..4.4.) _ _ ) ) } _ } ( _ { Q T ..{ R ( [ ( ] +.{ R ` @.6.@.+.| +.+.o.| +.+.+.+.6.4.+.| { +.6.@.@.@.#.@.| R | 6.@.' ` { #.7.5.( R o.+.' { { | { } | ..| | 7.e.+.} 1.<.| ..| | | | @.7.} { 4.4.| } [ } +.@.+._ | #.@.#.@.+.6.#.@.+.| +.+...+.#.@.+.6.7.7.+.| +.@.$.+.` @.$.+.` _ | #.#.+.| 6.6.| | | } 1.| | | } _ 4.7.| ( } } } } <.} } } ..@.| R 4.4.+.` _ ` @.+.| _ | @.@.| +.+.| +.+.} ` ` ..} ( _ ..` +.| } ` _ { ..} } ( } 6.4.{ } _ 4.4.4.( _ 4.{ _ } { <.[ >.<.} _ } 6.6.| { ) [ _ [ _ } _ } +.4.R _ +.#.] ` R _ ] +.{ _ | +.....| } { +.+.+.| { { _ { _ _ | | | } _ _ } ` ) U b _ ` K U U R R Q E c H U b S S S S b U R S S R _ E V S U S U W U S S W R S U [ R c V U U R T S x H R R H b b H R T U W k h z V S U S S U U U E U U S l x E U x B x x U B f f U S h x B f M f M l l x S S B f l l l l x f f l V F f f F f y f y f B ",
"e B x l l f f y x x z S S c S V U E W U z U U V c U W c l S R U U U R U E V U Q _ U W { .._ E T { } W W Q W ) ) ) W R { | +.| ( R R _ ) ) _ ( ( | | K _ | +.4.{ { 4.4.| } _ { @.@.@.@.+.+.+.| | | ] +.] ` ] ..` ` | +.@.+.] ] | ( ( ..| ] ` _ ] X.O._ K ' ] _ R Q ) Q Q [ Q T Q { | } ( T W Q ( R R _ ( ( +.` R ) _ ` ] T T _ } Q R T _ ` ..| ..} { _ ` | +...} { | | ..| +.| @.#.+.| @...( } | +...( } 7.7.@.| ' #.6.+.{ | ..} | | } | @.#.7.4.{ ( R [ _ ) ) _ } _ } ( K _ { ] R T ` | ` _ W _ +.@.| | | | { | | | | +.| | ..| ` | +.@.@.#.@.+.@...R } +.+.{ ` | 7.#.+.( R +.@._ _ { } { } } } | 4.7.7.4.| } | <.} | 1.| | +.4.} _ +.+.| | } 1.+.o.} Q | @.+.@.6.@.@.7.@.+.4.+.+.+.@.+.+.+.6.7.+.+.@.o.@.t.` _ +.+.#.o.{ @.@.` | | +.6...} | ..| ..| { } @.7.#.#.| _ _ } [ [ <.<.{ ' @.+.R | +.| { | | @...| R } 6.+.+.| { ..+.| _ ' { { { _ ` ] +.| { ` { ..| { ..| R _ | | { { | 7.o._ R { 4.} ) _ } [ [ ,.[ _ } 4.+.+.+.| Q _ ) _ ( ( _ _ ` @.R R { | | | _ | ] | ` _ ....{ { _ { { | +.o.| | ` ` _ Q _ { | { ( _ [ ` _ Q U b T _ _ R H Q _ Q U x b W c x S b b T U U U U _ ` _ W S U U S F U S c W ) S c R R b E U U ( U c x S R T b c H T H U U U c x S S c U b U c U E E U c V x h V V U x z z c l t f S z x l x l l l l f x c z z V l l x x f h l B B c V l f B V h r y M V ",
"t t M S f y B x S h V S b l h c U U U b z z S z U U c x z U R U R U ) R W F U U W W } _ ( W W U [ [ R W ) ) ) ) Q R _ o.+.] | { _ ) [ _ ( _ ( ( +.+.R } | ` { | 4.| _ _ } { { +.o.+.+.+.@.@.+.+.@.@.#.+.] +.| ] ] +.+.+.` ` | ..( _ ` _ ` +.+.| ` _ K H ' O.' R R _ ) ) ) Q W { o.| ' } T W ( _ R Q ( R _ +.} R ( _ _ ] ` | _ _ ( R T } ` ..{ _ _ | { } { 4.+.| +.@.| ..+.+.@.#.#.@.+.#.@.( | ' ` @...6.@.| | ..| #.7...{ ..| ..1.1.| 4.7.7.+.@.6.} ) } _ _ _ } } _ { } R ) ' | _ _ +.| R ( R } { | | } { | { ..| | +.+.| +...+.+.+...+.#.6.4...+...R | | ` ` +.#.+.` | { _ 6.6._ _ _ _ { } _ _ +.7.#.#.7.+.} } <.} | <.<.} ..6.} } 4.| ' 4.7.4.` | | ( { #.@.@.6.+.+.@.@.#.6...+.#.@.@.@.+.@.@.+.@.#.+.#.+._ } +.] +.@.6.@.| _ | | +.7.| | 1.1.1...| } 4.7.$.@.$.6.| { } } } <.1.} | 6.4.R } | ` +.7.+.{ _ | _ } | { } ' | +.| } ` +.' { ..' ` ] | ....+.@.#.] | | } _ } | } } 4.4.+.( Q ) { 4.| ) [ [ [ } <.[ } 4.4.o.o.+.+.| _ _ _ ) _ [ ` ..6.( R ' _ _ ..@.+.' _ ` | | +.| _ ' ..| { ` ` _ ` { { { Q R { | _ ( } | ` ` _ W U R _ _ { { _ T U W b T ( S c S S S W W U Q ` _ R { _ T W R E E W T W Q ) W c U S U Q R T U x h B W U T H H T R U U U U E S V S S c U U S V z V V V S x x B x S B U x l f y f S V V h B l l B M l S b c c S l f l l f l d M M c F B t f B B f Z B f ",
"r 6 y B f l V x x x x x x h x l c V c x z S c l x z V x U U U W _ R R _ S F Q V S W _ U S Q Q S ( [ R W ) ) W E W [ ..| ] ` ` ` } _ Q ) _ ( ( R { 4.R { | R R { | } R _ } _ ` | ] ` ] o.+.+.@.+.X.@.@.` ` +.] ] +.+.| ` ` ` ` | ( R ` R R | #.` L R R H ` O.` R Q Q Q ) W ( { | { ` ` { _ R W ( R R R Q R ..{ R _ ) K _ +.| L R } R T _ _ ( ( ( _ } } { { | +.@.+.@.@.+.| @.@.@.@.@.+.O.@.` _ ` _ | #.6.| _ ..| ` 7.6.+.} <.| ..| ..@.7.@.+.+.+.+.4.} ) _ } _ _ ( } { } ) [ ( ` ` +.| _ T _ R ( { { ' ..{ | } } | +.@.4.@.@.+.@.4.@...+.#.6.+.....} R | ' ( R | 4.` _ +._ _ 5.+._ ) ( _ _ _ _ ..+.+.@.@.@.7.4.} _ } } _ } { +.7.| _ 1.} ( | 7.| Q } | R _ @.+.+.| | o.| +.#.@.@.+.+.+.6.4.+.| +.6.+...#.6.} _ +.#.` _ +.#.| ( _ ..{ | 6.1.| <.| 1.} | 4.7.#.#.@.@.@.6...} { <.} | [ | 4.1._ | _ R } 6.| R ( | R Q | _ _ { { | | | _ } | { +.' ` | ` +.X.@.+.+.+.| _ } _ } | ( _ 4.4.) W [ R { 4.} R ) Q _ [ [ } 4.4.+.+.o.| +.+.| ( _ _ _ ( } o.+.R ( | _ L ` @.| L ` ` _ +.@.| | | | | ` _ ` | { ` _ _ _ R ( { _ _ } { { _ { R H _ R H _ | R c U U c T R T U V b S U U W _ ` _ ! ! Q R U U W W T W W Q ( U S S x S U R U x h V c H R U H U U U R U b U H z V U c b S S S V B V l Z Z f l Z f l V B x f f l y B F x B l f B f l V S x c c V c l y y y d y y d c V M y d t f V F d r ",
"r 6 t d V S f t f B x V x x S h x c z l S b b z x c U b R c S b W _ Q ) V S W S U W T b E Q Q S R } R Q Q W W W [ | +.] ` ` ` ` ..{ ) Q ) R ( ( | 4.R _ } R ( Q [ } ( _ | ( ( +.| ` +.+.| | +.o.| @.| R ` +.] ] ` ` ` ` | ] ` | R R | ( T _ { _ L _ _ K ` +.` ( _ _ _ ( Q | @.o.` ` ` ` ..' R Q Q R R ( ( | { R ( ) R R _ T H _ } ( R { R R _ } _ { | | | | { o.| +.+.| +.#.@.#.+.6.@.+.@._ _ } _ } | +.| ` +.| ` e.7.6.| <.| ..| 4.7.t.@.#.o.+.@.7.4.} ) ) ) ( _ | | ' ( } ( ( ` +.{ R R } ( _ +.| | @...| | { ..6.+.@.+.| @.@.+.4.@.@.+...| ..+.} R | | ' R ( } R ` 4._ _ 6.4._ _ ( _ ( _ | @.+...@.7.@.7.e.6.} _ } _ _ ..6.t.4.' ..| ( [ } _ ( | | Q _ +.+.| { +.....6.6.4.@.@.+.@.6.6.+.| @.6.+.@.@.@.+.{ +.+.| _ { @.' ( | ..{ | 6.4.<.<.| | [ 4.t.e.@.@.#.$.@.e.7.4.| 1.| <.} | 7.+.( 4.} ( ) <.} R } | Q ( { { } | { { | { _ } | +.{ ' ` ..+.+.] +.+.@.| { } | _ | | _ ( <.} ( ) ,.R } +.| _ ) Q [ ) [ 4.6.+.4.@.@.+.+.@.4.{ _ _ } _ ` +.@.L _ ..` L ' | _ L ..` ` @.+.| +.{ | ..` ` +.o.| | ` { { R R ` ` _ } { | { _ R R ` R c U _ H b R T b T Q W c c U b b T } } Q Q ` _ _ _ E F U U R R U Q _ S c U b x S R U x S W b U R T T T U T R U b b c x S U S S V S S U U F B V B f V F l l l f l x x B y z S V l M f l f B U b l h S V U S n n t y y d d V Z l f m y y B M r t ",
"n t t y B B q 7 l y B x V x V x z l x z z z H H H x l U H U S h c Q R W x B U U c U E S R W U S ) _ W W W F E ) | | ] ] ` ` { +.| { } R R R R ( { 4.R R { ( ( ) ) ( ) { [ ( } +...| | +.+.| | | | o.| _ ` ` ] ] ' ' _ ' ` ` ..{ R R _ _ ( R R R R ` R K ` O.` _ _ { Q _ | +.] o.| _ ` ` ` | ` R R ( R T ( | ` H R ( R Q R S T _ Q W ( { R R ( _ { | ` | | { ` ` { | { ..| +.@.@.@.+.+.#.+.^ _ } _ _ _ } _ | ..} } 6.t.4.} 1.} | +.7.7.$.$.+.+.7.#.@.4.4.) Q R _ _ { +.{ R _ _ T ( _ Q _ Q _ _ | | | | | +.+.` | | +.@.o.] o.+.+...+.+.@...+.| ` +.{ R } ..( R ( R ( } } ( _ 6.| _ _ ) R _ +.+.+.+.+.+.@.6.#.6.7.4.} ( _ _ } 6.t.+.{ | _ _ [ Q Q _ } <._ _ ..{ { | | 4.6.6...| +.@.+.@.6.4.+.4.4.+.@.@.#.#.@...' #..._ ` } ` { { | } | 4.<.<.} [ [ 1.7.6.6.#.#.@.7.q.7.6.7.1.} } 4.4.+.7...R | } | _ } _ { _ } _ ( | | ` } } ` _ } _ ( | .._ _ ..#.+.] ] @.+.+.| +.| } _ { <._ R _ ) _ _ ) ) _ 4.| _ } [ ) [ 4.4.4.@.6.+.+.+.4.o.+.+.} Q _ { ` +.@.K _ | ` ( _ _ ( _ ` ` _ +.| ` ` | | { ` | | { { { | ` { ( R Q ( R _ | | ` Q U W Q H c S U U H U T c H Q b B c c b U _ { ` _ _ { } _ Q Q W S S S E T R _ b x S S c c U b z T R b H U K T T R T U b c S V V x V U U U S z F Z B V F M y Z U x f f f y l B B l z z x f V V h x F x x l B x c c S F Z y y t y M x S l y M d t d y r y ",
"y M l r f t t y l t l x U c V x x x V x c c c l c x x x U U c c U R R E S S U S x S U W ) W U U _ _ R W W S ) } | ` | ] ` R _ | { | +.{ R T ) ( | 5.L T | { ( ( R W ) { [ ( ..4.+...| ..+.| | | +.] | | ' ` | ]  .] ' ` ` ] ] { _ _ { { _ W W R R ` R K ] O.` _ ( _ _ ..@.+.+.+.{ _ _ | ` ` | ` R Q Q R R | _ H ) ) T R R W R ( ( T ( { } } _ } } ` { | ..| { +.+.+.| @...+.@.6.| ` ` +.@._ _ } _ ) _ } ( { | 1.} 6.e.4.} 1.} +.7.q.$.7.$.+.| 7.6.+.4.7.1.) R } { | #.| ( _ ( T R R R _ R [ ( ..| +.| ......_ } { +.+.| ] +.+.@.+.+...+.@.6...| +.{ R } | R R ( R ( ` | ( _ 4.{ ` | _ _ +.@.+...+.+.| | 6.7.@.5.7.4._ _ [ _ 6.r.| | <._ _ _ ) ) ) } 4._ _ | ` | +.4.4.6...{ { ..6.+.@.4.| | 4.o...| +.7.6.6.+.{ #.| _ } _ ` { { | | | 6.4.} <._ | 7.7.6.6.7.7.| +.7.7.6.e.7.<.[ 1.1.+.7.| _ 4.} | } _ _ | _ } _ { 4.+.` | ..` } ..{ _ } _ _ ` ..6...` +.#.+.+.+.6.| } _ | 1._ R Q ) { _ [ ) { 4.1._ ,.} _ <.7.4.4.5.4.| ) | 4.@.@.@.+._ ) _ ` o.| L ` { _ ( ( R ) _ { ' ( | +.` { +.+.' | | | ..' _ | ` { } _ R ( ( _ { _ ( _ T U W H b U U T H H T c b R c x x x U { { { ` { _ Q { ( Q _ _ Q U S U T _ _ U b S S S c S S c U U c b T T H U U U H b U E E U c U U U U V B B V V V F B t f F f y B h y l f B B x V x f B l z S c x l l V x S c S U U S B f y l V S l f B f y y y y f ",
"y f y r t t M e y d y x U S x f x l l x c b k h z S h h c z S S c W ) U B E E c b B F U W Q W S ) [ R F F ) } { { { } ( T R T R { { | ..} W W R } +.L R { _ R T Q R W _ } R _ 4.+.` ` { { | ..+.| ] | +.] _ ` +.O.] +.| ' ` ` { Q ( } _ R W R Q K ( _ R ` O.' ( R ( | +.o.+.+.} Q Q Q _ ` ` ' | _ R R R T { _ U R Q W U W Q T T _ T H } { } ` { _ ` | +.{ { ` @.#.@.@.@.+.+.@.@...{ | @.+.` _ } _ ' _ _ _ _ | 1._ 6.4.| } } +.6.6.7.7.6.| { { } o.6.4.4.4.1.) Q { +.@.| ( _ R ) T Q R R ) _ R _ { | ..+.' _ _ { } { ` ..] { | +.+.+.] ..+.@.@.+.| { R } ` R T ( ( T ( | ( ( { ` _ _ { ..+.o.+.+.| } _ [ } 4.7.@.#.6.| ) ) ) ..7.{ } | _ R ) [ Q W [ <._ ( { | +.6.4.+.o...| +.| +.6.@.| ..+.5.7.6.{ ..@.#.7.| | +.' _ _ _ _ _ | <.{ | 5.4.<.<.4.6.6.#.@.6.+.| _ [ 4.7.7.6.7.4.[ ) _ | 6...( 4.} _ [ [ ) ) { } ( { 4...+.| { | | | | ` _ | _ ( | | ' | +.4.#.6.o.+.4.{ _ ..<.W W ) Q ) _ [ W _ 4.{ _ [ Q } 4.4.@.6.4.} ) ) ) 1.6.+.+.@..._ R _ ` | R ` { R R ( Q R R } R H | 6.| 4.| } ` { ..+.| ` { _ ` ` ` ` _ } { ` R _ _ R U U U U b b U H H T U c c U S c S ) _ { _ { { Q W U R ` _ Q Q _ ) E S U _ _ b c U S V S x x S x x c S b H U H H U U U U E W U c c c S V z x V V S l V Z e y B e f f f f f f l l V V y l l t x c x l B f y l x c V V S U S B f y x V f y f n t t n y n ",
"f t t t r f B t t d y B S S h f B h x b b c H H W U h h c x U b x S U W V U F V S B F S S W W U [ [ U S W _ | ` { { ) U U ) R H ) { | +...) S T } +.( R _ ( T T ) R W ) _ T _ +.] ` +.` | +.@.+.` ' | +.+.` ] ] | ] | } _ _ ` | ) ) } _ R R ( ( T ( _ R ` +._ R Q [ @.+.o.+.' Q W R R R _ ` ` | | _ R R R | } R R Q R U W _ T R _ T T | ( R R _ { ..o.| ` { } | | #.+.+.@.#.+.@.@.6.@.6.+.` { | _ } _ _ _ ( | 1.} 7.@.{ } | 7.7.6.6.6.+.) ) } ) { 7.@.7.5.6.{ ( _ | @.| ( _ ( R W ) R W ( } R ( } | +.| { _ { ..` ' { | ` | ` ] ' +.+.@.....+...+.} R [ } ( R _ ( R ) _ ( _ | | _ Q { #.+.o.+...| ) _ } _ | 6.7.@.4.6.| _ _ +.e.| { | ( R [ [ ) Q Q [ ) _ +.o.+.+.+.+.+.+.6.6.+.4.@.@.#.6.7.e.t.7.@.+.+.$.7.| ' +.| _ { } ( _ } } } +.5.| _ [ +.6.6.@.5.6.} ) [ } | 6.7.7.7.7.<._ _ | 6.+._ 1.| ( } | ) ) { } ( | 4...| } _ { } ` | } ` ..' _ | ` ` +.| +.7.@.@.@.+...} | } W Q ) W ) ) ) R } | _ ) ) _ 4.4.4.4.4.} [ [ ,.) <.4.@.+.@.@.| ( ( o.5._ { { R R _ ( R R _ R H _ +.| | { _ _ { | +.o.+.| { | { _ } { _ R _ _ ` ` Q U U U U S b H b b R U x U R H S W ( R R _ } ) S V U U ( { _ _ _ _ T V S ) { S c S V x S x x S x x U U b U U U U W R W U U U S S V U S z U U E B B x V F f f B f f y f f f B f l F l y f l l x x x x x f y f y c S x V l l f t t f V l y d y r t n y n ",
"y r t q t t f y t q f x x s l f f z S b S l c U U W x f V z c b V l U W c V U c c S V S S U W U ) _ S c Q _ _ ` { ( T T ) W R R T _ | | { R U U _ ..R R } R T W Q Q W R _ U Q | +.| | +.@.@.@.| _ ` | ] +.+.] ` ` ` ' _ _ ` ` } ( R _ Q Q Q R Q R R _ R ' | ( R _ | +.+.+.} R W R R U T T ( | ] ] | Q U _ | { R _ R U U U Q R R Q T T { _ ( T Q { ..{ _ _ | ` ` ` | +.+.+.+.@.+.o.#.+.@.@._ { ..' _ { _ ( _ | 1.' 6.6.' ` @.@.@.@.6.o.} _ ,.[ } ) } 7.7.5.4.| } ( | @.` R } ) T W ) ) T ( } R ` | ` { | ' | | | { ` ` ` ] | ` / ( | +.+.+.| ` ] @.} T } } R Q Q _ R R [ Q ( +.| ( ` | | | +...} ) [ _ [ ,.) } 4.@.+.@.6.| _ +.7.| | } Q R Q Q ) R Q ) Q _ +.o.` ` ..4.o.| +.4.+.+.5.#.#.$.7.7.@.@.@.6.#.#.#.| ` @.| ( { } _ ( _ } _ | 6.} Q } 4.+.+.4.4.| ) _ <.| } } 4.t.7.7.7.4.[ } 6.| _ 1._ _ [ } _ ( _ } Q { 4...` ' ' } _ } _ { { { | | { { { +.| +.+.@.+.+.4.| _ | _ Q W ) Q R R [ R _ <.} R [ 1.4.| 4.4.} [ ,.[ [ } ) } 6.@.+.+.@.{ _ O.+.{ ` _ R R ( ( R T _ _ ( } { { { } 1.{ { { | o.+.4.+.{ ` ` _ ` R H R } _ ` _ H H W U b U b b b T U x U Q b c U R R ! _ Q U V V W S c R { _ Q R R U c R _ b V V x x x B x x x b V U U b b W Q R W W U c c V V U V c U W W F l l x V B f l V e f f f f y x l f z x f l Z S V h x l f f f w f f x c c x x y y r y l y y y r t r t y n ",
"t r t 7 y r y t t 7 M V c h x h V c b l h h h e c c x c c c x S V V R Q c E ) S S F V S S R ) S ) } T U ) _ _ _ _ W E W R R Q W R ( { { { ` } R ( | R ( } R R W W ) R ( <.R Q +.@.+.+.@.@.+.{ { ' ` ..| ] O.+.+.+...` ` +.] ` { _ R _ ) Q ( R ) R ` { L _ .._ _ | +.] +.+.) R ) R W T W U T _ { | | } ( _ | } Q { _ U W U W R T Q W T { | } _ _ ( _ _ ( { | { { { | +.4.+.@.+.+.| ..+.@.+._ | 4.' } } { ) _ 4.4.' 6.6.] @.#.@.#.6.6.| } } [ _ } _ _ | 4.4.4.4.4.} ..+.{ ( | { ) W Q Q R } | R | | ` | | | +.| { { ' ` { ` ] ] ] _ | ..] | +.+.+.6.| R | | ( ( Q _ ( _ 4._ ( +.| ] +.+.| +...| ) [ | _ >.| } _ _ 4.6.@.6.6.+.@.7...| | _ ) ) [ ) ) [ [ Q } +...` _ ..4.+.+.o.4.+.| 6.@.@.7.7.6.+.+.6.7.@.#.7.| ] 6.| _ _ _ _ ( } ..` | 4.} | 4.6.4.+.4.} _ } } } | } } 1.7.7.7.7.t.4.| 4.| _ 4.{ } } ,.[ ( } 1.R _ +.| | } +.| { ..{ | | | { ' | ..| +.| | +.#.+.+.7.4._ | | _ Q Q ) R _ ,.) _ 4.| { 4.4.+.+.4.| [ ,.| _ ,.} _ _ | +.+.+.@.o.] +.+.R ` { ( ( ( _ ( ( } { { | } | +.+.+.+.| ` +.| | | { ` _ _ ` { _ R _ _ _ { _ H R Q H b U S b b W U b T R b b W ( ( _ ( E U F F S U S U R _ Q R _ ( U W ) S S S S S B B l B S U S U W S b W Q R W W U V V V V U U U E E V x l B x z B f B S f y f f y l V B y x x x U S z V l l f y l f f l f l x c z S S S l l B y y f t y t i t n ",
"y 9 9 9 r y 7 t t 7 y V S z h x S l f x x x x h x z z z V x x x F V U [ U W ) U S S B x S ) ) b T _ _ _ _ _ _ _ R W W U ( _ W W ( R W R ` | | | { ` R ( } _ R W Q W R { <.) ( | +...+.o.] ] | | | | { ]  .] | +.+.] ] ] ] ] +.+._ T { { R R Q W R | { K _ ] ` ..| X.+.+._ ) R R _ } R U E U T _ { | { _ ( | } R { _ W U U W S W ) U W } _ { { } Q _ _ | } } } | ` { +.| @.6.+.| | @.+.@.+.` | @.| _ } _ ( | 6.4.' 4.+.+.@.#.#.7.4.| } [ _ 4.| _ _ _ ) | <.4.4.4.4.+...} ( { | ( ) ) W ( { } R { | | ' { ....] ' ` } _ ` ` ` _ ` ` ` ] ..] ] @.+.4.{ ( } +._ R ( R ( { 4._ ( {  .+.+.+.+.| } ) [ [ _ | 4.{ [ _ ) } +.6.+.@.@.6.4.} { +.{ Q [ [ R _ 4.[ R } +.{ { } } | @.@.+.+.....| @.6.6.@.| ..4.4.#.7.6.#...` @.+._ ( _ ( _ ..+._ { +...6.6.+.+.| } [ } _ | +.} } | } | 4.7.5.7.7.4.+.| _ 6..._ ,.} ) _ | <.( R } | { } | ..| ' | +...+.' _ | +.{ { | | ..+.+.@.7.+._ | 4._ W ) W ( } <.Q _ | | +.4.o.4.4.<.) ,.>._ ..4.} _ ) [ _ 4.+.+.+.| +.| L _ | _ T ) ) R _ } ( _ | ..{ | | | | +.| | | { _ _ } | _ ( ` ` ' ' _ _ R R U T _ R b S U c b Q U x U R R R R R R W U U S V W W U U b S T R Q ( _ _ ( R S U W S x Z B f c W S c W W S c S U Y U U U U V V V B S U U U c x B Z h l B f l V l w t d t l V l f l f z b S c B f f y f d d l h f f y f c c c S b S l y m M y t t p t y ",
"y 9 4 9 9 r q y f w y V x l x V f w t x S x c c x c V h S V b c V c E ) S U [ Q U S S B W { _ U U _ { ` { _ ) W W Q T ( { ' } R W W T T _ ` { | ` ` ( ( | { ( T W U _ 4.| Q Q { +...| ..` ] @.+.` { ` | +...| ] ` ` | ..| | | .._ R | | R W Q W _ +.{ R ( `  .+.| | | } ) [ R R { ..{ W W W U R _ | | } _ { _ H } } ( W U W S ) _ T R { ' { { } _ } } | | { ..+.| | +.+.@.@.o.| +.#.+.+.+.` | 6..._ } } ( +.6.+._ @.@.$.#.$.#.@.} [ } { 1.6.4.<._ [ [ ) [ 4.4.4.4.6...` ( | | ( Q ) W } +.{ R { | | ` ..+.| _ { { | ` _ ` ` ] ] | ` | +.] ` +.` { { ( | +.} R ( ( _ +.4.} Q | @.+.| +.+._ Q ) } _ } 4.6.| _ [ } ( | 6.6.4.@.6...( | 4.| ) [ [ Q { 5.} R } +.| +.+.{ | ..@.4.4.+...| 4.6.#...| 6.6.@.6.7.#.+...{ #.#.' _ } R ` #.@._ { 6.6.+.4.4...{ _ } _ ` 6.7.4.} 1.| } | 6.6.6.7.5.6...' 7.4.[ } ,.) { 7.4._ Q | +.{ ....| ] { +.+.` @.| _ | +.| ..| @...| 6.#.5.{ ( 4.4.| R ) W ) ..1.) _ } | | +...6.| ) ) ,.) <.6.7.+.| Q [ [ | | ..| o.@.| R ` 4.} R ) ) R | 1.( _ +.+.{ | | { { +.| { { ` _ { | | ` ( _ { ` ( _ R L ( T U ` _ b S F c H _ R k T Q K R R R U V V S S U _ } W U U S c R _ Q _ [ _ W S E ) W V V B f S R S c E R W U S c U U U E E S V V x c U U U c S V V h x B y f F x t y f w B V f f f l x l V V x y t f f y l B B l y t y M V x x x l t r y M f r i p i t ",
"p r 6 1 9 6 r f f w f f f y B B f r y f M x c h V c x x z V U S V S ) W x S [ W E V B F R Q Q S T _ ` _ { R W U W U W { _ ` | _ R U T T W _ { _ _ ` R ( | { { T b R { +.{ U _ { | ] ] ` | O.| ..| ` ` ] ] | | ` ` ' ` } | | ' } ( Q <.4._ E U _ | | { R ( | ] ] | } Q Q ) Q R ` ` ` ` _ U W R U W } | } _ { R U ) { _ W S U R _ _ U T { | | _ ( } { _ ` ` +.| | +.+.+.+.+.+.| +.+.+.@.@.+.` +.6.+.} ) _ | +.@..._ #.@.@.#.@.| ` _ _ ) | @.@.+.4.} _ ) [ ) _ 4.7.5.+.| _ ( | | ) U W _ { | { R { | | | ..4.} ( _ | | | { _ _ ] ] ` ] | o.` ` ` { { { Q } 4.| R W R { | 4.` _ ..| ] +.| _ ) ) Q ) | 4.+...+.| Q [ } ) } 4.7.+.+.+._ } +...[ Q W ) o.4.} Q } | | | +.6.+.{ | +.4.6.+.{ +.6.+...+.4.@.@.6.+...+..._ @.#.} ) ) _ ] +.+.` { #.+.@.@.| } _ { ) { @.#.@.6.+.} } <.| | 4.7.5.6.4.| { 4.4.| ) [ _ 4.6.1.R _ | | +.@.| { ] +.{ } ` +.+.{ ` | @.+.+.@.| +.@.6.| { Q } 4...( W ) { | | _ Q | | { +.1.} ) [ ) ) | 6.@.+.#.@._ [ >.} _ } | +.+...R _ ..4._ R W ( 1.| R _ | | | { | | { { { { ` } ` { { { ` ' _ _ ( _ R ( R R U U ` _ H b V b R _ W b U H b U R U x l l x U _ R ! _ R c S S c U _ _ Q Q W U S Q ) S l l x E U S V V E W R U S S S U U E U S B z h z U U z V B B V B l t t B x f t t y x x w y M l l l x l f y y t f f x l x l t q y y l x B l x f r y f t t r i t n ",
"M B y 1 6 6 d B f t y f B y l l B f B f f l x x b V S h h x c V U W Q W B S [ R W U F Q _ Q Q U R } ` ` _ T U W T R { ` ` ` { ..` T R R T R ' _ { { R ( { ..| R H ` | | Q U } | ` { ] ` | ] ` ` | ] | o.] ..| | | | _ _ _ Q ` | _ _ | 4...Q R | +.| _ T } +.] +..._ W Q ) Q Q | ] ` ] ` W U E W W Q _ } } | Q W _ { _ Q W R { } ( T R } _ ( ( _ { | ` ` ` | ` | +...{ { +.+.+.@.| +.+.@.+.{ | 6.#..._ } 6.+.+.| ' 7.@.@.#.+.' _ } _ { @.@.+.+.6.4.[ ) [ ) ) } 4.+.| | _ ( | | } R ) | | | _ R _ | +.| +...` ( { _ { { ` ( _ ` ` ` | +.| ' ` ` ..| { R { @.+._ T ( +.o.+._ _ +.+.+.+.} ) [ _ ( } +.+. .+.+.| _ ) [ ) ) | 4.+.+.4.} ` +.4.| ) R } 4.4.[ R | +.{ | +.6.6.@...| 4.6.+.} ..6.@.@.6.+.@.#.@...| +..._ ..#..._ _ | +.O.@.` | 6.+.#.+._ _ { _ _ +.@.$.@.7.#.| | 1.| } | 4.5.7.6.| } 4.7.4._ _ | 7.+.1.Q | 4.| | +.| ....+.} ` +.+.+.+.` | | +.| | +.@.@.+.+.1.) } 4.+.{ ( | @.| <.( ( 1.+.| | _ ) ) } ) [ 4.#.+.@.#.@.+.| [ ,.[ _ | +.+.4._ ` +.4.| ( U } 4.| T _ +.| | ` { ..{ { | { ` { ' ' ` | ` ' ( R _ ` _ ' _ Q T T _ ` ( U S R _ _ W H R R K R T c l x l B W ` ! R } _ b c U c c U R Q ! R U U ) _ U l l U W U S x V U W U U b c V U U F B x V F l x S U V z l B l f d w f l f l y l x x l y f S x l l l y f f y w l c k x V l f t y y d B l x V B m f B f d 0 t t B ",
"l B M t t t l V y q f f B f f e x x l l x y h c V c c x B l l l B W E E V S Q _ Q T R Q ( _ R U _ { { ( W T R U U _ { _ _ ` ` ` { _ T U R U R ` { | ( K ` ] ` _ ` { ` ` R U { | _ ( ' | ` ' ` _ _ ..] ] ] ] | | | { } _ _ { { } ( ( +.+.+.{ { o.` | _ T { +.#..._ Q Q Q W R ` ` ' ` ` ` ` T S E W R T _ { | _ U } ` ( _ ( _ ` _ W U R } R R R } ` ` ` _ _ ' ] | ` ' _ { { | | | +.+.| ..+.` | @.+.6.+.@.@.+.#.{ _ 6.$.#.+.{ } } ( ` @.+.O.X.+.+.+.4.[ Q ) _ Q _ [ | } ) ( ' ` | | | ` ` { R T _ } | ..| } | _ _ Q _ _ _ Q R R _ ` ] +.` ( } { { | } R _ | +.{ _ { +.+.+.Q _ 4.#.| { _ } ) Q } +.| ] +.X.` +..._ W R R ) _ ..4.4.} { | | +...<.+.o.+._ W } +.} } | ..6.6.4...+.+.| | ....@.#.@.#.@.+.........| ( ] +.+.| +.+.O.+.+.( +.7.#.| { _ _ Q _ ..+.O.+.@.+.@.@.| } | } _ } | 6.7.| ( 4.+.4...| | @.+.{ R 4.4.{ { | | +.| } _ | | | | +.| { ` | { | | +.| +.| <.) } +.o.| | +.+.o.| W ( <...| ) Q ) ) Q ) +.+.+.@.@.X.+.@.+.[ [ } _ _ | @.+._ { +.+.| { { | o.} R Q | ..` } _ _ { { ` { ` _ ` { o.{ _ _ R ( _ _ ` _ _ ` T b R ` _ R ( R L ( b c Q Q R W x x x f c W Q R R _ R R U c c c x l b R _ W S U R R R U U U R U x x S S S c V c S S U U V x x x V z x x S V x f l f f f f y f y l x V l x y y l x B l y d y y w y h x x c c l h x f t r y y f y l l y l x V M t r d B ",
"B l x l f f l l w t V f l f y y B V B z V l l x S c l S U V S x B S V W U c R _ Q R _ R R R U S Q _ _ T E R R U Q ` ` _ R R _ _ ` { Q T W W R ( { { R K ' ` ` ` ` | _ ` ( U ` { ( L _ { ] ` ' ` { | | | ..| | | ` _ { { | o.| | ( R +.+.{ | | | ` { _ T } @.| { Q Q _ ) W _ | _ _ ` ` { | _ U U Y R T R _ { Q b _ _ ` { Q _ ' _ U U R } R ( ( | ` ` ` ` ` | ` ] ' ` | | ` | | | { | ] | +._ | +.+.#.@.7.@.+.#.' ' 6.@.@.{ { } } _ ..+.+.] | +.o.+.6.| <.) _ _ ( _ ..| _ ( ` ` ..] { ` ` { R R } _ ' | { { ..| } } _ _ { ` _ Q ` ` +.| ` _ | | ' | } R _ | +.| +.| ` ] ..( _ 4.| _ _ _ _ ( { +.+.| ....| ] +.+..._ W ) ) R } 4.4.} | | +.+.@.4.o.| | _ Q } ..| } } | ..+.6.@...| | @.4.| +.@.@.#.@.....+.+...| ) ] @.+.@.6...X.+.| _ @.5.` { } { ( R | +.+.] +.+.o.@.6.+.| [ [ _ } { 4.4.{ _ | | @.+.+.| @.+.{ R | | _ } +.| ..| _ } 4.| +.| +...| | | | +.| | | @.{ } R _ +.+.o.@.| | { { W [ 4.| ) W ) } R R | @.+.@.+.+.+.+.+.+.| } ) _ ) } +...R ( | | ` +.+.+.] | Q _ | 4.| | _ ( ` { ` { { _ _ _ { { ` _ ` ' ( R ' ' ` ( H b R ` _ ' ` R L R c c Q R T S x x l l U _ R R Q _ R R R R U z c c c U _ W U b H R R R R U R S h B S l l V c U W W W F F U U c S V x x S z l l f l x l B y l l x x x x x f y f B l f r t f y t l z x f l h h h x l f t r r n y l f t f x f x l y M B ",
"f l f y y f V l w t M B y y f f f V x f x V x l x x z z S U E V S x S U S V W W ( R Q W R U V c W Q U S E S S T ` _ ` _ ( Q { _ _ _ { Q U W R U _ _ H H ` ` ` ` ` _ ` ` R H _ ` ` ` _ _ ` ` ` ] ` ` { | | | } ` { _ { | ` | +.} ( Q | | { { { ' ` | ( U { | _ Q Q _ Q Q _ { ` _ _ ` ` { ` { _ U U R R T Q { Y S W _ _ ( ( Q ' ( U W W _ _ _ ( ` | ] ] +.+.| ` ` ` | @.+.+.| ` ' _ ` | | | _ ' @...+.#.@.@.+.+.' _ 6.@.` { } _ _ | +.X.+.] ] | +.o.+.4.4.{ _ ( _ ( } | _ R | ' ` ` ` ` | ` R T _ ` ' _ { { { { +.| { _ _ { | { _ ` o.` _ ` | | | | { T _ { | ] | { ` ` | R _ } _ W ) ) W _ | | ] | +.` | ..` ..+.| [ ) ( ) ( | 4.{ } | | | | | | | { _ W [ } } ......| | +.+.| | +.+.@.+.....@.....+.+.+.+.+.} ( ..+.O.@.@...] +.| _ +.+._ _ } Q Q { +. .+.+.+.| +.| +.6.4.[ _ ) [ _ | 4.} Q | | | | | +.@.| <.W { { ..| | | +.' | } | | +.o.| { | +.+.{ +.| | | | { _ T { +.| | +.| { ` } W ) 4._ W ) ) ) R { | | | ..` | o.+...+.+...) Q ) ) | } U ( [ | ` o.+.] ` +.Q ( 4.+...{ { { _ _ { } ` ` R R ` ` _ R _ ` _ ( ` ` _ L c U R R _ _ _ R K R U h E W c c x h x b W R R Q R R R K R Q W U c x c U W W b b U U T U T U U c h l V V V S W W W U U V U E V c V V c x x x c z V l l l y l V x y h x h l y r t l f 7 r t t y f x f f f y e f y h l l e t r 9 t f f t t f f l h l f M ",
"y l y t l f M t 6 6 M B w f M f l V l y B S l f l l V x V V c S U V E U S S T T ( ( Q ) Q Q F S ) W S V U U R _ ` R Q _ ` _ { _ _ _ } { ) W W R ( R H R { ` ` ` ` ! ` | ! R _ ` O.O.` _ ' ` ` ` | | { ` _ _ { _ } { | | ' | { { } Q } ..| | ` ` | | ( W _ { _ ) _ _ W _ | ] ` ` ` } | | ` ' | _ T W R T Q { ( W ) ( R _ _ _ _ ( Q W U _ ` ' ( _ ' ] ` | ` ` _ _ ` +.] @.+.+.' ' { ..] +..._ } +.+.@.@.@.@.+.#.| _ 6.+.` _ } _ { @.+.+.+.+.] | 6.+.4.4.+.1.[ R } _ } ..{ ( | ] / _ | ` ` | _ R { | } _ | { { ` | { ` _ _ ( _ _ _ | ] ` _ | | { | | } R { { | +.] ` ' | ..R Q | } Q Q R ) | ..] | +.+.| | | | | o.+.+.[ ) _ ( } 4.{ { ..| | { { | | | } W [ ..| ..6.4...+.+.+...+.@.+.+.#.+...@.+.+.@.#...+.$.| ( +.#.+.+.+...O.#.+.( | 6.{ [ [ Q { #.+.] +.+.+.@.#.| +.@.5.+.| Q ) _ { 4..._ 4.| ` | +.| @.+.4._ _ ..6.| | | @.+.@.| | +.+.| ` ' ..{ +.| | | 4.| | | _ W | +.| | | +.| | 4.R _ 4.) W [ ) Q | 4.| { ` ' { +.| +...+.4.4.} ) ) ) | | R _ } +.] o.| ` ` +._ ( | { { { { | ` _ _ ` { ` ( ` { | _ _ _ _ _ _ _ ( L Q U T R R ( R _ ( L _ W h U W c S S h b _ R R R R ! ( R R R U R ( U h c b U R b U W U T U U H U T x l S U S U W U U V x V U F l h z U S z z z V S S h x x y l F f w l l e l x y t l y 7 t y q f h h y l h h h f f y f f h l t 9 7 y B d t d f l f M l l ",
"f y y y y f t 6 w r t t y d M l x x f y l S f f B x x x c k c z B S S W E z W T W W R U Q { W S R W S V U ( { _ R R ` _ _ ` _ _ } ` _ { | W U R ) _ R R _ ` ` _ ( _ _ { ( L ` ] ] ] ] ' _ ` ` ` ` | ` _ ` { { _ ( | o.` | { ` | _ Q } | | { } { ` | { W _ } R ) _ ( _ | ] ` ` ` ` ` ` { { ' _ ` _ U U W T _ Q U _ ( R ` ` _ R _ R W U Q R ` ` ` ( ` ] ` ! _ ` { ` ` | o.] | ] ..+.+.| +.+._ } +.+.@.+.+.| #.7.} } 4.{ _ [ Q } +.+.+.+.@.| | | +.4.+.{ | { | ) R ) } | _ ` | ` ` _ { ` ` ..! _ { | | } } | ..` _ _ | ` _ R ( R _ ' ` _ | ..{ ` | | { R _ | ..` ` _ ` ....R Q | } ) E Q | | ' | | | +.+.| ` +.+.| | | | _ R R _ ..{ _ 4.| ` { } { { | [ W _ ..| | ..+.4.6.4.| 4...+.#.+...@.#.@.+.+...@.+.+.+.| _ +.#.+.+.+.] +.@.| { +.4.| [ Q | @.O.O.O.+.] @.@.6.@.+.| +.6.4.) ) ) } 4.} _ | +.| ` | | +.+.| _ { +.+.+.+.{ | @.+.+.+.| | ' | ` } } | | | +.5.| ` { } W { +.+.+.+.{ | | 4.Q [ <._ R ) ( } +...| ` _ { +.+.{ | | +.+.@..._ R } | | _ | 4.| o.o.` ` ` | R R ` { ` ` ` { { ` ` | { ` ` | | _ L _ _ _ _ ' _ ( R R T U R ( L ( R R R Q W x V U S V c H R R R _ R R ` ` R K R R R R U x h x U U S U E Q R W T H U W x x V z c V S U b c S V U U l f x V V V V x x z S b V x y l l y y y f l V V l t y t r r t y f f h l f y l x f w f f l l l M n 6 t M t t f y f l B l f ",
"d f f t y f y t l w t 6 d f l V x f x f l B e d S x l l x V U x z U E U U c Q R T T R R ( { Q U Q _ b x R _ ( L K ( ` _ ` _ R ` { { _ } } ) R U _ | _ R ` ' _ L _ ` _ _ R R ' ] ` ] ] ` _ ` ] ] { | | ` | | { { _ | | | +.{ | .._ ( | ..{ { | { _ | } R } | Q ) _ _ ..| _ ` _ ' | | ' ' ` _ _ ] } R T R R { _ U _ ` ( _ _ R _ ' R E U T _ ' ] ` ` ] ] ` _ ` ] | ` ' { ` ` {  .@.+.+.@.@.+.( | @.+.+.+.+.+.@.6.} { 6.| _ ) { +.+.] +.+.+.| ..' | } { { ..{ 4.} ) ) } .._ ( | ` ` _ _ ` | | Q Q { { ..| } | | _ ` ` ..| _ _ ( R } ` _ _ +.+.+.{ ` | | Q _ | ] ` | ` ` | ..Q _ <._ W R | +.] ` | ] | +.+.| ....| ` _ ` | _ W R _ 4.{ _ | | ` | | { { { [ ) } } ' | ..4.6.+.| { | ..+.6...} +.7.@.+...| +.#.+.+.} _ 4.+.O.+.+...+.+.+.{ 4.+.| { | #.@.] +.O.] +.@.@.+.| } | | | 4...[ Q } 1.<.( | +.+.` | +.+.| | _ } +.+.+.+.{ | | @.@.@.| ` ` +.] { { { { @.+.| ` ` | 1.Q { +.| o.| { +.+.4.) [ | | ( Q ` 6.| ..| ' { | +.+.| | | +.o.@.+.{ _ ..+.| _ 1.+.| | | { +.` ` L L ` | ` } _ { { ` ` ` _ ] ` ` ` R L _ _ ` _ ` ` ' R R T K ( _ R R R _ ( Q E c U W S z b ( R R ( _ R R ! R R R T Q R R R U x x E W c U W U U U U U U V l l S V x x S E U E E U U V z x B l x l l h V V F c c x f f l e l e M c V f r t l y 7 t d y f y l x f e l f h f l y f w f f y r y l t t l f f l l f y ",
"t d y d t y f y f y t 6 d d l x l y l l x l f f V V S l l x c U W W W c c z W Q ) U R _ _ _ U S ( Q U b R R K H R ( ! _ ` _ ` ` { _ { _ _ { R T _ | ( R _ ` _ P ` ` L L R _ ` / ] ' ` ` ` ` ] | | { { { { | | { _ { | +.+.{ ` { | { | | ` { } ` { { Q W } | _ R ) } | ` ` _ _ ' _ ' | ` _ _ ( _ ` { T U ( ` Q b R _ _ R T R R _ ( b K _ ` ` ` ] ] ` ` ` _ ` ' ` ] ..` ..` | | o.@.6.@.@.{ ( | +.+.+.] +.#.7...{ { @.+._ Q | +.] X.o.] +.+.| | | { | } } | { | | R _ 4._ R ` ` ` _ _ ] +.` R R { { { | | { { _ ` { ` { } Q _ ` { ` ` ` ` | +.| ` | { R _ _ ` ` ` | +.| | R _ ..( R | +.] ] ] ` | | | { +.+.| _ ` { | { { _ R ` 4._ R { { | | } | | } _ W [ } _ ..+.+.6.+.| | | +...+.+.| } +.6.+.| | +...+.4.{ _ +.#.+.o.+.+.+.@.+.{ ..4.' _ @.+.O.+.] ] +.] +.#.+.| | | +.{ +.4.[ W [ 4.<.R { { ] ` | @.+.` { _ _ | +.| | | ..{ | +.| { | | ] ] ..` ` { @.+.{ _ | } } Q } +.` { | { | +.4.R _ 4.{ { { +.+.+.| ' | { | | o.+.@.| { | | { | | | +.+.( } { | ` | ] +.` _ K Q { ' { { } _ ` ` ( _ ` ` ` ` _ R R R _ ' ` ` ` _ _ R H U Q _ R R R _ ` _ S l W ) b k S R L R T H U R Y Y Y K U R R R R R V z W R c c U U c z c c V l y B U V x h c V U U U S z x B V x l h f x x V U B h x V y t l y y l B x f q r r l y q y l y q y l y f y y w f e e l l y y t t q t l t q y y f f y q y ",
"q r M M e l f t 6 t f t y y l x f f M f V B V l B S c l f l B U Q E V x S x U R W U W W ( Q S S ) ! ) R ( R R R ` _ R ( ( _ ' ` _ ` } ( _ _ R ( { { Q R R R ` ` ` ` L R _ _ ` ] ` ] ` ` ' ` _ ` ` ` { { _ { | { ` { | | ` ` ` | } _ _ { | { _ } | { U U } 4.( T _ ..{ { ` ` | ' Q ` { ` ' } ( _ ' | Q R _ | T x U R ( R R _ R _ R H _ | ` ] ` ] ] ` ` ` ] ` ` ] O.] +.+.+...] | +.6.+.+.| ( } ] +.@.+.#.#.@.{ { { +.@.{ | 4.| +.] +.| +.+.{ +.+.| 4.} } | { ..| { } +.( R ` _ ` ] +.{ ` _ R R | ` | +.| ( | } ` ` { ` { _ ` ` ` ' | ` _ _ ` ` ..| _ R R ( ' ] ..| | ` { R _ ..} ' +...] ..] ` ..| | | | +.` _ ..4.+.+.+.| _ { 4.Q R _ { | +.+...| ) W W ) } | +.@.+.6.6.@.6.6.+.+.+.6.+.} | 6.+.| ..6.+.+...} ( | @.+.+.@.+.#.| { } +.@.' ' +.+.O.O.+.+.+. .+.#.+...+.+.4...+...| } ..4.} R { { ]  .@.+.{ ( [ _ } | ..{ { +.+.{ | | | | +.| ` { ` _ _ | +.+.| { ..{ } ( } | ` { ..{ | | <.( [ 4.` ' +.+.+.+.| { ..+.+.| +.+.+.' { { | ` ..+.| +.+.R _ } ` | +.o.| ` _ R _ | { ` | | { _ _ _ { ` ` ` ` _ ` ( R ( _ _ ` _ R ( ( H T R R ( _ _ _ ( R S x U Q T H H R R H b b U R R R R R R T R R U U S T { W x x c U U S S x x h y V E V S z x z V z c B x x V V S c l x S B S V z h x V y y l y f l y t y y d t y f y y l t q f x f l l w 7 w y l z x l y f m t y M y r y y f y y t f ",
"r 6 t f l M n 6 1 t f t r y l f l f M f l V F V F V x h l f l V V z S V Z l S E x x F V U W S V W _ { _ ( R Q Q ! _ ` L H R _ R ` { _ _ _ { { _ { ' L T ) K L { ] L L ` L L ` ] ] ` ` _ _ _ ` _ ` { ` ` ` } { { { | ` ` { { ` } _ W Q ( { { | | Q R W S _ | _ _ ..+.] ` ` { ` ' _ ` _ ` ` | ` _ _ ` { _ _ ` T x W ) H K _ _ R R K H _ ` ] ] ` ] ` ] ` ` ] ` ` ` ] ] ] ] +.+...| | ..{ | | R } | ' +.#.#...` | } _ +.| o.@.@.@.+.| ` +.o.| | { +.+...| +.{ | { | { | ..R R } ( _ | +._ _ _ ) W { o.| @.{ _ ` ' ' _ ` ` { ` R ` { ` ` ` ` _ ` ` ` { ( K _ _ ( _ ..| ( _ | Q ) } | ` ` ] O.] ....` | ..| | } ` { | | | ....| ` ` | R R } _ _ | 4.+._ W W W ) | | | +.6.@.+.6.6.@.@.@.+.+.@...| ..+...+.#.6...| _ _ | { +.@.@.+.} _ } _ | @.| | o.] O.] +.+.o.#.+.o.| | | +.| | +.| 4.4.1.| _ R } | _ ' 4.| R ( } Q _ | | ` | | ..| | } ..` { | | ` ' _ { o.| | | | { | <.W _ ( _ { ..4..._ <._ _ @.` ` ..| +.] | ..| { ..+.+.{ | ' | { { | +.| ..+.{ T } | L { +.@.` L { R Q | ..` | | | ` R _ { ` ` ` _ ` _ _ _ _ _ _ _ ( R R R H T R H T _ _ R H U V h V E U R R K H U U U U H Q Q Q R R Q R T K H U W _ U l V x x S U c x l f f l S U c x B V c x l l x z B c S V V c c c z l x h h l e d l w f x t t B l y y f y f y y q y y l x B f t 6 t l x h f y y y y f l M t q y f l y f t w ",
"r 4 t y B y t y r 9 d y y l l f h l l l x B B B Z V U c S l f l V z W U Z l W U x x E V S Q W x T _ Q U U U _ R R _ ` R H R _ _ { { { ` { { ..{ { ` L R } L K R ( L ` ] L H _ ] ] ] _ _ _ ` ` ` | +.{ ` | { { | | { ` ` | | { } Q R } ) R { | _ T R _ W Q | { ` } _ ` ` ` +.` ` _ ` ` { _ } _ L _ ` | | ` ` R b _ _ K T T _ ( L Q K R _ / ] ] ' ] ] ` ` ' | ] ` ] +.] +.] +.+.+.{ | ` ] | R | +._ ' | +.} | 7.| _ +.+.X.@.@.+.+.' | | +.@...{ +.| | +..._ ` { 6.` | { R ( .._ _ _ { R | ' { T } | o.+.{ ' } _ | ` ' ` | ` ` | | ` _ { | ` | } _ { ( K } } ( ( _ _ ( ' 4.( R { ` _ _ ` O.] +.+.| | ` | ..{ ` ....| +.| _ ` ` +.| R _ 4.{ ( } | { ( { <.R _ 4...| ..+.+.+.+...+.@.+.+.+.@.#.....+.+.| +.+.| .._ _ | { ' | 4..._ | 4._ } @.@.+.@.] O.O.#.] ] ....] | { | +.| +.+.| | { { | [ R <.1.( ( | { _ { | R _ 4.| ` +.{ | +.| { { | | } { ` +.| +.| | { +.| | | } ( _ _ ( { ..1._ _ 4._ _ @.] ] +...| ' | +.| | ..| | ` { | +.` { +.+.+.| +.| T | 4.( ( | +./ _ +._ R | +.| | o.+.{ ` ` ` | ` ` ` _ ` ` ` ` ` ` _ _ _ ( R U T _ R v U R T H R U h x b b T T H H R R R U T Q R H c K Q U T R J H c U U c U V h V x x x l x f y V U c x B S V V B x S x z U S S S x z S l f V c x l e t l f l B l f l f t f B y f t t y l y f l l t y y l y y w t y l t t f y y q r y t t y f t y ",
"p r y r t r r y r 6 y l f l x f h f l x B l l f f V W U U S c l V V V U V h U U S S V V U Q U x U R T b b T ( _ _ R _ R R T _ ` ` { | { ` _ { | | _ L R _ ` _ H K _ _ ] ( H L ` ` ` _ _ ` ` _ ` | ] | ` { { o.o.{ _ ` { { { { { U R <.[ R R ) R U } } U ) | R R _ R R ` | ] { R Q { ` ` ` R R _ _ _ ` | ` R R U ( { L b U R H ( ` K R ( L ' ` ` ] ] ] ] ' ` ] ] ` X.+.+.X.+.+...{ ` ' ..| R ' +.| | _ [ } @.#.| _ ..| +.+.@.] | | ..` | 6.| { | | +.| { _ } } | | ` { R ( | ` ' K T R ' | Q R _ { | ` | } _ ( _ { { ` ` ` | o.| _ _ ` ` ` ` } ' ' _ H _ { ` R R R ` | | R R { | ` ' _ ` +.+.| | | { +.+.{ | | | ....{ ` { ` | | { { +.| ( Q Q _ { 3.| R { +.| | | ..+.+...| | +.+.@.@.+.+.+.+.+.+.| ..| +.| _ ) | +.} _ | _ ` +.4.) _ +...+.@.@.#.O...] ' ] ] ` | { { | +.+...| } { | { ,.R } 4.} R ) Q { { } _ { | | | | +.+.+.| { | | ..` | | | +.o.{ | | | +.| { } ( { 1.R Q | _ ( { 4._ ( | | +.@.+.` ` | +...+.| _ ` | | | | | | | ....` | | T _ | { R _ _ _ ] +.! R ` { | +.| +.+.| ` ` ` ` _ { _ _ ` ` ` ' ' ` ` _ _ _ H H _ _ b b S S U W S h V T b c b H H H Y Q R R R K b c H U U U R R H x U b z U U x l f h f l x l f l z x z V B V V V V c V U U U V z x x z l f B V x B y t B x V B l y f y r t f l f y f y f f l y e t y f f w t t f y f y y w t r r r y 6 6 r t q d ",
"M M M t 9 8 t f t r f f q d f l x f l l V B Z f M B U E U W T B V S V W F l S U T U V W ) W U x b R H H R U ( _ ( L _ _ ( R ( ` { { { _ Q R _ | | _ ( _ R _ ` _ ( ` / ' _ K R ( _ ` _ ` ` ` _ ` ` ` | | { | | | _ _ { { [ { | { U R } | { U Q { _ { _ U ( { ( _ ` _ ( ` ` ` ( R ( { ` ` _ R _ | _ ' ' _ _ R Q U R } ( b E W H { { K R _ ( ` _ ] ] ` ` ] ` ] ] +.] ] ] +.X.+.o.| | ' { +.| ( ` ..+.@._ ( ..6.| { { +.| #.+.+.| +.4.+.| @.#.| { | ..@.+.{ { 4.| | | _ ' _ R } ..| R _ R { { Q W Q { | ' | } _ ( Q } ` ` { ` ] { _ ( ' _ _ ` ` } { ' { K ( } ` _ ( ( | { { R R { +.| ..' ` | +.o.+...{ { | | +.+.+.+.| +.+.| | | ..{ | | | } R W { +.+.{ R } | | | | +.6.+.+.+.+.+.4.+.+.| ..+.@...+.+.| +.#...} _ | @.4.| } _ +.@.| ( { 4.| ` | @.#.+.| ` { ..] | ..' ' | @.| ..| } } +.} <.R { 4...` { [ ..` } _ ` | +.| +.+.@.| { { +.| +.+.@.| +.+.+.{ { { { { ` { | Q } 4.{ ( ) ) +.| } [ R { ..` | | { { ..{ +.+.| _ } { | | | | | ` _ _ | | { U ( | { | } W ` +.| ! R _ ' | +.+.| | ` _ ' _ ` ` { ` R _ ` ` ` ` ` _ R ( _ H H ( _ ( R b W _ Y z x U R H H b H H b U R K K R T H R R U T T T H c b U S z c W b l x l f x l l f f l x V V x V U V l x U W U F x V c B x V f l y e l y f l f x f y y l f q 6 t f y h h y f l l f y y f t e f f l x f y y t q y t r 9 f t r 4 t t f ",
"p Z n r t 4 y B y w y t y t e f h l f f B B B B V M l c U c V V U V c U V l F c S W Q Q ( U S l S U R U U T ( R R R R _ _ R _ { } { ` R Q Q ( ` { ` R _ _ K _ ] ` L L ' R K _ _ ^ ( _ ` ` ` ` _ _ ` { { ` ` { _ _ _ { { { { { _ W W { ..{ Q } ..` _ Q U R _ _ | | ' _ R _ ` ( _ Q _ ' ` R _ _ ` ' ` ` _ R _ R U ( _ R T T _ _ ` ` H R } _ _ ` ] ] ] _ ` _ ] +.+.] ] ` ..] o.+.| ' } } ] +._ { ..` +...4.4...} | } | +.+.@.@.@.+.+.@.#.#.+.| { ..| +.| { { | +.+.` ` { ( R } ` ` ..| _ | R ( T _ ` { | { | _ R R ( _ ` } ( _ ` _ R ` ` ` _ } ` _ { { U _ _ R ` ] { _ L } R Q | { ` | | ' ` | +.| ' _ _ ` | | +.@.+.+.| +.| ] ..{ Q _ } | { _ { | | { _ T } +.| { ..4.6.4.+...4.7...| ..+.| | +.+.+...+.....+.} _ ....6.4.} | 6.@.} ( | 6...} } | +...] ` | | | | { { ` | +.+.| { } } { ..<.R ( | ' { +.| _ _ } R _ | | | | | | { | } { o.<.{ ..4.+.+.| { _ _ { _ } } | Q _ +.@.{ { o.6.' { _ Q | ` ' ] ` ..{ | | ..+.+.} ` { | ` | | ` _ ` } | | } U ( | _ ..| { +.` { Q R { | ` | ..{ ` ` _ _ _ ` { ` _ ! _ ` ] ] ` ( R R L R U H R R R R Q _ ) U x B S U U U b c b H U c b R R K T R K R R K c b H c S U x x U b V x x S V f y f l f l x V V S S x f f V W U B l V V V V l h l w f t t f l e y f f y f f q q y t f f l f f f f f y y f e f f l f f f f q 9 q y y 9 8 y M y 6 y f d ",
"d m y t d t n y 6 r f y B h h f l z h x V V f d Z B B l B f l B U U V U x V U x c R [ W U b S x S W ) R U T R R ` R R R R R { _ _ { ` _ { [ _ ( | ` R } { H L | ` K L ' R K ' ` ^ ^ ` ` _ ' ` _ ( _ _ Q _ { { _ _ } _ } | { _ _ Q R _ } { | | { L R _ H R } ` { { _ _ ` ` _ | ' R ( ' ` _ ` ` ` ` ` ] ' _ ' R U Q _ R _ { _ R _ _ b ( | _ _ } } _ ` _ _ ' | | ` ` ] ] | ] ] ] | ' | | ] +._ { +._ { +.7.| _ { 4.` ..@.+.+.#.+.@.+.6.@.@.| { +.+.| ....+.` { | | ` | .._ ( | R _ ' | | _ R _ _ ` ` | ] } } _ R R R _ { { R R ` | _ _ ' ` ` | ' _ | { K { _ L _ +.| R K | R ) | | ` { | | } } | | ` { { | | { | | +.+.| +.+.| +.} T R _ { { | 4.+._ { { R } 4.| | +.+.4.6.@.+.6.7.| ) | 4...| +.@.+.+.6...+.4.| } 4.| +.4.+.+.6.| _ } { 4.6.@.+.| +.+.+.| | ' ] ] ] ..' ` | +.| | ..} | ..<.R R } ( { 6.} R _ <.R _ } _ _ _ <.| } | _ [ 4.} ( [ 4.4.| } { } { { { { { } _ _ { | | 6.4.{ R } _ _ +.] +.+.o.@.+.{ ..+.+...} { | | ] | +.] | 4.+...| | R _ | _ { 4.+.+.( _ _ R +.+.` } | { ` ` ` Q ` { _ ` ` ` L _ ` ` ( R R _ R R T H R R H R { R b c B c S U S U b x c R R c H _ R J R R K R R b z U U c S R b c U c c V S z h y y l x h l l V B V V x f f B U V B B l l S z f f f l B y t t l f t x l y y y q f B f f w f h h y y f f t r t y t f f f f t r t t f t 0 8 r f f f n y t ",
"m r t r y f y 6 9 t f y x x x e f x c U U l y r f Z V f y y l l B U U U x V U c S U E S c U W x c Q R R _ R R R _ ( R T U R Q _ _ Q _ _ { _ _ _ { _ R { | ( L _ R K L ` R H ( ` _ _ ` ` ` _ _ _ { { R U Q } { _ _ _ _ _ _ _ _ } Q Q { Q ( | { T U _ ( U Q { ` ( R R _ ` _ ` ` ` _ _ _ _ _ ` | ] ` ` ` ` ` _ _ U W Q R { } R K ( _ T Q { _ _ _ ( R _ _ ` ` | ( R _ ..+.] X.+.+.+.+.+.+.#.+.( } ..} _ _ | _ _ | | ` | +.+.| +.+.+.@.+.{ | | ..| +.+.+.| | { { _ | | ` +.| R } _ R R } { R R } ( ! { | { | _ ) W W ( ` { Q U U _ { ` _ _ ` ` { ] ` | | K { { K T } ` R R { R W } +.` ' ` { { } _ ` { +.@.@...| { { { | ..| ..+..._ T R _ Q Q | 4.{ R { { R { 4.+.@.4.4.4.4.+.@.5...[ _ } ..4.+.+.+.+.+.@.#.+.+.| { 4.| _ | 4...} ) | } _ +.+.@.+...+.+.@.@.@...] ] | { _ _ | ` { | +.4...} } ) ( _ W ( { _ T _ | Q Q | ( T ) _ } } } } | } [ R _ } 1.} } { | } { { ` | | ( { Q ( _ 4.{ ( R | _ ( +.+.] +.+.+.+.+.+.+.| | _ _ { { +.+.] | ` ..+.| ` | ( _ <._ Q } | } K _ _ Q 4.4.| { { } ` ` _ _ { ` R R ` ` _ _ _ ( L ( _ R ( R U H ( R b U Q U x S V h S U b c c b R R K c T Q R K H T R T H c z c S U U W U c U h h S S f e t y f x z l l x x z x l l B B l l V B f f x z f y l l x x q t M w w f l f f q r t l x h y y y f f f f f w 6 r t r r y f t t t f f t r t 8 8 q f f y 8 7 ",
"d t r 1 9 t 6 6 f t t f h h f f f f S V B f y y y B S l e f V l B F U U x B W S S V B c S U U c U R T T _ ! _ R R ( Q U U T ( Q _ _ _ _ _ _ ` ` { _ _ | | _ R R T T R _ Q b K ` ` ` ` ` ` ` ` { { ` Q E R } | { _ _ ` _ ( ` { | _ Q [ W R } ) U R { Q T _ { R T ) _ _ ` ` ` ` { } _ ( ( L ( ] ] ] | ` ` ` _ ( U Q ( T Q R R R ( { R L { ` _ _ _ ` ` ` | ` ` R Q ( | +.+.+.+.] | +.@.| +.+.( } | } _ ) } _ { | } _ | +.| ..+.+.@.| | { | ..+.{ | @.@.| | +.+.{ } | | +.{ R } { R W _ ( R ( } R R { ..} { _ _ ) Q ` ' ( U U Q T _ { _ _ { ` | ` ` | ` K { | R H R ( R R } R T } | ` | ` | +.| ` _ | @.+.| | +.+...{ | +.| ..+.| { W _ [ R R [ | _ R } { R } +.+.+.+.4.+.+.4.@.+.{ } } _ } 4.#.+.+.@.+.@.+.+.6.| { 4.| ( } ..} ) _ 4.} _ +...` ` | | ` ....| +.] ` .._ R ` | ` { { | | ` _ } _ _ { T T R R R _ } R Q | } _ _ _ | { } ..4.[ _ [ } ) | | | { } { { ` } ..} R { ( ) R } _ ( ( | _ ( +.+.| | ..| +.@.+.+.| ..{ | ` { | +.| ` _ _ { ` ` | ) ) <._ R _ } R R | _ _ ..+.+.{ _ { _ Q _ { ` R R _ _ ` ' ` _ _ _ ' ` ( ( R H T _ R b S E U c U V x S T U c c b R H c H R R R b c H R R K H c c b U H c x c S f f B c s y f f e x V c h l c x h x V S l y f V V x f x V h l c h x x q y M y e q d y y t w q M x h f y y f f l t 9 6 9 y d 6 4 7 t t f y m t 7 9 i 9 8 9 y r 9 1 6 ",
"t y 6 1 8 9 6 r d w y l s y h f f y M M y y M y r y B x l f M B U S V S x V S S c x S V c U U c U ) R H U R Q R _ R Q U U U R Q _ _ ! ! ! { ` ! { { R | { L R T R R T _ _ H T ` ` ` ` ` ` ` | { R R _ R W Q { | { ` ! _ { | { { _ W W R T R R W U ( Q T _ ( H K ( _ Q ` | | | | _ ( _ _ L L _ ` | | { ' ( ( R U Q R U H E ) R R } Q ` | / _ | | ` | | { _ ( ( { _ ` ` +.] ` ` ` ' ]  .] ..( { { ( } } [ { { { { _ +.+.+.| +.| | { | { | { ..{ ` | | { | | | { | | +.+.( R } _ W E W W ( R _ R _ ` ` } ' { } _ { { _ T E W Q T R Q _ _ ` ` | ` _ ` ` H _ | ( U W R Q R ) R T _ { ` { | +.+.+.+.| +.+.{ { | | | +.+.| +.@...` ` } Q Q } _ W Q Q W R { { R } +.| ` | | | | 4.| { } } } } _ { @.@.+...+.+.+.+.+.| ` +.| _ { } _ _ { | { ' | | ` ' } | ` ] ' | { ` { ' ( _ { { ` { _ _ R _ ` { R _ } T U W W ( R { R L ` { { | { { { 4.<.| _ [ _ } [ { } | { [ _ | | { | _ R { _ W Q ) Q _ ( } _ ( ..| ..| } | | +.+.+.| | +.+.{ { { | ` ` _ ' _ { | { ( _ } ( R _ ) _ ( { _ _ | +.| { ` _ _ _ _ _ Q Q Q _ R R _ ` R R _ ` ` ' _ R H T ) U c U S c b V x z U U c c c x k c H K R R H H H b H R Q R R R U c c c l h V h f f f f f l f w h V S x x h x c V V l d d f l x B x c h x x z c x y q q y y w q t q t t r r f l e y f e y q q 6 9 4 8 t y e t 4 9 y f f y 6 6 t t 9 r r t 8 4 8 9 ",
"r r 9 8 0 8 r y y r f B w f c h l M f y y y M d 9 4 r f V l f B F V x V B V V c x c U c c U Q S U ) Q T R T H R ` R Q Q R U U ( _ _ _ _ _ _ _ R { { L _ Q L ( R R R K ( } R _ ' ` ' ` ` { | { Q W Q _ ( W Q _ { { { { | | | _ ` { W W R U T ( W H ( ) U ( _ R _ ` ' _ ` | | | { R R _ ` R L _ ] ` { _ ( ( _ R R Q R K H W _ R R _ { ` | L _ | | { | { ( R ( _ { ` ' _ { ` | ` +.' | ..+.+.( { | _ } | _ { { | } ` +.@.7.+.+.| ' } ..| | ` ....{ { { { ..{ | +.+.{ _ ` ( ( { W S E W R ( Q _ R ` _ _ ` | { } { | { Q T ) R R R T T } _ _ ` ` ` _ { { T _ } R T ( W ) R ) R U _ } _ _ | | | +.+.+.+.{ ' | +.+.| ..+.{ | ..{ ` { | _ Q } _ W W W R R ( [ Q _ { { | | } <.| } [ [ | | _ } { _ | 6.+.| | ..@.@.+.| ' 4.| } } } _ _ | 4.| { | ` ] ..} ..+.] | +.{ +.| _ ( } ..{ ` ` L R R } ` { R _ _ U U R U R T _ ( R | | ` | { } | | _ ) _ } ) _ [ ) _ | } | { } { _ | { R } _ W R R R [ ( } } ( ....| | | ..} ..4.@.| | { { ` _ } | { _ } | ` { | } ( _ [ R ( [ Q } _ } } _ | +.{ ` ' _ ` { _ R W { ( ( Q U T _ _ ( R R _ _ _ _ T U R b c E S c b S l h c z x U b x x U R H R R H T T H b H T K U U b c U W x h S x d y t f l f l y l V l h l f x V V f y f M f f f x c c z c h x x x f q t f t w d w t f t t w y f y f l y e y t t d 6 1 r t f n t y t d r 9 6 y y t 9 t r 8 8 4 9 9 ",
"9 9 r 8 8 1 9 m r 6 y f f f x x B l d t d f f m y 9 r t f f l l B f B V f S U x x c V c c T R b U T T W ) W T U Q { R R _ Q R Q Q _ { _ _ R R R { { Q T R T R Q W R T _ _ R _ ` ' ` _ ` | { R W Q Q Q Q Q ) _ ( _ { | | | _ R { ( R ) R T W W W H R R U ( _ ` { { { ` ` ` ` _ Q R _ _ _ ( _ ` ` ` _ ( R R _ R L _ T H U W R R R _ _ _ { / _ _ { | { ( R T _ _ _ ` | ` _ | #.+.......{ +.+.R } ..} { _ _ ( ` +.{ ( ..6.+.@.+.` ' _ { | | | +.+.| { | { | { | +.+._ R _ Q _ _ U W U Q W W _ _ R _ _ ( R ` ` { | { ( R Q R R R R Q R R ` ] ] ` _ ` ` { Q } } R R ) W W W _ R U ) | { ' _ ` { ` { | { { _ { +.+.+.| { { { } ` { { { ( _ { _ W Q W W R ) _ R { | | | | 4.4.{ ) _ [ { } } { { { ` | @.] { ....+.+.` ' 4.| ) [ } ) ) } 4.| _ | | ' | | | ] ] | | +.+...( ( { | ' _ R ( _ Q _ ` { _ _ R U E W U U R _ R R | { } _ ` | _ R R _ [ _ ) ) _ _ ) _ { | { { ! { { } R _ } R W ) R ) ( } _ R 4...{ | { | | +.+.+.+.{ _ ` _ { { { ` } } } } ` | | Q ( _ R R [ ) ( ( <.| } | | | ..| ..| { R W R R R R W W T R _ _ L R R R ( ( U U U H S S S z b S h f h c c b U H H U K L L K U H U R U c k c k x c c U U x h V x f f f t f l l f x l f t y f l l d y y f f f l l h f V U c h y y x f t f l y t t t r t t q r t r y f f f l f l y y r r r t t f f d r r 9 t r t y t 6 9 9 9 4 0 4 6 ",
"9 9 y 9 9 8 9 t 6 6 f y h e f x x y y t m f n d f y M y y f V B x f U F f V S l V x x c c S c k H W R T ) _ R U ) { _ U R { Q Q _ ! ` _ Q U R _ _ } R U ) T W R R W R _ Q T R { | { ` } ` ( W W ) R W Q Q Q Q Q Q _ ` o.{ Q ` { ( W ) R R T E W U R R R _ _ L ( ` ` | | ` ` _ ( _ ` ! _ ' { ` ' ` ^ _ _ L ` R L { R U R W W Q ( _ ( L ` ' ` _ } ` { _ _ R Q _ _ ` | ` { | #.+...] | | +.+._ { | { { _ _ Q _ | { ( | +.+.+.+.| { ` { { ..@.@.| { | +.{ { | | +.+.| ..| ( _ { R ) W Q W U [ [ K _ ' ( R Q ` { { _ W ( ( U U T R _ R R ` o.] _ L ` ` ( R _ _ Q W ) R W T _ ) E Q { ` _ _ ' _ ' ` ` { { { } { | +.| { | | } { | | { ) _ { Q R [ Q W R _ _ _ | @.+.| +.4.| _ _ } } ) _ } { } } _ } ......+.| +.@.{ ` +.| _ [ } ) ) } } _ _ | ..' ' ' ' ` +.] | | | | _ _ | } ` ( R { } R R ' } R _ R T W W S U U _ R R ` _ _ { } _ R W Q } _ Q Q Q _ <._ _ ( _ _ { [ | { [ R _ { T W ) W R R | _ R ..` | +.| ..+.@.| 4.+.` ` | ` ..| ' _ | ` { { ' | { R ) { ) W ) ) ) ( <.[ _ | | { | { | _ R T ( R U U U R ( W U Q ` _ R R ( R R U U U U S S S x b S x f x U b c U T K K T R R K K H U R R b c c c b E U U U h h V l f M f t f B l f z x e f l x x f y d f y f l l l f f x B V f w f l f f t t 7 r r t 7 7 7 4 r y t y f h f f w w q 6 r f t d q f f d r r y n r q y r 4 9 9 r 8 r 4 4 ",
"t r r t t 6 9 8 6 r l f e f l f f t 9 t d M M y y y f l l f l B S x V F f l V x x x x h z c V x U W R R R W R T R } } U V W R R _ _ _ ( Q W Q _ _ } U U Q W U T ) R T ( ) H ( } ` ` { _ Q R ) Q Q R R W Q W Q _ _ ( { { { ` _ } ( T Q R W W W W U Q R H ( ( L R R _ _ { | | ` } R _ _ _ ` ' ' _ ( _ _ ( _ _ R L _ R U W R R R Q { R L | ` ` { ( R { { _ _ ( Q ` _ { { | | { ..+.] ..| +.+.( } } _ _ _ ) ) _ { { R | | +.+.....+.| ' _ { +.+.{ { | | | | ..@.| | +.+.+.( R { _ W Q ) Q R } _ H _ } ( Q _ { { ( R R ( R U S W R ( _ ( R ` ` ` ` _ ' R U R R R ( W ) W U _ ( Y _ ( R _ ` ` ` ` ` | ` | { ` _ } { { { | { { { ` | | ) ) { Q Q ) [ Q R { [ _ 6.6.] +.+.} } [ [ [ [ ) ) ) { } } } ( _ | @.+.+.+.+.` ` .._ ) _ _ _ _ _ _ R _ | | ' ` _ ' ..+.+.| ` ` ` | ' ` ` _ R _ ` _ _ _ ` ( K _ R H W E U S S ) R R _ R R } _ R R ) ) _ _ ) W Q } _ | <.) R W { } } | } R _ _ R W ) Q W R | ( R | ] | +.4.4.+.+.....` { { _ } | | { ( _ | ` } { { } R Q [ Q R Q ) ) R } _ _ | { _ ` { _ R R W R W U U W R R R W U Q { ` ( R R R b U U S S S V c c c h f x c c H H H H H U H R R H c U U b H b c U R U U U c f x V f f l f f l x f s z x h B S V x f d y t d l l y y f f f f x f f f f l f 6 2 6 r r r 7 6 1 1 6 r t t y l l w q q 7 w r t y y d y y y r t t y t t t 1 6 9 4 4 6 9 9 6 ",
"i r 9 t 9 1 1 0 r r l f f h l y t r 9 9 y B B f l y t f x f y f U V B B w x U x l x x h x U W c W R T T U U ) W W _ _ E B U ) R _ ` _ ( _ _ _ R _ { U U Q U T R ) W T ( ( K _ | ` { } ( R Q ) ) Q ) R U W ) [ _ Q _ _ [ | { _ } R T { W W Q R W W _ R b U ( _ ` _ _ T R { { _ Q R Q ` ` _ ` _ L R ` _ R R _ _ L _ Q U W Q Q R ( } ( ( ..` { { R T _ } _ _ } _ } _ } | | _ _ } | +.#.o.+...( } } ( _ _ ) ) ` +.| Q | @.] +.+.+.#.+..._ _ } { | | ' { | +...| ` ` _ | +.( _ | ` R R ) Q ( { _ K _ _ } ` | { Q R R Q ( R U S R Q Q Q Q R Q Q { ` _ ` R U ) R T R R Q W R } ( U _ ( ( ..] ` | ` | +.| | ..{ | { } +.| { { | { ` | .._ ( { _ Q Q [ ) Q } { _ @.@.] +.} _ [ } } ) [ } ) Q } } } } ( ( _ | +.+.+...' ' | _ ) ) ) _ ) } { _ ' | | ..] ] +.| ..| | } _ _ | { { _ _ R ` _ _ _ { ` L c _ R b E U U b U ) U R { _ ( _ R W ( { Q ( _ ) W ) { } } <.} _ ) [ { { .._ T _ _ ) W Q ) W R } ( ( | +.| 4.+...} { | | ` } _ Q | | | { R _ | _ { ` ` | _ _ } R R Q ) ) ) } _ { | | { { _ ) R R W W Q W W ) W W R W U T ( } ` _ ` ( b T W c c S V c c S x x c z c b c b H c c H R ( T c S b c U U b U U K U U z f x S f f M l h x l e f z V c x x l f f m y t f y t t y f f f y y f x y l f t 7 r t t 6 r r 6 6 7 4 r t 7 7 f y e y y w f q r r d y e y r r t 9 r t f t 6 9 0 1 1 8 8 9 6 ",
"0 t r 8 3 1 8 y r 7 y h x l f t t r r 7 t f M l l y f y y f f y l V F x f B U z x l l f c E U c W W H U U W Q W R W Q Q Q W R _ { _ { _ Q _ _ Q _ _ U W ) T U Q R U T _ R T { | | } ( Q ) ) Q Q ) _ Q W W [ [ ) Q Q ( _ _ { { } W W { ( W W W U T _ R c S ( ( _ } { R H R Q R U R ( R ( _ _ R ( L ( ` R K _ _ K { _ T U W W R _ { _ _ | ] ` R R R _ _ } ) ) _ _ { } } } _ [ ) } | +.+.+.| _ | .._ ) [ ) Q { 6.| _ +.+...| +.+.+.@.+.{ ` _ } ' { } { { | { ` _ { _ { { ( _ | | ( W ) ) R { _ K ( _ | | { ( W R ( Q Q R W E W ( Q W Q Q R T ( { ` ` R W _ ) W T Q W U _ | Q R _ ` ` | ..` ` ` | | ....| | o.} { +.@.| ` { | ..+.| ( _ } { R Q [ R _ 4.} R | @.| { _ _ [ _ _ ) ) ) _ [ } | } _ _ Q ( _ ..+.....` ` +.| ( ( _ ) _ | | _ ' +. . .+.+.+.] | { | { _ ( _ | +.| ' R Q _ } _ R ` T k Q T c S U c b Q [ H L | } ( R E R Q _ _ _ Q _ ) ( { [ _ { _ [ _ _ { | } ( H _ { ( R Q W W _ | Q ( 4.| o...{ } ` { { { } ' _ } | | | Q W Q } } _ ' { } [ } } _ W Q ) R _ <._ _ <.4.| } R ) R E W Q W R R W W R W T U U U R { } _ R b R Q U x V S x c S V z c c x x b H b c k c R R U b c c U R R U c x b S c c x x S h y f l f f l f e z V l f y y f f f f f y t r y y y y l d t t f x l t q t f q 7 7 7 6 r r 7 6 r t 7 6 q t y w y w t y t 7 r t y t r r t 9 9 9 t y 6 r r 4 1 1 8 1 6 ",
"r t r 5 1 1 d y w t y l l t 7 r f y d r r f l f t y l y f l B f f l U V B B E E z f f l W E c z W W b U R T E R ( R Q ( } Q R _ { { { ( R Q Q _ _ _ W W } Q S W Q U R } ( T { +.} _ Q Q _ ) ) Q _ _ _ ) _ _ Q R Q ) ) ) R _ { { Q R } { W U U U W { _ c T _ R _ ' { R U R _ R Q _ ( R ( _ _ ` ` L R ( L L ' R K ` _ R U W R R | { _ _ | ` ( W ) { _ Q _ R W ) _ } } _ } _ _ _ | { ..+.+.| _ ..6.} ) ) ) Q | 6.| _ +.| +.] +.] +.+.+...| | | ` ' { ' } | _ { { | { ` { ( ( | | ) W ) R R | _ T _ ` } _ ) R _ Q _ Q R W ) W W R R W ( Q Q R R ( _ ` ` R _ } ) U E E R | | R ( { | ` ` _ _ ` ] ` { | } _ ` o.4.{ | +.| _ { | ..@.| ( { +.| R Q ) W ` 4.} R } +.| _ _ _ _ ) _ [ [ _ } } } [ { [ _ ) _ ) } | ] +.' ` @.+.' R R R ' 4..._ ' +. .]  .] ..` ` | | ` | _ ( _ | | { _ ( R _ R R } T c W U x S U x U } ) b T } { R W W ( T ( _ _ Q ) ( _ [ Q Q _ _ } _ _ { { { } R | { ( W Q U R | ..R _ +.| +.+.| { } | { } { | { ..| | } Q R _ { { _ | { ( R { <.| Q Q ) R } 4._ Q | } } _ R ( R E W ( R ( ) R R ) W U U W U U R Q _ R b R { R c x x l b U l s c S x x b T K H c c R ( H c c U R R R H z c c c c V x z U B y t M f e x f w x c f f f f B l f t y t d f d t y f f f t r y l f q q d f q 7 6 6 6 d t r 6 r r r q w t y q t q q f y 6 6 t d q t r 7 r 9 1 9 y 4 9 y 9 1 1 8 1 6 ",
"n r t 5 1 1 r y t q f y 7 6 9 r y f f f f l l t r t f f f y M M f f B F l Z W U S f l V U U c h S T U U W R Q ( _ Q Q R ( Q Q R _ _ Q R R Q _ ( _ { R E } _ U U W W ( | _ R } | ( R ) ) _ _ _ ) ) _ _ _ _ W W W ) ( Q Q R T Q { W R } { ) U V W { { _ H T _ ` _ ( _ Q W R ( Q ( ` _ ( L L ` | ` ` ( L L L ` _ H ( ` ( R T W _ | | R ` +._ R ) [ _ _ ( ) R R ) _ _ } } [ [ } [ } } | | ..| _ | @.+.' R ( { o.+.` _ +...] | ` | +.| | { | | ..| ..{ } { } _ { | | ( ( { ( ( } | { R Q R _ | _ T _ | _ U Q ) ) ) ) ( ( R R W W W R R R R Q R W T R ` ` R _ | } T U W { | } H Q | ` _ _ ( _ } ` { | } { _ _ | +.{ ` | o.{ { { ' | } _ { +.4.} Q W R { 4.{ R { | _ ( _ } _ Q _ } } } _ _ _ _ _ _ [ [ _ _ _ ' ] ..' ` +.6...( R { +.+.| ( _ | ]  .] ] ` ' | | | { { } } _ _ _ _ _ _ R R R ( ( W c E Q U V S S Q { R c U { Q T Q R R W W ) ( W Q ) [ _ ) W Q ) ) ) _ ( ( } { ( | ..} T W R { { ..Q _ | | @.+.| } { } { | { { +.+.` .._ Q Q | { { | { | _ U Q } <.) Q W ( <.4._ ( [ { Q ( R ) R W T T ( ) ( ) ) Q U S U W U U S U Q R b H { _ b x h x T U e e c S x h c b T R H H Q _ H c U Q Q Y c c V U c z U c f x E S f t y t f l f e x l e y M x h l y r y l l f f y f f y t y r r y t r r r y f 7 < 6 r t y r w r r t 7 t r t t w w y d t 6 6 r t t t r r 6 8 1 6 9 1 1 t t 9 1 1 1 t ",
"n n n 1 1 5 r y t 6 f w 4 6 y r t t d l B l M f y r d l l f M M f f V S l B U U S c E E H T V h V S b W R W R Q W W _ Q Q ( ( W W R W R Q _ { ) Q } Q U _ } ( U U Q } | _ R } { ) Q _ _ ) [ [ Q Q Q { { Q W Q ) Q R ) Q W U W { W W } } { E S Q { ` ( T T _ _ R R R _ ( T Q ( _ _ Q R K R { ` { _ R Q _ L ' ` K ( ` ` { Q ( | | { ( ' o._ Q [ { ( ) ( R ) [ _ } _ } [ _ } <.} | | | ' | +._ } +.+.| _ _ +.+.] _ _ @...' ' { | +.| { { | ` | | +.{ | } ` ` +.o.' R ( | R R } | | Q R ( { { _ T _ | _ R ) ) ) Q Q _ } ( W R R W ) R W R R R T U R { { R _ { ` _ _ _ } ` _ U W } _ _ ' _ { ' _ } | { | ` _ | +.| ` | 5.+.} } _ _ } _ _ ..4.@.} Q _ 4.+._ Q { } ( Q _ } _ Q ) [ [ _ _ _ _ { { _ [ _ [ _ ( ` ] ] ` _ +.#.+...| 4.6.+.| ( _ ` ]  .+. .` ] +.| ..} { } } ) Q ( } _ _ ( _ _ _ R ) c U | { U S W { Q W U Y | ( T [ R R W W Q W R ) W Q _ [ R ) R Q ) ( R _ } | R { @.| _ _ { +.{ | ( ( | | | ..} | ` { | | { } | ..| | } ( } | { { | ` ..} U ) _ } } ) W | 4.| Q Q } | R Q ) R R R T W ( ) W W Q U S W U W U S S S R ( b c R _ T U S b K b e h U S c x x c U Q U R Q R b b H U H c c U R R T U U c f h U S x f t w h B y w l f q t f l x f r y f B x l M f d y t t d 9 9 y y y y 6 d f q 6 9 r f t 7 r t t y 7 t t t r 9 q f y r q w r r t t r r 6 9 6 7 4 1 1 r t y 9 4 r f ",
"y B y 9 1 6 y 7 6 7 t q 7 9 r r d r t y M B B f M f f f l l f f l f x F l l S V U U E E U U S x S z c S W W U U Y W Q ( R W _ R U U Q ! _ Q ( ( _ { R S ) { { W W { { | _ R { } ) [ _ _ [ [ _ R Q Q _ _ Q W ) _ R R Q R W U W { W U [ } { Q Q _ _ _ R S T R T T R R R R T R R ( R R H U R _ _ R L ( _ ` L ` ` K _ ` ` | { | ] { _ R { | _ _ { { _ ( ( _ ) _ _ { } } _ _ [ } | 1.} } } | +._ ' ..| +.| ..@.] ` _ R ..| ' ` | ' | ] | ` | ' ` ` { | | { ` +.@.{ _ _ { { _ W { { { { { ' ..{ R T _ } } ( Q W _ Q R Q _ _ { _ { _ Q Q R R R W W W R ` { R R _ ` ` { ` _ ` { U W _ _ ` ' ' ` ` | ` ` { { { { | ..| ` } | +.+.} } { { ) _ | +.+.+.| ..@.| Q R { { R _ _ ) _ ) ) Q Q ) { _ _ [ } _ _ _ _ _ _ _ ] +.` _ | +.+.+.4.+.+.+.| R _ | ] ] | ` ] ] ` | | ` _ _ _ _ _ _ } { _ } | } _ R R b H _ ' ( Q W _ R Q S ) | R R Q ) R T Q E Q Q ) W ) Q ) ) ) W R W ) Q ( } | R _ | | { | { { ` | R ( } ' _ } _ _ } | { | { } { { ..} { } } | { { { { { } W Q _ { { } } ....} R [ <.[ Q Q R Q R ) W W W W W W U U S U U E U U S U Q ( b c b K R Q R H b c y f S b c b c x b U R R R H c U U V c H U U R Q R U b V f f x c c x l x c B y w f f w q r y l y y d f y x x f f y t t t t t t r y l y 6 t f y 7 6 r d r 1 9 y d y f d f t 7 7 6 t y t 6 7 t t 6 6 r q t t 6 4 4 1 1 r q y r t t y ",
"t y r r r r d 9 6 7 y y t r t r t r t r f Z Z B M d t r d y f f M f l F l B S c W U V S H U E x S U U c U R T U R U W R R Q _ Q U U Q _ _ _ _ _ _ _ U b _ _ { _ } { ` | _ R | | _ _ _ _ { [ ) W Q ) ) _ ( R Q Q Q R W W W U _ } W U _ _ [ [ _ _ Q R T c U R K T ( ( R R R R R R R R H R ` _ R R ( ' ! R _ ] | R ( ` _ ` ` | ` ` ( ( { .._ { _ _ _ ( _ { _ _ _ _ } } _ ) _ } | } [ _ { +.+.` } | ` +.+.+...` _ } T | ..' ` | } } ] +.` ` ..{ _ { | | { ` +.+.{ { +.+.{ { W _ { | ` | { ` _ R W _ { | { ) R Q ) ) W W _ } { { _ W Q ( R R R _ _ R ` | R K ( ' _ _ _ ( ` | W W { | ` { ) ( ' | } ` ' } { +.| { { } Q _ | | { ..+.} Q _ { { { +.4.+.+.| _ R | | Q _ _ ) _ _ ) ) Q _ [ _ [ [ ) Q ( _ _ ( _ ( ' +.{ ( ] @.@...+.| | +.| R _ +.] ' ` ] ] ] ] ' ` | ' _ { | | { { } { | } _ L R R b H R _ _ R U R Q Q S [ <.( R W ) R W W W _ _ Q W _ Q [ } [ W W Q _ ( R ..} U ( | +.{ { { ` ` | R _ _ ( ( ( _ _ _ { { | | } _ } { | { { | | | { { | | <.Q W } { _ | } { } | Q 1.1.) Q W W ) R R W U U W W R E W S S W E U U V W _ Q b x c R R W W c b U f e S c x U c k c b T K K U b U U U U U K c U U c k b V f f h c k z b z c f t t f l f t t d l f f y d y l l m y t y f y y y y r y B y 1 6 f f r r d y 6 1 6 t t y f d 7 q 7 r 6 q y t 6 q f r 1 6 r t 9 9 1 1 4 6 1 9 t r 7 t r r ",
"d q r 7 t d y r 6 1 d f q t d f t t y r r l B M d t y t r r f m f f x F B M F S U U U z c T U l z U W U W W R U W R R U R { [ W R W R R _ { } _ Q ( U S [ _ _ ' | | ` { _ R | | _ Q ) _ _ ) ) Q Q Q _ ) ( Q R R R T U U U W { | ) S Q _ { { _ Q R R b x U U T R R ( ( ( ( R R R T U R ` | _ K R _ _ _ ( ' +.` K _ ' ` ` ` ` ` ` _ R ` | _ ` _ _ _ _ _ ` } { _ _ { } _ _ _ { _ _ _ { } | @._ ` ..] ] +...` ..{ ) R } } { _ } } | ' | | | ` | ` | | ..` ` { | ` | | | ..} R _ } ` _ ` ` ` R ) T ( { _ ) _ Q Q ( [ Q W W Q { _ R W Q R Q ( ( _ ( R _ ` K K _ _ _ ( ( ` ` { W W } +.| } R R _ } { { _ | | { _ [ | | _ _ { { | | +.4.( ( { | | | +.+.| | } R | +.( ) { { _ _ ( Q _ ) _ } } Q W Q _ ( ( _ ) ( ' @.} R | +.+.| { { ....| Q _ +. .] ] ` ] ..@.| +.+.| _ { ..} } { ` { { ( R R R W b R _ R R ( R ( R R U Q <.( T ) W ( T E ) { } Q W ) _ } } ) W Q Q ) Q _ | } H ( ..| { } _ ` ` { R Q { _ _ _ _ { _ { | | { { { { { { } ` +.+.} _ _ } 4.<.R R _ _ _ { _ { _ [ _ } 4._ T W W W R R E E E W W W Q E S U R W S U U H ( Q c b U R R T b b b U h s S c h x c b b b b H U U S c b U U c H U U c x l c S f f z z x l z k h f f w f l y r y f M f f y d f f f f t t y f f d t t r y l r 1 r t y y y y y 4 1 8 9 q d t 7 2 4 r r 6 w q q 6 t t 6 1 6 6 7 1 1 1 6 1 1 1 r t q 6 7 r t ",
"d f f 7 t y f y r 4 M f q t d y r y l t r r t t y y M f n d n f d f V F l M E S c T E c b T U l l c U Q U U R T U R W T R _ Q U W R R T ( _ _ ( R Q W E _ ` ` ` } | ` { { R { +.{ Q ) Q ) _ [ _ W ) _ ) Q Q Q Q W T R R U ) _ { _ U ) { _ { _ R ( ( U c U R ( R T R R U T R R ) H U _ ` Q T H U ( _ _ _ _ } K c ( ` ] ` ` ` ] +.` L ` | _ _ _ ( } } _ ` ` ` { { } | } } _ _ { } _ } { | #.{ ` +.] ` +.+.| #.+._ W { | ..` { { | ` { | +.| | +.o.{ } ` ` ` { ` | _ } } _ R } { ' _ _ ' | _ ) W ( } R T _ Q [ ) _ ) Q W Q _ Q R R W R ( _ Q R R ( ` ` K ( } _ _ _ ( ` ` { W W [ { ` ` ( ( ( [ { ' } { { ( ( } | ....{ { +.| { ..4._ Q | @.| | +.+.| | { _ o.@._ Q { } _ _ ( W _ _ [ [ _ R W _ { _ _ _ _ R ' ..( ( +.| | | } } ..| | ) ( { ` +.| ` ] ` | ..+.{ ( ( _ } } | { _ { _ ( Q _ R T b ( ' L R } _ _ R R c U } Q W _ R ) W W W ) ( W Q ) ) { _ R Q _ Q W ( { | <.Q } | { { ` _ | ` } R W } _ { ..{ } ` { { { { | { { } { { { | | ( _ R _ <.[ U R _ } ` { _ } ` } R _ 4._ R ) W W R R S E W W U U R W S U U U c U U H ( ( c T Q T R T H T K b l h c h s c c b b c c K T U U c c b c c U T U b c c c z l x S x x x z b l x l w f l y y f f t r t y f y y d y y y t t t q r t t f y 7 r f w t f f t t 9 9 8 y t d r 7 6 6 9 r q t 6 9 q t 6 < 6 r 4 6 1 1 6 9 1 1 9 t r w 6 r t y ",
"y f l y t q y f 6 y V x w q r q w w t y d r r r y y y f M B M y d f c U f x U U U b U b U U c h B c z U E U W W S b T R Q W U b W R Q R R R ( Q ( _ W E _ ` ` _ _ ` ` | _ R | o._ [ [ Q ~ [ [ _ ) ) ) ) Q Q _ _ ( ( ( R R R _ { W R [ { { { _ Q R _ Q H T R R R R K H H U R R U H U U R T U U R T _ _ R ( _ H b _ { ` ` ` ` ` ] | ( _ .._ Q ( ( _ } { _ _ { { | { | } } { { _ _ } } { +.+.( } +.] ]  .O.+.+.@._ T | | ..| | ` { { | ' ] +.| | | _ ` { | ` { { ` _ _ Q Q R { ` ' _ ` ' ` _ ( T ( { ) U W _ _ _ Q R ) Q Q Q Q Q R W R ( ( T T T R ` ` K Q { _ L _ _ _ ` { U E _ ` ` ` ` ` _ _ } { } { _ ( { o.{ | { | | | ..+.+.| ( _ | +.+.+.o.| | +.} _ @.@._ Q ) _ { { _ R Q { } _ Q Q ) _ { { { _ ( R ` ` R R | | ' _ } } { | | ( ( _ ` { | | ' ` _ } | _ ( _ } _ } } { _ ( ( _ _ _ ( W b Q _ ( ( _ Q _ _ E c T [ ( T Q [ Q W R E R W Q Q Q _ _ R ) Q ) Q _ _ { 4.| _ } | ` ` } } ' | | R Q _ ' ` { | ..| ' { { { { { } _ { _ | { _ Q _ _ _ { _ S Q } { { } _ Q _ } W R | ` ( ) Q ) W T U W W W U U W U S U V S U V S H R Q c U Q R U U T K K U l s x x x c x x x l c U R T c c c c b c c U c U U c c z l h V c l c c x x x l f l f y l B f q r y y y y y t y d y r 7 7 r 9 r t f y 7 y l y t d y r t 9 6 t d d t t y q r 6 t y t 7 7 q 6 4 6 y t t r 6 9 7 9 6 9 r y r q q t r t ",
"f f e f y q y y 6 7 B l 6 t t q f w t t f y t y d y t f f f y t f f x S l f F W K c U H T U h l E V x S Q ! Q E b c W W R W b U ( R ( ( T ( _ ( { { U U } ` _ _ ' _ ` | R R | | _ [ _ _ ) ) [ [ _ ) Q Q _ _ Q ) ( R T T W K ( ` W R [ } _ _ _ ) R _ _ U ( ( R ( _ R R Q T T H c U U S R R R R ( K ( ( R _ _ R T _ ` ` ` ` ` _ | | _ _ .._ R Q ( ( _ _ ( _ } } ..| { } { } } { } | | { ] ..Q _ 4.] ] ] ..+...| ( R ..| | | { ` { | ..{ { ' +.| ' _ { { { { | { { { ` _ ( T _ { _ _ ` ` _ ' _ T L { _ E W _ _ ( R R _ _ R ( _ R W R R R T T R R ( _ ` T R ' ` L _ _ _ ` _ U U _ _ ` +.] { ` _ _ { ` { { { | | { { { { { { | | +.{ R _ +...+.+.| { ..4.{ R | +._ R R _ _ Q ) _ ) ) _ _ Q ) _ Q ( ( R Q _ ( _ .._ T } | ' { | { { | { Q _ } _ _ | | ` ` | { | | } _ } _ } _ _ ( R ` | _ ( _ R H ( _ ^ R _ _ _ _ E V W } _ U U W W U W R Q W _ R R _ _ Q _ R Q ) { Q _ | _ W { ..` ` | { ' ..} U Q { | ` { | | { ` { | { | | } _ } { } { { _ } } { { } W ) { ` { { _ R _ | W U { } R ) ) W E S U W E W E W S V S U V S S S c b R R c c R R H T R H K U f e l S x c c h s c U U W S c c c S U c x c c H U c b S h h U b l x k x x x x f h h y f l t t f f t r t y y y r t r 7 r y r t t y f q y l e y y t t f r 9 y t r r y d r r r r r 6 4 6 t 6 6 y q 6 q 6 7 t 6 7 r 4 6 y q t t y q r ",
"y y w t y t y 9 5 1 y y q r t r d f f f y t y t t y y f f t y y f f c V l f B c K c U T U c l x U U c c W { ( U b b b U R U U U R _ ( T R _ _ Q ( _ E T } ` _ _ | | | { R U { +._ R ) Q Q Q Q _ _ ) ) Q ( ) Q W R T U H b U R _ R U Q _ Q _ _ ( R Q U H R _ _ _ ( _ _ ( R U c b S U U T T R R R R ( R ( R _ _ K R ` ` ` ` ` ` { ` R ` | _ R W ( ( ) Q ( _ [ } } } } [ } [ } } <.} } _ | | _ _ | +.] ` ..O.| ( Q R | { } ` } { { { ..{ { } ..{ _ { | { ` ` | | | _ _ } ( T _ } ` ( ` ` | ` _ T R } ( Q R ) ) R Q Q ) Q Q R Q Q Q Q R U U W W ) R ( } T T ( _ ` _ _ } _ R E W Q _ ` | | { ` ' _ _ { | { { { { | | { { { | { } | } Q _ | @.+.| { | +..._ K { +._ W ) ) _ Q _ _ Q W R Q ) Q Q Q W T W Q _ ( _ ..{ ) _ } { { } | } ( ) ( _ +.` ` ' ` ` | ..| ` _ { _ _ { } _ ( T ( | ` ` _ ( R H W ` _ L ` ] ' R E U R | ( U S U U W Q W W R Q ( ( Q Q Q ( Q Q R Q R R _ _ U ) { { ` ` ` | ` _ U W } _ ` } ` { _ ' ` ` | | { _ _ { { { ` { ` { { } | [ W Q { ` ` _ R ` | | R U } _ R W W U S S U U W Q U U S F S S S S S S c b U R c x U W T U U T U c y y x c z S U H b S U H b z c c c c b S x l U U c c U U z x c b k h z H b x l f l h e f y t d y y y y t y y t t r 7 9 9 r t y w y y q 7 y e y q t y f f r 9 r 6 t y t t t r 9 4 1 1 6 6 9 4 6 2 2 1 7 t t 7 7 9 1 1 9 t t q t w d ",
"q q f y y r 6 1 5 1 f f e q t t 6 y l y y t y t t t y f y y l y f x S x x B x h S U U U c h c z V U H c E W T b W U c b R U R U R _ Q U R _ { _ R _ Q E Q ` ` ` | | { _ R T | +.( W ) Q ) ) W Q ) ) _ ) R R R T R R R U b H R _ R S U R ` _ Q Q W T c c R R R R H K H U U b U U c U U H T _ ( R R R R ( R _ _ T R _ ( ` { { _ _ _ R ` +.` ( W ) _ ) _ { ) [ } [ [ } [ <.[ [ } } [ _ } +.| { { _ ]  .` ..| } R ) R _ { | ` ..` } { { | ..| ..} _ { { ` | ` { | | ( ( } ) T R R _ _ ' ` | ( T U _ _ _ W W Q W Q _ Q Q Q R U W Q ( W T b T U E ) R _ { U U T ( ` ` { { R R W R Q ' ' ' } _ ` | ' { } } ` | { { | | { { | +.| } | | _ ) { +.o.| | +.+.{ R Q | @.{ ) [ Q Q _ _ Q ) Q W Q ) W Q R T R ) Q Q ( ` | { Q ( { | } } .._ T ~ _ ` +.| | _ ( _ } | | _ ` | ` { { } ( R T _ { { ` ` R _ U U _ _ _ { ' _ U E E ( } ( b S E R W ) W W R R W ( Q _ R R ( Q W R ( ( _ } E U R { ` ` { ] L R U R _ ' _ R ' ( _ | _ { { { _ { _ } { | ` { ' _ } | _ [ W ) _ _ _ { _ | { _ R Q } _ R W U W U U U F W ) U F S U S S S U F V S S U Q S z c U R U U T U l y l x x S U U H c x U b x c c c c l U U z x b U H H U U c s h x x c U c l e y l x f f f l f f t y n n y r r t t r 9 r 7 9 9 r t f y 9 1 6 y e t f w f t 6 6 r 7 7 t y t r 6 6 6 r 4 7 4 7 7 6 t q 7 y 9 6 2 6 r 6 ; 1 r t r t t t ",
"7 7 t m t 6 q 1 1 6 y l w r t r 7 q t r t d f y y t t t f f f f y x U V l V V h x U U x l x x l c S c b W U b S T U S c S W U W _ ( R U ( _ _ ( Q _ W E R R _ { ` _ R _ T R o.| _ W Q Q Q Q ) Q Q ) _ ) Q R W R W T W W U H R _ R c S U Q { } _ K U S c T K H T T H b c c U U S b W T c K { ' ( K R _ ( L _ ( K R R K ( } _ K R _ ( _ @.] ( _ _ ( _ _ { _ [ [ [ _ [ } [ [ [ ) ) ) [ { +.+._ } } ( ] ..+.} ( ` _ R } { | | | { { ` | | +.+.| ` _ _ ` | ` { { { ' ( _ { ) U R U T R { ` R H U U Q { ) U W W R Q ) Q Q W U U W W R E U b U S U R R _ { S U ( R R | | _ R _ W R { ' ' _ _ { { { } { ` ` | +.| | { { { | o.4.| | | } _ _ { _ } +.+.| ' _ _ Q | +.` } [ ) ) Q _ _ [ [ Q W R R R W R R Q R Q R _ | ( R _ ( _ { ..} R R [ R _ | ] +.} Q ( ( _ _ ` ` { | } _ _ ( ( ( _ _ | ` _ R ) U U U L _ _ R R U W U R | ( S U W R T W R R T W U W Q Q W W W W W Q W R [ _ W Q R R _ ..{ ( L _ U K Q } R R ( _ ` _ ` } ( _ { } _ _ | | | { ` } } { ` _ W W ( T U } { _ T Q Q W | } R R R R W U U T R W S U S S S U S S F V V S T R U U V b b T R U v x x z x c b S c h s x c z x c c c b H H U S x c U R W U c l f l f h c c f e y y y x x f d f y d f m d t 9 7 9 r r q r t t 6 6 9 r y f 7 1 1 6 w y d t q 6 4 r y 6 7 t y t 7 9 9 9 9 6 4 6 6 6 9 7 r 9 r 6 1 1 r r 6 1 1 1 r t y r 6 ",
"t 6 1 6 6 q y 4 1 6 r t 6 q y e f t t r r t y d m t 6 r f y y f w f V F h x U x x H U h c E x f S c x U Q W U U U R W c c T T Q _ Q U U _ ! Q R _ ) S U [ H K _ ` R _ { W W +.o.` Q W Q Q ) ) Q ) Q R _ ( W Q Q W T W T U H R Q U U W U U } } R H T R c H T U T ( R b b S U U S c U U c R ` R K K R ( _ L R ( b R _ T T R ( T { { R ( +.' R _ _ _ } _ _ } [ _ ) _ [ [ [ [ [ ) ) ) } { | ..R { ..( ' { | ) _ +._ R ..{ _ ` { { ` { +.| +.| { _ } Q { { | ` | ` ` _ } } R U [ W U U R ( R R Q S R { R U U W _ Q Q Q Q U U _ Q U U U R U S E U W _ ` } S U | ( K _ } R R } R T } } _ _ _ | ` ` | ` ` | | } } _ _ _ } +.o.| | +.+.{ ( | | ( ( } | } ( } } R ' | R _ { } _ Q _ } [ ) Q Q W W W W Q R Q ) ) T ( | ( ( } R ) _ } Q U _ } T ( | ] ` | ` R } _ _ { _ } | } _ _ _ { _ _ ` _ ( L _ Q U W U T U R U W R _ U R } ( T Q W W W E Q ) U S W R W W R R U W Q Q W T [ ) R | ( ( ! } ( K _ | U H _ _ _ _ ( { ` { { _ _ _ { { _ _ } } ` ` ` | } ` ` ( U U _ T b ) _ T b } ) b | | R R R U U W U U W b U R U c U U S V V S x V T W c c U S x b U b c U U x x b c U c e e x l l c z x x c b c U U k c U U U c x l x x f f h x f x V f y B l t r t t t y y r 6 r y q 9 r t r t 9 6 6 r 7 t y r 6 6 r r 7 r 7 q r 6 t y t t t t r 9 q t 7 9 r 1 6 9 1 1 1 6 6 6 6 1 6 t 9 6 6 6 1 6 7 r 1 6 ",
"0 6 5 ; 1 r t r r 6 9 2 7 6 q f l l f q t 7 r d f t 6 6 y f f w y y V c h x U z c b c x U R c f S U b R _ R T S U R W b b c U Q R T R R R R _ R R R c S [ Q T K R _ ` | R T | +.{ ) Q ) _ _ ) ) R Q _ { _ R R R ( ( R U b U T T c U _ T K _ Q U H Q W c T R K R T W U S c H T b h c c H R R H b K ( R R ( _ R b R } _ T b R ` | { R ( +._ R Q _ _ } _ _ _ [ _ } } { _ } [ [ [ ,.[ [ _ ..| R _ | | ' _ ) R } | ( ) | ` ( _ } _ ` { | | | ` _ R R W ( Q { ` ` ` { { ` { _ T _ { ( S W U Q { _ U R ` R U E Q ) Q ) W U U R { _ U S U R R W U W ) _ { ..U T | } R R U ( { } Q R { } R ( } { { | | | ` { { _ ( Q _ _ { { | | | | +.| _ } 4.+._ _ } ( _ | { R ` | ( Q } [ _ { _ _ Q E _ } Q E W W T ) _ ) R R ( } ( Q } } ) W W U Q { ` Q ( { ` ` ..{ _ } | } _ ` | ' _ _ _ _ ` ` ` { _ T L _ T c W ( R S W S T { } R Q { _ T W R W U W W Q U U _ ) U U R ( W E Q Q ) Q } Q K { | { R Q H R { { T R } _ _ ` _ _ { | ` ( _ { ` { _ { ( _ R _ { { ` ' ' _ U U _ W b W W U W } R H | _ R T H H b U b S c b U R U c S U U U U U V c T W x c U U c x x x U W S h c U c b S x l l V U c z x x x x S S c b b S b z z V x h V S l l x h U V y f B f w y y y t r r 9 r t t t t t y y 9 6 8 8 9 r t t r r t t t 6 4 1 r y 6 q y y d f t r r 9 r r t q 6 6 6 1 1 6 6 r r 6 6 6 r r 1 1 9 9 7 1 1 1 r ",
"4 r r 5 0 4 r r t 6 6 6 r 6 6 d y M l y t t y f l y q 7 t f f e y y V z f l V c c l h b U E c h S U R Q W S b S W U W U U b U R R K Q Q R _ ` _ Y R U V R { ` K R ` ] } W U { | _ Q [ _ Q Q ) R W _ | { } ( U W R R T b S b U W c b _ _ R U T U U _ U c T R R T U U W S x c T H c c U T R R T R H T R R _ { U c T ` } R U { | _ _ R R | ( R _ _ _ _ _ _ Q ) } @.+.| _ _ [ ,.[ ,.[ Q _ +.{ Q ( } | +._ Q | +._ T R | ` _ { | } { } | | | { { Q R ( R _ } _ _ ` { { _ | { T ( } ` T R U Q _ _ U _ _ T U W Q Q Q Q U F Q { _ _ R W U E W W W ) { _ { | T W } { ` R T | { { ( ) } } _ _ ' ` { | { { ` } { { { | } { { { | +.| ' +.+._ _ ..@.| { ) { @.| _ R { +._ ) [ _ { [ _ Q Q R } +._ E U U Q W R R W R _ } ) T } ..{ W W _ { _ { _ ( ` ` ] ..| _ R _ ' { { { _ _ ` ` _ _ ] ` ` _ R R R U c W _ _ R U b Q { Q b R | ( U E E E U W U U T Q } _ S B U Q W E W ) W ) _ W c _ { ] ` ( K _ { Q U _ { ` ` } ( R ( _ _ ` ` | ` { { } _ ( Q { _ { | _ } { U U Q ( U U S ( _ R R U { ( K T U U b c b c x W R R T c V U U W U S B c U S h S U U U S V E R S l h S U c c U U b z c V x f x S V S U S I b S c x c U c l f V U x f l c b B t f x f r n n y y y y r t t y l y 6 9 9 6 9 r 8 8 t t q 6 d f w y q 6 9 y r 1 r f w y t r t t 9 9 r y t d q 6 6 6 t t 9 r 7 9 4 9 r 1 1 9 t y 9 1 6 f ",
"9 6 6 r r 9 6 4 9 6 t 6 4 7 q t y t y f f l V x x f f t w w f f f e x V f l x z b x z H T z l x S U Q W U c U U W U U H T Q Q U Q R R Q _ ` } _ R W U S T ( } _ _ ` ` ( U U { _ W W Q Q Q R R R [ | | ] | { T U T U U H S S U Q U c T { ! U U Q R R U x U R R T T T H c x c U T c c Q Q U R ` _ L K R _ ( _ U x U _ ! _ ` | ` ( _ R R | ( Q ) _ _ _ Q Q Q [ | +.] | { ) Q ,.} [ ) ) _ +.| Q _ ( _ | | | +.| ) W R } } { ' { { | { { { | { | } { } { { { R ( _ } { _ | ) U ) R Q _ ` | _ U Q U _ _ W U W W Q W U U Q { ` R R R Q R W U W W W _ _ ` | R W } ` _ ( } } ( _ _ Q { { ` _ _ ` | ` ` { } } { } } { | | | | | | | ` +.+._ ( _ { +.{ { 6.6.| ` _ | | _ _ [ [ ) ) [ W R } o.` } _ W U W W W W Q W ( } ) U ) { { _ { | } R _ _ R } { ` ] | { ! ( ` | { _ _ ` { } ` ` _ _ ` { ` ( U U c R Q R ) R R } U V x R { ( H U B S F U V U Q } ( _ W U V U U R E W E W _ Q c ) _ ! { { { { Q W U Q { | { } ( R T R ( { ` ` ` ` | { _ ` { ` _ { { { ` Q U U Q _ T W Q { ( R Q b } _ H U T U H H b c b R L L K H V S E U V x l x U U x V U b H W W ) T l f x S U U H b b c c x h h V S U U U U U U U c c c c b S l f c S h f z U V d t f l f y y y t y m t r t e f h y t 6 1 7 9 r 9 9 r y 6 1 r y f w r y t t 9 1 r f y r r r r t r 7 6 7 y d y 6 1 6 r q 6 6 6 6 6 r 6 1 < 4 4 t t t y y ",
"6 1 9 t r 7 1 5 7 t l w 7 6 t t t 6 6 q l l x l e h x y w w t y y y z V f x f f V c E c c f h B V x U U U U Q R U R U b T Q Q R R T R R Q _ Q R _ Q S U R K T R ` ` R R U U } _ T W W W Q W T _ | | { ` ` { _ U T T U W S c R _ T c U Q Q R W Q U U S h U R K T R T c c b H S U H K Q R b H R _ ` _ R R R R U c U R R _ Q { R _ } R ( | _ _ Q _ _ _ ) ( } +.| | ` ` | { Q [ } [ ) } ( ....R _ ( R _ | 4.| ( ) R T { ` | ' } { | { ` { ..{ { _ Q _ | { { _ R Q } _ ` | R b ) T R Q | | R U R H _ _ _ W W W W E U ) | { ` _ _ ( _ _ ( R ( R E ) ( ` ..R W _ ' R { 1._ b _ { Q { | ` ' _ _ ` ` ` { } _ { | { { { | { { { { | | +.| _ ( Q _ { | +.@.] _ { ` ` | ` } } ( R ) ) R { +.] ` ` | _ W T W R R ) W ) | ) U W ( _ { ..( T R _ ( R | | ` ] | | | | ` ' _ ` } | _ _ _ _ _ ' _ { ( T U U c ) T b R { { _ S B V R _ ( T S M B B F S ( _ _ R _ ` { U S S E U E W U [ [ U Q _ R R | +.{ U R T R } | ' ! ` } R ( _ _ _ } { { } { R { { ` } { _ ' R T S U Q W R { { ( H W Q U | } b U U H H U c b R L H L L ( U b b S B V B l S U x c U c x W _ W x h l x c S U H b x S T H c U W S c U T U U S c z S U z S E x f x x s l U S l t t f l f f t y t y y t d l y y f h x f t t 6 9 9 8 r d 9 6 1 r t t t t 4 1 8 1 y f q r y t q r r r 4 1 2 q r 2 1 7 4 r q 9 1 5 9 r 9 6 1 1 4 r r n r 6 ",
"4 1 9 t 6 1 6 6 4 y l l y 7 t r 7 6 r t f y y w y y y f y q w w y y B V y l l f f V S x h l x x F V x S Q W W Q ( Q W H H W Q U U U R U T W R R R ) S S ) U H T R R R R W T { { R U W W W W _ } } } { _ ` { { Q W T W T U U R _ Q S U U U Q W U b U S x U R T U S b c c U U H T T R R U K U b R { ` ( K K R H c R Q R W U W Q ` { R ( +.| _ _ ( ( ) _ { | ..] ` ` ` ' | } ( ) } _ [ { +...R _ _ ( ( _ } ) ( _ W T { ` ` { | { | { ` _ { } } ( Q ( _ _ { ( ( _ ( _ { } W S Q Q R W ) ( R U Q b Q { ( Q Q W E U Q } { { { ` ` | ` R _ _ ( ) Q W ( _ | R Q ( ( ( { } R U [ _ ( | { ` | } _ _ ` | { ` ' } ` { | ` ` _ { { _ { | | { R ) _ R ( ..+.` L ` { ( ' +.' _ _ Q ) Q R { | | ` ] ` ` { { R U W Q R R ( | ) S Q ) R _ _ T U ( { Q R } ..+...` ` ] | | { ( _ | | { ( R _ _ ` _ R K U U U U ) T b U _ _ W V F V T Q ( U Z M B l F Q { R R ( ` _ _ _ ( S U W W U R { [ W _ _ R W ) } R W _ W T { _ R _ ` | { _ Q _ _ _ { | _ _ _ _ ` { ` { ( ( R R S U R U U Q Q U c W W T 4._ b S c b c c b R L K c T L L T T c x B V S S U U l c U c l S W H h x V h c U b b b c U W U c H U H U U H U U S l z S U U U U x s x x f f V V y y y y l h f d y r r t y l l f f f h y f f t 9 9 6 6 r y t 7 1 8 6 y t 1 ; 1 3 6 r d 7 6 t y t t t t 9 6 1 6 6 r 6 q 6 r 7 6 1 5 4 r y 6 1 r 6 1 4 9 1 1 ",
"9 1 1 9 1 1 9 4 4 q f y 6 6 7 4 6 r f f y y f q f e y f f q 6 7 d y x F y f C f t d f f x V z h W E x F W W R W Q Q _ R U W R U U U R W U W R U R ( S S W U R U U U T R W U _ { R U W W E ) { ` _ { { } { _ } } W T R U U T J _ R U W S S W T S c U E c H R Q S x c b H c b T ( b c U L R ( U H K _ R K R _ H c ( ( U U S U R _ _ ( ( ..} Q ( ) R ) } +.| ] ] ..' ` _ | ..} ( [ ) ) } +.| R _ _ ( ( ) ) W ( _ W U } { ( _ { | ` { | _ _ } } { | { _ } _ Q _ ` _ ( ` { ( U ) ( R S S W R Q ) H R { R Q ) W U W [ | { { { _ { ` ` R R { ( R ) W ) _ { R _ _ R R _ ) T R } ( R { { ' | } _ R _ { | | | ` } { { { { { | | _ _ _ | { R } | R R } | _ R { } L ' +.` Q Q _ ) W _ | | { ` ` { ` { | _ R W W Q ( ( _ T U ) ) U W Q W W _ _ W R } | ] ' ` ` _ ` { { { { _ } | ` R _ R _ _ R R ( _ R U R U b S R R U V U V b ( R c V B M S W W W R Q R _ R R ( R R W E W U ) { _ W [ _ ) E W Q W W [ W T { ( R | ` { | _ Q } _ ( ` ` _ { _ ! ` | { _ ( _ _ [ U U W c x U E U U W U T 4.Q b S x c x x U R H U H H H c K R K T B M S b U T x c U b l l S b x F V h x U S c c H c x x l c U U R U V U W S l x z S W E U c h x c f t l l y d d t l l f l y 9 9 t m l y l l y y e y t r r 9 8 r r d r t r 9 6 t r 1 1 r 8 1 6 y r 1 6 y y t y q t y r 9 r y t t t r 6 6 1 1 6 t t 7 1 r 7 1 1 1 1 4 ",
"9 4 6 1 5 1 6 6 7 6 q 6 6 1 4 6 y y f y l f t y y f B x l w q w t f z U w f B l f y f f l V l l U Y S S U U W T W R Q ! _ Q T U R R ) R T E T R Q Q U S U U T T U H H ) W H } { Q E U W _ { _ ! { { ` Q { { { } { R U U S U R ( U S U U S U U S c U U c T ( W c h x V U c b T Q b x T ( R ( Q T H T R R R _ W U Q R U U S U U ( ` ( ( ..( R Q R Q { | +.| | | } ' ` { ` ` | _ ) ) ) ( +.{ ) ) ) ( _ ) R W Q _ R U { { ` ( _ { { { | { | { } { { } } ( _ _ _ { { R _ | ( Q _ Q R U U E W _ ) U _ _ _ R W U U _ } } } { { T U ( _ _ _ _ _ W R Q _ { ` R { _ R U ) R R R _ ( R Q } ' _ _ } _ _ _ ` | { _ { { { } | | | | { _ ( | | ( } | ( ( } { _ _ ` { R ` +.R R Q Q Q _ | | | | _ R { | { { { ) W E Q R R Q W S ) ) b S W W W Q _ Q Q } ` _ ` ` ` { ` _ ` ` ` _ { ` | | { _ _ R _ Q _ { U b W U W U T U W S S V H _ ( b B B V W Q U H R _ R T R _ R T R W U E Q ( } _ T { [ R W W U Q R ) R W Q _ _ _ { +.` ( Q ` _ _ R _ _ { _ { { { ` _ _ R ` { W U U V c U U U U E U U { R c c x l x S U b b U U c x c U K L R S l f h H U c b U b x B x z c V V l h S c x c S c c l x W U V U W E E E U b x x S U W U c c c x l f f f f d y t l x f y y r 9 t M l h l f r r f f t r 4 8 r r t M q 6 r r q r 9 6 6 9 6 1 1 r r 6 1 6 t q 6 q 6 r r 7 6 q y d t t 6 7 1 6 y d 9 2 1 9 6 1 1 9 1 6 ",
"4 9 9 1 1 1 1 6 6 1 7 w t 6 6 y l y e f x y q r d y B l y w f t t f c V w f M l l f B f f B l l V E S U E U U W R U W R _ R U U _ _ W R T H ) _ R ) U S R T U W T b U R E H _ } Q E U R } ` _ _ { { W U R } _ _ _ Q U S c S R R T c U W U F S x c U V x R _ U h l x c S T R K Q H k R _ L R _ Q R T R _ L _ _ U E U U U U E b R } Q R | R R ( R } +.| | | .._ R ( ` | | ` | | [ R W R | { R ) Q _ ) Q W R Q _ R T { | | ( ( _ | { { { { { { { { { } ( _ ( ( } R K _ { Q ) ) W W W R U W _ ) K _ _ R U U U W } | { | { W S b Q _ _ | ` _ R W Q Q | { T ) ) H U R T ( Q _ ( T _ } ` ' ' | { { ` { _ ` { { | { _ { { ` ` | } ` | { ( { +._ ( _ Q _ ( _ { R ' ..R R ( R _ o.o.{ | _ W W ( | { { | ' ( E W R T ( R S Q R b U E U W W ) _ Q { ' ` | ` { ..{ { } _ ` | _ R _ ` _ ` _ _ _ R Q W z U W U R E E U W S V U Q _ U x l B W U U U _ _ ( b c T _ Q } R ) U U E R | _ W [ ) U W W E Q W Q W R _ | ( ( | .._ _ ( _ _ _ R } _ ` _ _ { _ _ { _ R ` _ E S U S V U V U S U U c R T x c x h U R c b S c c x x W c U L L R c f x U U x c U c x S x l x x V l x S z c c z U U x c W c h S E E U S U U S S S S U x f c c l l l f f l d y d V h t r y r r m l y l y t 9 7 f l f d 7 9 8 r f x t 4 t 9 6 6 6 r 4 6 9 1 1 6 t y 4 1 r t 6 r 6 6 6 6 4 6 r y t t q 6 7 t r r 1 1 1 9 4 1 7 r 1 6 ",
"8 t 9 8 1 : 1 1 1 & 7 y w 6 w e e y y f l y r 4 r t r q y e f y d e h F y l M y f f l f f l V l V U V U W E W W R R T H T U U U T Q Q U U W _ ! _ _ U U R R T U U U T W W U ( _ W U Q { { _ { } { R U U U W ) R T R ( T c x U _ R S W W W S B B c U V x T ( b h x V x b R Q ( ( K H T _ _ R R R U R R ! ` { Q c U U U U U U U R _ Q R | _ T R } +.+.| | { [ R W W _ | | | | ] ..) W K } | R ( ( ( ( R R T R ( R U { | ` ` ` } | | { _ _ _ { _ } { ` _ { ( _ _ Q R ( { R W R T W W Q W T Q Q K _ _ U U E Q } { } } } ) U S W U _ { ` { | _ R T Q { ( U W W T U R R R R _ ( U _ { ' ` ' ' ' | | | { ` | | o.{ _ _ { ` ' { { ' { { ( { +._ R _ _ ( ( _ _ L ` +._ R R _ | o.| +.} W E W W ) } { { | { R E U R ) R W Q U S E U S U T ) ( R { ` | ..| ..` ` | { ` { | { R R ! _ R _ _ ( Q R U c U Q U U W W E W S V S R Y z y l V U U Y Q [ Q U c c U W { { | { R U V W { _ W [ W S W Q W W R ) U W } } _ | } ` _ { _ _ R ' _ _ ` { ` _ ! _ Q _ _ _ ` ) S S U V V U U S S W S c R T c x c U R R H U c S l l V U U T R L L H x x T R c x x x l x x x f x x f x V U U U V x z x c E z h V V V U U V S U R E b c l e f x l l f l f f f y f x w q y y r d l l l d r r 6 9 t f x l f t 6 9 y x t 6 t t 1 1 9 9 6 9 9 1 1 9 t y r 6 6 r t q 7 6 6 7 6 6 6 t y r 7 r 6 9 4 1 1 6 1 9 8 1 1 9 6 6 ",
"8 6 9 1 1 1 1 1 1 * q t 6 q s q t y l y y t 4 1 9 t 6 6 m f y l l y f F y M l y l l f l f l S l x V U S U W T U W Q U U U U W H H Q _ U W _ Q R R ( W U T T H b U U U ) R H _ _ R R _ } _ ! _ _ W S U W S U E U W R Q ( T c b ) W S U U U V B V x S S l b R H c S U c c U R R R R T H Q _ R R R U Q R R ' { U x U U c E U S U T Q Q _ +._ T _ | +.| | { ( ) W W R ) ( | | ' ` { | _ R } { R Q ( R ( W R W W R ) T } ` ` ` | ` { { _ _ | { | _ _ { { { _ ( R _ { R R } T S W R R E W W U U R T _ R K R [ } | { { } _ U W W R U Q } ` ` | ` R T { | _ R R T Q T W R W R { _ ( _ _ { { ' ' ` _ { | | | { | | { ' +.| o...{ { _ ` | ( ( } R R _ _ R R _ _ L ` | _ Q Q | +.| o.{ Q E E ) W U ) _ _ } { _ R U R ) W U U S F F E U S W ) R R | +.` | ] | { ` | { ` ` { _ ( Q { ` R { _ ( ( ! _ W U W R U E W U S V S c U W U x V S U T Q U U S V c W V U _ _ _ { [ W S R [ _ W Q U U W Q U E ) _ U R | { { | _ _ ` | ` _ ( _ _ _ { _ { | _ { R R _ _ _ R S U W V B U U V V E S U Q U x x T _ L T T b V S B V c c R U K H H R b c T b x c l x l f B l y l x s h S c c V l h x c z U S z S V V S c c c E E S l c S f t l l l f l f d d y f h q w f y y l y y y 9 r 9 6 r q y y e y y t r q x f q 7 r 6 1 6 9 9 9 9 1 6 t t t y t 2 7 r 7 7 4 6 r 6 6 7 r q 6 7 r 4 6 1 6 r 9 1 1 9 4 1 9 9 8 ",
"8 1 1 1 1 1 5 ; 1 6 t 6 2 t e y y t t y t r r 9 9 9 9 6 y l c x x h h F f l l f f l B f f x V l V S U S U U U U T W Q U U W Q U T R R ! Q ! _ U U _ R E T b b S S U W _ R U { | { [ [ _ _ ( R U S U W E U U S U R Q U R _ W T ( T b U F B B B V x S U l b T H U U U U b c U H R R R H R R R _ ( Q R U R R _ T z U U S V U F c U Q ( ( +.' R { ..` | } _ ) W W _ _ R R _ } ` ( ` ' ] ' ..| R _ ( R R W R U U R Q W } _ ` ` { ` { ` } { { } { { { ( _ } Q R Q _ { _ _ _ U S W W W W W U U U R K _ R Q { | { ` { | _ W U R ( U R W _ _ ` ` _ _ R ` +.{ ( ) R W W R Q R W _ { } } { ' ` | } _ ` ` { ` } ` { { ` | +.+.+.+.| } ` { | _ _ _ R R ) _ ) K _ _ L ` { R R { | ` | { ) Q Q ) ) R W E Q ( R _ { _ T T ) F x U U U F U U U R ( T ) +.+.` _ ` { { { | } ( _ } { Q _ _ _ _ _ ` _ R _ { Q H W U W E U V V B F z S _ _ U V S W U S x V B U U U U W W T U _ _ _ Q Q } _ R ) U U W W W W Q _ T ( | { { _ Q _ { { { { _ ( ` } ! R _ { | | { _ R _ ( Q U U W U B Z U V z U U W _ T b T Q R R T c V V V V U S c H R H b H K H b b b x c c x x l l f e l B f f V x h h h h l z S b c c U U c x V V c U U z x S U l f l f f l l f t y y y f y f f f x f t r 9 9 9 9 r r w r t q 6 y d r 7 f l t y 9 6 6 1 8 6 9 6 6 7 t t y y y q 6 1 7 7 6 4 6 7 r 7 7 6 7 6 7 6 6 1 4 9 6 1 6 9 1 1 9 6 1 ",
"9 8 ; : 5 1 5 1 1 6 w q q q t y y 7 r t t r m t 6 6 w 6 7 f c h S x h F l l B f f l l f f x B l U U S U U V E U U Q Q U T Y W Q R R Q _ R _ _ R ( _ W W W b S S S U R _ ) U R _ { { { _ _ ( U F S U ) R U V U F W ) R R ( W R ) S b Q E l B B B V U U x b U b T U U T W U H R ( R W U U R R T R U H b H T _ W V U U S V U U c T _ ( R | ] ` | | ` { Q ( ) R _ ..| ( Q R ( { ' ] _ ` | +...( ` [ R W W Q U H { Q T { _ _ ` { { _ } | { ` ` ` | _ ( _ ( Q R _ R _ ` ` _ U U W T W W Q U S R Q K R _ { { { ` { { ) E W T Q ( ( T E Q R ( ` _ { Q ! | _ R _ R U R W Q R R _ R _ { | ` ` { ` _ | | { ` | | { ' { { { +.| | | { | | { _ ' } R R Q Q R L { { L ` ` R { | { { { Q _ ) ) } { Q U S W ) _ ( R } R R Q U S Q W S F U U R R _ R ( +.| ` _ ` { _ { } _ _ { | { _ _ R _ ` _ _ _ ! _ _ _ U U U U U U V S S V z c W U c c U R U x B S B S H U U F U V Q _ R } ( ! } Q R [ E E W W W T ( _ K { { ` } ' _ } _ { { _ ( ` _ ` _ _ R _ { | | _ Q _ R [ W b Q U V Z F V V Q S E Q H T Q U T U c x S V x U ( U l z U K L H b H H H T b H H x l f f f f l B h x x z x l V x f x U c V U U V x h B V k U U z b U U x x V f f l f f y f d w l f f l l c f q 8 9 r 9 r f r 6 6 t t q t t t q y q 6 r 9 6 9 1 1 6 6 6 r 7 t y f t t t q 6 6 4 7 6 4 6 9 9 6 7 t 6 7 r 7 1 1 1 5 1 9 r 1 1 8 4 1 ",
"0 1 : ; 5 1 1 7 r 6 q q q 6 q 6 7 9 r 6 r t y d t 6 6 7 r q f x z V V S l B V f f f l f h S B l F U U S S V U U Q Q R U K R R R R Q R R ! _ _ Q ( _ T U Q T S S E U R { ) U U H R _ { _ ) W U V U Q _ _ R U Z F S T Q ( ) S H R U S Q W V M B B c R W x c T U U T R T W U U R Q ( Q R U U R U U c b S U U Q W V E W c S U U S R _ ( R { ' ` +.{ } ( R Q W ( { ` ] { Q Q W _ | | ` ] `  .` R } } R W W R T Q } W T { _ _ { } _ R _ | | { ` ` { _ ( { Q ( R R ( _ _ _ _ U W ) W U W W U U Q R U R _ } { _ ` } R U U W R _ ( _ R U E R T _ ` ' ( _ { L R { R R U W W E ( { T R _ ' ` { } } ` { { | | +...` { | { } | | | { } { | | ( _ | _ R Q Q T ( | { R ` ` ` | | | _ R Q Q ) Q { { _ W U S W } { R ( R _ Q U W _ ) U S W W Q _ _ R Q { ` ` { _ _ ` | _ Q _ { ` ` ` { _ _ ` ` R _ ! _ { [ U R W b S E F E ) S c U c x l E W U S V B V V V R _ S B B U U Q ( _ _ _ ( R R [ _ W E W S R { { H _ | ` _ { ' | _ { _ _ ` ' R Q { { Q ( R ` _ _ ( R _ _ W U ) U x F Z x U Q S U U H U U H U c V B V V c W Q U b x z b L R K H K L H b T T b f f f f f V x f c S x x l l l x x x z V U V l l x x x c V c c c U U h x U l t f f t f l y y h e h x z l y r 0 8 9 t h f t 1 4 r t e e t t t y 6 6 9 r 6 9 1 1 1 9 r 7 r f f d r r q y y r 6 r 6 4 4 6 1 6 6 r t y t 7 1 2 1 1 1 r y 6 $ 4 4 6 ",
"9 8 1 - ; 1 9 t 7 1 2 q r 6 1 1 6 r r 1 1 9 t d y 6 6 t y q y f x x S V e B x f y l V f f W V f V S W S U S U W R U R U H T R R Q Q K K Q R _ ! R Q U U _ _ U S U U ) [ R U W R _ _ _ _ W U U S R { ! _ _ R V V V S R ( ( T U R R U W [ W B B B c ( W z S T U S S U U U U W T Q Q W K U U R R U U W U T c U W c R ( c c F U ( _ Q ( R _ _ { ` | Q R ( R T ` ` ] ` .._ R ) R ( ' ..` _ ` ^ K { { _ R W R T } { H T _ _ { ` { ( T R _ { ` ` { _ } _ _ _ _ R T ( _ R R ( b U } Q F F E S W _ W K ` _ ` _ { _ T U S W U ` ] _ _ ` Q U R K R _ ` _ ` ` L K _ ` ( H W W U _ } R Q } } _ { { { { ` ` ..| { } { ` { { { | +.{ ` { _ { | R _ +.{ R R Q T _ +.{ R ` | | | } { R R Q W E { { _ _ _ Q U S W { ` R R _ _ W U _ _ T V U U R } ) W W R R | | _ _ ` { _ Q _ { ` { ` _ R R ( R _ ` R R { Q U { _ S V U U Q [ U h z S U U W U c c S B x W Q R } W V x U V S ( Q _ ( Q ) U [ <.R E W U ( { { H Q { _ _ { _ ` _ ( R } | ` R R _ } ` _ ` _ _ { _ R _ ) W W ) U x E F c W Q V c U R R W T c c S S B x T Q U U T z V c c U K H L R H c b U H h l M y l S l f x V x x l y y l l x x x V x h B V l h x z k c x c S s f U V t t d t l x y f h f x x x e t t t 8 6 f h t r t 6 4 r w q t q y f w 6 y y 6 6 6 1 1 y t 4 6 y t q 7 6 4 t y f t 6 4 4 4 6 1 6 1 1 r t r 6 7 r 6 1 1 r y 9 ; 1 4 r ",
"6 t 1 # - 1 t q 1 ; 4 q r 2 5 1 6 6 9 1 1 6 t r t r r 7 t t t w l V x f y l V y y l B f c W x f Z V S E W R Q U U U W U U U U Q R U U W Q ! ! R Q Q U U _ ` Q S V R _ { R U _ { { _ Q W U S S R _ ( _ _ _ Q W S V V S W Q R T W U S R { ) V M V U ( R S U W b c b U U U b U W R U H K R R U U U U T W b b T U c W ) T b c W _ _ R Q R { _ } _ _ R R U R ' ` ` ] ] ] ' ( ) ) T R ' ' ` ] ( H _ { ' Q U R _ { } U U ( { { { { Q ( R ( _ _ _ { { { ` _ } } _ ( W R T R ( b S _ _ W V F W _ _ W U _ ` ` ` } W U b U E Q ' ' ] ` _ ` Q U T R L ` ` ` | R K _ { _ R U U R { } T Q <.{ _ { ` ' ` ' } { ` } { { | { | +.+.| ` _ _ ` { { Q ( +.+.) W W R ` +._ R { | ` | _ R R R W U Q { ` _ _ _ Q W U S U Q _ R _ ' W c R ( Q U V U Q } _ U T Q R } | ` _ ! _ ` ` ! ` | { _ R R R R R R _ R L _ Q H _ | Q V F S ( Q c h V U U U U B B c S z U ( ( b W Q W V V c S U ) ( Q _ ) U Q | _ U W Q { { } U R Q _ _ ` { _ R Q ( { | ` R Q ( { ` } _ _ _ { _ ( R ) U U Q R c U U b ) Q c U W Q ( Q U S c U V B S R R R U U U V S c l b K L L R x z c S c x f f c S l f l l x V V l y f x V V V V z z z c z x h h x x x c z e f U S f t y f x B y y x x x l f t t r 0 9 t y q q y f t 6 q q 7 6 q w f t 4 t y y r 4 6 r y t 1 1 r w 7 6 r 6 6 q y q 4 2 6 4 4 6 6 1 4 1 6 6 r 7 q 7 9 2 q y y 1 1 9 r ",
"6 r 9 1 1 6 w 6 2 1 r q 6 6 6 1 6 1 6 7 t t 6 4 r d f 7 r t t t y l f y f f B f l y l c T E l l F V V U _ Q W S c U Q Q R U U R R K R W W Q R R _ _ U U Q { { R U ) { _ T U { { Q Q U V S S U _ _ R Q _ Q ( _ W V V x V Q ) U R E S R _ ( S x S Q Q W V c S x c T T U T c V U T H c U W U U U T c S S c H T U x S Q ( R T _ Q _ Q T Q | ` _ R W R R U _ ` ` _ ] ] _ ' } W ) R W R _ ` .._ T Q ' ' _ W ) | ` { W U ) R _ { _ _ { Q ( Q } _ _ _ { _ } _ { _ _ W W U Q R S b R } ) U W [ { Q W b R { _ ` Q W R b ) U _ _ _ ` ` _ ' _ R H R K ( _ ` { L H _ ` { _ T U { ' { U R } | ' _ _ { ` } } { | ..| { { { o.@.o.` ` { { | | { R R | @.{ R W { | | _ U { | ` ` Q Q R W W R } { _ _ _ _ _ W U S c U _ R R ` U c T _ _ R E _ } { [ b R } R R { { R _ ` ` ` R _ ` ` ` ! ` ` R _ R Q R R R ) H R { _ E V U _ W x x R H U U z l B x V U ( U U c S R Q U V c U S Q Q W { [ W U } { R W { { _ [ b U W ) ( _ ` _ R ( } { ` _ R ( _ _ _ Q R _ Q Q { R R _ U c W [ W R U H Q R c E R W U V B S c V V T R R R _ R T W V c c l x U K L R c c c S b l f x c V l y x B f f x x f B B x V V V S V x z V l e h z x x c x e e c U x f l x x f 7 t B x f y r y t 9 9 d l t 6 w l e y t 6 6 7 6 w 7 y q & 6 y y q 4 9 y y r 1 1 r f t r t q 6 6 9 w 7 2 9 1 1 1 6 7 r 4 7 q t 6 6 r 9 1 2 y t 7 9 9 q ",
"7 6 q q r 7 r 1 7 r y t r 1 6 9 6 q t y f r 1 1 9 y l f y 7 f t t t f e f t l B S z c c R W x B F S S U W U b x S W Q ! _ R Q W Y R R Q Q T T R Q _ T U _ ` ` _ { [ { _ U U _ } Q F S V V S R _ Q R T W Q R Q Q W V x x S Q Q ) Q S R ( R W S W R R T h h c b U U T R W U S S S c S S U U R U U S c c b b T E x S R R _ { { ' } ( R ( { } R U W U T _ | ` ` ` ] ` ] ` } ( R R ) E ) _ | ] H ( ` _ ` _ { | { _ U Q ) R R Q _ _ _ _ ) _ } ` { ( ( _ } _ ) R R T R U T ) U S R ( ) Q _ _ Q R U c ( _ _ R R W U R ( _ _ ! ` _ ` ] ` ` _ H H T R R _ ` R H ( ` | ` _ ( ` ' } U R } } ( _ _ ' { ` { | | | | { { { { | { { { | | | | | R R | +...{ { | | | Q U { ..` Q Q ( ( E R | | { ( U R } } { U S U S W ( R _ U S R _ { [ { } | | ) S R { ( ( _ R R _ { _ ` _ ` ` { ` ` _ _ _ _ ( Q R L _ Q H R _ _ W E W ( R x h U T U l x l V l S U R U U c U U T U E V S E Q Q Q { } W U _ { _ _ } _ ` { c U ( ) R _ _ _ _ _ { | ` ` _ { R _ T R Q ( R _ ! R ( ) S V W ( [ [ T U T W V U R W x x B S S V R _ R T _ ` ( _ R U l l x x b K R R c V U U b z z S b S d t B V f f f w f x l l h l x B B x x x h h x l x x c x e y B z c S V x l w 7 t B x y r t r t w y x l t r y h f f t q 6 6 9 7 q t 6 1 1 t r q 6 9 t y y 1 1 r y r 6 r q 6 1 6 t w 7 9 6 1 1 r t t q t 7 7 q r 6 1 : 1 q t 7 r 6 t ",
"6 2 q 6 r 1 1 ; 1 9 6 t 6 1 1 9 6 f f w 7 1 1 4 t 6 r f f t r r 7 r f e d w y V W U U k H U c M V S W U U H U S E W R ! Q R R R R T R [ ( U W Q R _ R U Q R R Q _ _ Q Q W S Q _ W V F F z W _ R Q Q U U R R T Q ( U V x B E ( _ T b R T T Q R Q U R U h x U W T b U T U R U z c U U z U U R U c S b S U c U W c c T U R Q _ _ Q _ R R } _ U U W S R | ' R _ ` ` ` ] ` ` | _ W W W W R ' } H _ _ R ' _ | { ` _ U W ) Q R R _ _ _ _ _ _ _ _ ( R _ Q _ _ R K ( T T U U ) W S ) R R T ( ) R ( S b _ R ( U R U U ) R R R _ ` ` ` ` _ _ ` R T U T R L _ ( U R _ ` ` ` ` _ ' ` b T } _ _ { _ _ } _ { | | | { +.| { { } _ ` ' { | | | | R U _ | | | | { ' { W E } } R Q ) Q W R ` ` ` _ Q T R ( _ Q E U W S U U U ( W U _ Q _ _ _ Q ` _ E S ) _ ( _ ! _ ` R _ ` ` _ _ ` _ ` ` R R _ ! R ( K L _ W c H _ _ R R Q R T f e x T c l B M M V U U H T W b ) b b U W V B A E Q ) _ _ W U Q } ( ) _ ( ' { c U { ( ( ( _ { _ _ { ` _ _ ` ` _ _ Q ` ( R _ _ R H R W V V T T Q R R R W R V S ( R c S V V c R ( R H H R _ R R W U x l x x l b R R x x U H c U S z b l r t B B f B l y t y x x h B x y f V x e h c k l z k z z e y x x x c V l f t 7 f x y t t y r r f x f t t l f e y y 6 r r 6 1 6 9 q r 9 6 r t 7 2 r t t t 4 5 t 6 1 ; 1 r 2 2 t q t 7 6 6 1 4 y 6 6 q q 6 r 6 6 1 $ ; 1 r t 6 9 r t ",
"6 6 6 6 6 1 1 ; ; < 4 6 1 1 1 5 r y y 6 6 4 6 y d r r 6 t d t 6 r r t f f q f x S c z c H U c l V U E U W U T W E U Q _ R U Y R R H W _ W U Q Q Q _ E U W R R R R R R Q E S Q ( U U W U U ( _ _ _ R Q Q ( ( R W R R U B x S R ( S c R R R Q Q W T T S x c U U T U U K H T W c V W E W W U U H U V U U U U U E c c T R U H T U R ) W R } R W U U R } _ ( _ ` _ ` ` ` | | ..| ( W U R R _ ( H ( _ _ _ _ } { _ { U U ) Q ( Q ( _ _ _ { ` ' ( Q R ( ( { } _ ( ( ( W H T _ W U ) ) T U R R ( ( U U _ R R T W U T ( ( L _ ` | ` ` _ ` _ _ _ _ U U T R _ _ T ( ( ( R _ _ ` ` _ H W _ ` ` { ` _ _ ` +.+.` ` | | | | } _ { { ( _ } | { { R T _ { ` { { ` _ ( Q E { [ U Q _ U T { ` ! _ _ _ R Q _ U U W W U U U x S Q R U _ _ _ R R Q _ R W S ( _ ( R Q _ ' _ ` ` { _ _ R _ ` ` _ _ L L _ ` _ ( R W k U _ R R Q T T U l w l x x V V B B ) R H R H S b W U b S W U F f M E R Q Q U W ) _ Q Q Q _ _ { H R { _ ( ( ( _ _ } _ _ _ ` ` { { ` _ _ _ _ ( Q U b R W V S W R H W W R R Q V U Q W S S x x U ( T H b T T R ( U H U U b l l l x T T x x c c x x x x l f r t l l f l x x y f l z V V V V V S x e l S c c z x z x f e x c l l l h l y r l x f y y y r r f f w t f h s f w q q w r 6 1 1 4 r r 9 7 t q q 6 r y t q 4 6 r 2 ; 1 6 6 6 6 r w f w 6 1 4 6 t 7 2 6 7 6 r 6 1 < 1 1 9 6 q 7 9 6 7 ",
"7 2 1 7 2 1 6 ; ; 1 r 1 1 1 1 1 y y t w f t r y f M M t t t t 6 t t r y f w x x h x c S U b x V W U E W Y U R R W U R ( U H Q R W R U U U E Q Q _ _ c S R Y Q _ R R _ _ U S ) R S W E U _ R R _ R R _ _ Q W T Y W R W S x c W ( U S W ( R T U U W T S x U R H T U H R Q U W U c V E Q Y U U U S l l c S U W U c W R R R U U U ) R U W _ T W S W _ ` R Q ' ' R _ ' ` _ ' { ` | _ U E W ( ( H Q { _ _ _ ( _ { _ E W Q ( { Q Q Q _ Q ` ` _ _ { Q R _ { _ _ ( R ( T b R { W S ) ( Q Q Q R _ R Q E R _ ( U S U ( ! ! _ ' _ _ _ _ _ ` _ _ _ ` Q U U ( ` ( T _ _ _ R R _ ` _ { R T { | ` ` | _ _ +.+.{ ` { | { { | ` } 6.| ( Q _ { { { R ( { ` ` ` { | _ } [ U { { U Q R T _ ` ` _ _ { { R { | T R _ W S F S V S Q W U Q _ ( R _ } { _ Q b R _ R T T R _ ] ` _ _ ` ` R _ ! _ _ _ _ ` R _ Q R R U c Q _ R R ( U H W S f S l l l B U _ _ ( H T H b c U U c U R R R B f l U _ ) U ) ) Q ( ( ) } _ _ U W { _ _ _ ) ( _ ` _ _ ` ` ` { ` ` Q ( _ _ T U b T W W E ) W T T ( T U R Q V E R U c x x U U T U U U R R R ( U K R T U x h l h S S h c c c x h x c l l d t f x h f f h h l h l S V V U U x f e e h z c x x z x h f x z x l h l x f y f l l f t t 9 y l e e x h s s f q q t w 7 r 6 1 1 r r 6 7 r 6 r q r t r 6 6 1 7 6 1 1 9 2 7 1 6 f e w q 1 6 q r 7 6 t w 6 6 6 1 1 8 4 r 6 6 r r 1 1 ",
"6 6 2 2 2 1 4 1 ; 1 6 4 6 < 1 6 f f f y f f 7 6 f f M f f t y t t t q y f l x f f x S c b S x F Q Q ( W E U U Q ) W R R U U Q Q ( R U S U ) Q W _ ) c U R R Q Q Q Q Q ) R U ) ( H H R R _ ( Q R R R Q Q U b S U Q R Q W c b U R U S Q R R T S U U R U x U R R K H T R _ ) Q R S c H c c U T U B f h V S b W U V Q _ R Q T U T _ ( S T _ R U R } ! R ( ` _ ` _ ` ` ` R ` _ ` ' _ Q E U ( _ H ( { ` _ Q _ _ ` } R W _ _ _ _ ( R R Q _ _ _ _ } ( ( R ( R R K ( T U T ` { W c W ( ( ( ( Q R _ Q U R _ R b c R ' _ _ _ _ L R L _ ` _ _ _ _ { { ( U R } _ H ( ` ' _ _ _ _ ` } ( ( { ` ` { { ` _ | { _ ` | { | { { ` +.5.{ _ [ { ` { { R _ | { { | | { } | { R { ` K W R { +.` _ _ { { _ } +.} T R { } Q S A V U ) U U _ ( Q Q _ [ { { Q b Q R T R R T R _ ` ! _ ` ' ` ] ` _ R R R R L K H R R T U _ { _ R R U K T V x U z l y x W _ K H U T T x c S c c W Q R ( W S f S ) R W ) _ ) R _ _ } { _ b Q } { { } ( ( _ _ _ _ ` ` { ` _ _ R ( R R T W E R R W W _ R R U W R T ) ) c W ( b x c U T H U H R T T R ( R T H H T U H S x h x b l x S b x x x l x x M f z c x f e h h h x h x x x x l h h x f s f f x c z x l x V c x x l f f f y f h h f r 9 f x l t t l h f f y w y t w q t 9 4 1 9 t 6 6 7 r r r r 6 7 6 9 4 6 6 6 1 6 7 7 6 q q q q r 6 6 t r 6 7 r w q 9 6 6 1 1 8 r q r r 9 1 4 ",
"4 7 1 1 6 * 1 1 1 < 1 6 6 1 6 q t y f q t f 4 1 n e d f t q t f f 7 f B y y l f x x c x c S x l F W R W R U U R R W W W W U U ) Q R W U W ) Q Q ~ Q U U ( R R R ( Q W ) R U ) _ H H _ R R R U U ( _ R R R R R R U R R R T H U R b V W Q W W W T S W U x S Q R U T T b U W U W R U U z S U T c x l S R U c T U x W _ R U U W R _ R b R _ R T W Q R R ` ] R ` ` ` _ ` { _ ( _ R { ) U U _ _ H W } ' _ R } ( _ } R U _ { _ _ _ R R Q Q _ ` ` { ` ` R R _ _ K R T ( _ ` { U x U _ _ R _ R T _ W c ( R H b T _ ` / _ L R R _ R _ _ ` _ ( _ _ ] ' H R } _ K ( ` ` ` _ ( _ ` { ( Q _ _ _ ` ` ' R ( ( { { | { | | ` { +.{ Q { 4.{ { { { R ( | { ` | | { { | { Y ` { H U ` o.] _ R _ { [ R Q { W b U ( ` Q R U B W _ W b R _ ( W _ _ _ { R U ( R K ( ( U H R _ ` ` ! _ | ` ` ( L _ L R ( J L _ R U U _ _ R T R H R T z h c S S h c U H c x b R H x x b c T H R R R R W S U R T T Q [ _ W _ _ _ } _ b R { ` { { _ _ R Q _ ` Q _ _ _ _ ` ( R Q T R _ Q K R W S W Q R b U W Q ) W x U R c c R U H K K H R T H R _ R R K H K K K T U c x c h x U c c c x h z x f l c l h e e x h h x x f x z l y l V V S x h l l h z x f l S x h x l y f l y f x y y t y x x y t r y l h y e y f q t t 6 t t 1 9 y 4 1 6 t r 6 9 6 7 6 7 4 6 6 9 1 1 6 q w t 6 w q t 6 6 t q q r 6 r r 6 6 9 1 1 6 r q t 6 6 1 8 ",
"2 6 2 2 = * 6 6 1 $ 1 1 q q t q 7 6 t t r t 6 1 r m d t r 7 q d l t x V w 6 d l c l z c c z l f B z U E W W T U R U U U Q U H U R R R Q Q W _ ! ~ Q U Y _ ( R R _ _ _ ) U U _ _ K W _ ( Q U W Q R _ Q R R { } ( Q R R R R b H Q U x S R T R ) R U U c x H R K R R T c c S U W W U U S U H U U S c U W U U T U c b W R T K Q ( R U U R { R R U R U _ ` ` ` ` ` _ _ ' ' _ ( _ ( _ _ R R _ } U T _ _ _ _ _ _ } ( W W _ { ` _ _ Q _ Q _ ` { ` { _ _ ` ' { { R T R ` ` ` _ U l U ( _ ( Q R ( R U b R R K L ` ! L L L R R _ ` _ R R { _ _ L _ ` ` R R } { K ( ' ' ` _ _ ` ` } R U ( ` _ _ { { R ( ( { | | | o.| | | { _ ` | ..| | { _ Q ( { { { | { | | } Q H } { H R ..| _ Q _ ` ` } R U Q R W T W R ( _ ( W ) } W S R R _ Q _ { { _ Q U R Q R R _ ( R T Q | ` _ ` ] ` L _ _ _ ( _ _ ! R R Q U b Q R K U T T _ ( S l c W T b H U U c c c T U c l b U R R R T T U W T W _ R b R Q _ ( ) _ _ Q Q U W { ` Q _ _ _ R R Q ( Q _ R ( ` ` R _ R R R _ Q L ( R x S T U U W b R U x l U T H U Q H H U T U T T K L R R _ R U T R H H U b b S h c U b c k z z c x t y x x s f f f h B x f f x x l l f h c c c z x x x c V f y B z x h h f x B f f x h h l B h s y y y y e y t y y y f f w 6 r t 6 t t 1 1 4 r t r 6 t t 7 6 6 6 q r 7 6 1 6 t e y f t t q q t q q t 6 6 6 7 6 6 4 6 1 9 r t 9 6 6 r ",
"& & 6 2 2 1 r 4 o o 1 1 6 2 2 2 7 6 r t t y r ; 5 d f w f r r r f l x B 6 7 y f h c c c c l l l B V S c U R W W W Y R U U W U U R R R ( Q W Q R _ _ V E R R _ ( _ _ Q R U S Q _ _ Q Q _ R R { Q T _ _ U H R W Q ` R Q ( T U U R c h S S T R R R T U c x H R T R T S U W W Q U S c c T U S H T T b S S U R R U S c U H R K R R H S T U _ _ R _ { R ( ( R ' ` _ L _ ` _ ' ` _ _ _ _ } _ ` _ b R T T { R _ _ _ U U W } _ } _ _ _ _ { | ` ` _ _ R R R ` _ R K K Q _ _ _ Q S x U R R ( R R R U b b R R _ L R K K H T R _ ! _ ( ! _ { _ R R ` _ ` ` _ } _ H ( ` _ ! ` ` { } R T R _ } _ _ _ _ _ } _ _ { { | | { | ..{ ( | | | +.| { _ R ( ( _ { { { | | _ R T { { ( _ { ` R _ } Q ` { W U R _ _ R R _ _ _ _ T R Q U E R U R _ { { R U W U W ( _ R _ ' ` R _ _ ' ` ` ` _ ` ` R L L K R _ K R ( T c U R ( H U R Q U x l S U c x c W Q T T c b U c x S S U T U U W U R U T ( T U U U _ Q R ) _ U W U T _ R R ` _ _ ( ( R W { _ R R { { R _ R _ R Q Q ( Q E x c V c U W S U c x l U H R R H b K K R K U U L K R R Q T c b H H T b b H S x h z U k k z k c f q w x z e f f e f x x e w l x l l e f l h c z l c V V x f w f V x h l x V f w y h x x f f y y h B x f r r q r t f f t 6 6 6 r q y 6 < 1 3 8 t t y r r 6 1 q t q w t r 2 1 6 r t f t 6 q t r t 6 r 6 1 6 r 2 4 9 6 1 4 9 6 q r q r ",
"$ $ 1 6 q 6 4 ; o o 1 6 1 & & 1 r 7 9 6 t f r 1 5 9 t y t t t 7 y f B f r r d w f x c l f x l f V U U S S U R Q W W _ R R W R W R Q Q Q ~ Q W W _ ) U U T H ( { ) U K Q U b R Q _ ( Q Q Q _ _ Q R _ _ U U U H T R R Q R ( _ Q W c x V c U R W W H U U z H _ R R U U W R W R R c z U U U H U K H T U U U b R W c U U c H T T b U U U U _ _ ' ` ' _ _ R _ ` ' R K ( _ ` ' ` ` _ _ ` ' _ } ( b W R H ( _ _ R T U W E _ { } ` ` ` { { { _ R R R Q Q K R K K K ( Q R T ( R U V W H ( R _ R H b U b R R K H b H T K R Q _ ! ! ( ` | } _ _ _ _ _ | ..| ' _ H ( { _ R ' | ' R T W R { { ` } _ _ { } _ _ _ | | { { { { } } { | +.| ` ` { R ) ) ( _ | +.| ` ( R W { | ` ` _ R _ ` { _ ` { W U R R R _ } ' _ Q R R W E W U Q U T _ } T b T R H Q { _ _ _ _ _ ` ` ` ` ` ` { ` _ ` ( L H H U T R R Q T c U H Q R Q _ W x x B S U h h b H K K T b b x x c S l B x c U T T R U T T U W W S W Q [ ) R S E W U _ R R ` ` { { } _ { ` } ( Q R { ` R R ( R _ _ R R W x z U b c W W S l S V b K R R H c b ( _ R U H H K R ( U c c b b U T b c H U x l h x c b c k l f t y l x l h h f s h l h f y l x h l f y l x x c S S c l f t y l z V x l f w 7 y x f f y y f f h l x l y 7 7 r t f t 7 9 r 9 9 t y 4 1 1 1 1 r t r 6 1 < 1 7 t w t t y q 6 1 9 w w 6 6 6 r t y t r 6 6 6 q q y r 6 1 8 4 1 6 r t r ",
"1 O 1 < 7 2 < O 1 o 1 2 2 2 r 2 6 7 6 1 9 7 1 1 1 6 r t t r t t q y x y y y f t t f M f f S l f V U W U V V T U ) Q W T R U W Q U U U W Q W W Q R W V S ) b b R R H ( ( S b Q R R ( Q R _ _ Q ( _ Q W W E E ( T U R R R Q Q U U U S V S c U E S c W W z H _ R H U R Q T U R W c S W V U H U H U U U S b c H b x U R c x b b z R U c R _ R ' _ _ _ _ ( _ R R R L T R ` _ _ L ( ` _ _ ' ` R b W } R K R ( T Q U W U _ { { { ( ( | ` { _ R R { Q ( Q T R _ R _ _ R U T R W S W T T U W c U H W c K L L K R R R _ _ R R _ _ R _ { _ L ` ` _ ` { ` ` ` _ U Q { ` H R ` _ K _ _ U _ { } } _ ` ` } } ' _ { { { { { ` | { { { | ` _ { { R ( } _ R _ 4.{ ( } [ U { | ` | ` _ ` _ { } ` ) U U ) T R ( Q U K ( _ { _ _ W c [ _ b U _ R U { _ c W ` _ _ ` _ _ ` { ` _ _ ` ` ` R ` ` ` R ( K R Q ( T H b W c U R ( _ U c W c h U H H T c H H c U c h x c c x h c W U T T U W T R U U [ U S W _ R U V Q T b ` _ R R ` ` ` { _ { _ { ` Q W { ` K U _ R W ( H R W x V Q S h U W b x W S c K T K R H b T R Q K c U U H R K H R U T U b U b U b f V x f h x x h e f l y e f f s h h f f l c l y f l f f f f f f V S F l f l f f l f f f f f f t d y f s f h l y f l f l B f 6 9 y t y t 7 t t 6 6 t r 4 9 8 8 1 6 9 4 6 6 1 6 1 w e t q t t q 6 r f t q r 1 6 y t y t q t 6 6 r y 9 < 1 8 9 6 $ 6 6 6 ",
"1 1 1 ; 1 $ < < : $ 1 & * w y q q 6 6 5 6 1 1 4 9 9 9 7 d d d w r f l f y y l l f t f x b W x f F U U U V V U U R Q W H H R Q Q U c U U W W W ) Q W c S ) W U c W W W Q U c R _ Q T W Q R ! { { ` Q W R W W R R W Q _ R U H b U S S W W U S V S U ( Q z U Q b H R Q R R R W U U U H T W H H T T H S c c b S c h c R U b h z b R R U H _ Q _ _ R R R ( R R R R R K ( _ L T R R _ _ _ ` ` ( U W ( ` ( b W R Q _ R S _ { | _ R R _ { } _ R Q _ _ _ Q R R R R _ _ ( H H R U S Q R U h x S W H T c K R _ _ _ R R R _ _ R ` ` L R R R ( _ _ | ` ` _ ` ` { K Q | ` R R W R _ 4._ H _ | { _ _ _ } | | | } ` { ..| { | ..{ | ` _ ' ' | | Q ( +.<.R W ) _ { <.[ R { | ` { { { ` _ } } ( R W U R R ( ( U b U ) _ _ | ..W c _ <.W U R U _ | _ b T Q _ ` | { { _ _ _ _ _ _ _ ` _ ` _ ` _ _ ( ` R R T H c W U b c W T H b R c x U R L R H H b b H c f f S S c S U R R T H W U T _ T H _ Q W S W S U W { Q H _ _ ( _ ` ` R ( R R _ ` _ _ _ _ T U T ( R R H K T W x x W R c V V S U R U b U R K K H K c U H H U T U T H K H T H K T K R R U c f x V c f f y y f x z y q y e e y f f l h c c h f f y f f f y f V S x y f l d l Z B w 7 r y l f y d h h f h h f f f f l l y r r y y t r r r r 7 7 q r 4 4 t t 7 9 1 6 6 r r 6 1 r 6 q q t w r 6 q t t t r 6 9 r t 7 7 q r 6 9 6 6 1 1 1 9 t 9 1 1 < 4 ",
"1 6 1 7 1 # 1 1 o ; 4 $ * 6 q t q 1 6 9 q q d t d r r 7 7 r t t f y f f f q t V c y x U U V h f U U V V E V S W U W R b b U R U b U R U V W U E U E S B E Q T h F R H ) W c W ( Q T R Q R Q { _ R R Q R R R U ( _ Q U R R U ) Q z V E R ( U B U R R W c U R b T _ R L Q U U W R H U R T k c T U b x b S c S S h l U R H c U U H R U S _ Q R ( _ R ( R R ( _ L R K R ( R R _ ( ( _ ` _ ` ( T Q b _ ` K ( Q R { W S _ { { ( Q Q _ _ ` _ ` R Q _ R Y _ L K R _ R _ T K T b b Q Q b l b R R c U U Q ! R R R R ( R _ _ R ` _ R L R _ R Q _ ` ( _ ` ' _ ` T R ` _ ` _ S T | | W b ( } _ ` _ R _ | | | ` { { { } { | | { ' _ { { ` ] { ( Q +.4.{ R E [ 3.{ Q W _ { ` ` ' { _ R Q T R _ R S W R R _ R R R W _ _ ` { W S Q } _ W R U R ` Q H R _ ( _ ` _ ( R R _ ` / _ ` ` P _ _ / L R R ( L K R H k U _ H x b R Q c U S h U R K H U b c b c S e q B S z U V S b b U R H H } T c U ) _ U W S Q { ` R H _ _ ( _ Q R Q _ R R T R R ' _ R H Q K R R H c R H U x x U R U V x U U U U c U R K H U T H H c b b U W U c H H b H b H ( R U H x f f c U x f w y l x l q 7 t y f e f f l h h c c h y f x x f f h V V f f V B t f F S f y l l f y r f x f s f h x l f d f e t y r t y w r t 6 r q 6 6 t 4 1 8 r t t 6 6 1 r t 6 6 6 2 6 w y 7 7 6 w q r t r 6 7 6 9 6 r 4 r r 9 1 1 1 9 1 9 r t r 4 1 8 ",
"1 2 4 7 1 ; 9 2 $ ; 2 1 2 & 6 * 1 6 6 4 w w t t w t t 6 1 < 6 r f f f y f y w f l x U x h x l f S U c z U U U U R U U H U c U U U U W E U U U c b T U x S U U S U _ Q R F S ) Q T T R R R _ ) T T R R R ( Q Q W Q T U T R R _ Q U c U W Q Q Q Q K R W S T T K ( ( R _ R U U W R R W H U c c b T c x S S x b W x c U H U R _ U U U U U _ ( T H R _ R T T L R _ _ ( R T ( ( _ R ( ( _ _ _ ( U ) T H _ { _ R ) R U S ) { R ( _ _ } _ ` ` ` ! _ _ ! R _ R R K R _ _ R R R S b R ( U b _ ) U b U b Q R K H K R R _ R _ ` ` Q T R Q _ _ ` R L R { ` ` ` _ K ( ( L ` ` T _ | { T H { } ( { _ ) R ' { _ ` | Q R { { _ { { _ { | } ` | +._ ( { | { [ [ <.{ _ ! U _ ' / ` | } R R U c R _ R U R ( R ( _ R U R } ' R R R U ) _ U R _ ( R R R b _ { ( R L K R R _ ` ` ` ` _ _ _ _ _ _ L ( K R K L ( T x H _ _ U U { _ b U c h W R H z c S c b c V l e l V S z h x x S S T T ( } T c W U R W W R | Q K R H _ _ L R R ( Q _ ( W U Q Q _ ( _ R R H R T S U K H U c x S T U W W Q S V c U b U U R T T U S S U x z c c c U U U S U U T K U c S l f c x f l x x h h y q y l y e f f f f l x z h f h x x z c l h c x h h z V d y B c x x S V e e t w f h s e f f f f f y t r t t y w w t y t r r q t t 9 1 ; 1 9 y t 6 1 r q 1 6 6 2 6 7 t t 7 6 7 w t q 6 6 9 4 4 6 r 9 r r 4 1 1 1 1 1 8 4 t r r 9 r ",
"1 $ 4 1 7 1 1 1 $ ; 4 = 2 2 1 $ 1 1 2 1 r t 2 2 7 q 7 6 4 1 8 4 t l f q l f w q f z c f e c c f c S x l B U c U U c U U H z c U R S V E E U U b T R V x W H z W Q W c b V V W Q U H R R T R T U T R U U Q _ R T U U ( R U Y W W U x U U U _ _ W c U R S T R K R R ( _ R T U c U E z c W T c c T b b c S x U U B S S c T W R c c W U c R R b b T R ( L R K R ( _ R U K Q _ R ( ( Q R ( { Q U ) T b R { _ U b U S c W Q R _ | ` _ ` { _ _ { Q U Q _ R R R K R _ W U H W U c H R K U Q U x b U c R _ H H R T R ! ! _ ` _ R U _ _ R _ _ R R _ { ` _ ` ( H _ R H L { | | R _ R U _ { _ _ _ _ R _ _ ` ` { R R { | _ R W { { { { _ ] +._ R _ _ R ( | { b R { U _ ` R ( ' ` _ _ R W Q Q R W R R R T Q T U Q _ Q U W R b R R b U _ { U H R H ( _ ( R R R _ _ ` _ ` ` _ L R ` ` L ` _ R K L R _ R R k c R Q U _ { U c U z c R H c x S U c x f x U V h c z x x z U U c S T ! _ b b R c b c R ( ) U b ( H R R R R _ _ Q W R R R ( W U U _ _ R H H b U U b H T x x U U c R _ U x c S U c S U T U S c U U U S k z U c c T U U T U H U T c U x y x f 7 f U c e y y e l x f e f f f f f x x y y x z l x x l x x c x h z V t r y l x f B x e f f q y h e e f e f l f y e q t y y w e w t r 6 1 9 r 9 4 1 < 1 1 t t q 6 q 7 = 7 r 2 7 6 r y 7 6 7 t t 6 1 6 t t r 2 6 r r r 1 1 4 1 1 1 ; < 3 6 t r 8 ",
"1 $ ; 1 r 1 O o 1 $ 1 6 7 * * * 1 & 1 6 t 7 * 1 9 6 7 6 6 r y 6 y f y w f f f w y c x f f V x f V x z x B x c S b H W U c z c b U U V U U c U U H ) E z W T c x W c h c S x U R U T R R R U U E W R W b R _ K H R R R R H R _ U c S E U U R U c b R W S U R R R R _ R R R U S S z z z U R U H T R U c b U R S c S H b R U c x b E S b T U T U T H R R L K Q K J T U K R ( _ ` ` ( R ( { _ H T W U W ) W S b W S S ) U ( } { ` ` ( _ _ { _ U c T _ _ J Y R ! _ T c H U S x U H H U U x c S S c W R L L R R ( R _ ( _ ! R R R _ _ _ _ R _ _ _ ` ' _ ( H ( _ K K { ` R K _ ( H _ { ` _ ` { _ ( _ | { _ Q Q _ | ` _ W _ { ` ` ' ` { R ( { _ T T { _ b T _ T _ | ( R R _ _ ` _ _ ! R T U _ R K L R _ _ R T U W W W U R R U b _ _ H T ( T R _ ( ( ` ' ' _ _ ` } L Y U T R _ _ ' _ L K R L L ` R b H T b c R Q x j U k c R H x c U U c f w h U U c b h x x V c U b b c H U U b R U x l W R S c U Q b R R L R ( _ Q R _ } _ T S S U R R _ T c c R T b H U c c W U c R W x h S b U H U c c c c S W U U S b V U b b U U U R U S H H H S c h h f w y c h w f l w s c x s f f f y f x l y t d y l x h h h x V x x z x y t f l f f f f e f f w w f f e f h x V B y e f t q y y w q 6 1 4 1 1 7 9 ; 1 4 1 1 6 q y w t 4 6 r w 7 6 7 t w 7 2 r t 7 4 4 4 6 d y t r 6 t r 1 1 1 1 5 1 : ; ; 1 r 8 ; ",
"1 ; ; ; 1 $ o $ 1 O $ 6 2 * * $ 1 $ 1 q t 6 & 1 6 7 t 6 4 9 t y t q d w y y f w e l l e h l f f x x U c z x V z V U U l f V c x V U U V z x T U c W E x S W c h S c U S S x c U T U S W R U R R H R W c U ( R K _ R H T U R _ U U S S W U U V c U W S c b R ( R R _ R K U R R S V U B l U R H H R U c U T R V h U W b U b x c U U c c U T ( T T H K R J R R K K _ ( H H Q _ ( _ _ _ R Q Q c U W U U W S S W W W W _ U _ ' _ ` ` R R _ { U S V U U _ R R L R R K H R U c x H c U U S x U c V c K L ( L R ( _ R T T R R _ R R ! ` ! ! _ ` _ _ ` ` _ R K R _ L T R T H T ` Q H ! { ` ` ` } _ ( ` | _ R Q Q R _ | | _ _ ` { ` ` ` ` Q _ | _ R W ~ } T U R b R _ L K H ( ( R ` L L _ b c _ Q H L W R ( T H W ) W U U W W W b W R b R _ K R { _ R ( ` _ / ` ` _ T R R T H R ` ` ( K K _ L R ` R c H T c h b U k b U h x R H x c U S h l h c l c H c l x h S z b U U c b H W c U W x l S S c x R T c _ R K R R R R ` { _ T S V W S S R R T c c R K R K U S S W U k V S h h b c c T R b c c W U U U c c W U z c c H T H U U U b b U c l h h x f t l y w l h q t l h h s f l y f B y 7 t t r y f z x f h x x x z V l f M y y f y f f w f w q y f f y B B f t 7 y f r 1 t f q 6 2 4 9 1 4 t r 1 1 6 6 1 4 7 t q q 1 1 6 t w 7 w y q w q r r 4 1 9 1 1 7 e f t q t 6 9 < < 1 4 1 1 ; ; ; 3 : - ",
"1 1 1 ; - o $ $ 1 $ $ & 1 * 2 * 1 % 1 q q 6 6 6 q q q q 6 1 6 q 7 6 f l f w w e f f f f f h h e x I U U U V x B U U h e x V c h B U U z B B S U H W c x S U b f x c c S U V z U R T U T T W ( R T R U x U W T R R Q R R R U U U U S S W W S V S H U U x b ( _ R R ( R R R ( ( U B V B l x U K H H U b U R W x l U E U c x V c b U c c W K R R ( R H b L _ T H R _ _ R R R ( R R R R R Q U b W E S E U U S U W W U _ _ _ ` ` _ _ R { _ R U W W T b R _ ` R R K R K T R c x U b S V S b b b S x H R ( R _ R R U K H H R _ R ` _ ! _ ` ` ` ` { ` _ ` ` K R _ R R U b R R Q Q K R _ _ ] ] ` _ ` | ` R Q ( ( T R ` ` | | ` | | ` ` { _ _ { { T U _ _ R W U c K Q R J U K R R R R R R c x R R H H H c b H R W Q ( U b R R W U W U H R ( R R ` _ ( R R R / | ` K T Q R T U R ! _ R R R R R _ ( b c H H b l c S c c H j k K H b U V x h U U U h x c U z x c S c c c U b H R T b b W c V S c b b T U H Q R R _ R ( R _ Q E S U U W U S c U R K U R R R R R S W W S x V x x x c c z U R T T U R R R b c S W W S x x b U U U U W S S U c f h l l f f f y e f f w q y h h h h f f B l r r t t y y f l V V c x f l c z x M M f t t d f y e y q w y e e h f e q r r y y r 1 6 y t 6 4 6 9 9 9 r t q 4 1 6 6 r 6 6 1 6 1 2 2 r q w f f y y t r 1 1 4 6 4 1 1 r t q r t t 9 1 4 8 1 1 8 1 ; ; 1 ; 1 ",
": ; ; o o X ; $ $ $ O $ 6 & * 1 $ 1 1 4 4 2 t 6 q 6 q r 6 1 1 r d 6 q f q 7 q t f y f f y x c e x U c I U c b V V x f l V x x x x B V x S B z b U T h x S c c f x c h x U V x E U U R K R R U R R R S c W U T T U R R R R U U U c S U W U c S U c U W c b _ R R R K R _ R R T z x B B x l S R K H R b b R U f h V S S l l S h l F l S R H K L R Y K L _ R H b R R R _ R R R ( _ T R _ _ U b W U S E S E S b W W c _ { _ ` ` ! _ _ { R U U R U T U T U R R K U R K H T c f S c h l S c x b U x c R L R R T T R _ Q R R R _ ` R K _ ' _ _ _ _ _ ` ` ` K R _ K H U U R U W ( U R ( R _ ` ` _ _ { ( R _ ( R R W R { | | | ] ` _ ` | ` R { } T U R R W W U c R _ R _ R U U J K L J H x h H R K c c U H U ( U R _ U b Q U T T U U T U ( R R _ ( _ _ L ( ` ` R U W R U R U U T R R _ K R R _ K j c b x b h h c c l S x k H H c U x x c U U U c h S W c x b U c H U U c c T U H U U V V c z U c U U H R R R R ( R U T R U S W b V S l x W H R K H R L R W x c S h h x h c x x x h c T T R U H U U c c x c W U x b c c U W U c c h x c s l h f f f y f s y f w w l h s h f e f B y 6 y r r f f t r d l V z h z c l l l l y 7 t d t e f w q y f w w h f e f M y r 7 r 7 6 y e t r 2 6 9 2 6 t 6 1 1 4 6 7 4 1 1 6 2 7 1 6 q w y y y d q 4 1 1 4 1 4 4 1 4 q t 6 r t 9 1 8 9 1 1 1 1 ; 1 1 < 8 ",
"1 - o X - o o $ 1 o $ 1 2 2 1 $ 1 6 1 $ 4 2 6 q w w t q t 9 1 r y w t t 1 7 y w y f l h h x x x V U U U V V S x l l x h l l x x x l l x V V c c K U h x S l x l l c x h V S S W U c U W R T U U K R E S U R R R R U K R Q Q Q Q T c b W U S S U b U R U T ` ( R R T U R Q U V V V V x S x V H R R R T H K U l h V V x x x V l x B l S R K R K R R _ _ R K U H K R R R R ( { _ _ Q _ _ } R b R W S U S E S b R ) b Q { ` { ` ` { { R U W U U U T U U b U U U R R R H H l l V x h h x x c c c x H R R K T R Q _ { ` _ R R ( R H K Q ` _ _ R L R _ ` _ K _ ( H H T U U W Q ( T _ ` R R ` { _ ( R R ( _ _ ( W W W Q _ | +.| ` ` ` | ` _ } { T U W R H T U c Q { R R R R R U b x c c c x c K K b U R R ( _ R ( Q U W [ R S U U U T T _ R R ` _ _ _ _ ` ` _ L R R W U W U U U R _ _ R R K R K x c b c b x x x l c S x c U U z h h S U K H W c l U W U b c U U Q R U x x c S b U W c l V V S b T H c R R K U H U U W U U U S c c l B V U H R K U U R K c h x h f h x h l x b h e c R U b c b S c S U x c c b S U U U U T b c h h l l f l x l f f d y e f f y f x h h f f f f y r r t r t f f y t r t l l l x c z l l f r w t y y e w w w f l y y f l h l M d w q t t w q y y t 6 6 6 6 7 t 9 1 6 9 1 4 1 1 1 6 6 6 6 r q w q e y y 7 1 1 8 8 1 1 1 1 1 6 t t t 6 6 1 4 6 6 9 1 1 1 1 1 1 4 ",
"; ; ; o ; o X o $ o O 6 * 2 1 $ * 6 $ $ 1 2 1 6 t w w q f t w q q y l f w w f q w t t y f f x x z U U G U V l y l l x h f l l l x B V l x S c x U S e f B h l l f B x f V c x T b k W T S R U c R T U U b T R R R U T U H R ) _ U c S U S S V S b U U U T _ ( K R R b H W U U U V S U S c z c U R R R H H H l B B l l x x B x V V c c T T K H K R Q K c c R H b R Q U R Q _ Q Q _ } ( _ Q c Q ) b S S S S b ( ) b R { _ ` { _ { W U U R U S S c S U U U U _ K U U K H x x S x l f f l c h h l U Y ( T R _ ` _ ! { _ T H R T H R _ _ _ ` _ _ R K R R H R R b H W U S U _ Q U [ { _ { { ' ( R W W R T R ) W W W W Q { { { ` ` ] ` _ ` } Q U T U U b W W k T _ R U R ( Q G k l l U R b c k H R R R ( R T R ( Q U b ) W c E E S U R { R R ` ` / ` ` ` R K T Q R T T U W R U R _ _ ` R K _ R c x c c x x b h f c x f U R H x s V E H T K T c x U U U c c U U Q U c l U c S x H T x x S x c H R c x R R H U H W R R S U S c S V l F S z c U K R H K T z h V l l f l l f x V x h S T U z c T U U U U U c x c c c U U U S c U c S x f f f V l y f d w f x y 6 f B f h f f t t r t y q q f f y t y d M B z x h z c f f f r r r r f t 6 6 t h f f w e f h y d y q t t t t r 7 6 6 7 7 9 t 6 q r 1 1 6 1 1 1 8 1 1 q 6 q t w w w e e q 6 1 1 6 6 6 1 1 1 ; 1 9 t r 1 1 6 8 1 6 9 1 1 1 1 ; 1 1 ",
": 1 ; ; ; - - X . o - 1 * 1 * 1 9 9 1 ; 1 7 6 1 6 6 t w w y f w y q f l y y f w t 7 q 6 w f l l S V z U U x f t f f l l x l l V U V B l B V z x U U f f x l f f f l l l V l x U b b U U W ( R U U R R H H U T H H U T U H H H U b b U E S S S S b U E b H { R K ( R b b U U S U S U U S S S x b H ( R b H T x x V x l l l S x c U z c ( K H H R U b c b U T U H T Q ( ( T U U Q _ { ` { W b R ( U S S S S U ) Q S Q _ _ _ { Q U U W W W U S x S S E S b R _ R L H K R c x U x f f l f l h l h U Q _ R Q R _ ` ` _ _ R T T R R _ _ ` _ ` { { _ R R R H R R H U W W U U _ ) W _ { { +.{ Q R ) R W W W W W W R R R ) _ Q ` { ` ] { ( _ { Q U E U S b T W z T ( K R R Q T H S x z U R _ R c H ( _ Q T H U K _ _ U S Q S S W E S b Q } R R _ ` ` | ` ( K T W R R R T W R R R ( R { ` R R ` ` H c K b x x S x h c c s H ( U c b U W U H K T S c U U H H U T c S x z c R R R b b U c x S V b U U b c R R R ( Q W U U W U S S x z S E b V l z U R U U H c l V S h f l h h h z c c W W b c S E U T U U U c x b x x x c S S V S S c c x e y V l y d f e f l t 6 f B h x l y 7 r d y r r r d d y r t d f B V c l z V f y f t 9 7 r r w 6 7 t l l y w y f h l y t t t t t y t 6 1 1 4 9 t y q q 6 1 6 1 1 4 1 8 1 6 t q 6 q t w f y t 7 6 6 6 6 4 9 1 1 1 1 1 1 4 6 8 4 8 9 4 6 9 6 1 1 1 1 : 8 ",
"3 ; + - + - ; X . X ; $ 6 1 7 1 4 4 1 ; 4 6 1 1 & 7 t q w w y w y w f l q y f f r 7 w 7 f l y f V z c B B f f f y y f l l l V V V l f l l B S z c E x f V x f f l l f x B f c c b U c U W R U V S T R U H K H H H H H R T c b H U U U W b c U S c U Q b b _ R R Q W c c S U c V U S U U b S x l x U U K b U c h S x h x l S x c W x z W K b H T b c c T T T H H b W ) R U U W _ Q ( _ _ W c E Q T b b E V U _ E b T _ { R R U b U W U U U c c U S S S c b U _ R H K R c x S l f f l f h b c h c Q R Q R R _ ` ` R R R R K R ` ' ! _ ` ` _ _ { _ _ T b _ R H U U W U T { Q U _ +.| { ( W W ) R W E W W W Q Q R R Q Q R _ { ` | | R R } _ S F U S b W E z R R H R Q H c U T U S h c U U T H c U K H U Q R R Q W R _ U S F W U H _ _ H K _ _ ` { _ R R _ R R R R T R R W ( ( T R R R L R _ c b R b f x x x h H U e x T b H Q R U U H b U E x H H H R U W U c f l S c W U b x U b l S S b c R H c U R R ( R U V U T U V S z V V V S z h c z V U b H S f c U x f V l s x V l x E U c U S S T U b x b c x x V x h h c U V z S x c V y f V l t y f e f l w 6 r l l l f 7 7 t t t r 9 t f t r t d f t y l x z c x f y l t 6 7 r 7 7 w t q f h w y f w f l y t t r r t t t r t r 1 6 r t t 6 6 1 2 1 $ 1 1 1 6 w t 7 2 6 t y t r 6 4 1 9 6 6 4 9 6 1 ; 1 ; - 1 8 1 t 4 r 6 * 9 r 1 1 1 1 ; 1 ",
"4 1 -   - + ; - o o < * 1 2 6 1 4 $ 1 1 9 1 4 1 1 7 t w y q q t y y f f t q l x f 7 r t g x f f B V S l l f l f f w f f f x V l f y l f f B F S U E x x S b h f f l f S S f x U W T U W U c U U U S U R R R H K R R Q Q R U H U T b R ( U c S U b R _ U H ( ( ( R H b U U U V V V S W W S x x x x c U R H U k x U c x x x x x H W c x U H T H H b U H H H R R U c U E T W W ) _ Q ( Q ( ) x U ) U b b E S T _ U x R { ( W W U U U T T R U c S U U U b H c S T Q R K Q b l S x f f l l k R U c T T H H R R ` _ _ ( _ ( Q K R _ ` ` ` _ _ ( _ ! _ _ R H ! _ K U W U U _ } Q E _ 4.} R W R R R R ) R U W ) { _ W R R R Q _ _ ` | | _ _ { _ S F U c b ( W c R R K R U c c H K R U h s h b T H c c c U R ( R _ _ U R { _ T S W S T { ( b R } _ ( _ R _ _ _ _ _ ( R R Q W R ( ( R U U R T K H c b R H f l S l k R T f l x x U R W R U U c T R h c T K R R Q R S l x x l c V l c U S x B V c H ( R c R _ Q U c S V U U U U W U U x V x B x c z V h c U U h c W b f B x h U E h f V U U T U U U U c x S F x x c S x x x c S V c c x x l h c B f y y w f M t 7 t l l f r 7 r y r r t t f f t t y d f d d f l c c z f y f y 7 r t q w f d w y e y f f y f y y y y r t t t q t y y 6 6 7 q 6 q r 1 4 6 1 1 1 5 1 t y 7 1 7 t t 7 1 1 6 4 6 6 w r 9 1 1 : 1 ; : 1 1 1 8 r r 1 1 8 r 6 ; 1 1 1 6 ",
"4 8 -   + + ; 1 o X 1 1 $ 1 & 1 6 ; 1 1 1 6 r 1 6 4 r w w q q w f y y l e q f x l w q M f B y t M B f d t f B y f f t y l l l f y l B f y f B x z V f l U U b f f l h S S f h E W S x U U H Q R b U U b H U Q Q R R R R R R b T T b R { T S S S T _ _ U H _ ( T H c U W U S V c S W E U c z S S z c S U H T c x U U k l x c x U U l x x z K H c H T H b b H T U S b S R b W W R ( R R _ W x S Q T U c F S R ( S x ) [ T T U b T b U T W U U b S U U c c c b z T R R R x h W U g f f x U R U x H H c c R R R _ R R ` R R R R R ` ` ` ! R _ _ R L _ ! H R { ( H W U U { | Q E ) [ ( W W ) R W R Q W R W W _ R U R W ( _ Q _ _ _ ` ! { { { R S V V U Q E x U ( R H k b H k U U c b z c b z U T b c U R R R _ _ H H _ [ Q U U b R { R T _ { { R U R _ _ Q ( _ R U R Q R R W ( R U U U H H U b x R T l f M l U J T f f x x H U H W U U H U U h c R K K R Q U S x V l V U V f S U S x V f b R R T c W T S b c W S S V S W W F l B V x S z x S V f l U U l c E c l x l b U W c f S W U T U W U b c U U S x s V U z c x x S S l h h x x h c V f r 9 f l l t t M l y t 7 9 y t r r r y f y r y y t y f d f f h c V f w l B r 6 r y h h y q q t y e d y t y y t t t r t q w y q t q 2 6 q 2 r 6 & 4 t 6 < 1 1 6 t r 6 1 r t 7 6 1 1 4 1 1 6 w r 6 1 < 1 8 - 1 1 ; 8 4 6 4 r 5 1 t 6 1 1 < 6 r ",
"8 9 , - . : 1 1 o - 1 1 1 $ ; 1 4 6 9 r 6 4 q r r 6 9 2 q q r 7 t f f f f y f z x t t l x B t t C M t 7 t f M M f y y f x l f y l B B M l l f f h V l f b T U h f x V W S h c W U l h F W U T R R R W c x b R R H b H R Q R K ( R b R } ( S c U ( ' Q b U { R b b U U U E W S b W Q W U b S S b b U S b b R b c T T H c x c H R c h z x x b c c H K T U c c c U W U T R T R Q R T Q Q _ ( c b Q ( R b V S Q _ S S _ { T b W U H b U U U U U H U U U c c S U c U H R T x x R W S l f x T R b h z H c c U W ( R R R _ _ R R R R _ _ ` ! _ } ` R L ` _ b R ` ' K U U _ { { R W Q ) R R R ( R R R W R T U W R T E W Q _ ( _ ( R _ _ R _ | { _ U V T R R U l W R H b c T U k T U l b U T H b H K R H b U ( _ ( R U U Q _ { W U U } { R T _ | _ R T T R R ( Q R T T W R ( _ ( ( T R U S c H R b x T R b f f S ( R U w l U T H R R U T Q T R U H T R L R R R K U z V U U W S f x W U c x x U R Q c c E U x V W W U E c V U U B f B F c V V c z z x h c W x S U b x V x U U W b B U W U U W R U c c W U W S h l c b c c V S x f h f l l l S S f t t l x l r y V B t q r y y t t y t y t t y d d y t y d f d f c c f e c U l w t f h h r 6 r f f y f y y f f t t t r 7 r t y y r 6 4 9 q q r 6 < 4 y w 6 1 1 w y 6 1 6 t t 6 6 9 4 1 1 4 2 7 6 2 1 4 1 8 1 1 1 4 9 8 ; 4 y 6 6 y r 7 1 1 r t ",
"3 3 3 ; ; 8 < 1 o ; 1 $ $ $ 1 ; 1 9 y t 1 1 7 q 7 6 4 1 r w 7 5 2 d y y l y y x c f h f x x y y Z B f t r d f M d t l f f l l f B B B B l f f f c U x f c K H c f V U H V h S U x s x V U U U E W U U U c x b R H c T R H K R _ U c T _ ( H H R ( _ R x S _ T c S W U U U U U U E W T b S U c b T T c x b R c h U K K H l c R U h s S c h c x H c H T T c h x c b R U H R Q Q U S Q Q R ) x b R R ( U S R _ R E S ( } U c W T b b c b T b U U T U V c H c S S c x b H c V U Q R c h x U U l h W H T c c T _ L R R R R R R _ R R R _ _ _ { Q K ( _ R c K ` ` L R Q } ` { Q U _ { W Q R W R Q R W T T R _ Q W U U R R Q ( R H R _ T T ` ` _ ( ) ( K H c x R b j U T c c x x l h b H c H b b T R K c b R R R Q U b R R _ R R R { ` R U ( | R R R U T H T R T T R U R ( ( ( R U T U b x H R S h b R T c V T ( L b e l U H R W U U T Q U c H Q T T R L U K K T x x U T V l f s U T c x S R U U l c R T x V F S U U c x U U z V B V z B z c h V c s c U l x U T k c U b U c x c W U U b W R b c c S U T S V l B b c x c S x f x l f f f z z h x B h x f w y B B y 7 r d t r t y y 9 7 y y y d d y y f f f f l z f e c U x f f f h l q 6 f l e l l f l l y y w w t 4 6 t e f q 6 6 4 r q 6 1 ; 1 w t w 6 r q q 4 1 9 y q 6 1 6 1 1 8 1 1 1 6 7 < 8 1 1 5 < 1 7 1 1 ; 1 r 6 1 7 t q 2 7 6 7 ",
"3 1 1 : 1 1 6 1 # - 8 1 $ 1 5 1 1 1 r 6 1 1 6 2 6 1 6 6 q y r 1 1 7 y t f t y h x x c l x x f M V z B f d t d d y d f f l B V V B V F B f f B f l W V h b H U U c U T z x x c b x x x B S T W U V c U U S c H R H H U U R R R Q c c R _ _ R _ ` R R U c U ( T S S W W R R W H U U U U U U S S U U b z z H Q b e k R K U b H R b h x x c l c U K K R U H c x x c h b b S b E U T T R R R W l U Q J ( Q ( _ ` R E S _ _ U S E T T c c S U S U b S c V b U S z S V x c H b S W R R U c b R T c c T R R H U U R R _ R _ R R _ _ _ ( R R ` ` Q R K R ` ` c H _ ] ` { { ` ` { R U <.} W R W W W W R Q W W Q ( Q W W W E Q R W W T Q _ T T ( _ ( _ } _ H U c b T x l U H x x b x e l b b b c c T L R R T b U R R ( U b R R Q _ { ` _ R R U R { Q R Q Q R K T U W R R T R R R T T R U S S c H ( T h c H K T R Q R H c f z x c b H W R T H x x S R U R H H U K K W S x c b x h f x c T K U T T b c x S W U S V x U U c x S V F V V B B z V x x c V V x H U s h U K H U R U c b x x U W T U W W b x S S c c c S S U S S z c x x h l x l f y f l x S c x h f w t B V f t t d d y w y y 7 6 y f f d y f l l l f e x H c x c x h l x h x h e f B x f f t y f e 7 q y y t r 9 r f y q 7 r 4 6 2 1 1 1 1 q q t q t 6 7 1 1 9 e r 6 4 1 ; ; ; 1 1 4 1 7 7 1 1 1 1 1 1 1 1 1 : 1 t 9 ; 6 6 q q t q r ",
"1 1 ; ; 1 1 8 $   o 1 1 1 $ 1 1 $ - 6 4 r 1 < 6 2 1 r 6 6 f t 1 6 6 t t t 7 6 w x l x z z l f x V l x M f f f y d y t l V l M B l Z Z f l l M l h U c h c k H H H U c h h x x x S S l z U U U U c V W U c b H b H K H U Q R H R H b R R R _ ! R R L T S U Q U U S S T R T U c S T U T W U S c c c z c E H R K h z H H H H K H c h c h x j k T R K R H c x b l x x l b b h c E U H T b R U l c R L L R ' R _ R S c _ _ W S c S T U W c U U S V c V U c V c c U U x x U c c W K T U T K U H U h k K L R R H K R R _ _ R R ( R ` Q K R Q ` R Q R L ` ` c c _ ` _ ` ` _ _ { W W <.} R U W W U R R R R T W R R ( W W Q R W W W R _ _ b T R R _ ( _ R H W S z R b c H H U H U U c h f c b x S T K L ( R b H R Q W U b T R _ R _ _ L _ ) b T { ( U R ( R R T U R T R Q R R R U T U U c x b K R b h x c b c K R c K U e z U k k H c U R H c U S V U U H T H R H U S z V x z S h h b H H U S c U U l S V S V V B S c S z U V V V x V S x V x x z V V c H W h f c H K H R b c U x f c R H U U c x h x S x b x x U S l h V U x x l y x x f w e l x l c x h l t 7 l F f t r t y t w y y t r y f f f y d f l l f e h U c h h f s h x h x f w l l e f r 6 q y y 6 2 t t 6 r r 4 t t q 6 9 4 1 1 6 4 9 1 6 6 6 6 6 q w 1 1 4 t r 1 1 1 ; : ; 1 1 1 < 1 9 4 1 < 1 8 < 1 1 8 1 r y 4 1 6 2 q 7 w t 9 ",
"1 < : ; 1 1 ; o o X ; 1 1 1 ; $ ; ; 1 q 7 2 6 4 6 6 7 6 e e t 7 t q w f q 6 q y x h l l x z f f S V l f M f y f l f l l f l M l B l l f l x B l x U x s b c c c b U V x l f x c U S c S W U T U b S S U T c k c U R R T K K T R U b ( R R R R R R ( R E Q _ T S S U U U U U U U U T T W W W U b z c S U L _ T b H H K T b K H b c x x c h x c c k c k c k c k k h z U c l z W H c T H Q Q c c R K K L _ _ _ K S x _ { T S V h S W W U U T U c S S U S b c U W U c c U b c U R R K ( K b l c h c k H K T b U T ( L K K U R ( _ R U R R ( Q { _ ( _ _ b T _ ] ` ` _ _ ` { R T | | R W W U U R ( ( R T U W R Q Q ( _ ( T T W R _ { S b Q ( _ _ R T K T S c ( R K ( R H K H H U c f x c H b K R R R R T R Q _ _ U b R ( _ R R L L _ ) U W } ) U W R K R _ Q R R R R T T R R R U U b b b H U k h c b c j H H K L b h U R H H U z S c U U R U c b U U U T R U H U c c S x x V x U U x c c S U U x x U U U W V V x S U U S S x l F U S U V c x B U b K R x x c b H H b b b U c h S U c b c c x x h x b b c x c x e e z U V V c z V l e e y h x x x l h x t w l V t 7 r y r r t t f d r y f f l d t w f f f f h x f e f f f h h h h f f y w t y t r 6 y l t t y 7 < 1 6 2 4 4 t r 6 1 1 1 9 r 6 6 r 4 1 5 7 q r 6 1 1 t 6 1 6 9 6 6 1 4 1 1 1 & 1 6 4 1 4 6 1 1 1 1 1 w y 4 1 7 6 w q q 6 4 ",
"1 < 1 < < ; < O - . o 1 $ ; 1 ; 6 1 1 6 2 2 6 2 q 6 1 6 w q q q d q w t 6 6 d f y h x s h z y y B x y y M f y f M M f y f l B f l f f f y B Z f h S h f S b l x U c U U f f S S V S V V U W W S U S c U U c c U W R T H b U ( W c H _ R K K R R K R R S W ( U S W U U U U W W W S U T U T U T U b b c c R R K H T R H H b x b U c f z c x b h c k h j c l h x c h k U h f V U H c b T U W x S R c b R ! R R H U l ) ( c S S h b S U R U E U S S V V U U H U W c z b U U c U R U H R c H c z x b k T b c x x c T K H K ( R R R _ T R R T T W _ ` R R H _ _ _ ` _ _ ' ` ` R U | _ U Q W S W R R R T T R R R T ( Q _ ( U W W U R { S b ) R ( ( U R R U V x H K U U c l U R c U S h h c H c U Q R K U R ( R _ _ U b ( R R _ R R _ R Q U Q } R H U U R R ( R U T R R R b U T U U b b S l c H b k T H c H K H R H z x R R R H T H x l b z U S s c W U V U S U W U S x b h f l S b U c c z W c V x l S U V V l l l V V S U S l l V S S S x x l x V b K R c b T k b H k U c V z l S x k H c U c c x c U c x l z c f f f h c z x z l f w f f y h x h h h h d q y t 7 7 r f r r r t y t t f f f l f e y y f l w f h w f x h h f f h h w y t q w f m y 6 r f e y y w 6 6 t q 2 q t r 9 1 6 1 4 9 1 6 r 1 1 9 r 4 r r 1 1 q 2 2 6 r 6 6 1 1 6 6 1 1 1 6 & 6 1 1 1 1 : ; 1 q r & 1 r 6 2 q 6 4 r ",
"1 1 1 1 1 $ 1 1 ; o - 1 5 $ 1 4 4 4 7 1 4 2 7 6 q q 6 t w 6 w q y w y 7 4 q M h h f h s h x y w f f y y f f m d f y t y M l l B B l M f f l l l h V k l U H c c b H U U x l S U U U U z c S U U U U W T H U Q Q R H H U U U R R c H ( K H T R L K R R c c T U U W W W W U W T W W U U U H U K K T U c b b L K c T R H H b z c U c f h b b b k c x x l x k c x x c b z h f S T T H H U U x f c U c H K Q K R R U x R T b S F S S c U U E S S U U V S S U c U c c k b U U b W R R U U b W U x f x H R b c l x c H U R R ( R _ _ _ R Q _ R b U _ ` _ R H _ ' _ _ _ _ ` ` | R T } ( U W R W Q _ W T R R R Q R R R ( ( R T W R T R { S S _ R Q R Y R R R S f z T T x s x S T R T S c c H H R Q T H H T R ( R ( _ U U ( ( R R ( R _ ` Q S R { T H U W ( R T H U U T ) R H b c c c x x l f x U H b H H H H H K L L c h H _ ( T b c c x x z S x h S W U b x c c S c T U b l y f x T T b b H K K U l l V B f y d l B V l V V x l B x V h l l l l B B c K R c b T H b b c b b S h x c x h b b b b H H U H b x l x x x x f f h l s e w y y f h h h h h h h x f t t q 6 r t t t t t r r t t y f l f f f f f f h f s h e e l l h f f x h y t r t e f y t q y t q q t t y t y t w w t y t 6 4 6 6 1 1 1 9 6 4 9 6 6 r q 1 1 6 q r 9 6 < 1 1 8 1 9 4 4 6 6 2 1 6 6 1 1 ; : 1 w 7 1 1 r 6 6 6 2 4 r ",
"1 4 < 4 1 $ ; 1 o   1 1 1 ; $ < 1 6 6 * 1 6 7 2 6 6 t y q = w w q w y 6 2 6 f h h e y f x f 6 w y y l f y y f y t t f f l f l B l l B B l f f l z U z h S c b c x H U U x h V U T U S S c c S U U W ) U c U Q R U H T W T H H W c c R H K Q U T L R H x b R H S S U U U W R U W W T b H U U c H U U S k c R H x H K K H c S h b x s f U H k c h c H h s x c l x c c s w f V k T U c b W x f f z b K c H H K R U x H U U b S U U U U S V V U c S S S x c b b x b x x W S c W H R c U H Q S y t x c U b z z U c k T _ R R _ ` _ R ( ! ` Q K Q _ R _ ( b U ' ' L _ ` ` ` { R H ` _ U W W ( _ R U U T Q R W R R W ( R Q R U W U R _ c z W R R W R H T R c l U T U c h x c c R R x f c U H W T b c U R R R T H R T c Q ` R K R L R _ U b T } R b W S T U b U W S U R T H c c c x c h h x z U H k h H K c c K K H x y c U L T c U U z h V U z S c S U k k U z x c c c x h x y f U H H R R K T U f f V l f l l F x x l l l B x B f l l l B S x l V c H R x c U K x z S c U c e y S c l c b x k b k b b z h k x f h x x l l h e f y w t t l x h l h e x x t w f f q r r q t f y 7 6 t t t f f y f f f f e s s e h e q f x s f h l l w 6 6 t y t q r t y q t y t q w q q t e q q t r 1 1 7 6 1 $ 6 4 1 9 4 9 q r 4 ; 1 9 r 9 1 1 1 1 9 8 1 1 6 1 4 < 1 1 6 9 1 $ ; 1 1 6 t 1 ; 4 7 6 1 6 4 4 ",
"< 1 2 1 1 & 1 o o X 1 1 1 $ $ $ 1 1 < ; 4 2 2 6 7 6 6 q q 6 q w q w y q 6 6 t f h e f f h y 2 t d t f x B l d t t y M x V B l f l x V z V x V x z E V h c U H c c U Q V e l S U U W W R R W Q Q R W U U U S S U U W R T H H T R S x W R L R R L L R H x U ) U S U S z S E W W W U S c c U U H U T U c c b K T c c H H K R R K c h f s H K c h k c H k l h x k c x h e f h c c b c c U E c x f x c K b U K R b b l U T S U W U c S U S S V S c S x c x V b b c c x k W S h U W R c U _ Q l y t S c b H T H U c z b R R R R _ ( Q ( _ _ _ R _ ` _ _ ) b U R _ _ _ _ ` _ _ R T { _ U R U R T U T W W T ( ( Q R W R Q Q R T U H R _ c c U H T ( R T K U V x U ( H b c x c c T H h f x b H H H c S T R Q ( R H W W b R _ _ R R _ R K b b Q <.) T W U U b U U U U W R T H H S S b S c x h k U U h s c H b H R H h l x U k U H U U T U V l S W T b W c S b U c S c x s h x A f x c T c c x b z x d f B B x B l x z V l M l V V M f f l Z x V x V x c H R x c b H H H T U c l w l S c c c k c l l l c c z h l x x h l l f f l x l f f w w f f f z x h h y r q M B e t t t r t t 7 6 9 y f y e y y y f f y y w e z h w s h h x x l t 7 6 6 t f y r r t t y l f f q 6 6 r q r t t 6 1 1 6 9 6 1 1 4 6 1 7 r r 6 6 1 < 1 t 9 1 1 3 1 3 4 8 6 9 6 1 ; 1 1 6 4 1 ; ; ; : 1 r y 6 1 6 6 6 2 7 q 9 ",
"$ O 2 1 & $ $   X - 1 $ < & 1 ; $ 1 1 1 4 1 & 6 w 1 $ 6 t q 4 7 w q q t 6 6 w 6 y f f y w w r t y q 6 m B l t r n y f Z B M f f B x l z z z V x z E U x x c U b U W U h y l V c b T R W W Q E U W U W U U S x S R R R R H H R Q c h U R J K R R H K T c U _ U V U V S S V U W U V V c c V U U H U c c U c b R x c b h H R R L j c x e b T k h b k H c h e h h h f e h V l h c U x b U S V l x x f b K R H b x x f R T x x V c b S S V S B x V l f l V S x S x x x c Y z s z U Y H R ! U f f d l x U H T c h h x x c T R K R R ( R Q R ` R R _ _ Q R U W S T R _ ( ) L R W W { _ T U W T U Q W W E U R _ Q R W E R R W W U S K R x b U l S R R R c U S f U W c H H x x U T S c b S x H R K U R H R ` ! R ( U U H R R ( ` { _ K T R x T } R U U W U S T S V S T ) H b U c c b c S x f c U b s f l c H K H c h S x H b c c U c H S l y l W U T b x z S c S U c x f S B B x x x c c x h c l l f f x S x y f l x B l M l V V f y B M x l l c S l h H U h c k k R Q T S h l w x c h c c l c x h c c c S l y l x s l f f f l x y l B t q y f w f V h w w 7 t B f w y t q q t t r 9 4 t f w q w y y e e s e e s x l e w e l x l f w 7 6 q f t y w w w f x x y w e t q q 6 9 9 6 1 1 1 9 4 1 < 1 1 1 6 7 r 6 1 4 4 4 1 r 6 ; 1 8 1 1 3 4 r 9 1 1 1 8 1 1 1 1 ; 1 - ; 8 q r 6 < 1 1 6 6 q r 1 ",
"$ O 1 1 1 o o O ; $ 1 $ $ 1 4 ; 1 1 1 1 2 2 6 q 6 $ 1 1 6 2 6 t f q 7 t 6 4 7 2 w f y 7 w t q y M w 6 r y y y y f y l l f y M B B B V S F c z V U W U z c x c U T E z h l V S S U S U U U S b V S U R W U S c S T R R R R R R W c c T H R ` R K b T W c T _ U V S U U U S U S S S U V c c U U b c c c U v H T h c b c c H H c c b c h H H k c H H c l z l h w y y h z b x z k b c b T U x h S S f x b b h x z x x W T c f l B S V S V S l x c l y M S V b c z c x c Q S s x c R R R H U l M f x c R U c h x c U c H b H K R R R T R _ _ ( ( ( ( T W T R W T R } _ K K ) W T } ` ( W T T W R R R W W W W Q _ Q W W T T U U S H ) S V W c b U c x z T U h x U b H U S U U U U U T U U U K U R R U T Q _ _ ` _ U b R R K L } R H ( ) b T _ R b U W U U W U S c U W U b U U b c z x x l c U c s x c x c R c h z U h U H c U T U U x x f l S ) H h x S c c c c c c V U U V f x V f x U b c x x f d V U x y f x f l x V f f M f l Z B B x l x V x h H W s c U x c U c x z S f x c k c H U U c z c l c U x l f f f l x B f y l V z B y 6 f M w t f y w t r w l l w r r q r t y t q 6 t t q 6 t f t w y f f e h V h y f e y f y e t w 7 t f f f y e f l f y t e y t q q q q 4 1 1 4 8 6 4 6 ; < 1 1 r 9 1 1 1 6 r 9 6 t 4 : 1 3 1 1 1 1 4 9 1 1 6 r 6 1 $ 1 1 9 1 8 1 6 q 6 1 1 1 6 7 7 1 1 ",
"< @ X o - o 1 < 1 o ; 1 & ; 1 1 $ ; 4 1 1 6 r 6 1 < 6 1 1 1 r r t 6 6 q 2 * 7 6 6 7 q 2 f y 2 e B f f r y t f d t y f l B f f M l x F V V l l c S U c z U c h c V x V S x c W W U U W R E S W U S U U U U c c U U U R R R T b H V V E c U ) T c b W U x T ( b S U S b U U V V V V W E x z U S b c b x b H H H s c R c h b c h H k z x b c b x G b h l b c l e e f c l x k z l z b c W S h f x V c h f x j R x h z H R b h V x x c S x l x c U S f l V x b c l c x c Q U l c h H U H c T l f B l H H b l c T K K T T c c H L K R R _ Q Q ( _ R T U R U U [ R U ( R T R _ W b { _ R R U R R E W R U W R R T W R U U W U U W c b _ S x R R K c e x U V S h x U H c U ) T x h U U c U U H H T H R R H H Q R _ { U c ( { R H H U _ R R U H _ T b U V U U U U S l c W b x x S b b b h l e h U h e S c s h b h U c x l U c U c U U c z S B f V T U c c E l x c b c W H b U h y S V f l b c z h x f w V S h f f l f x l f r y B x f l V S h x f B B h c V w c U h x z l T z V x h b c l U U S h z x l c V x x w f f l B B f y f l l y r r f M y 6 t l y t t q f l w 6 6 t t q t t 7 q y h y 6 7 t t w w y d w s V e e l t w f f w f w 6 w f h e e f f f q 7 t f t t t 6 2 6 6 6 7 r 6 1 4 1 ; - 1 9 9 1 ; 1 6 r 4 8 r t 6 1 : 1 1 3 ; ; 1 1 1 9 7 r 7 1 ; 1 4 6 r 9 1 2 r 1 1 6 & & 6 1 ; 1 ",
"1 ; ; X o ; 4 1 $ $ < 1 $ ; 1 1 $ 1 1 1 6 1 1 < 4 6 r 6 4 7 r 1 4 6 q 6 6 * 6 q t & 4 q f y q t h x l f f t d f f y f V U V x h x x B B l f B x c U c x U U b x x x U U x V U U W W W W W E U E W U U b b U S U T R R U H b c b c c Q W c x x U R Q U c T { U S E U U U F A B V E ( R b c S b b H c x b b H H s c T H c c b c b K c f x b b c U x s c c k b h f h c x x c c x c U U S x f l f x T b f x R K c x k R T b x V x c V V l h b T H U x x x V h f l x x b W c c E z b c b U W l f l c U c l b H K H H K L H b c K T K _ ` _ _ ( ( R U U R U U _ ( S S H Q _ _ R H _ R T R T R W W U U W _ { } Q W S z V E U E W E K _ T c ( R H S f S W U S h b R K H R ( b h x T R H b H K K R R ( R U H R Q ( _ U c W { } R S H ` _ Q U W { R U U S W W W U S b R ( U x x l S x f h f f s l h f c U x e x z T b z x z U U H U U U c S U S V U H R T T H c x H T R H U c h f V E x l x e x x x l l U B f x l f f B d 9 t Z V S l l l V V c x V B l c x w B S c S V x U c c x h c h x E x f f l x x c V x f f y x U V V l l y t q t t r f M y q f l s f t w l M w r t t t t t r t y h l l y 7 q t w w r r w l V e w M f y f t t f e 6 7 y e e f y w w q r w t f f t 9 1 6 w w t r 7 6 1 1 ; - ; 9 9 1 ; 1 6 q 6 1 2 t r 1 1 1 1 1 1 1 - 1 6 r t r 1 8 1 1 4 2 6 4 1 6 r 4 6 r 1 1 1 1 ; 8 ",
"; 4 8 < ; ; < ; o ; 1 $ 1 < 8 < 1 $ 1 6 1 ; 1 < 6 4 r 6 t r 1 1 8 q w 2 6 * * t t 6 6 t w y w q f y y l f t t f f y l B B U S f f x l f l l f V U b c h x U T z l V U x h x z V W W U E W E U U R T c x S U S U T R U H U H U W l x R _ U x V W U T U x T _ b x U E U S V V l S Q R U b x z U b z z c S j b H h l H H h x K j b U l e h c x x b h s k c h c l e f l x c f f x H k c c S f l l x b U s x W h c x x R H b x h S h x x h U H H c b S h f l f f l V h x R l f I U H l c T S h l h b H b c K H c H K c K T b h x H R Q ` _ ` R R U R R U b H Q T H ) T R ( _ W K _ K T ( T U W W U U _ { ` _ { _ U S z c E U E W R _ U k T T x F U U c c V c W T K L R U U H T U U U k c T U U R R R H T ( R J Q U c W W Q Q W R R R U U R Q R U S E U W T c c R { R Y b c l c h e h c l s h s e l U x w f S k x V y y U T H U c U c c E U c T k U W U T k x K T H R H x V e f F h h c h x h x f z S y r l l t f f t r m U c z V V f f B c V V l f c F y l x x V W z z x h z h x V z S x s f B f h S x e h x x V S B l f f d y y B n 7 y M q y B y e f w w x f 7 9 r q t y r 6 t l y e l l t 7 r q q r r w l V e 7 f f f t t h f 6 = q w e s w w w q t t 7 7 t d 9 1 6 r t e 6 r 7 2 1 1 ; - - < 9 6 1 6 < 8 1 $ 1 t 6 1 1 8 1 1 1 1 1 6 t t 6 4 1 1 1 ; 6 6 1 8 1 7 t 1 1 r 7 4 1 1 1 4 ",
"< 1 4 8 1 $ 1 $ # # 1 1 9 6 r 4 1 1 1 1 1 ; 4 4 9 1 < 1 r 6 $ 1 r q q q q 1 6 7 y t r 7 q f w t M y y f y y f d y f S B x z V c l f M l l f l V b U U x x c U U E U c x x z V S U R R W E H U W W U b c S U U T T R U U W W T W S x S T W W R W c c V c T Q c x S U U U S B V W W T U c x B x x l x c c c H T x c K b c b b H b s f h c x c h l x z l c c h h h f x x x e f h x l c c b c x x c f c c b c f h b h U R b h B f l f x U R H b c b b x f y f l h x l c Q x e x S U S U R S h c c b H H H H b c b H H T H b h h c ( R ` ` _ R R R R R R b U W b R | _ R K ( T T ` L H R R U W W S Q { ` _ _ _ _ W E E U S S F S U Q W b U c c W ( T h x U U R Q L K T R R _ ( R Q b c b T T K T H U R U R Q R _ U S ) U S Q { ( R H W U W _ Q U S b S S S b T R T H R W U b c h h h l f x b h e l c x h c U x y c f l c U R Q U U c U S c U U b b H R H c b U H U T c x S f l l y c U U V f M f x V f t f f f f f t f V z x l z V B l y x V B M h S F x S S s V W b V f h S h c U S c h l l h l x x l f x z V c x l l f M l l V Z f w y d y x V f w f t w l y 6 6 6 w 7 q t t f f y y y f f t r r t r f f x S e r d f y f l l e 6 6 q e e f e y e e y y r 7 7 r 8 4 r y q w r 9 6 6 6 6 1 1 ; 1 1 6 9 9 1 1 ; : 1 t q 1 1 3 1 1 4 r r t q w q q 6 4 ; ; 1 1 6 9 5 r r : 1 9 6 6 6 r 9 1 ",
"; ; < 8 1 - ; O o o $ 1 2 6 4 1 6 6 < 6 1 ; 6 6 < 1 ; 1 t 6 ; 1 r 6 6 t q 1 6 2 q 6 1 * w w f w f y q t f y f y f l x l l l V c h f B x f f x x c U S x x h z U R b h c x x E U c W R U E U c H W U E W S S T T U U R W U U U W S l x x b T U S x c S x c R U x B V S S V V U W b b U E z x h h h x h c H c U h c b h c c b H c e h x c h b c h l b e l c x h x f f x h h x f l c S x c l s c c e l h c b e b b e c T k h f e f y h T K b b c z z b h t f h f l x c W x y l f x c U c x h S x x K c c H c H c H H c c x h b c H T R _ R L _ R K ( _ c b W c U _ ` R b E S b ` R U E R ( R U E _ _ _ ` ' Q Q R Y Q W c B F V S W U b W z x U Q U f S S z R ` L c K _ R L ( _ T k z U U U R R K T R H U Q _ Q c U _ V c W _ Q c c W U U _ R U z S S x c U W c c H K c U c h h x f f f x S z s h h s x K S y l c x c x b U W U H c H G U z H R U c c H T c b H K b c l x l l f t l U S f t t f l B V y y a f t m f x z B h x h x S V y f f B f l V x x U x e f B S c f h V e x c b x f x h f h x f l l x h l l h h B l B l y B B f t t t t f B e w f r 6 f t 6 r 9 6 6 r r t f y y e w t f y r r r q f l l x w t d w w f f w 6 6 q 6 w e e f e y y w y f t 6 6 6 9 r q 7 q 6 4 1 6 1 1 1 < 1 1 ; 1 1 1 1 1 1 ; $ 6 r < ; 1 1 6 q t q w w q w t y t 6 1 ; 1 5 1 6 4 4 $ 1 8 1 1 4 r 4 ; ",
"; ; 3 3 ; - ; - # # ; & 1 $ < 1 r 6 6 6 1 1 1 1 1 r 6 6 t 7 2 6 q q q q 4 < 2 q w 1 1 1 w w y w y y t y B f y t l B l f l x V S c x x x c x x c U E c h x x x U S x c c x x W W U S W Q U b b b U T W W R R R R U U R R U R Q T x l B S S E S x c S U x c Q W V S S S S S Q W U U U T R T U x l x x x b H b c s h c l x c U H x h x f x U b H H k b h l c k z V l h h h x z h z S S S l e e l x l l e b U h c S s c b l l f f f f x c b b H S U S U S l f x k b x k W c f M f x h h f x x S c c H c c U R R K T H H b G k U K U H T R R R ( Q ( ( U l S W S x W ) U S W S b } ( U W W R E U ) _ Q Q ` ' _ _ _ Q S V B V V V U W S S W S f V E c x U S z Q { K c U ( ( R ( ( U b U U T R ` R R R R ( ( R R W H W [ R b U Q U c F W b U Q W c S S c c U E b x V U U c b h h x c k b c c z l f x f e f S B f x V h c H S x x c U T H H K c H R T c x S T b H H T c U S c f l f d f B f r y m y l V F f f d d d B x x x S U U z V c S B f y M M f S z x S l f f l x x h x x e e x c c x V x x f f h x x h h l l l x B M f B x x M t t y d r t f e y f t w y y 7 r r 7 w t w f x x x f y y f f t q r r r d h f w t f f y w w 6 6 7 6 6 q q q q t y f y y f d r 9 r t r t t q 6 9 1 4 1 < ; $ ; ; 1 1 $ # $ 6 1 ; $ 6 6 1 1 1 1 t r 6 6 t t t 7 t t t y r 6 1 1 1 1 4 1 ; 1 8 4 1 ; 1 ; ; ",
"1 - - 1 + - ; o : o o 1 1 ; 1 1 6 6 r 2 6 1 ; < y y r 2 6 q w 6 6 q q 2 1 * 7 2 7 7 r r 6 q q 7 t l f t t f e y l l t r f f f x c x x l h h x h b U h s V c h x x h b c l x S W U l S W U U T U b R R U R Q W R R U H ( { _ R U S V S E S S B x b U U x c R H V U U c H R R R U S U c H T H H c h l c c k k c x x x c c h c b k b S h c T k l H c x c l l c k x z l f h f x c H z S l f a l x x h h e h c x h x s h x l w M f f f x h x x c S S V c b b e f c c h l W S f l x S l f f S h x c c H H k k T R R H H R H R H k H H H R H R T H U K T c h W W S B B S c H W F x { R b W U S S U Q _ Q W R ( _ _ ( T V V V U F B U W V x A l y l x S S c V c R R H c b T _ _ R T U R R H K R R _ ( L R _ _ U H W U H [ W x U U x V U W c b Q W x V S c c W U x S E c c b b z z h z S b h x x e e x e f w y f l h x h l U H x h z T H U c H H G R U c k c S H H b c c b x h f x f r f l y f l C y t Z x m f y y M S c x M B V h x I l c c x d f M f V x h x x x f l f x l f l e f S h h x x x l e f x x f f x V h x l l l l l B l f r t y w r t q f y t t 6 w f 7 6 q w t q f x f f y y f y e f y 7 9 9 r t y l t q f y w w q q q 1 6 q q e e q q q e f y t d y t t t d t r r 9 8 1 1 6 1 ; 1 O ; 1 6 1 ; : 1 1 - ; 4 9 8 1 1 1 q r r r t 6 6 6 r 6 6 t r 1 < 4 6 1 t 9 1 1 1 1 ; : ; ; 1 ",
": - ; - ; - ; ; 1 $ ; 1 1 1 4 1 1 r t q q t 9 4 t r 1 1 7 q w q w q q 2 1 1 7 6 6 1 q 6 6 w t 6 t f w 4 9 t y l l y w r f f f y h c V f w q f l V U h f V x l l x x x V x l U W S B z S W R R T U R Q U b T ( Q T U U U R T U U U b S U S S x V c U E V H R U b c S b R Q R R W x x c c c H K H c c x k j b c x c c x c l l x x x b c b U x s k U b l l x b c x f l x x f l c c c x f f l S x l e x h f h h h h e x b s f f f l f f h V x S l l l x b S h e e l f b W c x F x l f l l x l x h c R R k c c H T c H J R R R U k l H R J R K b x x U S x W W U l M B V b W S c ( R U Q E S W ) Q _ _ W U U ( _ W U V U U Z F S T R S l f f d f B S c S S x b R T H b U R R Q R W _ ( R R H K R _ _ ( R R U U R E U Q V x U U V S S W V S { T c V V S U U c E U S l l c U S c l l f f w f x f s l f f w t y x h l l z U U c c c H H R J R K R K H G b c c K K c h x c e w f x l f f l f f l B f f B Z y m f n Z S c S l f w w y l S b c S x f d l S l h V l l f f l x l f f y x V x h f h x h f x z V l f l B V V B x x l f t y M d t t w 7 r r t f y t 6 f l w 7 r t t r y y w w q w r q r f f y 9 9 t q y l t t y w w t q w 7 2 6 q e x h h y w f l l f f y r 6 r y 6 1 6 1 ; 1 9 4 1 < 1 1 1 1 1 ; 1 ; < 1 ; $ 9 8 ; - ; 1 9 6 r t r 1 1 1 r r t r 9 1 1 1 1 6 r r 1 : 1 1 1 : ; ; 1 ",
"- ; 1 - : - o ; 1 ; O ; 6 & 4 1 4 7 q 2 w f r < 1 1 6 1 7 2 q y y q 6 2 2 * 1 6 1 * 6 6 6 t q 1 6 t 1 4 t 6 w l l t y r r y t q f h x x f w f S H c h h x x l f l x l V x h c U W W S U T T U W R R Q H c T R K Q ( U U U c T W z c S S S x V c l c W U c R H x x z R _ J R R c l x S z c U c H K c y h c H h l b x h c c s f x s h x k U H x z c b z b l k S x f h x x h f h c c x x S c x h f y h f f e e h f w x x e f x y f s c l x x h y d f x l z S l y l x x W S x F l t f x f f l V f c R H H U b T H T c c R K R R c k c H R K K U x b U x B U U x l B f V x S F x W R b S U R { _ R R _ Q b c U T U W W U H V Z U R U c c x V B M B l x U c s S ( K T R H H R R R Q R R _ R H H T R R T R R U R Q S b W U S S F S S V F c U [ U c x l U c U U T l f d f U H c S l y w t y l x f e l f w t t t l f f y x V c H T b c H K R K K R c c c T c b b c h z z S f f q d l f r d f f t m M f l f t y f A V c x V c f w f 6 f c c k c c x f h U h h c f f f f l h f f w l V x x h f x h x c h z V f t y l V V B V f l f f f y y 7 r t 7 6 r 6 7 r 7 q y f e t q q q y y y y q t t 6 r t q y f y 7 r w w y r 7 q t w q w 6 6 6 2 = w h h h y f l y l l y y t q y t q q w 1 ; ; 9 1 1 1 ; 1 1 $ $ ; 1 $ ; 1 ; $ 8 1 o : 9 4 4 1 9 9 4 1 1 6 9 6 t 6 9 r 6 1 1 6 6 9 1 1 1 ; 1 ; 1 ; ; ",
"; - ; 1 1 ; - 1 1 o - ; 1 1 9 6 q 2 6 * 2 q 1 ; 1 4 r 9 6 w d y y q q 6 4 1 2 & 1 5 6 6 6 9 6 1 9 r 1 9 y q y l l f d r r 9 9 r f f l x x f l z U W l h F c l f l x l x l l V U R R R W T K R L K _ Q S b E R L R Q ( Q Q Q R R b c S U c c S V x b U V b W b x V U Q R R R U B l l x c V U K K H x y f b H x h c c x l l f f l f f f c U U c S z U H U c H b c k c z x f f x S z c b H c x f f f l y f w e h f e c V s h l s s x c x M y f f f f x x c b U c x x c Q U x V f t f B l f f x h z T K H W U U R H b c T U H U U T c H U R H K T R U b f S W l f B M B x F S l R R b F B U ( ( ( _ Q W S S S U T W R R R T S b R R S b V x x V c x S S x f U R R Q Q R T T R R R R R R R R T U T K T R R R _ { U c E U U S U U U S U c Q | U c S S H H _ U x f n d M x S S S x f y y l c c s s c h t y f y f B f t x U c c U U U H H c H U U b H H U H U z s e S c V c f w M f w r d t f M f t f F l f f x U c U U V l f d e f f x S x k c S x h U c x V x f f l f f y f y f c c x x x c c V b b S x f y y M l l x l x B x V x f w 7 q r 7 9 6 6 1 6 6 7 f x y w w q y x x f r r t t r q y l y y f t r w e t 7 6 r r r t w 7 6 6 6 6 6 q w q q t y y t y M y y y l y y w t q 8 1 1 1 r 1 $ $ ; $ $ ; 1 ; 1 1 ; : 6 1 $ 8 t 6 4 4 9 1 1 1 4 6 8 r w q q t r 1 1 7 q 6 1 1 1 1 < 1 1 ; ; ",
"; - ; 1 < ; ; < $ $ 1 O $ 2 6 4 2 1 1 2 2 7 4 4 r 4 4 4 r q t 6 2 6 q q 1 1 1 $ 1 1 1 7 6 6 9 6 9 4 7 y r t e w y r 7 r 6 9 y t q f x y h l y f z S f f V c f f l x l l l h S U U W R W H U R K K R T b S U T L K R ( R H U U R U x V c c V x V x z x l S U b c S Q R R R U x M l l l c x c U c H H l h x b l e x x x f f f s f l f h E c c c c z c z z S U H U x h b k l S l k c H c c c s s h y e f t 7 f f y w h c e f f h h f f l y t y V B y f c c l S U x l U Q z x B f l y M x f f S h x H K c H S U Q U x U U H c U U U U b H T c c T b U S t x V f y B M l x S B x W c x S V W U U R R U B S S V V U T K K ( R b c U W c V V f f l V U x x l x U U U Q R R R H U R Y R K G U T R H H R R H R ! ! Q S S W c S U S c S R Q k W [ c U R c G R R V f B V M f f x c x S S x V h l x h s x x w y f w f x f y z c b z V U U H c c U b z c K U c U U z l s V l h x f f B r 4 7 f r r f l t f x l h V S c c c x y r t w f y w f f h x c H c s x S l c c x f f y e f f t e x c h c z l x c x c c f t f y f l y y V V x x h f f q t q 6 7 1 8 6 1 r r 2 t l w y t q y f y w 9 t t t r 4 t f y 6 6 y q q f t 2 6 r 6 9 r 7 7 6 1 1 2 6 6 6 q t r t f t r y 9 9 r y y y 6 4 t r 1 1 1 6 1 $ 1 1 o $ ; ; : 1 ; $ ; 4 1 6 6 9 6 9 1 1 1 < 1 9 1 1 6 6 q t 6 r 4 1 6 6 4 6 1 1 1 ; ; - ; 1 ",
"; < 1 ; ; # - ; $ $ 1 $ 6 1 1 $ 1 1 1 6 7 6 t q q 2 2 1 6 2 1 1 1 6 q q 6 1 6 6 6 1 1 6 5 9 9 6 r r q t r y f q 6 6 6 6 6 t M f t f l f l l l f f x s f V f e l M l l S V l U T U T W U H U T K R T H U U U T R ( ( R K H b H T b c S c V V B B l x z l c Q H b R J R T S S x l x S x x l x z c H K U c c b s f x l s f f f f g f f x T U b c b S c h x f x U c f f h c H U H H c b b b h s h l y y w w w e h f q f f e l V l f w f y y f f S x y f l c c b U S x S W c h V V l y M x f c S x c H H H T R ( U b z b H U c U U U U c U W H c x h k V f f f y f B V l f V V S W l h E ) R T W S c c B U W S V S U R R L R T b U U V S S x l M B V l S V c T T b U W Q ) R U T _ ( R R Q R R T R R K R _ R Q T S b W U S S S x b R Q S U Y H W W U U U V x x V S l f B l l x x c S U c x h x h x f t f l y h l y f x H W U W G H c b c U U c l b H b H T U U S z k c h l f t 9 9 y d t t d l f x z l x z x l y f w t r r y l f y t w f b c b b x x x l S h e t y f f y f f f f l x c c c x f h x x l d f f l l y e x F V f w w f y y y t 7 6 5 6 7 y t q t e q y f y y t 7 9 r t y y t q q 7 6 6 7 t y t f f 9 9 r 6 8 6 9 6 6 6 2 1 6 t t y f y f M y r r 6 6 4 r r q q 6 6 9 9 6 4 9 < $ 1 1 $ $ $ ; ; 1 $ ; $ 6 6 6 4 4 6 9 1 8 1 1 6 6 1 1 1 6 r t q q q 6 1 6 7 6 1 1 < 1 - - - < ",
"; ; ; o o # 1 o < $ < 1 1 $ $ 1 6 $ $ 6 7 1 q 7 2 6 6 1 2 7 7 6 r 2 2 r 6 * q y 6 1 1 1 6 r 4 4 r r 2 w f e r 6 6 9 9 6 t y y y t t y f y h x h l c l f x l e f M l h U V h V W T E U c b U c U R c c U S c b T R R K H R R U H b c V S x x B l l U U f x T b H R R U c x x x V U U x l l h x b k b H H H b h h c h e f f h f f l f h U U z x c c S z z s h x x h y f b H G U c x k b c h f y f f e w t q w x e w f e x h x h w t w r f y l z l y f f x H c H U x z E x f U V f y x f l U V x H H k b R R R c z c U z z x h S U c H U U c l x b x x d y d t t l B e e S l x U c b T T U R U x l x U U S U V x b T U K R U R Q c x V S V f f B l x W V h U W c c W W Q R b S R R W Q R U S H R U K R R H H R U c E S x V S x b U E S c W R U U R S f l x x h z c V f l f l f x z c x e l x s x y w f f l h y l y h E U W U c c b U c b W l s c z H c c c T b z c x e f f t r f q t y y y M f x x e h V h l f t r y r r f f l t q f f c c x b c z l f x h w t f t f t t l f e e x l x c x e f c h l f t f B y l y e B S h l f y t q y y 6 6 1 9 w q t w w y y w y f t 6 6 9 r r t y t 6 6 6 2 t y r t q y f r 6 t r 1 1 1 6 y f t q t t y r y f M p r r r t r 4 6 r r 2 2 1 1 9 9 4 1 1 $ ; ; $ ; o ; $ ; 4 1 $ 1 4 1 6 6 1 1 9 1 ; 1 6 1 7 1 ; 1 r q w t 2 1 1 6 6 4 4 4 < ; - ; o ; ",
"3 : ; o o : 1 ; ; o < 1 $ : 1 1 1 : ; 1 1 6 7 6 7 6 1 1 9 2 r r q 6 6 r 6 1 r r 1 $ 5 1 7 y r 6 r q w f f t 9 6 9 1 6 r f y r 6 r r r y y f l h x c f h S c f t M l x W U x S S U U E S c b b U U c c U U c c c b U U U T T U U b c U U x l B M x W W l x U K R R U V x l l x U T H S B y f l c c S b H b H c x S b x l f x h x S f h U c c S c c T U V f h h V x f l c H c x h x c c S z x f l e f w t w s x f f x z x h l e e r t r a f z x x y f f f c c U W b c E x x U U l y M f x Q S f S H b c U U H c b U T c c e y x V c W T b x c U H b U M f l f q y d e f S l x H H R R H U U V B l S R K T Q U x V V c U W R _ _ U l c U U B B C V T _ S l U U b S U R Q U c V S U U k c S U b U W ( R U b U ) U b U c l B F x b W E z S Q Q R W E B f M l l l V S S B l f f f l x x f f x V h k x e l x l f f B h z U c l z b U U U H K T k x U U H b k x b l x h x f f y f l B f d 7 t l f f V z h z b V B f d t q t l c S l f t f h c c b c c U V y B x f t M t f f B l y w f h x c S x l h x x V l f f h f l f f h x x x l f 7 7 w 7 1 9 9 9 w t r q f B l x l f r 9 9 9 9 t y e e t 7 8 6 7 t y y w y y 7 t y r 4 1 1 7 f f y y t q r 6 9 y y r r r t t t 7 r q 7 6 6 6 8 1 1 ; < 1 $ ; ; $ 1 - ; ; 1 t 6 $ 1 1 1 6 6 1 8 1 ; ; 1 6 2 9 8 1 1 6 t w r 6 6 6 t 6 1 1 9 1 - - ; - ; ",
"- : + X - 3 ; < ; o ; 1 $ 1 5 $ ; $ % $ 1 6 1 1 6 1 6 1 < 1 1 < 1 6 q q 1 1 6 r 1 ; 1 1 6 d r 1 6 q s y r 6 6 1 1 5 r t w t y q t r 6 r f e f f s x e w S z f y d f l U z l S c c W U c V x c U c V U T R W c x S H H H b H H U V z E U V M f M z U S x x S U R U z V B f f c U c b H z f y t f c c x x c b x f x S c l f l x U S s f x z c x V c U b x l l z c h V h h S b k c h c h c V x V V f e w w f l f w y x z h l y w f 6 r t q B h f V y t f w f S c U b c U V z V U x t d l U U f e x z b x c c T H R U b U U h h l x c U c k h S H l c W x q x l 6 t r t x V y l h h b U c b l l l x E U U R Q W B l B S b S R ( _ U h S U U S M f U _ W x f V R T U U W W U S z E W x h V R T b V c R R U U W U S b U U b h B x S Q U h S R Y Q Q V M f M y M U x f x S f t d t f S c h c l l h U b f y B f w l z l z z h l c l F c b U U c z h U T b h c z k U e e x h f 7 f f f d 7 6 d f f t l S z z x c l t y t d x S z z x B f w f f l V x c U V t l B x f e f f l V f q w l h h c x x c f y x x l f w f f f l h w f h w f y 6 w t 7 5 1 8 6 r d q 6 y f l x f t 9 r r 6 t t w y e y t 4 6 1 9 f e e w t 7 t f r 8 1 1 t t 6 2 r t r 6 r 9 4 9 t 9 9 t 4 9 r q 6 6 r r 4 4 1 ; 1 1 $ o 1 ; o 1 - o $ r r 1 $ ; 1 1 1 6 6 1 ; ; ; 1 1 7 4 6 4 ; ; 6 4 2 6 t q w 6 $ 1 6 1 - + ; - 1 ",
"1 ; - - 1 1 9 1 ; $ 1 $ 1 * 1 1 1 $ $ 1 5 1 1 $ : 1 1 1 ; $ $ ; 4 6 q r 1 1 y t 7 5 1 1 t f 9 1 7 7 w 6 9 1 5 1 1 r d w 7 t f w t t q 9 t y l h f l e w B S c f y l S U l x W U U U V V S S S S S U U H T Q W U c H U H G K W T S x U W c y f V W U z x c U b S c x c x f l S U c c x S z f t f y f l x c b c l x c l f f f c W S e f l x S c U U c x x x V z V z c k c x V H H S x x c S f l S c l y t f x f w 7 f x l y t t t t t w f c h h V l f t t t l V U U c E S c U U c f B c U V t y V c b x c S T K R T R U U U S x S c c h k z z c b b U f q M l e t t f b V y f h f f x c x f M l S R W U S S W S B x c b S ( _ R U x b U R W V x U T U B l W ( R R W W U U T U W U x h S R R R U c U U R R Q R S c Q _ R S V c R ) W c V U E U S V B l M V E W l f B B f y y y f x c b U S l e c S f r y y f c U h x x V z c x c c c c c c U l l h x x U k T b h f f f f t t t d t t y M l M f f S z V V h f y y f U W T c x c S x f t y t f c c c S f f V c x M t w c S f w f V z z x l l c l l x B y y y f f B x f e y f f y t 7 q t t 6 1 6 r t y r 7 t y t t t t t r r r y y r y f y f w 6 6 6 t y y t t t t l d 8 1 9 d w 1 1 4 t r 6 y t 8 9 6 r 9 r r t t r 6 r r r r 9 4 1 9 9 $ $ 1 1 $ : - $ 1 r 6 1 $ 1 6 1 1 1 1 1 1 1 1 1 1 7 4 r 6 1 ; $ $ 1 6 w 6 r 1 $ 1 9 1 1 - > ; 6 ",
"1 ; 1 ; $ 6 6 $ o 1 1 $ 1 $ ; 1 1 $ $ 1 6 : # $ ; ; ; ; ; $ ; 8 r 2 1 6 1 1 t t w 2 8 1 w y 1 1 r 6 4 6 9 1 ; : 6 y f q 6 y l e q q r 6 6 t y f l l 7 7 f z c f f x S S e h U U b b E S U U c x U U c b H H W W S c c H K U T U x h S U V x S W U U c l h U c h x x l l f B z k b k z c z l y t y f f c h c V f f x c S f f S U h w l x h c b U U x k U l x c x c z k c h x V S b V h c S w w x c x f f f h f 6 6 f f f q q t w y e w l x s z x l f e f w f x c U U U l c U c U U E c c c w t V x h x U c c H H U R c z U U z U c h h b z l h x x l t 6 y B f 6 f x h c e w x x y f f t d d f b W U c ) H k S S B l S S T ( K U V x U W H U E c U T h l Q R U R T S b b b H U z h x U c U R R U b H T U R _ c c Q R Q R c x W Q F x h S U c S B B f M W W V M l l B B f f w f f c c c V y q f V f y f r h U z f y S S h h c H c h k H k b x e w l x c c c z x e w t f f f B B l S M y B B t f l l V x y d t t n V U U z z h c V l t t f l f l c F t f B f x V q w V l q r M l x x f x h f l x f y f l f w y l f w w l l h e t 7 2 t y q r r t t t r 6 w d q q t t t 7 q y f r 6 t f w w y q 6 6 6 t w w t t t l f 8 6 r t w 6 1 6 y 6 6 9 t 6 1 6 9 1 9 y y 6 6 r r 6 9 9 6 6 q 4 1 o o ; 1 1 ; o 1 4 2 6 ; ; 4 1 1 1 ; ; 1 1 9 1 1 5 1 6 6 6 6 o X o : $ 4 q 7 1 ; < 1 6 4 - @ ; 1 ",
"1 3 3 ; 1 1 1 $ # : ; 1 1 $ ; 1 5 1 6 6 6 : $ $ 1 $ 1 1 1 2 r 6 6 1 2 6 1 6 r 6 6 r r 6 6 9 1 5 r 6 6 8 6 1 : 1 t y t 7 q t f f f q 6 r r r d y y f q w l h x x c c c c h f x l l c T U S V h c T H b c c U U S b b c c b U c c x x U T U W W W U U S l x S x f x x l f x F c x x c c c x S l y f l f x x c V f f x S S x V H U h s x x x b b x x c c U c c b c S S k c x x h V U U V S c y e x c c x x f l f q e h s e 7 6 q f y f f f y h c x y h h B f l f S c S S f x S c W W R c c V f f x z x l b b U H U c b c c c S U E U c c U c c f e e B f q f c h e B c c V t w x x y d y t y t B U V S R ) Q T T R U S S S F S b W S x U U H Q Q R R U c l U ) R W W S S U b x c c c S H H K K U H T R K H R T c S W Q R R S l V V l f V S x S S x l V E U S V F S S c U S x y y f l f f l f w f h l h B h S U x t l U U x l x c z x x b H U b h f f x W c h f x e y e f t l S c x V x l l f t t B l f l d d y n M l y x V U V V x x M y d l l l c A y d B h x V f x V f w w w t t y f B x l B l y d f l f f y y y y y f f f l f 6 6 w e e f y y e t r 6 t d t 7 6 r t t y f y r q t f y w w w w 6 6 6 w y t q t f d t y y r t 7 1 6 y y 6 4 r r 6 9 9 9 r t 8 1 4 t r 6 7 6 6 4 1 $ - - # $ 1 1 1 1 6 6 6 1 : : 6 4 6 1 ; ; 1 4 6 6 6 1 2 r y r 7 ; - - : $ 1 6 6 1 1 : 2 6 6 1 ; 1 9 ",
"; - ; 1 1 & 6 ; o o : $ 5 $ $ $ 1 6 7 7 1 $ 6 * 4 1 1 1 6 6 q 2 1 * 7 4 $ 1 6 6 r 7 9 6 7 6 1 1 8 6 6 1 1 1 5 6 r q 4 1 7 7 q e f w y q q 7 r q q f t 7 f h h x z z l x f y l f c c c U U x c S c b S c x U W V h b U k z c S V l x b U R W S U U U V l x V f f l x s h U b h f V S l x x h x l e y f y x z l e f V x c U S c c f h h x b c c x h b c c H H k S c z c x c S x h V S l h V l x V h c x f f h e f e f h q 2 6 6 y q y s e q f h x t w l y x c l f l c x l f l c H E S b U x f t f x k s h S T c c x b c H z z U U c U c z c U l x x V h 6 f x s s l x c l 6 t f d t 9 7 t 9 f U S l S ) U W U x H R U z V B S U U F x V W K U Q R K U V f V R R U b H b c c c c c U c b K K b H R L U R b b U V h V R R c V V c x B y M V B l V l x U U l f V W k c U b H c x f r t t y B f r t f f y l c x x d w x x c S z f z l c h x U c c S h y c c k l x l w w y f q y V l z x l B y y r d B M t f y t f F U B f f f S V x f V h l t y M l l M t t x x f x x c l w w f f l f t y f x S l t t l f y f l y y y f y t f h h y 6 2 w f e e f e w f t 2 9 y 7 1 6 t w t f y q r f r w y w w w q r 6 1 6 t t 6 r e t t t t q 6 9 6 < r y 6 r r 9 r 6 6 t t 9 1 1 8 4 r 6 1 1 1 1 $ ; ; 1 $ o ; $ 6 6 1 1 1 ; 1 1 4 9 1 ; : : 6 1 ; 7 q 2 6 w t 6 1 1 1 $ o ; ; $ 1 1 $ ; 6 1 4 4 1 4 9 ",
"; # - : 1 1 9 1 # # ; 1 6 1 : $ : 1 1 1 2 6 q t t 6 * $ 1 2 1 1 * 1 7 6 1 $ 1 6 w w 9 r r 7 1 ; 9 6 1 1 1 6 r 9 6 1 1 1 6 7 w q w f h f f 9 6 6 7 f y w l x h f l l l c l t l x c S c U U b T U c x c b S U U S l x W b x S U S x x b T T T U b c U U l h c x f x l h b T c f h x b c x f h c c y y t y l x l e f V c S V V x c h s x V W W S U c c c c c b c U H U c U U E U S V l f l B x b S x b l f e f s l s x e w 6 r 6 q t l e s e h h c y y f f f x e y f c S f f x x U c V b H S f e l x c h l x H c c S x x S c c R U G c b H U H b H c z f e l c h x f f s y 6 r f f t 8 9 r d B U S l F U R H x l S K b x f B E T U S x S ( R W R U H T S h S W H U S H U c c H H H b c H T H H H K R R ( R b S S x V S H U U S U U A y x E x f M B S V l f l V S S x c c z S c x r 7 7 f l d t y l f t f l l l y t B l x h l l V l c h x x l h c l z c x h b H x f y f f t t l x z V x l f f t m B B y d y f U W b F l l l l x x l x c S f y t t l M t f B x f B h x y w y l x V x l t t l x f y f l f f f f f l f f f y l V f t r 7 y f e y y w e f t 7 t t 6 1 r y e f d r r y f f y w w y y t t q 1 6 q t 7 6 y y 9 6 7 7 7 t 8 1 6 6 6 r t t y t p t y t 9 1 6 9 r 1 1 1 1 1 : # ; 1 - - 1 $ 1 1 1 1 1 1 ; ; 9 6 : : 1 6 7 $ ; 1 r q 7 1 1 1 2 6 5 ; ; o # # 1 1 $ $ 1 1 6 1 9 9 6 ",
"- # ; - 1 1 < 1 # o # 6 6 1 < ; 1 ; 1 $ 1 4 6 q 6 1 $ 1 6 1 6 2 2 1 4 9 < o 1 6 6 q t r 6 r 1 1 1 1 - 1 9 6 7 6 1 1 6 5 1 6 r 6 7 t y h l r 1 1 r f w w l x y y x h f x f w f c l x c c U H b c x h V S c c S V x x z U H c c S h f U T H U b c c c x f h c x f f h b U z x h x h l S x s l h h h w 6 r t x x y y B S V z x c S y y l h c U U U c c c c h c U U W U c z S c E U V x f B B f S c c x x l e e f y s s q q 6 7 q f f h q y h h h S x f f x f l f y e l S y f S x x z U k c S e w x l x x h s h c U l h h x H G U G k H c b c b c h x h w h x l h h l e s l 1 1 d f 6 4 1 y B h V V l F c T T U W U K ( U x B S T T x l F W R R U T K c c x V E U x l c S b H U H x h c H H b b H c H _ R U U S S c V c b U U x c E B x U S f d m l b B f l S l l S x h U c x l x l t 2 d M r t f f f f f e y l y 9 f B f t B h h h h c z h c s h x c c y f c x y w f y y t t x V h l l f y f t y Z V y t f U I V V x f B l t f S l f x z l t 6 t x l w M x h l x e x f y w e x h x l t w y f t l l f f l f t f l y y y f l f w r r t y e e y t q w y t 6 t r 1 6 y q t f t 6 6 y e y y w t r y y w q 7 1 q y 6 6 r r 1 7 q 6 w r 4 < 1 4 6 1 9 r r t t t r r t 1 1 r 4 $ * 6 6 < ; $ ; - - < 1 < $ 1 1 ; 1 1 $ ; 9 1 $ 1 9 1 1 1 1 6 7 6 6 1 < 1 6 1 1 1 1 o o $ 4 < o ; < 1 4 1 6 4 1 ",
": - 1 - 1 1 1 1 # # : 6 6 * 1 1 5 * 1 1 1 * 6 * 2 1 1 1 6 2 6 4 6 4 6 7 1 1 7 w w 7 r 9 6 r 4 6 8 ; ; 1 t w 9 6 1 1 7 7 6 7 7 7 r 7 t y w t 8 1 d l y t f f f f l l x S l t l V c f f c T U c x x c S S S S x c S x l S U H U U x h U W H b c k c x f f x c h e h U H H z x x x h x c c x l f l h y q 7 f V S f f S S c V z c S h f f w s x h c b U c c c U T W c c x c x S h S c c x S z h c S c x x x s f l t 6 e y 2 6 r h x h s s f l l z x x x l x x c x l f l V f l U V c c U c U U f e x b H b c f f c b x h f x b H G k c T b h h U c x f f h x x c k x c s h B 7 1 f f 6 1 9 m l z c x S R W W S U W U H L ( R S x R R c S W T R T U W U U c l S R U x f x c b T c x l l c U K R R R H T R R H U U U x S W U U W V c W U x S B y l B V E c x S S x B l x x S S x f c V f q y f t t l l f x l y f B t 7 l V h h S z l w l c c x c l c l c x h f f w w t f f d q d x V x l l x l m y f F S f f F W c V x B l S B t f F x x l c S m y f V B t M x h x x l l x l w y l l f l f t t y f x l f l x f f l x f t t f t 7 6 t y w f f w y y e f f r 6 t 9 6 t y t y f t 6 6 r y y e y t t t w q t w 6 t f t t y 7 4 r w q f t 1 < 1 6 6 8 9 6 1 4 9 r t t t 9 0 6 1 ; 1 9 6 1 ; ; < ; - ; 1 1 1 1 5 1 8 9 1 ; 8 1 : 1 6 1 1 1 8 4 6 6 7 1 1 1 6 2 4 1 1 ; ; 1 6 1 $ : 1 6 9 1 1 1 4 ",
"3 1 ; ; : $ 1 1 o o 1 ; # $ 9 6 1 1 1 1 1 1 2 6 q 6 7 2 1 2 * 1 7 2 6 1 $ 7 y 6 w 6 1 1 6 1 6 6 6 1 1 9 9 w 6 1 9 7 6 q 6 1 6 6 q q q 7 y t r r w f y w f e f f y x V B f y x x x x h c b H U U T T U H S x x x V V h c c S U S l l S U H z b c l x f w l z s f x U b k c x h x l x V f y l f w f x y t x c l y B V x S l z c B f w l x x c h x x z c U c c S b c V c S x x c x x U z z U f l c x b s l l h l 6 6 f w 6 e l e s e e e l e s k x y x f f b k h S h e B h f V U H x x U E z w e c x x c c h f f x x f e c l b c H c b c h l U U S f f x h x k c c l x h x r 1 M d 1 1 m l e V x h S U U S c U b U H b L R c l H T b c R _ K U T S b U x f F W c V l y f x c c h k U c c K U U U U U c c U U z V l z E c c U H U U x e f V h c U x c S S l c S x f V h l S h s h x x h y l f 9 y l f l M y f f r r y l x x B x f w f f c c h x l l z f l w y w l y w f f q t B x z h f B B n t f V z h S F V x l f V l x V y f B V l f c l B V V z f w f x x f x f y V f 7 q y f e f f f t w l l f h f f f h l l y w y f f r t d r 6 f l w w f y f y 6 6 q t t q t f y t r t r 6 r y q q y t 6 q q w t 6 w y t d r 6 9 6 w w t q : 1 9 1 1 7 9 1 1 9 9 6 9 r 8 5 1 1 1 $ 6 6 4 6 1 - ; ; o - 1 $ 1 1 1 1 6 9 ; ; 1 1 1 1 1 1 1 1 r 1 1 6 6 1 6 1 1 1 6 1 * 1 1 * 1 1 $ ; 9 2 6 1 ; 1 6 ",
"1 9 8 1 1 $ 1 1 $ $ $ $ $ ; 6 7 r 6 $ * 6 6 6 6 q 6 6 6 6 * * 1 1 6 t r 2 6 q 6 = 1 4 4 7 2 9 1 1 1 6 1 1 1 6 6 r q w y 6 2 t y y t t w y f f t w f w w f f f f y h V l t l U c b b c c b b H U T H T U c c c l B V x b U c b S B l S S z z b c c x y q h U c z z x h c c c x x x x h y e y y y y l x x l c l e f S V V x c W V y t l c x S b x h c c c x x h x c U U U U U c c c c c U W h f V z x l x l s e w q h y q f h w e q e f x h x c x l S h f h x z b x h c z h S U U z V U U h q f c l h s h x x y h l h h c x k b K H H k x b U b H c h x x c k h h x x l B r 5 r r 7 t M l h V x x l B c b U U U U K K K T T b c W U S U T U W W U U U V f B S x x B f x b v k c b b b b x x x l x c x c U U U B x S U K b V b U x t q f V c S x h l S U U V U S c z c V x h h x x c l l c l t f x x f y w f t r t f y B e y t y f f e c U x f h h V l f y f f h h h x l t y l B h B f f y y y f B z z U z B f B B c x V V f l V V x l x z U b c B l w f B c h x f h V f 7 t d e l l l B f f l B x x l y f x l t q d l l f y y f t 7 t h f t y y w 6 1 6 y f y t t y f y y l f t t w w t t q 6 q e t t t y t 6 6 t w r r t y t 6 1 4 9 4 6 9 9 1 1 8 9 9 9 4 1 ; 3 8 6 2 1 7 r 4 1 : 1 ; $ ; 8 1 < 1 6 6 8 ; 1 1 8 1 1 1 5 ; 1 9 r 6 4 2 6 7 7 6 6 1 < $ & 2 2 * 1 1 $ : 6 6 6 1 < 1 9 ",
"1 6 1 < 1 1 1 ; # $ $ $ 1 1 1 6 q = 1 1 1 1 6 6 = 6 2 6 2 * 6 1 $ 1 y t 1 $ 1 2 w 6 y r 1 6 1 ; 1 1 7 1 1 1 1 6 6 7 t w 7 7 t e t 7 r t q y f q t e q w w y l y f l y t t f c U b c z V S c b S b U S S S x l B B x h c U c c x f f h x c c x x b b f w l U z l z f h x h x l h c h h x f y y f w y x x h V l 6 t B V z c U S x e h f l h c b z x S k x b b x x S U c U U U x c x x c U F e y l l h f l e f 6 q w f w e y f f w w f w f x h c c l h h e f x h x x h c U h h h h x U c x y w y f l h s x h l f e f V x h c c h k H b h x b c x S c f h c l h e f e e l f 7 1 r 7 7 f t t x x l f l B l S U c S b H K H U R H b S x l l V U H W ( U z x f l c h x S U U b c x c c c b b k c x c c x h S c c U V h x E U k x x l f l f l l c U U b c f S H k c S x z U c f f x c h h h z l V f f y f y y t q t n 6 t f q f q f x e l f f x f e x x x f e y B y y h x f e q f d q d l y t t f t t B c z x c z l A x l c V x y l S x B f f x B B f x B t t f l l x h c B 7 6 f y f f l f l l h f h B l y f f l e q t x l e q y t w y q 4 t f q 6 w 6 6 4 1 r t t t 6 6 t f w t y w q r r y q q r q t q w f t 6 6 6 r 6 6 t t q 6 1 1 1 6 6 1 6 8 1 1 1 8 r r 4 1 8 9 9 6 1 1 8 1 1 1 1 : ; ; o < 1 ; ; 1 1 ; + - 1 1 < 1 1 1 ; ; 6 9 7 6 1 4 6 6 4 1 $ $ $ 1 1 < 1 1 $ ; ; 1 6 1 $ 1 1 1 ",
"8 3 ; o ; 1 1 $ o # ; 1 6 1 1 1 6 q t 6 q 6 6 * 2 6 6 6 = 1 1 1 1 1 6 1 & 4 6 & 2 7 r q 2 1 1 ; 5 r 7 q r 6 6 7 r 2 q w t 7 7 2 6 6 6 6 r t r w y y w 7 w w y M B l f y d f x z l h x V V c S S S S S V S x B F V l l V b c U V f h f s x c c c x h f y f h e h c x x x f f e h x x x x x c x f y f l z V V l w t f l S V S x h h l f h c b c c c c c U b U z x c U U c x x z S z c c E V y d f f x f t w q w w = f f e f f w e t f e y f y l l h f e f f l x x x c U S f y y f y S c l y f w f h h h c k x f f f c c c c k h l c c c x c b b b c x f y f x e h f s e f t 9 d d t f f t f h x f f l l V S b H U b H K R R R R U l f f B S E W V l x S l l l x V S H S h s e f b b b K H c S R H x h z b U W c f l l z U W z f f F f h S U T ( K H V S H U U B l l l l l x x x h x h x c B y t 7 t t M y y t y 9 y y f t r f l e l f f y y f x V x f f l l f l e y r r q m d 2 r M f t t C f f B S l x B V V V x x V c f f f V z B x x V V f f x M t d t e f B x x y 7 t l f x x x l f f f f l e f f f f y 7 t x l w w t d y y 9 6 6 r y y t 7 6 r 9 1 6 t w 6 6 7 r r t r 6 6 t t 6 q t t w r q y y y t t t r 6 1 4 6 7 1 4 6 1 ; 6 6 4 9 9 4 6 4 9 r r 9 6 7 9 4 1 1 6 1 ; ; 1 1 1 ; ; X $ 1 1 1 1 ; # + ; ; 4 6 8 4 8 1 1 1 9 r 6 1 9 1 6 < 1 ; ; - $ 1 1 6 6 1 ; ; : 1 6 4 1 1 1 ",
"1 1 1 $ # o ; $ . # 1 & 1 2 * & 2 6 6 y e w 2 1 * 2 6 * 1 & 1 1 1 < 1 o 1 1 1 $ & 2 1 ; * 2 1 $ 1 9 2 6 q 6 r 6 4 6 t q 1 6 q 2 t w r 7 6 w f y w y q q f w q d B y B M e y x h h x V V z S c V S c S V z c V V x f x c z b z V f e x h e l b c e s h w e e s x f x x h x e w f f x l y x x h y f f y x x l y f f f y c x h f S l s h c x x h x x c c H b c c z l c c l x V c z z b c c x M f f w f t 7 7 f q q 6 e y w f w w f e t y q e l y w h x w h s f x c f h V f t f V f w y x c y f t w w x l k b c s f f h c c l c k x h x k l x c H b k c f w q l V x l e e l q 6 M x w t l w w l f f f f l l B b T U c c T R K K R U l l V B f B l f h z B f f B S z x c x x h h h h c U U c c b U H l z b c U c y f B y f l S l e f B w f T H x h c U U c c U z h f y y x l x f x x x f h c f t f f t 6 f y y 4 r t t r y 2 r e t f e l f y f e f B f w y l y f t w r r r 6 t m r 6 y d w f M y y B z h l f B S x h x x l e f y l x V x x c x y l l f t m y f 6 t f f q f y q y l l f f f f l f e y y q t t q t l x y q e f r t t 6 t y 7 6 r 9 6 r r 6 1 r y 6 t r 7 6 1 w w 1 6 y 6 6 q 6 t y 2 q f w 6 t t q r r 4 1 1 1 6 9 1 1 ; 1 4 9 6 6 4 < 6 6 4 9 6 6 1 1 1 ; 1 1 ; - 1 1 < ; ; - + @ X 1 1 ; o 1 1 o - 1 9 6 6 1 1 1 < 6 6 1 1 1 ; $ 1 4 < 1 $ O 1 6 1 6 1 O : ; o 1 9 4 1 9 ",
"1 1 1 ; # . # $ o ; 1 1 1 1 & 1 r * 6 6 q 6 6 6 2 1 2 6 6 6 1 * 1 * 1 $ 1 1 4 2 1 1 1 O 1 r 1 $ 1 2 7 6 1 1 7 7 6 t y 7 1 6 w q q w y t 7 t l f f f q w B l e w d l x x B l h x x S S U U S V x x V U b b c x f f x V b c U U V h y V c h h h s q x c y y h h h x x f f l l s f f x l l e w w y h h h x h x y f l V x c x l h E c h x S l h h x x U c b c c b c x x h x c S c U b U b V l l S B e a w w f e f f q y q f t y e f f y e w e x s y y x f h f s x c f f f f t l S x e y V x e l e w w l x c l h h x f l f s k b H b h h x c z c k b c c h h w y h f t e h x t r y f l l f f f l f l h l x x l c U c h x U R K K R U c S W U x f f U W c x f f V S b b x c S U U S c c b R T R R U x c U c c S x y l V B x y t 6 f S c f l c U s t l S U b x c c S f e l h h b c z l x f x x y q l S f q d t t y M l r 9 d q 2 q f h f y h l l e y t y y f y l y w w r y y 4 r l l w y y f V l r y V c x x f l V x x l f h h l f l x x f h x x l l x f 7 f B M w t w f l B t 7 y f y q f x h h h f f w 6 r y e t f y y e f y t f y 6 t f y 7 1 1 9 y d r 6 r e q r t r 6 6 r r 1 6 y 6 1 w 7 r t w y f 7 7 t r 6 t d t 6 1 7 t y 9 1 1 6 4 9 6 4 1 1 1 6 8 6 1 1 1 1 ; 1 9 8 1 < 1 1 1 1 ; - ; 3 ; $ ; 1 ; 8 6 # $ : ; 6 1 1 1 1 1 6 4 1 $ 1 ; $ : 1 1 1 < < 1 6 1 1 ; o 1 1 # : 4 r r 0 ",
"1 ; 1 1 : o ; o $ O ; 2 2 & 4 2 q q * 1 2 1 7 2 6 1 1 6 q 6 5 % $ 1 6 1 ; $ 1 6 6 & 6 6 6 1 $ ; 6 * 1 6 2 1 6 6 1 6 t 6 2 6 7 6 2 q q 7 q e y w f l q 6 y B l q y f y V V y e x S c z S U S x f l V V V c c S l h x x c U H U V h f f c H h w e e x f w w h e e l h w 6 e x h e y y h h e q y f e l x f h c f w d F U c f h x S x s x z x h h c x c c f h x l c c x f x x z S U S c x V y y B f f h q y y q l f 6 y e q t f w w y f q q w y x w w f f f e x h x c x h x t w x c e l V y e s f f w t f x s h f f l x h h h k G c j h l c l x h f x h h c s f q r 7 f h f w w r 7 y c e w f y f h h s x B f f c U x x c b K K H U c h U Q b x F W H x V l f x U U c c c z H U U U c l H R _ R x h c k c S V V B y f U U z y q l c x f e c b x f x c x b c z c x y f y e V c x f f l h h h t 7 y B l f t r y l B e r t r 6 6 f h e h f l y l f y r y y t r t f l y M r r 9 6 w l x l y l l d r f l x l B f y l f z B t e x h y x f e f x f x h w l f 6 t B B l f w f l l w t f x y t y f f e f l w t w d t w w 7 r d y y w f f 6 1 4 t f q 9 9 r y t 6 4 6 t q 4 9 r 6 6 q 1 < 1 r r 1 6 7 2 t f f r 4 r t r 6 1 9 r 4 4 r t 8 1 1 9 6 < ; 8 1 1 1 1 1 4 1 1 6 1 ; < 9 9 1 < 1 1 < 1 1 - $ ; r 8 ; o 1 ; 1 3 o $ : ; ; 1 1 < 1 6 4 < $ 1 1 ; ; - ; 1 $ 1 1 1 1 1 ; ; $ - 1 ; o ; 9 9 1 ",
"1 1 1 1 1 $ ; < 1 $ 1 1 1 1 6 q w w 2 1 6 6 7 6 2 6 2 = 6 * & * 2 2 7 6 1 & 1 2 q t t 6 1 1 ; 1 6 2 6 4 q 6 6 9 9 * 1 2 w 6 6 q q q w 6 q y f e f l t 6 r f f y d x V x f y f x x x V z x B l f x S S x x U W b c x x c b c c c V h f x c x e e c x q q f h s f l l y w w f f f y l x x y t f f y l l x l c x f f S U z f c U l y f x c x c x x c c h f l V z V c V V c c c x z l k S V f f f d f x f f f s y 7 7 f f w t l y a y f r r 6 t f y e l e h x b S S c S c V f y f l h S U y w y f x s h h h l c l l k c k c l h h x x k x c c c c h x c e f x b f t t x h f 7 t r r w l x x x B y y f l x f t t S W U H b b b b H R U l x z c U U c h x V x f V U b U T S c c c b T c h x c T K H K R H S c c U S h B c k b b c x l b s f S b l l l c x S U x t r 6 t f l f f e y f B x h l f q y f y e y M l r r 7 y e y e x l x h l x l z z x l f f f y t t y f h x l f w r q y f f f l y y t M f S x f y f y l V V y w f f e f e f f l l V B x x f r y f f y y B V w y y f f B f y y f f f w y y y f f y w 6 7 r d y y y t r 9 1 9 r w y l l l t 9 1 4 9 r q q r t 6 1 1 1 < 1 t y 6 r w r 7 q t r r q t d 9 1 1 1 4 r y 6 $ $ 1 6 6 $ ; 1 4 6 6 6 6 1 1 6 6 4 4 1 4 6 1 ; 1 4 4 4 1 1 1 1 9 4 1 : ; 1 9 : o ; 3 1 ; : 1 1 4 6 1 ; 1 < 1 1 ; - 1 ; 1 - : - - $ 1 ; ; ; 1 1 ; ; 3 < ; ",
"; 1 1 $ : $ $ 1 1 $ & & 6 * * q e 6 6 1 6 6 1 4 7 = 2 * * * 6 2 6 * 1 6 6 & $ < 6 6 6 $ o 1 < $ 1 6 $ 1 q 6 * 7 r 1 1 2 2 4 6 q w 6 6 6 6 q f h f f t 6 w w y y f B z f f f x x l x l x V x B B l V V h l c c b H z h h x h c c l h h e y x k c l e 6 q f h e f y f h l t w w e f l h f f f w y y y V x f x V f y l c U l V S f e x f x x c h l b c x V z c c h f c U S h h h x x c x B l e M d 6 d V x f w w 6 7 d w t w y f l f f t y q t f x f e l e c U H b l c z l f y t f h l V e w f e h z c l k l l k c l l c c s w h c h h h l b U c U c x e e h x h x l f f e 6 t f f t w h S x f w r y f h x f l U U S c U U k b H c S x y l x h S c f S U l f S S c U U S h h x c c h f x H k k K K U U c b H z x f y l h s b x e s h e l f x x h y l c c U f q r t y t f f t f l y f l f f f 7 q y y q f x f 1 9 r d q y h x e l x h e x V h e l l y y f y t q w f f l y t t 7 q q w f f q f f e f f h f y f e f V V e w q w e y e h f y l l l l y f 7 7 f t q f V l 6 r f f e l f q y l y e q w f e q r d f 7 q t t t t t t 6 y t 9 6 7 w d f t 7 4 1 8 6 6 6 t r 4 1 1 1 9 6 ; 4 q r 7 t t 1 1 6 t t 4 r y 6 1 1 1 r q 7 1 $ : 1 < 1 4 1 ; 1 4 4 6 1 1 1 1 1 6 4 < 1 9 1 o ; 8 6 4 1 9 1 ; < ; 1 ; o 1 1 ; - ; 3 1 1 ; ; 1 4 1 & ; 1 ; ; 1 1 4 3 ; - - - ; 1 ; 1 - o : 1 - 1 4 3 - - ",
"; ; $ $ 1 * 1 1 < 1 1 1 7 = 1 4 q q w r 6 1 1 1 6 6 7 6 2 = q 6 6 6 7 6 1 ; 1 < 6 * $ $ < 1 1 $ 1 1 1 1 6 q q t t 6 4 1 4 6 6 1 1 1 6 q 7 6 f h f t t w t t f f f y f f M l x V V c V x x V F V V x l l B S c z z x x l x z c c l f h f f h k c e q t y e x h h f f f h f y y x x l f f l f y f y f f x x V c f l l l S U x l f h l h z x c x l l c c U c V c f t V b x f y V E c b V V l l S l w f x f 7 6 f 7 7 d f f r t t f y y f l f x x b x l f h x V x h h S c l t y f f f x h f y f e h x h h c x x x l h l l y w w h c k c k k l l h c x h s l f f e l y f t t r t y l l f f h e q w f y y x S c U U U x f x c z U T U c c l l f f x x x b W z f S U U U x h l x c S c f f x U c c c l x x b H H S B y t f x x h e w t f x x x c x c f x b z z V f y B f y x f h l x f f f x x l t t t t t f y q 9 y r 6 y B h e f l y e h V y w t d f f f y t r t f f f w q q y r r 6 d l y t y f f w w y h x l x c l x h f q f w h h h f l f w 6 6 y m r 7 t t 7 f V f 7 d y y l l y t f f f y f l y w 6 r t y f y e y y y r t t y t y r 9 6 9 9 r 9 6 8 6 r t r 6 4 1 6 6 4 7 6 4 6 1 6 6 6 6 6 4 6 y r 7 r r 4 6 6 1 6 r 6 1 1 5 1 1 4 6 6 1 1 1 1 $ ; 1 6 4 8 1 4 4 9 4 ; # - - 1 r 4 8 1 - - - 1 ; ; + : : 1 1 1 4 6 1 1 $ < ; 1 1 1 ; ; ; 1 6 8 1 ; O ; 1 1 < 1 : - - ; 1 6 4 1 ; ; ",
"o o 1 $ $ 1 1 o $ 6 2 & 2 6 * 1 7 6 q 7 1 ; 1 $ $ 7 t 6 2 * * 6 q 6 6 1 & $ 1 & $ % $ 1 2 1 $ $ 1 1 6 1 ; 6 y 6 4 6 2 1 6 4 1 * 1 1 1 1 6 r q t l e t w r y y y t t f B f f l S U x f x S c c V c h f l x c c h x c H c h z z z l e h x y w f y e f e q w x x f e f w y h e e z x w e l f y f l f w y h x S V w f x y f x y f x f f l c h x x f f c c k b b f t t l U c h V U H H H b S h f B l w w y t 6 t t 7 5 t d w t y q t e f e f x x h h x l e x x f f c h h b f w l f t y h e f y t f h l l w e x x y y u x e y e e e h c c h x h h x x x b h e x e 7 q t w 6 r r r r y l y f y w l f f f f h l U U H S f f l S c z b S l x x y f l f f h l U S f z U U c x h B V l c l y f B z c z z l h S b x V S l f l y s f f s f w w h z T H l h h f x h x S h h e h h y f x f h x l f x l y f f 9 6 7 6 t t r y r 1 f x w q w f w e x B t 6 t y r t f f t y q w f f w y q t 6 r w q y y q q f h e f w f f h V h s h e f s e w e f h h x f f y f d t r r 9 r 7 w l w 7 f t t f l t t w e l l l f q 1 7 r 6 r y y w t y y q 6 r r r t r 9 9 1 9 r 6 9 4 1 9 t 6 6 1 6 6 1 2 4 7 w 4 1 1 7 6 r r 2 4 9 9 6 q 6 1 6 6 $ ; 4 1 1 1 1 1 1 1 1 6 4 1 1 1 ; ; < 1 r 1 - 1 8 4 1 o ; : + ; 1 4 3 o ; 1 - @ ; - - ; ; 1 ; < 1 1 4 1 < ; < 1 ; ; ; ; - 1 1 1 8 1 < 1 1 1 1 1 1 # - ; 1 3 ; - + - ",
"o # : 1 6 1 $ o $ 1 2 2 t 6 2 1 r q 6 1 ; ; 5 1 1 9 7 * & 1 5 1 6 6 6 1 1 & 1 < ; $ < 1 1 1 1 $ 1 7 w 6 6 r 7 1 1 9 9 1 6 6 6 9 y 7 7 6 y t 7 7 f l y t d y y t t y f l l f x S c x l V c c V V x l l x S c x x c U H H c c c c z h l x l y t t y f t 7 e c h f x h y l x f e l y q y l l x f y y f f l h x l y l B f f y f l l f f f c b U x f f x c c c S f t d x x c b S z b c c x x h l B y w t r t w w q 7 6 t y q y d w y f x f f h f y f f h h c x l f x x c U l e l f f y f l l f d w e c B w y y l f B l e q y h f w f x c k h x H H H k j l x c e 7 t y w 7 9 7 r f f f w f f f x l y l x y f f V U V l l x c b S f e h x x l f y f l f s S x s S S k c c c S b c x h f h c b x h c c x V c c V V l l B f f w y f f e y e x l x h x y f l x l z c c h x c f y h l V c x f h l t t t 6 6 1 6 t t q f t r f l w q y y h V B l t y y d r y t l x V f y y f y f t f d r q q d f q y y l l l f f f h h w e B f e e q e f e f f e f x l l f n t q d y 7 t t t t d y y l l f f y t q d y q 6 9 r r 6 7 r y y y e d y r t y 6 4 r y 9 8 9 8 6 r 6 1 6 4 4 7 r t q 7 q t w q 6 6 6 6 7 r r q t y r 6 7 9 1 7 9 1 : 1 1 1 1 1 1 1 6 4 6 4 4 6 6 1 1 1 9 r 1 - ; 1 9 6 ; ; 3 ; ; ; 0 4 - ; 1 ; - - : - ; ; 1 1 1 1 1 1 6 4 1 8 1 ; ; ; 1 1 1 : 8 1 4 8 9 4 9 6 1 $ - ; 1 ; ; - ; + - ",
"o . o 1 1 $ o o 1 $ 2 w y 2 & 6 2 q 6 : 8 1 1 ; ; 1 < 1 6 1 1 1 1 6 6 1 4 $ 1 1 $ o 1 & $ 1 1 # ; 6 9 4 r 6 1 1 r 6 4 1 1 q t q r y t w y d w 6 w l t w f y q r d f t f f t h z l f x x x c V x h l B x x x l x S z z b H c z z h h y l x w w y q w f w q x s w x x x x y w y l l l w y B x f y f l y f x V y y f f f y y l f f f e e c b U c l f f h z x y t d t f h k z c z x h k b c s y l q w f 7 7 q 6 d r 2 f w w q y f l f f f w f f e y t l l h c x e y V b b h w y f f t r f y f t w w B V h e q y l x t 6 6 t w e w w e h h c c c H c h l s x l q q f w t w 6 6 9 y f t w q y y t y f y h x f t f h x y B V h c U x y l h f f y q y l f e x z f x c b x h V z z c f h l y x c h x c x x x c b S x f y f f 7 q t t y e q e e q h c c y t y l f f l x h x l e s x f h c e e l e t 6 r q 6 4 y r r r r 9 6 y e w f r y x x e t y l t t t r 9 y V V S f w f h w f e f q 6 t t t q t w e h f y l f h e h f x y = q y w e e q w l e f l e f l e y f t 7 6 7 t t t t h f y y h y q q y t 7 6 r 6 8 9 6 5 r t t r y r 7 y r 1 9 r r 8 1 1 8 6 8 6 1 1 9 6 2 t q 6 w t r 6 1 4 7 7 1 6 6 7 q t y 6 4 r 1 1 6 6 6 ; - 1 1 : 1 1 1 6 1 1 6 6 1 6 9 1 1 8 4 1 $ @ ; 6 $ $ ; ; 1 1 < 9 1 X - 3 - - ; 3 + - ; - 1 1 $ $ 1 4 < 1 8 ; - - 1 1 ; , ; ; 3 8 1 1 7 9 6 1 1 ; + ; ; + + ; + + ",
"o . # $ - # $ $ 1 * * w 2 * 1 7 6 7 6 6 6 1 1 1 1 ; 1 1 6 6 2 6 r 2 6 6 6 1 1 6 $ $ 1 1 1 1 1 $ 1 9 4 1 4 1 1 4 r q 9 1 1 r d w r 6 2 q q 6 t t t f f t t t t t y f f l f f x V x l l z S S c x l l x x x x l x S c V c c U U z l l l x f w y f q y l t e x s s y e s f w q y x S c f d t f f f l B l h x c l f f d y f f l f f e s f x h h f l f f x x f y t d t y l x h S z x h c c S f f y w e t r 7 7 t l d q f f w f f f f w t w y y f f f y x c x c V f f x U S h y f f l t t f f t y w f h V V l f B h e 6 7 q t 7 7 q e e f h c c k l h h c l x h q w f y t e r 7 r d f e y t d t t y f f x b x t t f l x l x c H U V x h x h y y t t f f s c S h c z h c c S U S x l x l f x x h x c c H H S x x B l f f w 7 t y t w w t 7 t y l c U c l y h x f f l x c f e h x f h f h f l h f w w t r 6 w t t t r 1 t f w e f y f q q q y y f f y y t t t y B l f f l x f w t 7 r 7 y y t t f f y f f e l e h h x e V e 6 q f e f y 6 w f s h f e l B x x l t 9 7 9 t t r f x f y f l h l l f w q r w 7 7 r 7 1 8 r y y 6 6 2 6 t 6 r y t 8 1 1 8 7 r 9 2 q y 7 6 7 6 2 7 6 4 1 4 6 7 7 6 6 7 6 6 r 4 1 6 t 6 1 1 9 6 1 1 1 1 1 < 1 6 4 1 1 6 6 6 9 9 1 ; 4 9 4 1 ; 1 1 $ $ ; ; 4 9 6 9 1 - ; > - : - ; ; : - ; # - ; 1 < 1 1 4 1 : ; 1 < 1 1 3 ; ; 1 3 8 8 1 1 1 1 4 : - ; ; - - : - + ",
"- X   X o o ; < $ $ 2 6 1 & 7 * 6 1 6 1 < 1 4 1 : ; 1 1 1 2 q q q 7 6 1 1 1 7 * & $ ; 1 1 1 ; $ 1 4 6 4 1 $ 1 1 4 7 r 1 $ 1 6 r r 2 4 q t q w t q y t 7 r r t t t y f l B f f z S x V S S x l l x x f h x l l l l S U x x V V H z x c l y q r d w t d w w e e s w t e e w t e h x l f q q y l x f l V x h x f y l e t f y y f f w e f x h h y f h x l f w t t r t l f f f e l V c c h x h w w f q w r r 6 f f 7 w f y y f l t w q f y f t w l f w f c l h x h f t l l f t f f d r t r q y l w w l h h h h l y q r y r 2 6 6 t h e e s s l c k c l f f f e w q t y w w y t t t d y q t y f x f y f h x f q f y d l y f h c c h x l f y f t q t y f h c x x b x l z S x h f x z h f h f x c f l U T U z h x B f y f q 6 t w q t q 7 6 t B x e z S h s x l f e f h h f l y h x h y l e y l e w y 6 7 6 6 t t r 9 1 6 y f q q y t 6 6 r d w t e y 6 t 9 2 9 r t l e w c f w t 6 t 6 r d t w l f q r f h e f f w f x h w 2 y e q y e w q t f e f l x l l w t r 6 r r r t y f f f h e e l x f t q t q 6 7 r 6 9 6 1 6 y q r 1 9 6 r r 2 y y 1 1 4 1 9 r 1 1 r r 6 1 1 7 6 2 7 2 6 q 6 4 1 7 r 1 1 9 r 9 6 1 r 7 : 1 1 1 1 < ; 1 1 1 1 1 1 1 1 < 4 r 6 < ; $ ; 9 1 1 8 < o # - ; 1 < 9 4 1 1 - - ; + - ; ; ; 1 - o $ 1 ; 1 $ ; 1 1 ; ; ; 1 - ; 1 3 < 1 ; ; 8 8 1 1 $ 1 < ; - ; + ; - - ; - ",
"3 ; o o - o ; : 1 $ 1 2 6 q t 6 6 1 6 1 1 1 1 : 1 1 6 1 1 2 w y q * 6 6 * 1 6 6 1 ; ; ; * * 1 ; 1 6 r 9 1 ; 1 1 6 7 r 1 ; 1 9 7 4 6 r 7 q d M y w d q 7 y t y y t y y M Z y w l h l V x f f d f l l f f l x x l l S U V V l B U c f f f y t r t 7 q r 6 q f e e f l f t w f f f e f t y t y f B x V x l S U x l x f f l f f f y e f y x b x l x x l f f f f t t f l f f y y f l c U l c x f l f w t t r 7 w t 2 7 M l f t y w r y l y y e l l y y l x h s c x h w y f l y f f y t y t 7 f x y e l y w f l f t t y f r 6 6 q y f s h e s f h z U c f q w e f q t f e w t t t f M h f t y l x x B l l f t y l l f l x f e f x x x x x x f f r q t f c c h c U U c x l f w w f x x x h h V c x B x S x c x x S B f B f 7 r t w w w q 7 f c x e f h h c x y t y f f y h x y l c x x x f f y 6 q y t y q r r r r y 6 6 n l y f f t 7 t r t t y t t 8 8 4 6 6 8 r f y e B y t d r t 7 r w 6 q d t w w d l f e y w y x l y w f s e e y e w f s x h f l f q 6 r t r y t t t f f f f f y f f e w q t y t 9 4 6 6 r 6 6 1 9 y r 9 6 r y 6 7 f t 6 6 9 9 r 9 : 1 t t 2 1 1 7 r r r 6 6 r r 6 r y r 9 1 1 t y 9 4 r 8 $ 1 5 1 3 1 1 1 1 6 1 1 6 6 6 6 9 1 1 < 1 ; ; 1 9 8 1 ; o - 1 1 1 < : O < 1 - 3 9 o + 3 : - ; - + ; : ; 1 1 1 < 1 1 ; 1 1 ; 1 3 < 1 3 - ; ; 4 8 4 1 1 1 ; ; ; ; 1 ; ; - + ",
"< 1 ; . o o o $ 1 $ $ 2 w q 6 1 * 1 1 $ 1 ; ; ; 1 1 1 1 6 1 & 7 6 1 6 4 < $ 2 1 $ ; : - $ 1 1 $ ; 6 7 1 1 ; $ 6 r 4 4 1 o ; 7 6 2 6 r 6 6 t y t y y t 7 t y r r y y y l l t f f f h f f f y l f y f x h f x x l f l B c z x x x f y f y r r 9 9 6 w f q q f e w l l w q f y y h f y f l d t t l B V V S c S x y x l y f f y e f y w h S x x V B f f f f f f w f d f f y w f t t y x U U f t f y y y 9 7 7 y y w 6 y l w t t e l f t f f w y t 6 t l y h s s c x l l y f y t f y 7 y r t l f e l l f t y y q 7 y t t t 6 2 t y e e h h l y e h z c e 6 y y e w q d w w f q 6 f h x f w f y f x c l y y f y t x c x x f h f h x y f V x f t t y t y b x e z U b h f x x x B y y x x f l l c b h f l V S f l F l y x f 7 7 t w q t f q w x l f w y l h f y y y f e l y f f h z x x f f y t t 2 r y t r r 9 9 t r 4 4 t y f d r t t r 4 6 t t q 9 6 6 4 9 1 1 6 r y e y f q y t 6 q t 6 6 y y w f w 7 f y q f e w f e w e q y e y q q t f y f y w f y 6 7 y r 7 t y d t f f h e w y f t 7 7 t q r r 2 1 6 6 6 6 6 2 6 6 r t 2 6 t r 2 q t q r 6 7 9 1 ; 5 r r 6 6 1 1 6 9 6 2 2 4 9 t t t y 9 1 ; 4 r 7 9 9 1 ; ; 5 1 ; 1 1 1 1 6 1 1 4 r 6 1 1 ; $ 1 3 ; # o : : - # ; 1 1 1 1 1 - - 1 1 o 1 8 X - , ; 1 ; $ 1 o - 1 1 ; ; 1 < ; 1 - : 1 1 ; 1 < 1 ; @ + ; 1 4 1 1 6 < ; 1 - - ; ; o ; ",
"< 1 ; o - o o ; 1 $ 1 6 6 1 & 1 1 1 1 1 5 1 1 ; 1 8 1 6 7 1 1 1 6 6 6 7 & 1 6 1 $ ; 1 ; $ 7 9 1 1 r r 6 9 4 9 r r 4 6 1 - 1 9 q t 6 r r q 6 6 q f B f 7 f f r 9 p y y x M y h x x l l f f l B f y f x x x c B f f l B x x U U B t y B f q 9 r 9 2 y x q q f e h l w 6 r d f f l f y f l l l f f f V S U c S f e x x f f f y f x h e x U S V h f e f l l y l l l f f f f f y y y w l c U f 7 r t q r 9 r r e x y q f y q r d y l h y x l q q 6 r y x h x l x l x c z x l f y l f q y r f c B w e h l f f y w w t t r t q r f y h f e h x l h e e z h w l l s w w t t h c f e x c y e f h h h c c f y y l y t x c f e l x h x x f w y z c y r t t h U S f h x h s l V U U S x x h l f y U U c B x V V b x S F t t V x t t t w e x M y f x x f y l S l t f l y f x x h l h x l x y y t y f d 6 7 f 8 1 t r q f y 6 9 9 9 q q r r t r 6 6 6 y f y 6 9 8 6 6 9 1 r f f e t t M d 9 6 r 6 t x f w f w t w y w f e e e e w f w w w q 7 t 7 w q t e f l f r t B d 6 t y t d d f l f f f f 7 7 r r 7 7 6 1 1 9 6 r r 4 q r 4 4 r w 6 r r 2 6 r 7 r r r 7 1 1 t t q q 7 6 1 6 1 1 7 6 1 9 r t y r 6 4 1 1 4 r 6 6 9 1 1 9 1 ; ; 1 1 9 7 1 1 r 6 1 1 ; ; < 1 1 1 ; $ - - ; 1 8 1 1 1 1 1 1 1 1 6 : o + o 1 : ; ; 1 1 1 $ 1 6 1 ; ; - ; 3 3 ; ; ; ; : 3 1 3 ; ; - - - 3 1 1 1 - 1 1 - o - ; - < ",
"< < 1 o X o $ 1 1 $ 2 6 $ ; 1 1 5 $ < 6 1 9 8 $ ; 1 1 6 4 1 1 ; 1 q 2 6 1 & 6 * $ $ ; ; 1 r 9 1 6 r 1 1 r t t 6 6 7 6 ; ; 1 1 6 q t t w q 6 t y y M y w f l t 4 t t w l x w e x l h B f f f f l f e y x c x f f l B l l l z S l y f B f r 6 9 9 6 f y q q w e h l q q t r y l f y y t y M B f l f l x l c c l y l x f w t f e x x e l V c x y t f x f y y f l f f y y f y y w f f f f l h t f f q 6 r d 7 y l t t y w y w f w t y x h f e q r f y y f f y f y h y l x f y x l y r t q e c h q f f f f y q y w q r t 6 t r w e h s s w f x h w w e f y e z x q w 6 w z z y y l f e l y y l h x l f l f e y t t w w h f y h h x h q f c h t 6 4 r x V h e l c h x S c l z S U c x x l S c z x z U c h z c V x y t x l w t t q f x l f e f l q y z x e t d f e e x x z x h h x h y f w t f t q l x r 1 8 8 f f t 4 9 t 7 4 r 6 4 7 r 8 1 1 r d r 1 4 r r 6 4 6 6 y w w d 9 y M 7 2 t y h l y w e f f 7 w w w f e q f w q w w 6 r 7 6 7 q w l e y m t 6 t B M 7 9 r t M f q f l l y 6 6 t r 6 7 r 6 r r 9 6 6 6 q q r 7 < 1 7 2 q 4 2 q 7 6 1 9 r 4 9 t q q t 6 1 1 1 1 1 1 1 1 6 1 1 9 r 4 6 9 1 < 1 1 9 9 1 8 1 6 r 1 - ; 1 6 6 ; $ 4 1 $ 1 1 < 1 ; ; 1 1 1 < 1 1 1 1 1 1 1 1 1 4 < ; 8 1 o o ; 1 + ; ; 1 ; 1 1 4 1 ; ; ; o - ; 1 ; ; + : ; < 1 ; ; 3 - - - - - : ; X ; 1 $ o o + ; 4 ",
"$ 4 r 1 ; o 1 r 2 & 6 7 % $ 1 1 1 1 1 $ 1 1 1 1 1 1 9 9 1 1 1 1 6 1 r q 2 1 4 2 6 : 1 1 q w 1 ; 4 6 1 $ 1 9 t t r 6 6 1 ; 1 6 1 7 r 6 r w e l h f f t q f V y 9 9 r f V x f f x f f l B x f f f f f f l l l f f x x B B l f f l f h V c f r 9 r y h f q w y e y f y f f w f l f l f y y f x B V V B f f h c V f x S h y y f s c x e l F h f t f l h f f w t t f f f f f f l l f f f w f x e B B y t 9 r f h f y w l f w f l y t q l B l f y y f y f e w w y y f f f f t y x c f t w t h z l w h x f e t y f f t t t t y t f f y q e f h y y w y e f w y x s e t q y b c w w y q t l f y f x x f f l f y d y 7 6 q l h f f h x f y V U U x t 6 t V U h e x S x x V c b U S z x l c U W c h h z c b c x f l B x f x x f t t f x c M t f x f z S l h f h h x f f w l h h f h x x x l e s l y w h b B 9 8 r x l y 1 6 m r 6 t 9 7 9 r 9 9 6 9 7 1 1 9 r r r r 7 7 6 6 w f 6 p n q t f e h h f w y f f w w q w h y w f e w q t w t 6 6 7 y h l e y t r 6 y B Z y r 7 f F M 7 t f w 7 6 r y r 6 6 r r y t t q 6 6 r 7 t r 1 ; 1 6 w 6 2 q t 6 1 6 r q d y 4 1 7 q w 6 $ ; 6 1 1 1 1 1 1 8 8 6 6 9 9 1 1 1 9 r 9 8 6 q r 8 1 1 6 r 6 ; $ 1 $ $ 1 < $ 1 1 1 1 1 < 1 6 6 1 1 4 1 1 1 1 6 2 1 1 2 1 1 1 1 ; < $ 1 1 < 1 1 ; @ 1 ; + + + 3 : $ ; 1 1 1 < < ; 3 ; ; ; ; o $ 1 o - 6 1 - + + 1 4 ",
"1 < 6 y 9 $ 4 t * * q 1 $ 1 1 1 1 1 1 * 1 $ 1 1 1 1 8 1 < < 8 4 1 1 6 6 & 1 7 = 2 6 6 2 2 6 < $ 1 & 1 1 1 ; 1 6 6 1 1 1 $ 1 r 1 < 1 w 6 6 y f f e e y 6 w l c f t y h c f w h h y w w f l l f y f l f f l y l l f l x x l f h V y w l x h q r y w f l 6 q f q 4 y f w y t t y f y f y t t l h B V l f f f b x t l c h h e e h z f w f f f y f l e f l y 7 t f f t t f l x B l y t t y l l w f l l f q d y h y 6 q f y y e y f w 6 t f y w f t t y y e y y l y t y f y t q f c x y x e x x e w f x y 6 q f l y f r r t r y l y w w y e y w e y f h e w q e c h x f w z x w h h f y y f t f l f l f y f w q f f y e w f l w w f f t y z c z B f f x x e h V x h l x S U V x h x x z V V V l z z h z c h e y l B y f V f w d y x c y q l V l z l q w l x f h e w w f y w w f y x x f l f y f q q f f y d t f f t 6 y f t 6 4 6 r 4 8 4 r 6 4 6 1 1 r 1 6 q t 2 6 4 7 6 t 9 6 t e e h w e l f 6 f w t t q w f e e q q y w 6 r q r q t 6 f f w y w t y 6 q x x l t 6 f Z d 6 q q t q t r r r 4 1 9 r 7 r t 7 6 6 2 q 7 6 1 $ 1 6 q 6 1 6 y q 6 1 1 r y 9 1 1 r 6 7 6 1 4 6 6 6 1 1 6 1 1 1 6 1 4 9 1 ; ; 1 6 8 1 1 4 1 9 6 1 1 7 1 $ 1 1 $ 1 ; ; $ $ 1 1 $ ; 1 2 1 1 1 ; 1 1 1 1 < 1 2 * & 1 $ 1 $ ; 5 1 $ 1 6 $ ; 6 $ ; ; ; + X + ; - ; ; < 1 ; @ ; ; - > < ; ; + ; ; X o 1 1 ; o ; ; < ",
"1 1 r d t 6 q t 1 1 t 6 & 5 1 1 1 1 6 2 6 6 1 1 7 6 8 1 1 4 9 6 6 1 & 6 1 2 q q 6 7 w 4 1 7 4 $ 1 1 1 1 1 1 1 $ $ $ 1 1 1 6 t 1 $ 1 r q t t t q w f f q y x c x l f y f e w l k h e r t y f l f f l l l f f l l f l x l f f x U h w f f f y f f y f y w e f 6 6 y l y r q w f h y y w y f l f f y h l h l c z y y x c c h f x c e w y f w y l h e l f f t y f f y f t f l y t w r y y h c f y l y f f f f f y q 7 t l x f l y t w y q t e y f d t w y h f l f f t y l t 7 d l h h b x x l f w x l w 6 t t l h M y t y t 7 y y f h l y e y l y e h f e w e k k S x h x h e l x h y B h f y y l l f y y e y f f f e f f t 7 q y f t y f y h x x f f y f x b x l l z V x l x x c c x l B h x c c l x x x l f d M f l z z c x h c x y t l V z l w q t y f y d w w y f t w w y t f f f w t l l y t q y f B f t w y q f B f q 6 6 9 6 t t 9 6 4 9 r 9 9 q q 9 9 6 6 6 7 q t 6 4 9 f f f e f x f w f e y w e h c s f q w r y y w 6 7 t q 6 t e f t r y n r t l l l f y x B y q f y d f y q r r 1 1 0 r r r 6 6 r 6 6 6 6 1 1 1 6 6 q 6 1 7 t w t 9 1 t y 1 1 6 t 6 * ; 1 ; ; 1 1 1 8 9 6 6 1 1 6 r 9 1 1 1 1 5 1 ; $ 1 6 1 1 4 6 6 1 $ 1 4 1 1 1 1 $ * 1 1 1 6 6 1 < ; $ ; o ; 6 1 1 1 1 & 1 1 1 6 1 1 1 1 1 6 4 1 ; 8 4 ; - - + X - > ; 1 @ - + @ - 1 > ; - - - - - ; 1 - - ; ; $ ; 1 < 1 ",
"< 1 & r t 6 6 6 $ 1 6 2 6 1 1 $ & 6 6 6 1 4 6 1 7 8 1 ; 4 4 1 8 4 1 4 4 < 1 4 r w 2 4 1 6 q 6 $ $ 1 1 & 9 6 1 1 $ $ 1 1 $ 6 6 1 1 6 6 7 t q 6 6 6 y y q e x f y f e f y y t y z h f t e f y y l l f l l l f f f f f f f f f h c h 6 f f e y t f f e e q e y 6 9 r t d 6 q y t f y w t f y y l f l l l x s x z w y x h z x x h x e q f t 7 w d f h h e f y f y y f y r t y r 7 t y d w h S w y y e f f t h y w y 6 6 f f l f q y f f r 7 t w f d t q t f y y l h w y l t 7 y f x h h c l f f q y y y 6 r e y f y e f t r 7 t e l x h w w y l y w h l w e h h x l V l h x e w B x w e x y t f f y d f t 6 t y q w y h f q 6 e y w t f f h h y l x h l f y c z f x c x l l l x x h x B l x h y x S h h x l l y y f l h x c V z h h l q y l s c l y y 6 w w q w f y y y f t t f y w y 7 t l l e q y f y l e q w f 6 w B q q t 6 6 r t t r 4 9 4 9 4 6 r 7 1 1 1 9 1 1 t t 1 4 r f w y f e h f q q f w q h x h h e w r 6 w f 6 = t 6 * t y y y 7 r r r r y e h e y f h y f e y y f y 7 t y 6 6 1 4 9 r 6 6 6 9 7 1 2 6 & 1 6 & 6 q 1 1 q 6 q t 9 2 q 6 ; 5 r 4 1 ; 1 1 : $ $ ; 1 < 1 7 6 1 1 r r 1 1 1 1 1 1 1 $ $ 1 1 1 1 1 1 1 1 ; $ 4 1 $ 1 1 1 * $ 1 2 6 1 $ 1 1 1 1 o - ; 1 4 < $ 1 $ & 2 1 $ $ $ 4 * 1 6 1 o 1 1 o ; + X - @ - ; $ ; - - ; @ @ ; + + o + ; o o 1 o - ; O 1 ; < 1 1 ",
"1 1 1 7 y w 7 1 1 1 7 2 6 1 1 1 1 1 7 1 $ 1 9 r 9 8 1 1 9 6 r 9 9 2 r r 1 < 6 1 2 2 1 6 t y 9 1 ; 1 1 1 9 6 6 1 1 1 1 1 1 $ 1 6 q 7 9 q w q 7 6 w q t w w f y y l l l l f f z S f r t f l f f f x l f l x l f f l f f f l f h c e q f f f f t r q y f q 6 e r t t t y y t y e l f w r y l x x B x x l x h c h f f x h l c c l c f e l f w y w f f e f l y f h B f m y t y t r y t f f B x t f f y l f f f f y M w t q t t w t t q y r r q y y y y y t t f f y y y f l t 7 y f x h h c S h f 7 y l f f d y y 7 t t y t 6 7 t f l y t t f y f f f l V y w h v h x z l x V y t x c x x l f y f f t f B y r r t t t f l f t r f f t r f l z x x x x z V l f c b f x V V c z x x x x x x l V x e f x c x l l B l d y l S x l B l x c B f f f x c z e f w t f t w f f f f l f l f l y w w x V l y y M l l f t r t d 6 y B w r t 6 t 6 r 6 4 6 r 4 9 9 r 6 2 1 9 4 r 6 6 q t 9 r y y w y t e l M w 7 r w w f y f w e y f 6 q y 4 6 y q q f f t r r t 6 8 6 r y f y l x y y B d q y d 7 6 9 r r r 6 6 9 6 7 9 6 r 7 6 6 6 6 7 2 2 7 6 1 7 r q q r 9 6 6 8 1 6 6 1 1 1 q r 6 1 1 1 2 6 6 6 1 1 r t 6 4 4 6 6 1 1 1 1 1 6 6 7 6 6 1 6 6 < < 6 1 $ - < 1 1 1 1 * 1 $ $ 1 4 1 1 1 ; ; 1 1 1 1 1 * 1 $ $ $ 1 1 1 1 1 4 1 $ 1 ; - ; - - ; ; ; - ; ; 1 1 3 ; ; - X + - - ; $ $ 1 - o ; $ 1 1 1 - o ",
"8 $ 6 1 q q 6 1 6 $ 6 * * 6 7 1 1 & 4 1 6 % 1 8 9 4 6 6 1 9 r 4 4 7 6 t 1 ; 1 1 1 1 6 r q y 9 ; 1 < 1 1 1 7 1 & 6 1 $ 1 = $ 1 2 6 6 6 w r q t r 6 w q 6 y f f f y f f B y t V c y r y t y f f y f h l h l x l f f l l l f y f h t w y f f f f 7 6 t t 4 6 q t t 6 t f w w e x l e 6 q y x z x f f x l h x l w w f h c k l z k x e e y y w q f e q e f f t w f y M y f f t t t r r f f y l w y f e y h l t y y y t e y w q d q t 9 6 q t 6 q f f w t 6 q w y t f y e l q 6 f f f h x x h y t t l e f y d 9 9 6 8 9 9 9 r 7 7 f l y q y f t t f x l l y q f c k z l f x z y 6 t l z x y l f y y y f d r r 9 4 t f f y t y e q y y 6 r l l l z h f x z h x S h f l l V U c f y l x h f l l l f t f x x h f f B d r f B l f f x x f x V l y x y y e w f y w f q q l h e f f e x l y y t f l q r l f f x f q f q t 6 w l 7 1 1 8 1 6 2 4 r 4 4 4 1 9 4 9 w 6 2 t t r = q t 1 r f e w f 7 t l y 6 4 9 t r 6 y t w y w y r 6 q q 2 7 w f y t 7 r 7 r r 8 1 9 y t f B f q y l t 6 y f 6 6 1 9 r q r t 4 6 6 6 6 6 q r 6 6 4 1 1 7 1 & 1 4 q t w 6 4 w 6 1 1 ; 4 r 1 * r q 6 t r 6 q t 6 2 1 6 t 1 ; 4 6 1 1 6 1 1 1 * 6 w q 6 1 1 2 1 1 1 6 1 # $ ; $ 1 $ $ 1 1 $ < $ 1 & $ 1 1 ; $ ; 1 $ $ 1 1 o o 1 1 & 1 1 1 < ; $ 1 - o ; 1 ; $ 1 ; o o ; 1 1 ; 3 ; o + X o - @ ; * < . o 1 $ $ 1 ; .   ",
"4 6 9 6 7 6 7 6 6 & 6 = 7 6 9 1 1 6 4 4 6 1 1 1 8 9 9 4 4 1 < ; 1 6 r t 1 1 1 1 2 6 y q t r 4 1 6 1 6 2 6 7 1 1 4 6 6 6 6 1 6 2 2 7 q 7 6 t f y t t t q t l l f y f B f 9 4 y B f t d y y l l d t f x l l B B f y f l f y t t f l f l f y f f t r d t 4 6 t f y 6 7 r q t l h f t q y d y l h x h h l V h y w q f x h x h x h x h f h y 6 6 w e q w h l y y q t y f y l y y t t y n q y l y l l y f f f t l l t 7 y l f w l y q w l l l r t f y y f l l y t t l f y l t q M h l f f y w q t t f l y 7 7 9 r 9 r 4 9 r y w t f f y y y f y y y x h f e e f l x c h l x B y r t f y e y x M y d x M r 9 f f y y l l y f l f e f d 7 y l f f l l l V V f h V x f x z c x f y y y f l l c V l f y g f f x h l f y f x V l l l B x y l l f f e w f f f f f f l y t y l l f y y f y f f q r 6 6 r M f f d t d l w t 2 y M 1 : 1 1 1 1 6 4 t q t 2 9 1 4 4 r 7 r 6 9 4 2 t y 6 y y q e y r e y f 6 r y d q r 7 t t f t y f e t y 6 r e y 6 r r t r t y r 1 r y y t t q y y M y q f d 7 6 6 9 7 r 9 6 6 8 6 r 6 6 6 1 1 6 4 1 1 1 1 1 1 1 r r 6 6 6 7 7 9 6 1 6 7 2 1 1 r 7 6 6 6 1 1 4 6 9 8 1 ; ; 8 8 1 1 1 1 4 1 1 1 1 2 1 1 6 7 1 1 4 r < $ 1 1 ; : $ 1 1 1 1 1 $ $ 1 1 ; ; $ - ; 1 ; 1 4 1 $ ; 6 6 1 4 1 1 : ; ; 1 ; - - 1 1 4 < - + - 1 ; ; 1 - ; ; ; X o - - o ; ; X - 1 < 1 1 ; o # ",
"1 9 2 q 6 1 6 1 4 1 6 6 6 $ $ < 6 1 1 & 1 1 1 1 5 1 1 4 2 * $ 1 6 1 6 r $ 1 7 2 q q 7 q r 2 4 1 6 2 * 7 q 2 2 & * 1 7 6 6 1 1 6 6 6 7 2 6 6 7 t w q t q q y f s f f f f 6 1 d x y r r y f f f e y f f l x x f t r t t w t t q f h y l y e e r t w y t 4 r y t t w 6 6 r q w f w w y q t f e y x f y l x f w q w w f y e h h e l h w l e 6 q 6 w q f y y f w y d t y y e y y 7 7 d y 6 w l w y l f f q r w f f 6 6 f y t w y y y f x x f t t t y x B l l w w w t t f y 7 t y x h f f q f r 9 6 y x t 7 t t f y y r 9 9 r r w y f w y r y y e q y h V l h c c h h h h x f r r y M f l y y f t f l y y f x x y t y l l f f l f f q 2 6 y x y y f h V l q y V c f y x c h f l y t w f x c V e e f f f y f f f B f f E U e f M y x h e f f w e l f e f w e f y y t q f x f e e y l e t y w 6 r 4 r f l q t t y f q 1 w f 1 1 1 1 8 1 1 4 4 d y q 1 4 9 1 1 6 4 1 4 1 1 t t 6 6 y y q q t h l y 7 6 n y w 6 6 y r q y y y y q w t 6 q t 6 4 r y r 6 y t 4 4 t y 6 r r 6 f f 7 w f r 6 9 8 1 6 9 1 6 1 1 6 6 7 6 1 1 1 $ 1 1 1 4 & 1 1 $ 6 w 2 6 7 1 4 9 4 1 1 1 6 1 ; 1 6 1 1 1 ; ; 1 1 1 4 ; ; 1 3 1 1 1 ; 1 1 1 $ $ 1 6 1 1 4 6 ; O 1 6 2 $ $ 1 1 $ $ 1 & $ < < $ $ 1 $ $ $ $ 1 - $ 1 1 6 < o ; 1 1 7 6 1 ; ; ; # 1 1 - + - 1 1 - o o ; - ; o o + + - - + o o o X $ < o o $ 1 < O ; < 1 ",
"1 < 6 t 6 6 7 6 1 1 7 7 & # $ 1 6 1 6 1 1 8 9 9 9 6 6 8 9 1 1 r 9 2 r r 1 1 r 2 4 1 6 1 1 2 6 1 1 2 1 6 6 2 2 1 6 1 * $ & 4 6 6 1 1 6 7 w 6 r 6 r y y q w y l l h e y M r 7 M B f t t f f f f f l h l l x x f t f t w f y e f l f q r f h y y f f t r r t f y y f y t t w t f e f f t f f y f f f x V x f f y r w f e h h x e x l w y f e t q y y f y l f f t f y f t f t t t f l f 7 t B y e l f f w t f f r 6 r l y t q w f f w t q y e l y l y y q 6 q y y f q f t 6 t l f t t f f l t r 6 f B t w d e y y y y t r y t e f l f f f y y e t t q f f y x k h x c x f f t r y l x x f y l x f t q f B f r r q y f l f f y w t 9 1 6 y l f f x x B y 6 f V l f f l f f l B B d y f y l f e f l f f f t t f B f w l l y B x l f e w l l w y x l y h f f l y h l f f y l y M y l y y f d t d 7 r t f y f y f t 6 1 t y 7 1 8 4 9 1 1 1 9 7 q 6 4 9 r 4 1 1 < 4 9 1 6 y n 6 6 r y w f f f q r 6 9 r y t 7 9 t t t f y q q q y w w t w r r 9 r r r y y 4 6 t t 7 d q w y t 6 q m t 6 r 7 6 6 4 6 5 4 r q 6 7 6 2 7 1 1 1 1 6 6 1 5 1 1 1 9 7 w 7 1 7 t 1 & 1 6 1 1 1 1 1 1 1 1 1 1 ; ; 4 9 1 4 8 9 9 1 1 1 1 1 1 $ $ 1 6 1 9 9 1 ; - $ 8 9 1 < 1 1 : : ; 1 1 < 1 1 1 ; : $ $ 1 1 < 1 1 * $ 1 $ $ 1 1 1 1 ; ; ; ; $ 1 1 ; - - - - o @ - ; ; : ; - ; ; + + X o - + o ; < ; ; 1 $ ; o ; $ ; ",
"1 $ $ 1 r 6 2 6 $ $ 6 6 1 ; 1 < 1 6 4 1 7 1 6 r 9 9 r 6 1 1 6 1 9 r 6 9 1 1 1 1 < 6 r 4 q 6 1 1 1 4 & 1 6 6 6 1 1 1 $ $ < 1 6 2 6 1 1 6 6 6 2 6 t f t 7 e f t w f f l y y y y x l y t e f y y f l x x f f h f y f f f y y f f f q 6 r r y h B l q 6 t t 6 e l y w f y q t t q t y y f e w f t t y z V f e h y 7 t y f x f y e h f 6 y l w t f y w f x x y t t y f f y q t y t f f q q y f w f y 6 y l y l d 6 6 r y l t 6 t q f l q 6 y l e l f t q q t 6 2 l h f y t r 7 f e f q y f e f n r w y t q 6 y r q t q w t y w y y f l l l y q y t 7 t w q e q h s h V h w f t 2 t B y l l h l B l l y w f t 6 y y 6 r y f f r 7 t t 1 < r t l x B V y y t e l h e f f t f x h f M e y l f f f y f l f e t t f l d w w y y e V V f e l e e q q y h x x x f w f f x h y 6 q t f l y f t q y y t y t 6 t f l l y 6 7 2 2 e r 1 1 8 4 8 1 < 1 7 6 1 r 2 4 4 6 2 9 1 1 1 1 y r 2 r 1 7 t f y q 2 t 6 1 r d 6 r 6 9 r t t r 6 t w q w w w y q r 6 r y y y 9 1 6 6 2 t t y f q 4 4 6 t t 2 4 9 9 1 1 1 1 t f 6 $ 1 7 6 6 7 1 ; $ 1 1 1 2 7 1 $ 1 7 7 2 r t 1 $ 1 1 1 1 1 1 ; 1 9 4 1 1 6 1 < 1 8 4 ; 1 t 6 4 1 $ 1 1 $ : 1 ; ; 2 7 6 $ 1 1 o 1 1 $ 1 ; $ 1 $ ; ; 1 < - ; 1 ; o $ 1 < 1 1 2 1 $ $ 1 $ o < 1 $ $ $ 1 - - $ 1 1 ; - + o - - ; - O ; ; ; 3 ; + . X + ; X o - o : X - 1 1 ; 1 < $ + ",
"1 $ $ ; 9 r 1 1 $ $ 9 7 < 1 1 ; 1 1 9 1 7 6 9 1 t 6 6 1 1 1 2 6 9 6 q t 1 6 4 $ 1 1 6 6 t 7 1 * 1 6 2 2 6 6 6 6 1 1 * $ 6 1 2 q r 6 6 1 4 r q y h f t 6 t f q 6 t t y f y t l B y q q e f y l f f l f y f f l x l f e w t y e f w 6 t r 7 y t r 6 q f t 7 y h f y q w y f y t f f y e y y f h f y f f w s x f w w f l e w w e c h w f V f y w e f B x l y t f f y t q t t d w q q t t f B e y y 7 w 7 f t 7 7 d 6 t f w w f w x x t r d y M f y q q t y 6 7 t y w 6 r t 7 y f f q t t q f y 6 t f f q 7 r 6 t d t r q t d t w f f f y w t y y e l B w e e l h y l w w B y 6 t l h l x l y y l V l f f t t M f y t t f y t t f f 8 1 9 t f l y l f l f t l x f h l y f V c x x f f x l l l f h l f y f f f l l f f f f f l y e h h w w 6 q w f h f y w w e q f e 6 7 w 7 t y f B y t f l y y f t r 6 f w q w t 1 6 f t 1 1 6 6 6 < 1 1 6 6 6 t q q 4 6 7 r 9 r 9 q f t 6 y 7 7 1 6 7 r t l r 1 t f t t q r r f t q 7 t w t q q y f y y t t t y t 1 1 6 6 6 r f t q 6 6 6 7 r r 6 4 6 1 1 6 1 1 r t 2 1 1 7 6 1 1 1 1 1 % 1 6 6 1 ; $ 1 6 r q 6 1 $ ; 5 1 4 6 1 1 1 1 6 7 9 r r r 7 4 1 ; $ ; 1 6 6 1 $ 1 1 $ 1 6 1 1 * 6 6 $ 1 4 $ 1 ; $ $ ; 1 1 & 1 1 1 $ o # < $ $ $ 1 1 ; $ 1 1 1 6 6 ; ; 1 1 < $ ; 1 ; # $ 4 1 ; - - ; ; ; ; $ $ 1 1 1 ; -   + ; + - o - ; ; - . . - X o 1 < $ ; ",
"< 5 1 o 1 1 1 $ 1 $ 4 6 $ $ ; $ 1 1 ; 1 1 6 6 9 7 1 < 1 6 1 ; 1 8 1 6 y & 6 6 1 7 1 < 1 1 7 7 $ $ 9 7 1 6 2 2 2 1 * 6 1 1 2 6 6 r t 6 & 4 2 w l y w 6 6 q w f q 6 t y f t 6 f l w 6 t t t f y y f y f f f f l l y 7 7 w 7 w f y q t t r r 6 6 6 6 y t t q q y y q 7 6 q t t y l y 6 q y e y x f e y w s w y f w 6 f l w q d w f h e l l h y t f l l y t w y r t y t 7 t t t f w 6 t 6 y l 6 t l t 6 1 q 6 t q t 2 q w y q q y h l y q r r y 7 9 q t 6 r q 2 q f q t 6 6 6 f l w t f 6 q q t r q f y q r 6 t w y y r 6 9 w f q 6 d y w f t r r e x l q w l h s e y y w f y 4 4 t f y l l t y y t f l e y y e f f r 6 t d y 6 y M 6 6 y 6 6 t t y e e l l x x f y f l f f c S x y y y l l l l h f e f l e f V f q l x q e f q f q w h w 6 w q w e w y f w w f w y y t f y y t l l l t w f r 6 t f q 6 q 7 t q r r w e t 4 1 4 6 1 8 ; 1 < 1 6 q t 6 1 1 1 1 9 r 6 t y 6 2 9 y t 2 6 1 t t y q 6 7 t t t q y t r 7 t q 6 q t 6 6 w w f f w r 7 t 4 4 < 6 r 1 1 r q 6 2 r 6 1 t r 1 1 1 5 1 1 1 $ 1 6 6 6 1 $ 1 1 $ 1 1 & 1 $ 1 1 $ 1 1 1 1 7 2 4 1 1 1 < 1 6 6 6 1 1 1 ; 1 7 6 2 6 7 1 1 1 ; ; 1 4 1 $ $ ; ; ; # 1 9 $ & 4 1 1 $ 1 1 1 1 ; 1 1 < < < 1 1 $ o ; < $ O 1 o $ 1 $ # 1 4 2 9 1 X $ 1 $ ; 1 $ $ ; o # 1 ; o - ; $ $ ; - $ 1 - - ; + + ; X X + o ; ; o : o o - +   .   ; ; 1 ",
"< 1 1 1 8 4 6 1 1 $ 1 1 $ 1 ; < 6 1 1 $ 1 9 n d r 1 1 4 6 1 1 1 1 4 r p 1 1 6 6 t 6 1 $ 1 4 2 1 1 1 4 6 7 6 6 2 6 6 6 7 2 7 r 6 7 6 1 2 6 6 y y w t r 6 w d w q w f l y r r f l t r t t y f f y y y l x x f f t w 7 7 r 7 t f y t t y f f t 1 4 y f w r 6 r t y y t w t t f f y t 7 q y f f w w y l f f w f l w w f l w f l y f e e f t q y d f t w q r t t r t t t t t t t f f y t 7 t f 6 y l f d r q t y y f r q y f e d t y y l f t r t 6 6 r w 6 r 7 7 t w y l t 7 1 f l y q y y f q f t q M f 6 6 y f y f m w 7 6 f f t 7 t f y f y f t w w t 6 6 f l e s l l e l d 2 4 t t l l y t f y q q e f B y w t r 9 t q t t w y e 7 t M 6 1 6 y M t q l x l f e q q f y f x l f f d y f y f f f f f f l f l Z l t f x h e q d x f f h f f f 7 q f f y h y f f e f f e f y y l V B d q r d q 6 y f t r r t l w t t y M t 1 1 8 9 6 r 4 6 1 6 r 6 4 4 6 7 $ 1 1 1 1 6 q 6 6 7 7 y y t 6 d q 6 t 6 r d t 7 6 r 9 4 6 y q t q w w w 7 t q q 6 6 r r 9 1 1 y y 1 1 9 6 r r y q 6 y r 1 1 1 6 1 1 1 ; 1 9 r t 1 $ 1 1 1 6 1 1 1 * 1 1 $ 6 6 6 6 4 2 7 6 7 6 1 1 6 6 1 1 6 1 1 : ; 1 9 6 1 1 4 1 1 1 1 1 : ; 1 1 1 ; # 1 6 1 1 6 1 1 ; ; $ 1 6 1 1 4 1 1 4 3 1 ; ; 4 6 $ # $ $ 1 1 $ ; ; ; 6 $ # X # 1 ; O 1 < 1 ; # $ 1 - o - ; $ ; - - o ; $ ; ; ; ; : o ; ; - o ; $ 1 ; o - ; - .   ; ; 1 ",
"1 - $ 6 9 1 1 6 ; $ 1 $ ; $ 1 1 1 1 1 $ 1 t f y 9 ; 1 1 1 1 1 ; 1 6 6 p 1 1 r 2 6 r 6 ; $ 1 r 6 1 ; 1 6 1 6 7 4 1 1 1 1 7 6 7 7 4 1 6 6 1 6 y q q y t 6 6 t y e B l f t 7 r y y t q 6 t f y y t w f B x h f y 7 t f t 7 r t w y t 6 q f M y r r r w q 6 q q 6 t f l l y w y y w y y 6 7 f y q q y f f y w f f w q t y f y f f w q y B f q t r t t q r t q r w r r f y q 7 y q y y q q t r w t t y f t d 6 w M d 7 q y t t f q q q f y y r 9 6 9 4 r q 6 6 t q q q f l r 1 q l y 6 w f f 6 t r t l y 6 6 t y f M t t 7 t y f y t 7 t y t t t t q q M f 6 y y 6 e B y t f t 6 6 r t f y q q y y f w y f e t q q y r 6 q q t f w 2 2 t e r 7 r M l w 6 y f e x l e y y l h f f f f d w t f y y f t y d d t d M l t q f l q w l V f w f f w y w w f f w w e w e f e s y w t y y f f t w f y d 4 6 y 6 r l l f 7 4 1 7 d 6 1 1 1 4 9 7 9 1 4 4 6 1 1 t 6 r 6 1 1 6 6 9 6 y 6 6 1 q t e t 6 6 t 7 2 t y 6 4 7 t 4 r 6 4 r t q t q w t t 7 7 7 r 9 7 9 1 1 q y y 1 1 9 r 7 9 6 q t 4 1 6 1 1 1 < 1 1 4 r 6 q 7 2 < 1 2 1 1 5 1 1 1 1 1 $ 1 r 1 < 6 6 2 2 6 6 1 4 1 1 $ ; 1 ; $ ; 1 1 4 4 1 < 1 4 4 1 ; : 1 ; 1 8 1 $ ; 1 1 ; 1 6 1 ; $ $ 6 1 ; ; 1 8 1 1 1 $ $ 1 4 1 $ $ ; $ < 1 $ o - # ; - o - ; O ; # o $ 1 O X $ 1 o # o - ; ; o o $ < 6 1 $ ; - - 1 1 - o X - ; $ $ X . - - - ; > + + ",
"; ; 6 r 9 ; ; 6 1 ; 1 * & * 6 * 1 1 1 ; 9 y f r r 9 6 1 1 1 % ; 8 6 6 n 1 1 t 7 7 t 6 $ ; 1 r q r 4 1 2 6 q 7 1 $ $ 1 2 q q r 7 6 2 q 7 9 t t 7 r f d 6 6 r f l l f w r t 7 y M M t r y y y y w y x V h h V f r t y t t t w y f f r 6 r t y d r 6 r q w w q t y r r w y f f f e f l q 7 r w w y w e w w e h l t q w t f y f y w w l x B f y r r r t y t q r t w y V l f q t t r t r w y y f y f y t 7 r 7 y q 6 1 f y 6 6 q y y 7 y f B d 6 9 r 4 r t q 6 t w f 6 q q 6 1 t w y e B l w 6 r t f B y q r r y f y y f f l l f l f r t f y r 9 q q y S h w f w = f V 7 1 y y y r f f y t 7 q t y l t y y 6 6 q y f t t f y y w 2 6 6 y y f f M B y 7 7 t f s x V x l f l B f f B B f r t l f l l f f f f f x B B f t r y f x x y 6 w l l e y f h l f q 6 w e w l h l f t g f q t r t f l B f 7 7 r 1 7 B l 7 1 1 1 9 6 1 1 9 4 6 1 r t 6 r 6 1 1 4 y q 9 1 1 1 r 6 r q t 6 r 6 1 1 d f 1 1 d q r y y 7 6 r y r r 4 r t d t w q f f y w 6 t d 6 r 7 6 6 7 r t r t t t 6 1 1 y y 4 1 6 6 6 6 1 1 1 q t q r t 7 6 7 2 1 1 1 1 6 4 6 1 $ 6 9 1 1 t 7 * 1 r r 6 1 1 6 6 1 8 ; $ 8 6 1 6 7 6 6 8 1 : ; 1 8 6 4 6 6 1 $ ; 1 1 : : % 1 1 $ 1 6 6 : # ; 1 1 1 ; - ; 1 2 < $ 1 1 $ : $ $ o - o $ 1 ; $ ; $ 1 $ . . $ $ o ; 1 ; ; - - ; # o - 1 6 6 7 6 6 - ; - - X + o - $ ; - o o - - 8 3 ; + + ",
"; # 8 6 o X - ; 1 $ 4 2 $ 1 * 2 1 & 1 6 y r 6 6 t t 6 1 1 $ : $ 1 1 r y 1 1 6 6 t 6 1 $ 1 < 1 6 6 6 6 1 7 6 1 $ 1 $ 1 5 1 7 7 2 6 6 1 6 t 6 7 q f t t 7 7 6 w y t 6 t t t 7 q M M t t r r t w y x x l f f x l t 7 7 t 6 w f y y f 7 1 1 7 w 2 6 6 1 7 t 2 6 d r 1 1 r e w t w f e f f 6 w y f l f w y f w f f 7 7 w 6 7 r q 7 f w w f l y q t r 6 7 r 7 t r 6 t y h V l q q w t 2 t 6 w f q f y 6 7 r 6 6 t 1 1 6 w q 7 6 f q f q 6 y l y 1 4 9 r r 6 6 6 t 6 w y q = r 6 w 2 w q f t 1 2 r 6 e l q 1 r 9 9 q l y f x f e l y f f w t t q y r 6 f h f q e f = q f 6 6 y r q M l l f 6 q q q t r 7 6 6 t 7 6 y t y l w r q w 6 t t 6 y y r t f w 6 t y w f h h f y l f y f f B B t t f t f l y f f q f V V V e f d 7 t 6 f f 6 6 f w f f w w l f q q t w w e f f e f l y f f t r M f y Z t 6 r 6 6 1 w t 1 1 9 1 1 9 6 1 8 4 9 1 6 6 6 6 9 1 6 1 6 q 1 & 6 1 4 6 t 6 6 2 t 2 1 $ 7 w $ 1 t r 6 y 9 4 r 7 9 d y q f y r 7 y y w f w 6 y y t q 6 1 7 7 6 $ 6 6 t y 6 $ 1 1 w q 4 $ 1 1 7 2 6 2 7 6 6 q q 2 6 1 1 2 1 $ 1 1 & 2 7 1 $ 6 1 $ 1 t 1 # 1 6 7 7 r 6 2 r 9 1 1 5 1 1 6 1 1 6 9 1 - # 1 9 1 4 7 2 ; $ ; : $ : ; o # $ $ 1 $ 1 6 ; o ; : 1 1 1 1 1 $ $ $ 1 $ $ 1 $ o $ : ; $ 1 $ $ X # $ $ $ o o # X o $ 1 1 ; # - X # $ 1 < * * 1 6 1 1 - X o - ; X . ; # o ; o X - 1 3 + . ; ",
"; - 1 ; X . ; o : $ 9 6 & $ 1 & 1 1 r t q 6 4 2 y y y 6 1 $ : ; ; 1 t y < 1 0 2 r 6 1 $ 1 < 6 r 6 < 1 < 6 6 1 1 6 1 1 1 6 7 6 6 r 6 4 4 6 4 7 t f y y t 6 4 7 6 7 r t t r 6 t M y 6 6 9 r r t l z x f e f S S f r r 7 6 q t y y q 6 6 1 1 6 4 6 4 1 6 r 6 t r 1 1 6 t f w q q f f f w q f h e f f f f f e f y 6 6 7 2 6 6 6 7 r q f l y t t y t 6 6 1 6 7 r t f y x x l y y q t r 6 2 t f t q q 6 t 6 r r 2 < < 6 t 2 w y l y f q 6 q M t 4 8 t 6 6 1 2 6 t q t y q 6 r 6 t q 6 & 6 6 6 6 t 2 w y q 6 9 9 4 r f f V B y w l l M f d t r r d t q h z e q h f * q y 6 7 d r w l B B l t t q t q 2 1 2 r t 6 q y f e q 1 1 t f t w q y y 7 1 6 t t t f f w h x e w w f l l l f l f w f M y B B y w t r y y V B y y f d 7 * q q q y f q e f 6 q f e q w y q e f w 6 q y x l V B f d l f B B t 2 r t 6 & 7 q 2 6 r 1 6 r 1 < 9 r 9 1 1 1 w q r 4 9 1 6 6 1 1 9 1 4 t y q r 2 4 1 1 $ 6 7 * 1 8 6 q t 9 6 t 7 t l f t t 6 1 1 r t y y w q f f y 6 6 4 r r 4 $ $ $ 6 t 1 $ 9 4 r t 6 $ 1 $ * 6 6 6 w q 7 2 2 2 6 1 1 1 1 1 1 1 * 6 r 1 1 6 1 # 1 6 $ o 1 1 2 q r 4 1 1 1 1 8 8 4 9 6 < ; 1 1 ; o - 8 9 1 4 6 1 $ $ : ; $ ; # . o # - : $ 4 6 1 ; ; 1 1 1 4 1 1 $ $ $ 1 $ ; ; $ $ - - ; 1 1 < - o $ ; o o - $ $ . o : 1 $ o X o X - 1 1 ; $ $ 1 $ 1 : + - ; o - . . o - - ; ; - ; , ; + + ; ",
"> ; ; o ; - ; - ; 1 1 4 & $ * $ 1 6 r r 7 2 6 r r r y 9 1 : : $ 1 1 t t 1 1 8 4 6 1 1 1 ; 1 6 6 6 1 1 1 4 1 4 1 1 1 6 4 9 6 6 6 6 9 6 2 6 7 t t r y y r r r 9 6 9 r 9 r r r t e t 6 9 9 9 r y M x h h f l x x l d r r r q r t t q 9 6 7 6 1 7 9 6 9 6 6 2 q r 6 r n q q y y t w y f w t t y f y y f y y f e t t 6 6 6 6 1 6 7 7 r y f t t t q r r 9 6 9 6 t y y f B y l y y r r r r 7 r t t 7 r r t 6 6 6 6 6 r 6 6 q t w e f y t t r t r 9 9 9 9 7 6 9 6 q w w q w q 2 7 r q 6 6 6 2 r 6 6 6 q r r 9 9 8 r t t f B B f f f f f f m t t t t t f l x y w y f q q q r r r t y f B M l f t q t 6 6 4 r r 9 r t e y q 2 4 r t t t q q t t r 7 9 6 t y t y f f h y f l f f f f f y y n f f M M M y y f f y y f f f t t y t r q r y w t w w t t w w w y w w t w y w q y y f B B M M f f l B f y r r q r 7 6 6 7 4 1 6 6 4 9 9 9 6 9 6 9 4 7 6 6 6 4 9 6 1 6 1 1 6 r t t t r 1 4 1 8 1 1 1 5 1 1 1 7 6 r 9 r r y f r t r 4 9 6 6 6 t q t t t y y 7 r 9 9 9 4 1 ; ; 1 1 1 4 1 4 0 4 6 1 1 $ 1 = 2 6 6 6 7 2 4 6 1 1 1 1 1 1 1 1 1 6 6 6 4 1 1 ; : 1 : 1 1 4 6 6 4 8 8 1 1 4 1 3 8 3 1 1 1 1 1 1 1 1 1 1 1 1 1 ; ; ; # - ; # - ; o # ; $ < 1 1 1 ; 1 1 1 1 1 1 1 < ; ; ; ; $ $ ; ; ; - ; < ; ; ; - - o # o - o o # o $ $ o o o o - ; ; ; ; : ; ; ; ; + ; - - o o o o o - - ; ; ; - ; + ; - + "
};
