/* XPM */
static char *_520b8ba631243b6f172968f377cd32fI4GMasPRY3xsrW1q[] = {
/* columns rows colors chars-per-pixel */
"595 594 176 2 ",
"   c #8F832F",
".  c #8F8736",
"X  c #938635",
"o  c #958A35",
"O  c #9C8D35",
"+  c #938739",
"@  c #968A3A",
"#  c #9B8E3B",
"$  c #9E9137",
"%  c #9E913C",
"&  c #A08F36",
"*  c #A08F3C",
"=  c #A39437",
"-  c #A99637",
";  c #A69837",
":  c #AB9B36",
">  c #A3953D",
",  c #A8973C",
"<  c #A6993D",
"1  c #AB9C3E",
"2  c #B09E3E",
"3  c #AEA03E",
"4  c #B2A33E",
"5  c #B8A63F",
"6  c #B6A83F",
"7  c #B9AA3F",
"8  c #9D8F40",
"9  c #9E9241",
"0  c #A08F41",
"q  c #A49542",
"w  c #A89742",
"e  c #A69942",
"r  c #AC9D43",
"t  c #A49748",
"y  c #A69B48",
"u  c #AC9E49",
"i  c #B09F43",
"p  c #B19F49",
"a  c #AEA144",
"s  c #A7A048",
"d  c #AEA149",
"f  c #B3A444",
"g  c #B9A644",
"h  c #B6A845",
"j  c #BBAB46",
"k  c #B4A549",
"l  c #B9A74A",
"z  c #B7A94A",
"x  c #BBAC4A",
"c  c #BEB047",
"v  c #BFB04B",
"b  c #B6A651",
"n  c #B7A950",
"m  c #BDAE50",
"M  c #BFB151",
"N  c #C0AF46",
"B  c #C1AE4A",
"V  c #C3B246",
"C  c #C9B445",
"Z  c #C8B847",
"A  c #C4B34C",
"S  c #C8B74F",
"D  c #C9B64D",
"F  c #CCB54D",
"G  c #C8B74D",
"H  c #C5B94D",
"J  c #C7B94C",
"K  c #C6B84D",
"L  c #C5B84F",
"P  c #C7B94E",
"I  c #C6B84F",
"U  c #C6BA4E",
"Y  c #C7BB4F",
"T  c #C6B84E",
"R  c #CABA49",
"E  c #C9B94A",
"W  c #CAB84A",
"Q  c #CABA4B",
"!  c #CBBB4A",
"~  c #CDB949",
"^  c #CDB84B",
"/  c #CDBB4B",
"(  c #CCBC4B",
")  c #C9B84C",
"_  c #CAB94D",
"`  c #C8BA4D",
"'  c #CBBB4C",
"]  c #C9B84E",
"[  c #CAB94F",
"{  c #CBB84F",
"}  c #C9BB4E",
"|  c #C8BA4F",
" . c #CBBA4E",
".. c #CEB94C",
"X. c #CCBA4C",
"o. c #CDBB4D",
"O. c #CDB84F",
"+. c #CCBB4F",
"@. c #CDBB4F",
"#. c #CCBA4E",
"$. c #C9BC4C",
"%. c #CABC4F",
"&. c #CCBC4D",
"*. c #CEBE4D",
"=. c #CDBD4E",
"-. c #CEBC4E",
";. c #CEBE4F",
":. c #CAB94E",
">. c #C2AF51",
",. c #C1B151",
"<. c #C2B250",
"1. c #C3B753",
"2. c #C7B551",
"3. c #C5B651",
"4. c #C4B653",
"5. c #C6B752",
"6. c #C4B451",
"7. c #C8B650",
"8. c #C9B751",
"9. c #C9B657",
"0. c #C9B651",
"q. c #C7B950",
"w. c #C6B951",
"e. c #C6B855",
"r. c #C7B851",
"t. c #C9B850",
"y. c #CAB951",
"u. c #CBB851",
"i. c #C9BB50",
"p. c #C8BA51",
"a. c #CBBA50",
"s. c #CAB852",
"d. c #CBB953",
"f. c #C9BB52",
"g. c #C9BA53",
"h. c #CBBA52",
"j. c #CCB950",
"k. c #CDBA51",
"l. c #CCBB51",
"z. c #CFBA51",
"x. c #CCB952",
"c. c #CFB953",
"v. c #CCBB53",
"b. c #CEBB52",
"n. c #CABC51",
"m. c #CBBD52",
"M. c #CABC53",
"N. c #CDBC50",
"B. c #CEBD51",
"V. c #CCBE51",
"C. c #CDBC52",
"Z. c #CFBC53",
"A. c #CCBE53",
"S. c #C9BA55",
"D. c #CABB54",
"F. c #CCBA54",
"G. c #CEBB54",
"H. c #CBBC55",
"J. c #CDBC54",
"K. c #CFBC55",
"L. c #CEBD55",
"P. c #CCBE55",
"I. c #CCBD56",
"U. c #CFBE56",
"Y. c #CABA52",
"T. c #C7B758",
"R. c #C7B958",
"E. c #CDBE59",
"W. c #CBBB59",
"Q. c #D0BB52",
"!. c #D0BD57",
"~. c #D0BD54",
"^. c #CEC057",
"/. c #CFC159",
"(. c #D1C056",
"). c #D0C259",
/* pixels */
"h x A D F F ~ W A j f B t.D G G F D D D D _ _ _ _ F F D Z W W W W ( _ _ A h A l.+.+.+.~ +.l.A 5 B t.F Z Z Z Z D W D D D Z A D D D G G G F D F D A j f j G V D F D D 7.B g N G G G K _ G D A G G G A A G G A A A A A K K K K A f h G D F F F D A j 4 j A F W _ D A V V V Z D D Z V V V V V D V V Z V c 6 : j V V C C Z F A g j A G D G G G G D _ K K K K w.w._ _ _ _ t.K K _ _ _ A j A l.-.( W W ~ -.G j g K W Z Z V V N V Z V V c j c j c c j j g g j c x x j x A A A A G G A h 3 c s.n.n.%.l.t.t._ t.w.K K F D D D D Z D D F F D K c f x A t.t.B.B.l.F.A g B t.t._ l.t.t.t.l.l.+.-.J.J.n.n.l.t.t.F.J.l.l.B.J.t.v x G B.-.~ +.+.+.G j h A K _ _ _ _ l._ K _ _ _ _ G G t.D t.t._ K _ K t.w.x x e.F.t.l.t.+.l.t.B j 6.E.n.n.t.t.n.n.n.J.J.n.K G G D K F _ _ _ _ _ t.t.5.j f A 7.l.l.n.J.I.5.j j s.J.t.t.I.n.t.t.t.w.w.7.7.K K D _ K K t.%.+.-._ _ 5.j l 9.~.J.Q.l.+.B.J.A g c B.B.l.l.l.l.%.%.B.-.-.-.-.-.l.t.l.l.l.l.l.B.n.t.5.x x 5.t.J.l.l.J.F.5.g h 7.n.%._ _ K n.t.J.s.t.t.w.A A A G G A G G G G K A z f v w._ _ D _ 7.A f z A K D t.w.t.w.K G G 5.G v x x x x c x x x x B B x j k x x x ,.,.A x a 1 f f h j h j j j x x x x x x x h x j j x x j x j x x f f j x A x j B B j 4 1 j A A c c j j j A A c v x h h g h h j g j j j j j ",
"f x B D F F -._ A h g B D D D G D D A D D D D D D F D D Z Z W W W _ -._ A g x t.B.+.+.+.+._ B 4 j t.F Z Z Z V F D D G D A Z A D D G G D D F F A D j 4 h G D F D D D D j 4 j G D G G G G G G A V V A G G A G A A A A A A A A v g g A D F F D V N g 3 j D Z W D V N j V D D D F F D V V V D V Z Z V N j 4 : 4 N V C V Z F j 1 4 A A A A A A A D D D D A A A K G G F F K K K Z _ _ B g B D -.( W W ~ _ A 4 g G D Z D V j j V V Z V j j j c c c c c c c A A A h f j x A G A G A x g 4 x s.t._ _ _ _ _ G A A G G D F D V V V Z D D D D G c f j A t.l.B.t.l.t.A g A _ _ _ l.t.t.t.l.t.-.B.B.J.n.n.t.D t.t.t.l.l.l.t.t.x h A B.-.~ +._ _ G h h A K _ _ _ _ _ _ t._ t._ G D G D D t._ _ _ K Z _ w.x z 6.s.t.l.t.D l.9.x z ,.I.t.n.t.t._ n.n.J.J.n.t._ D G K _ _ _ F F _ _ t.5.j f x 7.B.t.n.J.t.,.j j 5.t.w.w.t.K _ t.7.G A A G A K D D Z K K _ _ _ W _ A f f <.F.J.Q.l.+.B.t.x g c n.%.l.t._ _ _ n.B.-.-.-.-.B.+.t.l.l.B.B.l.B.t.t.5.x j 6.F.J.l.l.l.s.A g h w.t._ _ _ K K t.t.t.t.w.G A A A A G G G G G G G 6.j f x w.D _ D D G x f f A G G D K A A A A K t.G A x x x x j x x x x B B x f r k x ,.,.x ,.j 1 = 1 f h j j j j h h h j x j j x x j j x j x x h h x x f f j x A x B B j g 1 1 h G A A V c c A A A A c A j j j j j j c j j j j j ",
"f x j A W F D N j x h A D D D D D D D Z V D D D W Z D D Z Z W W Z $.W _ A h x A D _ _ +.D A B g x w._ W D Z D F Z Z W D A A D D D D D D G D A A G j f h j A F F D G c f g B G D D D G G D D G V c c A A A V D D D D D D A A c h h B G D F D A j 4 4 j K Z V V j j V D D D D F W F Z Z D Z V V V V N c 6 : 6 j V V V Z A j 1 g A A A A c V D D D K A A A A A D D _ D D _ _ D D t.A g B G W ~ ~ W W D x g j K F Z D Z V V V V Z Z V j j V c c c c G G D A G x f f h A G A A c x h f v s.7.w.w.K t._ D A A G D D D Z Z V D D D D D D G A g x c G t.t._ w.A x j A l.%._ l.B.B.t.t.t.B.B.B.B.J.l.t.t.l.l.l.l.B.t.n.t.v j A _ B.+.-.+.A x h h G _ D _ t._ _ t.t.t._ D G G G D t.t.t.t.K K D t.w.x z M 5.t.l.D 7.7.5.x j ,.E.F.I.n._ t.l.B.l.B.B.B.l.t._ _ _ t._ D D _ _ D 5.j h v A I.t.t.t.5.v x j 5.t._ D t._ _ G D G G G G G G G G _ _ F _ _ _ F K 5.h f <.t.F.l.B.l.t.A j f A J.B.l._ _ _ B.B.-.-.-.-.B.~.B._ _ l.B.l.l.B.t.t.s.x j A t.l.l.B.t.t.A f j s.t._ t.t.K K G G t.t.w.A A A A A G D D G G G A 6.x f x G G G G G A h f f G D G D A c c A G t.t.D G G A G A x j x A A A x j r < u x x x x x f r 1 r f f g h h h h j f f z x x x j x A A x j j j h x x f f j g j 5.A g g f 1 1 x G D D D Z Z D D A A G A A A A A j c A j j j c j ",
"h A j g D _ A g x x f A t.D D D _ D D D V V V D W Z D D Z Z W W W W Z _ A h x j j _ l.D j j x g h 5._ D D D D D Z W F D D A D D D D D D G D A A G B f f g j D _ D N g h g j G D D D G G D D A V j j V A A A G D D D D D A A c g h j j D +.D j g f 4 j A D D D D D D D V D F D D F D Z V V V V N V V V 4 4 j 5 7 V D D j 4 f g x A V c A V V D D A A A c A A D D D D _ _ _ _ _ G x f x A V ~ ~ Z V j j g g G Z D D Z Z V V Z V V Z V V j c c j j A D D A A x f f h j A A c g h j f x 7.t.t.K 5.K _ D G A A D D D Z D D D D D D D Z D A g j h j t.J.t.A j A j A l.%.%.B.l.t.t.t.t.t.B.B.l.l.l.t.t.t.l.B.t._ l.n.w.x x A A D l.B._ j j j f A t.D _ D D _ _ _ _ D D G G D D t.t.t.D G K _ t.5.x f x h c t.t.t.A j z k M I.F.J.I.t.t._ _ l.t.t.B.B.t.D G _ _ _ _ _ _ G G A h f x h G J.n.G j x ,.f A t.G D D G D D G G t.G A G G D _ _ _ _ _ _ F D A A j j A A l.~.B.t.N x x f A l.B.t._ _ +.+.B.B.-.-.-.B.B.B.B._ t.l.l.B.B.t.s.s.x j v c t.J.l.w.A x f j 5.t.t._ _ G D G G G G A A j A G A A G G G G A A A j j j h G t.G A h g f f B _ _ D G G A G G G t.D A N A A A A j h j A c h f u r u r f x x j 1 r r , r f 4 1 g h g h j f r f x j h x A A A h h j g h h f k x f g x j f f h f 1 h A A D Z D Z c V A A A A A A c j j j j c c c j f ",
"h A N 5 j c j j A x j A G D G D D D D D F D Z Z W W _ W _ _ _ _ _ _ _ _ A h x x g A 5.B g j B h j K G D D D D W Z W D D D D D D D G D D D D D D G A g j x 4 j G A j j B j j G A G G D D D D D D A V V V D D D D D D D A A G c h x B h A 7.A j j h 4 j G D D F W D D Z Z D D D D D F D Z V V V N V Z Z 6 6 N j 4 j j j j j x f c A c A A A A G K G K G A A D G G K K _ _ K K G G A h A A N F +.F V A A g j G A D F D D V V V V Z F W D V V j j j x A D G A j f j x g v x h f x x h v 7.t.7.7.t.t._ t._ _ D D D D D _ W W D D D D Z G A h x h j 5.w.A x A 5.x A t._ B.B.t.t.l.l.t.t.l.l.l.B.B.l.t.l.J.F.l.l.B.I.w.x x G c c _ B.G j A B j A t._ _ D D D _ D t.D D D _ t.D t.D G G G w._ t.w.x j ,.x j t.t.A x j j z ,.I.F.J.J.I.J.t.l.J.F.l.t.t.t.D D G _ _ D D D G G A j j x h c G w.x x ,.A j 5.7.G t.G w.w.7.t.t.t.t.D D _ t.t._ t._ _ _ F G t.w.x x 5.B A l.J.G j A ,.h A J.l.t.B.B.B.B.B.B.B.+.B.B.B.B.B.B.B.l.B.J.J.B.t.s.x x 6.v G t.w.A B ,.x j 5.t.D t.t.D D G G D _ G A A G G G G G K K G A A A j j x j j G G x h x j g A D D t._ D t.G G t.G A B x x A A B B j h j j h j k k z k a k k f f k a < f j g f f h j x c j f f f x x B x x x x x j h h j f f ,.x g 4 f g j x j 4 h A V A A V A A A A A A A G A x B B A N c c j j f ",
"g A G j 4 g j B x x h A G D A A D D D D D F D W _ _ _ _ _ _ F D D F D D B h x A x h j h h A B g j K D D V D F D D D D D D D D D D D D D D D D D D B f j G j 4 j g j j j 4 j G G D G D D D D V V A A D Z D D D D D A A A A A c h x A x h h g g B h 4 j G V V Z D Z D Z Z Z Z D D D D D Z V V V V V V V 7 4 j A j 4 4 4 g B j f c c V A A A c c A G A G G G G G G K K D A G A D D B g A G j j D V j A A g g G A V V V N N N N V Z D Z D V N j j j j j V A A j f z v j f f g h x x f c 5.G G 7.t.t.K _ _ _ D D D D D W Z Z D D A A V D B g x A h j x j x 5.<.j A D _ +.l.l.B.B.l.t.D _ l.l.t.t.l.t.t.l.J.l.l.t.t.5.x j A A j j A j A 7.j h A G D G D G G G _ D D l.t._ D D D G G G w.w.D t.t.x f ,.A j j A x x ,.A f x I.s.t.F.I.J.l.t.F.F.t.t.t.t.t.t.G _ _ G G G G G A j f 6.A x j x j A ,.x f ,.G G G G G G G D t.t.t.t._ _ _ t._ _ _ F D _ D G w.x j <.5.j B t.c x 5.x h A F.t.t.B.B.B.B.B.B.+.+.B.B.B.B.B.B.B.B.B.l.l.l.t.e.x x e.6.x A A h x ,.j h A G G G G G D G D D G G A G G G G G G A A A A A A j f ,.A j h x g x <.f f A t.G D G D G G G G A B x g g h B A j j x h f h j a r k k a 1 1 f f f 1 , f j j f f f x x x x x l f x x x x j x j j x h j j r r j ,.j f 3 g x h f 4 g x c c A A A A A j j c B B A A B j A A x h j j f ",
"h A A G N j V A j j h A G D D D D D D D D F G A D _ _ W W Z D D D F D D A h B 7.7.B g x A A x g j _ F F D D F F D D D D D D D D D D G D D D G D D A g j G A V j j A G j 4 j G G A G G G D A A A D D Z Z D D D D A c A G D A c h x G A x g 4 B A h g j G A V D F Z W F F Z Z D D D D D D D V A Z V V V j 6 j V A j g g j G j f A G V D A c j j V D D A A A K t._ K A c c D A D F A h A _ D N j j V D A g j _ A V V V V V V V A D D V F D V j c c c c A A A x f z A A g g x c A x h c 5.G A G G t.t.t.t._ _ Z D W W W Z D D D D D D D A g c K A x j x G 7.A j A 7._ _ l.l.l.t._ _ _ l.l.l.+.B.B.l.t.t.l.J.l.t.t.5.x x 7.t.A g j A t.t.j h G _ D D _ D D _ _ _ _ t.t.t.t.D t.t.t.t.t.t._ t.t.x f ,.t.A j x B 7.F.,.f x F.F.J.J.F.B.B.l.t.t.t.t.t.t.t._ _ D D D D G G t.5.x h 5.s.G x j A 7.5.x j ,.5.G A G G D G K _ l.J.l._ _ _ _ _ _ G _ _ _ _ t.w.c j 5.7.G j j A t.t.x h A B.t.n.%.B.B.B.B.B.B.B.B.B.~.B.B.B.B.J.B.F.F.F.F.s.x x W.s.A x x B 5.s.x j 5.A A A A G G G w.w.K G A K K D G G G A A A A G 5.x h <.7.A h h A 5.B f f A t.t.t.7.7.D D G A G A x x h h A A A A A B j j x h r k x j f f j x f 1 1 z x h j h j h x j l j j x x j j j x x x x x h h j f f f j x x h j B j f f x c j c A A A A A c c v A B A A A x j j j h j j h ",
"h c j j A G A j j x h B G D Z D D D D D D G c g j A _ W W D D F F F F D A h x A A A A 5.x h x g j D F Z D D D Z A V A A A A A A D D A D D D D D F A g h B j A G G B j j g h A A A A A A A V V D D j j j D D A A A A A A D G c g j c B G x j A B h 4 j A A D Z Z Z V V D D Z V D D D Z Z D D A N V V V j 4 j 5 j A A A j j g 4 c D V A A A j j c A G A h h A G D A A j c G D Z F A j A G D D V D l.D j 4 g G A A j j V V V F V N V Z V V V N j c A G G A A x f z g x A A A j j j g x G G A A G G G G G _ G c j D W W Z D A D D Z D G A g j A A G 5.5.A A A h B 7.t.G G D D D G _ l.l.l.l.+.+.l.t._ G t.l.t._ t.5.x x A A G A A t.t.G h h A D D D D _ _ _ _ t.t.A j A t.t.D D G D 7.t.l.t.G x f v 5.G A x G 7.A A j x s.t.J.t.l.l._ K D D t._ t.t._ _ G D G D G D G G 5.x h 6.A A 5.A 5.A A x f ,.G A A A A G D D D l.t.A A D t._ F F D F D _ t._ t.x j A A t.5.A t.n.A x h c t.t.%._ _ B.B.-.B.B._ +.B.B.+.B.B._ l.l.l.F.l.F.w.x x e.e.9.5.5.s.7.<.j j 7.G c x x A A K G w.w.B h A K G G G A c x c A G G x h B A A A B A x f f f A t.t.t.7.t.G A A A A G A j h h j A A N j B x f j z r r a f x M x f f 1 1 f j g j j f f f f f h f f k j f f x j z f f z h h f r f f f f A x g 4 1 f h x j j A A A A c x h h A A j h j j j j j h j j h ",
"j A h g A G x h x A h A G D D D G G D D D A j f f x D K W W W W _ _ F D v h c x h x 5.5.h f x h j D W F D D D Z Z V A A D D A D D V j A G G D D D A g x x 4 j _ G g g x h j G A V V A A A V A A j 4 1 g A G A D D D A A D G c g j c j A 7.G j j h h j G D F G D V V A A D V j V D D A Z D D F A V Z A j 6 g 4 4 A G c g h h 4 A D V D A A A V V G A x f f j 5.G D A A G _ D _ K A j c A j D B.t.D c j j j D D D A V V V D V V V Z D D D D V A D G G D D A j f z g g c A x f h x g j w._ G A G G _ D t.G x g h A _ _ F D Z D D D D Z A g c A j A w.5.j j A j B t.t.G G G G D _ l.+.B.+._ _ B.B.B.t._ _ K _ t.n.t.x v A j A t.w.A A A h h D _ D W D D l._ t.t.5.j f j 5.s.t._ _ _ D t._ t.5.x h A A c 7.7.A A A ,.j x s.t.n.J.J.J.t._ _ _ K t.t.t._ _ G D G _ t.t._ D 7.x h ,.x j A 5.A h x A h A t.D D G G D F _ _ t.v h z ,.w._ _ _ _ _ _ +._ B.F.A x 6.c A 7.t.s.5.x x j c t.B.+.B.B.B.B.B.~.B.B.+.B.B.B.B.B.+.l.l.J.J.t.F.s.x x 4.x A I.E.<.x x j x F.w.A A B c A G w.s.,.j f j A 7.G A c x c A G G G x h A x j A A x f f k f A l.t.t.t._ G A A A G G G c h h j A A A A A A j x j f f a r j x f 1 f f r h x g f f k f f f j k r < r k k x k f r f f j j j f r k f r k A A f f f f h A c c c A A A c h g g B B j h x A c c A h j j j ",
"h A z f h x h f x v h c D D V V D D D G A h f k f g j K _ W W W W _ D G A f x j f g x x f z x g j D G D D Z Z V Z V A D D D G D D A D D G D D D D c 4 j x 4 g B B f f x h h G A N V A c V V A j 4 1 1 4 g B A A A A A D A A c g j c g h A j 4 g h g j D D D D D V N N N V V A A A V A A V V V A A V V j 4 j 4 4 j j g 3 f g 4 j D V D D D A A G 5.x f f k f j 5.G G K G G D _ K A j c x g j _ G j j c g j K D V V V N V V V N V D V D D D D D D A A D G A j f z f 3 f x f 3 h x f c w.G G G G G G G 7.c h f k h A D D D Z Z D D Z D c g x c f j 5.v f z M h x t.7.7.t.G t.t.l.l._ _ _ _ _ +.l.l.n.t._ t.t._ t.w.c c A h h A x g h v j g A _ D D _ D D _ t.G j l z k x 5.t.D D G G D D D 5.x f A x g A w.x h B x k x s.t.t.n.J.B.l._ _ _ K K t.t.t._ D D G G t.t._ D G x h v x g x A x f x c h A G G _ G G D D K 5.v f k k z v w._ F F _ _ _ _ l.7.x x 6.x h x 5.A h j v h x F.t._ B.B.l.+.B.B.B.B._ _ B.B.B.+.+.t.l.l.l.l.l.w.x x ,.h j 5.5.x h A x j 7.w.A A A A A G t.,.j k z k k c G c j x c A A G G x z v h 4 c c f f x f f A t._ _ _ G G G A c D A A c j j j j j A A j B x j f f k a 1 f f 1 r f r 1 z j f f j f f f f k u < r u r d z f 1 a z j h h h f a f f r r k z 3 f f 3 h A A A A A c j x j h j N j j j B x x j j x j h j ",
"h A j f z k f f x v h A D V D D D G G A j f k k k f f x K _ _ W Z Z W _ A f x x k k j k f j x f j D D D Z Z D D D D D D G G D F D D D G D D D D G j f x x f f j j f h x h j G D A V A A A A j g f f a a f g A G A A D D D D A j x c f h x f f h j g j K D D D A V N j V V V D D A N A V V D V V V V A j 4 g g f g h f 3 h h 4 j K Z Z D A A D G x f k z k k f j A w.K K K _ _ _ A h x x h h v c g h A j h K D Z D A V V V V V F D D D D D D D G G D D G A j f h h f g h f f j x g c t.G G G D G _ t.A h f j j f h A G _ F D F _ Z K A g j x h h x x f j M h x G w.K t.t.t._ t.t._ _ _ _ l.l.l.J.J.l.t.t.t.t.t.5.x v ,.j x v x f h A j g A W D _ _ _ G l.5.x j x z z j x 5.t.D D G G _ t.e.x z M x f x ,.j z A A l x I.t.t.t._ l.t._ B.l._ +.t.l.n.n.t._ K _ t.t._ t.G j h ,.x f j v j f x x h A G D G G _ D D 5.A z k k k z j A t._ _ _ _ _ +.l.t.c x 4.M j x 6.x z v ,.h c B.B.B.B.B.B.~.~.B._ _ _ B.B.B.B.B.B.B.B.l.J.B.J.7.x x ,.j j v v x x 6.x j t.K D A G G D t.7.j f z x z f j A A A A G G G G A x h v x f x x f h x k f A _ D _ t._ _ t.G A A G G G G A A c x j j A A x j f d z d u f r 1 d f r r x x g f x j f f f f r r k u r u k f f z x x j j x f f x k r d f f a f z f j j j j A A A A x x c x B N N j B x g f j A x x x ",
"h v h f k f k k x x h x D D D D D G A h f k k k k k f g j D G D D Z Z D A f x x f k k f f j x g j V D D Z D D D D D Z D G D D Z V D D D D D G D G j f x x f f k f f h x h j A D D V A D G j g f f f r a f f g A A A A V Z D c j j x f f f f f f h f h G D V A A V V A V V Z D D A V N V V V A N j N V j 4 h f 4 f f 1 a h g 3 j V c V Z Z A G x f k k k k k f f j A w.K K G G G A g x x h h h h f h x g 4 A D Z V V A V V V Z Z D V Z Z D D G G D D A A A j f f f f a a f a h x h j G G G A A G D A h f z k j j f h A D D F F F D _ c g h x f f z z f z x h x D K G D t.D _ _ _ _ _ _ _ t.l.J.t.t.t.t.G K t.t.G x x ,.x z j f f h x h g A D F _ _ _ t.G x j x m z x x j x 5.7.D G D D t.s.x f v x f k z k z x x h x F.t.t.w.t._ _ t._ t.B._ t.l.t.t.t._ K K D G G D G x f v x f k j z f x x f x G A A G D D 5.A f k k k k z k j A 7.t.D F W _ t.w.x x ,.M j x x x z x v h c n._ B.B.B.B.B.+._ W _ +._ +.+.B.l.l.B.B.B.B.t.l.7.B x v z z j j j x ,.x x t.K D A A D l.7.j f k x x z x f f x G G D D G A A j f x x f k z f z x j f B D D G G G _ _ K A A G A A A A A A j h h j j h h f u d d u r r r r u f 1 f x j h f j j r 1 < r r r u r < r z x x j j j c x f a z f r d d r a a f f h x j j h j c j j j j j j j N j j B h g j x j c x ",
"j 6.h f f k k k x x h c D Z Z D G c z f k k k k k k k f g x A D Z Z Z D A h x x k k k k f j x f j A D D W _ F W F D D F F D D D D F D D D D D D w.c f x x f k k k f f x h j G D D D D A x f f f f f a a f f g h A A A A D D A j j c f f h f f f h g j D A V D D F Z V V V F A V N V A F D V A N j V A j 4 h g 4 f f a a h h f h j c A V D G c f f k k k k k k f f h 5.t.D D D t.A h v v f f z z h x x g g A D D F F F F D D D D D D D D F F D D D D G A G x f j f 1 a f a a x x f j G D G G G G A h f k z z x j k h h x G _ F D Z _ A g x x f f h z k z v h x t._ K t.G G G _ _ _ _ B.t.B.B.t._ K K t.t.t._ t.w.c x 5.x z j k f x v j g A F F _ _ t.5.x j x x x x m m x x c G _ _ K D t.t.x j ,.x f z z k z v v f v F.t.n.t.t.t.l.t.t.t._ D _ t.n._ D D A G t.t.D D 5.x h v x f f z z f x x h c G A D D K G x f k k k k k n k k j A 7._ _ +.+.t.w.x x 4.M x z z z x x v j c t.%.B.J.B.t.D D _ _ _ +._ B.-.+.B.B.t.B.B.l.l.t.7.B x ,.x k j z z x ,.x x t._ G G t.t.e.x f z x x x x z k f j A G G A A A A j z v j f k z f z x k f B G D _ G t.t.G G _ D A j j B A c j h h j c x x j a d k u r u u r r k k 1 a j j h h j f 1 < r u u r u r e r f j x c j j x j f f f r r k d d f f f a h A c c c j c c A j j h h x N j B A x x B B x x x ",
"h v f f k k k f x x f x D Z D D A h f f k k f k f k k z f f h A Z C Z F A g x j k k k k f z x g g A D D F W _ F D Z A A D D Z D D D D D D D D G G x f x x f d k k f f x g j A A A D G x f f f f f f a a f f f f j A D D D D A j j x f f f f f f f f h D V Z D V D Z Z V Z V A V A A A A A F A V A V V j 4 j f f a a a 1 g h 4 h c j V D A j g f k k k k k k k k k f j A D D D G A h x x f f k f z z x g g D D Z F Z D F D Z Z F D V Z V V F D D D D D G A x f f f a f f d a z x 4 j K A A G G A z f z k f f l k f j f f B G D D D D B g x j f d f k k z x h x t._ K _ D D D D D K _ t.l.t._ _ _ n.n.F.t._ _ t.G j x ,.x f k k f h v h g A F D _ l.K x z x z x m x x x x x h x K K G D t.G x f x x k z k k k x x h x F.t.t.t.t.t.t.t.t.7.G G t.t._ K D D G G G G t.D G j h v x f k z k k x x h B G D D K K c f f k k k k k k z z k j A t.+._ _ l.7.x x 4.m z n z z z x v h c t._ B.l._ D D W _ _ _ _ +.+.-.+.t._ t.t._ B.l.l.7.x x ,.x k k x f x ,.x j t.t._ G t.w.x f k x k z x z k k k k j c G A A A A h h v z f k k k k z f f B D G D t.G G G G D G A N c N j x x c A A j x A j 1 a k r e r r r r f f r 1 f g g j l 1 < < u r r u < > e r r f x c x j j h f f f 1 1 u d d r f f 1 f x c A c c c c A j h j j j j B j j x x x x x j j ",
"h ,.z f k k f f x x h A G F _ A h f f k f f k k k k z f f f f c F D F D A g x x k k k k f j x f j D D W F D D F ^ V Z D D D F D D D W W G G D D w.x g x x k k k k d f x h j A G G G x h f f f f f f f f f k k k j x G D F _ A j x x f f k f f h h f h G G D D D V V D F Z V A V A A D Z F V A D D Z D j 4 g g f f d d a h h 4 j A V D A j f f f k k k k k k k k k f f h G t._ G A j x x f f k f f z x j j K D D D D D W F V V D F D V V V V A _ _ _ _ G A x f j f f f f f f z x g c K G G A A z f k k z z k k k z j z z h x G _ F F B g x x f k k k f z M x x t._ _ t.t.t.K t._ K K G K K t.t.t.B.B.B.l.t._ _ K x x ,.x k k k f j ,.j h D F _ t.K c x x x x x x x x x x x x x A w._ D D 5.x k m x k z k k k m ,.j A F.l.l.l.t.G D _ D t.D G _ t._ _ t.t.t.t.t.t._ t.A j h v x f k z k k x B h A t.G _ K x h k k k z k k k k k z z z j A l.B.+.l.7.x x 4.x z m n z z x A x c n.%.B.t.D D G G F _ _ _ +.+.B.B.t._ K t.l.B.l.I.7.B x ,.x z j z z x ,.x j t.t._ l.t.x f k k z x m x k k z x j j j v G G G 5.x z v z f k k k f k f f A t.A A A A G G A A A B A A c A G G G D G A B j x f d k r e e e r r k f 1 1 f j j j f r r r u u r < > e r d u a a f x j j h f f f r r f d d a f f f g g j x A A c j j j x x B j j B B N x x x h f j j ",
"g A j f f f f z x x g A D K A h f k k k f f f k k k f f f f f g c D D D A 4 j x k f k k f x ,.f j D D F D Z Z F F V V V F D Z Z Z D D D D D G G K x f x v f k k k f f x g h A D A x f f f f f f f f f f f f f k k j h A D D A h x x f a f f f h x f h A G D D Z V V V D Z V N A A V V Z V V A A D D A j 4 j g 3 a f a f h j 4 j A A A h f f f f k k k f f k k k k f f f x 7.t.G x f x x f f k f f h A j A G D D Z V V Z D V V Z D D V V V V D G _ _ G A A j f j f a d k d f x x h c G K G c h f k k k k z k k k j z j j j h x G G D A g x x f f k k f z M x j 7._ D D _ t._ G t.K K K G G w.t.t.t.t.t.t._ _ _ G x x ,.x k k k f x ,.j h D _ _ G c x x x j x x x j x x x x x j j A l._ G 5.x k m x f k k k k M ,.h A F.t._ _ t.G G D _ _ G G G _ t.t.t.t.t.t.t.D G G A h f M x f k k k f x x h A _ G 7.c h k k k k z k k k k k z k x j j A l.l.l.7.x x 6.m z z m z z x v h A t._ B._ G G D G D F W _ _ _ _ _ l._ D B.l.t.l.n.7.j x 5.x k x k z j ,.x j t._ t.F.A f k k z k z z k k k k z j z z h x 5.t.G j z x z d f k f d z x f c A c j c G A B A N B A j j j c G G A A G A j j x f a k d < e e < r f f 1 f x x f r r r r u r r r = > r r r u r r r f f h g f f f f 1 r d r r f f 1 f x x x A c c j g g x j j B j j N N j j j h h h j ",
"j 6.x f f f f x 5.x g A G c h h z z k k k k f k k k f f k z f f g j j G A 4 x A z k k k z ,.,.h j G G D D D Z F W F D D D D D D D D A D D D _ D _ A g x 6.z k k k f x c g j G A j f f f h f f f f f f f z k k k z j h h x G G h x x h f k f f x ,.h h G G D D V V V V Z D Z V A V D A A V A V V Z D D j 4 j h 4 f f f f c c 4 x G c h f f f f f z z k k f k z k f k f f f x 5.G x f B A h f k f g x A j B G D D D D D D W D D D D D D V A F D D _ _ G G G x f x j f f k k k v A h c w.5.x f k k k f k k k k k z z j x z z j h x A w.A h x v z k k k f x ,.x x w.K K F _ t._ _ _ K t.t.K G w.t.t._ t.l.t._ _ t.t.x x 5.A z z k k A 5.x x t.t.A x x v v x x x x j j x m m m x x x x 6.t.t.5.x j ,.m k k k k x 6.,.j A F.t.t.t.t.t.G G t.t.D D D _ _ _ t._ t.t.t.D G D G x h ,.x f k k k k ,.A h A l.t.x f k z k k k k k k k k k z x x x j j A t.J.t.x x 4.6.z m z z x 4.6.x A n._ _ K t.G D D F D _ _ _ l._ l.l.t.t.B.J.J.l.J.7.B x 5.x z z z z M w.A j t.J.F.A j z z k x x k k k k k x x k j z f h A s.s.x j v x k d k k z ,.,.j A G x j A A A A A B N A A j B B c A G G A j j B x f f x k e e r r d x k f m ,.f r r r r u u u r r < e u r r r u u d r f j j f f j j r r d r f j f r j v c A A A A j h x A c A A x h h j x j x A B x j ",
"g A A g f f g c 5.j g A A h h z f j z k k f f f k k f f k f k f f f g A B 4 j G x f f k x 4.,.f j D D D D D D Z F F D D Z D G D Z D A A D D D D t.A f x w.x f f f f c A g h A x f f k k f f k k k f f f f k k k z z z f g A A h h A j f f f f ,.,.f h G A Z V D Z V V D Z Z V V A A V V V N V V V V A j 4 j c g a f f f A j 4 x A f f f f f f f k k k k k k f k f f f f f f j A x g B A h f f f g A A g j G A A D D D D Z D D Z D D Z Z F D F D G D G A A x f x x f f f f x ,.c g A 5.x f f k f f f k k k k z z j z z j j z f f x 5.A h x 5.x f d k z ,.6.h j w.G G W F D _ _ G _ t.w.w.G K t.w._ _ _ _ t._ w.5.x x w.5.j z k j ,.w.x x t.G x j x x x x x x x x j z x m m x x x x x v 5.5.x f ,.,.z k k f x 4.A h A J.t._ t.G G G G G G G G G _ D _ _ _ K G G G G G 5.j g A v f k k f j 4.x h A t.c f f k k k k k k k k d k k z x z x x j h c t.s.x x 4.4.x z z z v R.,.z v t.K G G G G _ F F D D F _ _ _ _ D l.t.t.J.J.l.t.7.x x 4.6.z z z z 6.w.x B F.F.A j f z z k x z k k k k x j j j z z k f h w.e.x h v v k d d k x ,.x j A A A G A B A B j x j j A A j j j A D G A j x j x f 1 j x r e e r f x k a k x r 1 r r < e r p u r r r e r r r u u u r 1 g j f 1 j x a 1 < 1 h j f r j x x A A A x A A j x A A B x j h h h h B x B B h ",
"j G G B 4 4 h 7.5.B g A G x z x k k z z k k k k k k f f f f f z f f g A A 4 j D G h f j ,.e.,.f j D G D D D D _ D W W F D _ _ _ D D D D D D G G w.x g c t.A h f h x G A 4 x 5.x f k k k f h k z j j z k k z z x z z z f g v A h j w.A f f f j 4.v f h G A D A D D Z V Z Z A V V Z V D V V V A A V A G j 4 x A j f f g B G j 4 x A f r d f f f f f f k z z k f f k k k f h f g A A g A t.A g f f h G A 4 j D A F D D V V V V D V Z Z D D D D A G G G _ G 5.c f x ,.x f f z ,.5.v j A 5.j f k k k k z z k f f z j j j j j j k f f h 5.6.x A s.,.h h z v w.6.h j K K K _ _ _ _ G _ _ K K w.K K K t._ _ _ _ _ _ _ w.x v s.s.,.k k v t.F.x x 7.A j x x x x x x x x x x x x m m x x m x x j ,.s.A j 4.s.x k k j ,.I.A h A t._ t.G D D t.G G G G D G D K _ t.G K G G G t.t.5.x j A 5.j f f j ,.s.x h 5.w.j f z k k k k z z k k k z k m x x x x j j x 5.s.B x 4.R.,.z z x w.E.A f x 5.G G G G G _ _ _ _ _ D G _ _ _ t._ t.B.J.l.t.F.s.x x s.4.x z z x s.I.x x E.5.j j x j x j k j x x k k x j j x z z k f z ,.5.x h ,.6.z f k z A s.j h v G G 7.G A A x x A x h A x B B A G D A A A x j j f r j M k r < f m x 1 = d k r u u u r e r k u r r r < < r u u d d u r f z f 1 f x j f 1 f A x f a j x c v x x x A ,.v A A A x x A A B c A A B A A j ",
"j D D A j j A G G j g A A j z k j k f k f k f f k k k f k k k f f f g c B 4 j G D A A 5.7.5.A g j A D D D D D D D D F F D _ _ D D D D D D G G G G j 4 j w.G c h x A G N 4 h 5.j f k k k j f f z j j j j z z x k z k k f h A A h h G w.x f f A 4.x f h G A V D A D D V V V V V V F V V V D V V A V V A j 4 j G A h g x A G j 4 x A g r d r d f f f f f f z f d d k k f k f f h A x g B 7.G N g g A D h 3 4 A G A D A V V V D D D Z Z D D D Z V A G D G 7.A j f x A A x f v 5.5.x g c 5.j k k k k x k z k f k z z z j j j j j z k h 6.6.h c t.w.c x v G w.,.h x w.K G G _ _ G _ _ K K K K K K G K _ _ t._ _ _ _ K x x t.J.w.x x e.J.t.x x 7.A x x x x x x x x x x x x x x x x x x x j j M 9.A j 6.W.6.j f x s.t.B f x t.D t.G D D G D D G D G G G K K G G A A G 7.G 7.s.x g A t.v h h A t.G j g 5.s.x f k k f k k k z z z z z m k k k k z z j x G s.v j 4.E.5.j j A I.t.v f j G G G G G D G _ _ _ D A A D _ _ t.l._ t.l.t.t.t.w.x x s.s.5.j x 5.s.w.j x s.5.j j j x x j x x x x k f z j j z j x k k f v 6.x h v 5.v z z v G A h f x G G G 5.G x x x x x h h x x j B A G G A j h h f 3 1 h M j f f f x f < < k k r u u r r e < r r e < > > r u u r r u u u r a r , f h h h h x B x f 1 f x v x h f j j x x x x x B B B B x x A A A x x f ",
"j D A D D D D D G j g A G j k z k j k j k k k f f f f f k k k k f f g B B 4 j G D D 7.7.G A x f h G G F F D D D W D D D D D D D D G D D G _ G D G j 4 x K D G A A G G N g j 5.x f k z k z z k f f k j j j j z k k k z f h G 5.h h 5.t.G B B 7.s.x g h A D D D A D D F F F D V V D V N N V V A N V D D j 4 j A A A A A A G j 4 v 5.h f f d f f f f f f f z k d f k k k f f f h G A g j D D D A V D D j 2 4 A D A D A A Z D Z _ F Z F D F W D V A G D t.D A j f ,.5.G G A G 5.5.c g A 4.x z z k z x j k f k z j z z j x j z x x j x 5.,.h c t.t.w.A A K w.6.h x t.t.G G G _ _ Z Z K K K K K G G D G K _ _ _ _ _ w.x x t.J.s.t.t.J.J.t.x x s.t.A j x M x x v x m x x x x x x x m m m x x ,.s.A j ,.I.F.5.A 7.J.l.B g x t.D _ G D D G t._ _ G D G G G _ G G A A G G G 7.w.j g A t._ G G D t.7.B g 7.I.A k k k k k z z z x z z z k x k k x z x x x s.s.A j 5.F.s.7.G t.J.t.x f x w.t._ _ D D D G G G A j A G G _ t.l.t.t.t.t.l.F.w.x x s.J.J.t.t.F.F.w.j B F.6.x x x x j x x j x j z z z j j j j z k k f A e.v h c w.w.A A w.w.G j f x 5.G G G A v A j A 5.x g j A A B A G D B j f f f f f z x j x x x j k r r x k r u r r r r < < r r < r u u r r u u r u d r d u 1 f x j j x j B x f r f h k f k x j j x A x h j A A j B x j j A A x j h ",
"g A A Z F F D A G j g A G j f k f k j j z k k k f f f f f k f f k f g A B 4 j G D D G G G A x f h A D D D Z D F D W D D D _ G _ D D A A G G G D D j 4 j D D D D D A G j 4 j 5.x f z z z z f f f f f k k j z k k k k z f h A 5.g j G _ _ t.5.G A x g h A A D V V V V F Z W D N V V V N j N N N V V V A j 4 h A V A D A A A j f v A h r f f f f k f f f k k f f d k k k f d f j G x g j G F D F D V A x 4 g A A D D D D Z Z F F F F Z F _ D D D A A A A c A x f x G G D D G A G j g A 5.j f z z z j j f f z k z j z z k k z z k j j A ,.h x t.I.t.t.t._ w.A h x _ G G G G D K Z D G G K K G K G D G G G _ D _ _ t.x x t.I.n.J.J.I.n.t.x x F.F.A x x x x M v x x x x x x x x x x m m x x M s.A j ,.F.F.l.l.l.l.7.B f x D G D D D G _ _ _ _ G G _ G G G G A A A A G G G A h g A G _ _ +._ D t.j g 7.t.A j f k k k z z z k z k k k z k k k z x z x 5.I.v j 5.s.F.l.J.l.t.t.c f x 7.t._ G _ D G D D A A c B A G _ t.B.t._ w.n.t.t.w.x x t.t.B.J.J.l.t.5.j A I.,.j x x x x j j x j z z k k f j j k k k k z ,.e.x h A K K w.K K K A z f x A G G A c A A G G A B f h B B B G G A x h f f j f f f j h j x x j f d f k k r r r r < e e r r < r r r u u r r r r r e r k u r j h h h g g x h f r f 1 a f k z j h j x j j j j x x x h f g j x x x j ",
"g A A A A G F D G j g A A j f k k k k k k k k k k f k k f k k k f f g A c 4 j G D G G G A A x f j 6.D V V Z W W W W D D D W _ +._ G D D D D G G G j 4 j K D Z D D D G j 4 x 7.c f f j j k f k k z k k j j j j z f f k f h A G j j w.D D 7.7.D G x g h A A V c c V A D D V V j V V D A V V N A A D V A j 4 j D A A V V A D j g A 5.h f f f k k k k k k k k k f k z z k k k f x 5.A f j G D D D D D D c f h A A D D D D Z D Z W W W W +._ _ F D D G G A A A x f v G G D D D G 5.x g A 5.x f z z z j k k k j k j j z k f f k k k z x G 6.h x w.I.t.t.t.t.t.A h B t.w.G D A D K K K Z K K t._ _ D _ K Z G _ _ _ t.w.x x I.J.n.n.J.J.B.n.c c F.t.A x x x M m x x x x x x x x m x m m m m x ,.R.,.j <.J.l.l.t.l.F.t.A f x 7.D G G F _ _ _ _ K _ _ _ t._ G G G A A A G D G A h 6 A _ _ _ +._ l.t.x j 7.t.A h j j j z k k k k z z z z k z z z z z z x w.s.v h 4.s.n.t.J.B.B.s.A f v t._ _ _ _ _ _ _ D G A A A A G _ t.t.B.t.l.J.l.F.s.x x t.F.B.B.B.l.J.t.j A E.,.x x x j x x j z z k z k k k k k k k k k j 6.e.v z A w.K K w.w.w.5.x j A A A A D G c c G G A A c c B B A A A A A h f f >.x f f j j j j j k f f i k k r r u r r r e d d r a r r d f u r r r e > f m k k j j j h g f j h f f j f f j j j j j x A x x j h c A x f g h j h j x j ",
"g A A A D D D D G j g A A h k k f k f f f f k k f k k f k d u u r 1 g A c g j G A G G G G A x f j A D Z V Z Z W _ D D D D D F F _ _ G D D G G G G x 3 j A D D D D D G B 4 h G B f f j j f f k k z k k k k k k f f f f f h A A g j K D D G G G G x f h A A V j j V N A D V j j V V V D D V V N V D G A h 1 h A A A A V V D j 4 A 5.j f f f f f f f k k k z k k z z k k k k f h 5.x g j A A D A V A A j f g G A V D D D Z Z Z Z W D Z W F D D D G G A A c A x f x G G G D D D G j g A 5.j f k k k k k k k f z j z z z k k f f k f x G A h c w.t.t._ K _ n.A h x w.K K _ D A D G _ %.K K t.K _ _ _ K K _ _ _ _ t.K x x t.I.n.n.l.t.B.n.x x t.t.x j x x x x x j x x x x x j x x m m m x j M T.,.j <.F.t.l.7.D l.F.x f x 7.G G A D D _ _ K K D D D t._ D G G A A G G D D A g 4 A G D F _ F _ w.j g 7.s.c h j x x z k k x z k z z z z k z z k k z x 5.e.x j 5.t.t.l.t.t.J.s.c f x t._ G G _ t._ _ _ G c j A A D G t.t._ B.t.t.l.F.5.x x t.l.l.l.l.t.J.t.j A s.6.j j j x x x k k z k k k k k k f f k k k k A 5.j f c 5.G A A A 5.6.z z A A A A A A c c A A j B A A A A A x A A x g f x m f r f j h j j f f f 1 r k k r r r < < r d r r a r r d d d u r e e e u k z d r z j f g f f h j r f j h h f z k j x x x j h j x x x x h h f h j h h j ",
"j G A A Z Z Z D G j h A A h k k k k k f k f f k k k k f d d u r r r f A B g x G G G G G G G x f j A D _ F D D _ _ _ _ _ _ _ _ F _ _ _ D D G D G G j 4 x G D A D D A G B g h G B f k k k f f f f k k z k k k f f f k f f g A A j j 5.D A A G D 7.A f h A G A A A V V A A V V N N V F D A V V B A D K A h 4 h A A A A A A G j g A A x h j h f f f f f k z k k x z k k d k k f j 5.x f x G A A A D D G x 4 h G D D D V D W D W W W Z D F F _ _ _ _ _ D A A 6.v f x G G D D D D 7.j g ,.w.x z z k k k k k k k x x z k x x z j j j j j G A h x w.n._ K K t.t.G h x 5.K Z _ _ Z Z K _ _ _ _ K _ _ B._ _ K D D _ _ t.K x x s.I.l.l.l.l.B.I.v x s.t.x j x x x x x x x x x x x x x m m m x x j ,.R.,.x 5.F.l.l.7.D l.F.B f x 7.D K A A D _ _ _ _ D D D D D D D D D G _ G D D G h g A D D D D _ t.t.x h 5.t.c j j j l k k k x x x z k z x z z k k k z x 6.e.x x e.s.t.t.t.t.J.I.A z v t._ G D _ t._ t._ G A c A G D G t.t._ l.B.l.l.F.5.x B F.J.l.l.l._ J.t.x A J.4.j x x x x x x j j j j x j z k k f k z k k A 5.j f x A A A A 6.5.,.z z ,.G A A A A A x j B A A G 5.G A A A c j h f x ,.x f r k x j j j f f f r 1 f k d r e > % e r u u r r u k d u u r r r u k j j k r f j j j j f f j f 1 h x x j j z x ,.v x c h x A G c A B x h j j j j l ",
"j A D A V V Z D A j g x A h f k d k k k f f f k k f k d d d u d d r g A B 4 j A A A A G G A x f j 5._ _ _ F D D _ _ _ _ _ _ F F G _ _ _ _ D D D A j 4 h A A A A A A A h 4 h A x f f k f f f f f k k k f f f f f d d f f g c A g j A G A A A G A x f h A A G G A j V A A V V V j V D A j j V A V c A c g 1 g j A A N A G A g g x A h h f f f f f f f k k k k k k d d k d f f f 6.x g x 5.A A A A D A j 4 j A D D A V V D D Z F Z Z W F Z F _ _ _ D D A A A c f x A G A A D D A x g A 5.x z z f k k k k k k z z k z k k z z j j j h G A h x 5.w.K G G w.K A h x G K Z D _ Z D G _ _ _ K K _ _ _ _ K D G _ _ D _ G x h A w.t._ t.B.n.w.x x 7.7.x j j z j x x x x x x x x x x m x z x x z M 4.,.j A t.l.t.7.t.F.7.x f x 7.G K K A A V F G G _ D D D A A A D D D G _ D G A h f c A D D D D t.5.x g A w.x f f f f k j k k k z z k z z z k k k k z x ,.4.x z 4.s.t.t.t.t.t.5.x f x D _ _ G D G _ D G D A A G G D K t.t.t.D _ t.t.t.5.x x 7.B.B._ t.l.J.5.x A E.6.j x x m z j j j z j x j k k k k k z k k z x A f a h x c x v 6.A x f f j A A c j A B B B A A c x x x x A A j h x x c A x a , d j h g f x j f r 1 f k r r e % # > q r e < < r r d u r r u k k f z x d r f f z h h j x f 1 1 f x x x x f h x v x x x x v B x j j x x B j j B j ",
"g A A A A A D G A h g v A h f f d d k k f f k k f f k f k k k k d a g G B g h j A G A D G j x f x G _ _ _ _ D D D _ W W A A G _ _ _ _ _ D D G D A j 1 f j A A F D A j h f j 5.A f f k k k z k k k f k k k k k k f f f f g c A h g x A A A D G B h f j G A G K A V j N A A N V V D D V N N A A A c j j f f f g j A c A A h f f A A h f f f f f z k f k k k z z k k k k k f f h A x g x A A A A G G c f f j G G D Z V V Z F F Z Z D _ _ F F F t._ D G K w.w.A j x A G D G 7.G A x h A s.x z z k k z z k z z k k z z k k j z j z z j 5.5.h c w.A A K t.G A x h x G Z D D _ F F Z D _ n.K K %.%.+.+.Z Z D _ _ _ _ w.x x A 5._ t.t.t.t.G x x w.t.,.x x x x x x m x m x x m m m m n n m x j M e.,.j ,.7.t.t.D t.t.A x f x 7.D _ _ D D Z D D F D G G G A A V D G G A w.D G A h g c c A _ _ t.G A j f ,.4.x f k k k k l z z x z z z z z z k k z z z x ,.e.x j 6.s.t.t.t.F.5.c x h c t.t.t._ G G D D t.D K K G G G G A G G w.t.t.t.l.w.x x w.t.t.t.l.J.s.A h A E.4.x z z z z z z x z x x j k k z x x j z k f x ,.j f x h j v A 5.v z f f h v x j x A A A A A x f f f x A A A A A A A A A v a 1 f j j j x j f f r a f k r r r e e > q r e e e e r u u r u u u k f z x k d f f z x x j f r 1 r x x x A x h f j x x x x j f f f j j B B B x v ,.j ",
"g A h j G D A j h x f c A f f d d d d d f f f f f d k k d k k k k a g G B 4 h h g A D G j h x f j G _ _ W _ _ D Z D Z W A D G D G _ F F D W D D G j 1 f j j j G A j g h f h 5.x h f k k k k k k f f f f f f f f f f d a f c x g g h j A G A j h h f h G A A D A V j N V V N N V A V N N A V A A V c c g 4 h h g j A A g g f f x A h i f f f k k z k k f k k k k k k k k k f f A x f j x j A A A x g h f j G D D Z Z A V V Z Z D D D _ F _ _ _ G G _ K K w.v f x x h A G A j x x j A 7.x f z k k k z z k z f f f k k k k k f k z j 5.5.h c 5.x j w.w.c x x h j G D D G G _ _ Z D K K _ _ _ _ _ F Z Z _ _ _ _ _ G x j ,.A A l.I.A c A x j w.w.x x m m m m z z m x x x x m z z m z k z j M e.v j ,.A A F.t.A j x x f x 7.G K K D D D D D D D D D D D A A D D G G G D G A h f x j j D t.G B c j f ,.4.x f f k j k k z k z k k z z z k k k z z x j ,.4.x j 6.A A s.F.w.x x A g x t.t._ _ G G D D D t.K K t.G G G A c A K t.t.t.t.5.x x 5.A G t.s.t.A x h c I.4.z k k f k k k z z k k f k k k z z x z k f x A z z A x g c 6.v j x x f j c c c c c A G A j j x j j A G c c A c j j c x h r r f f f x x f 1 1 f 1 f k < > e r e e r r e e e e e r r u r r r u d f x f r z z a f k a 1 r r 1 z x c c x j f f j j h h z f f h j j j h B A A x k ",
"h A j 4 x G j g x c g B A g f f k k d k f f f x x f f k k k k d f f h G c g x x g g x h 4 A A f j D _ _ W W _ _ D F Z W _ Z D _ _ _ _ F F F D A G B f x G j 4 x c g j x g h 5.c f f z z z f k f f h j h a d d d f f f f f c c 6 j c 4 j 5.B g h A g h G D V A D D V j N A V j N A A A D A V D A A G 7.x g c x g j A j 4 x j g A ,.f r k f f k k z z z j x f f k k k k k k f h A x g x j f x 5.A g g x 4 j A D D D F D V Z D D D W W W _ D G D D _ t._ t.w.v h v A h c A g g A A h A t.x k z z k k z z k f x v h f k z k z z k h j 5.5.h c w.x h A w.x x 6.j x G G D _ D _ _ _ _ %.%._ _ _ +._ _ Z K _ _ _ _ t.w.x x 4.A j 5.5.h j w.A j w.w.x j x m m m z n x z z j x m z m m m n z x M e.v j 4.A x 7.F.j h 5.A f x 7.D D G _ G D A D D D D D D K A A G A G G G G G A h f v h g A t.j h ,.x h 5.s.A f f j j j j z z j j x k k k k k z z z x j ,.4.x h 5.v x 4.E.A h 5.A h c t.t.t.t.B.l.l.l.t.t._ _ _ G A A A A A w.t.n.t.n.t.x x 6.h x 4.s.A x ,.x A I.4.j z k k z z k k k k k f k k z z z z k f h x ,.j j ,.v f x M h j 4.x j A G A A A A G 7.x g j A A A A G A A x j h h x x j f f z f f z f 1 1 k j r f k < e e e r d r e r r r r < e r r u u u r r f m k a x v f 1 1 d j j f 1 z A c c x j g x B B x h f f h j x j j x ,.<.A j f ",
"j A A h g x g h A x g x A g f f k k k f f f x 5.5.j f d k k f f f a h G c g j A x g 4 g j A x g h G _ _ W W _ _ _ D Z W W W _ D D W F F D D A D G B g j G c 4 4 h j x j f h A c f f z k f f f f f A G x f a d d f f f a g x x 4 j A j j j h h A x 4 j A D V V V D V N N N j j A V V A V D A V V A A A j 4 j c j f f g x v g g A A l r f k f f k f f j 5.5.j f f k k k k k f h A x 4 j x h x A h f x x 4 j A D D D D D D V Z D D D W D D G D G _ _ D _ w.w.c g v A x h g h x A c h A w.x k k k k k k k k j 4.5.x f f z k k z z f h 5.,.h x w.A h x x x 6.,.h x D G D D D _ D _ %.B.%.F F _ _ _ _ _ _ _ _ _ K w.A x x 4.A h x x h A t.A j 5.5.j k k x z z z z k x 4.,.z k z z k m n z k m e.x f ,.4.x B A h x 5.B f x 7.G G D G G A A D G D D D D A V A A G G G G G G A h f x x h g j j c 5.x h 5.t.x f f l k j j z f h 5.e.x k k k k k z z z z M 4.x h 5.e.c x A x A 5.x h c t.t.t.t._ l.l.t._ _ _ _ G D A A A A A G t.n.t.n.5.j x 4.,.x v v x 5.5.j v W.6.j z z z z z z k f x ,.x f k k k k k z k f x A z f A A h h f f x ,.j f A G A A A A G G A j x B A A A A G j h h x x j x x f r x j 1 ; r r f x f 1 f f < e e q > e e e < r k z d r e r r r u r r k x k r z v k a r f x j f 1 h v x c j x c x x A x g f f h f j x B B B j j j k ",
"h A A A j 5 5 A A h g A A g f f f f k k f x 5.K G A h f f f k k d f h G B g N A G B j B G A x g h G _ t._ _ _ _ D D _ _ _ _ W D _ D F F D Z D D _ A g j A A j g B A c j f h G c f f k k k f f g A G F G c f r d f f f a f c x 4 j G A j 4 h A A x g h A D D D D D D D A j j j V A A D A D V A G D A G j g j A A x 4 j A v h g A A j i f f f k k f h A t.t.A h f k f k k k f j A A 4 x 5.A j g g A G x 4 j A D D D D D D Z V D D D D D W _ _ D D _ _ _ w.w.c h v G A x g A G A B h A t.x z z k z z k k x 5.t.t.G x f z k k k z f h 5.5.h x 5.w.A j x 5.s.A h A t._ G G _ _ _ _ _ -._ F F _ _ _ _ _ _ l._ _ F K G x j 5.F.A j B G t.7.x j 5.G z k z k k n z z x e.E.s.x k k z m m m z k ,.R.M z M w.5.c g j 7.7.B h c t.G _ _ G A D D D D D D D D A V V A D G D D G G A h f A 6.v h j A t.5.j h 7.t.c f f f z l k j j A t.F.w.x k k z z x z k j ,.e.c h 5.s.G j j G F.A x h v t.t.l.B.l.l.l._ D D _ _ t.G G t.G G G D t._ l.l.w.x x 4.F.5.h h 5.J.e.x A W.4.x x x z z z z f j 6.t.G x h f k k k z k k x 6.j g c G G c g x 5.x f j <.5.A A G K G D G A x x B A A G A A x x A B x c x f a x x f 1 f j j k 1 1 k k 1 r r e q e u e < d j j j f r u u d d u d j m x f h j j x x f f f a r z x x x x j x x A A x g f h h h h h x x x j j x j ",
"g x h j A j j A x f g c A j f f f f f f x w.K K G G A z a f k k d a h G B g j j j A G D B j x g j G D _ _ _ _ _ D D D F _ F D Z D D D D D D D D D A g x j j V G G x j h 4 g A c f f f k f f f A G D F D G x f r f d a a g c A 4 5 B B A x A A j j g g A D V D D V A D A j j j j N A V A V A A A A D A j 4 h h j 6.c c x h h g x A h f f f f f f z A G D D D x f f f k k f f j G A 6 j A A A x A G B x g j A D D D D A D V V V V D D D D F D D D l.t._ w.5.x f v c c 5.A A A B A x A w.x z k k k k f j 5.t._ D D A j f f z k k f h 5.5.g h A A 5.5.5.w.A v h B 7._ D G G _ _ D _ _ D _ D D _ _ _ _ _ t._ D D K A x j A A G 7.7.D A A h h G A z k k k k z z x e.I.t.t.w.x f k n n n z z m R.M k v A w.t.A A G B x j x D G G G G A D G D A G D A A D A A A A A G G G G A h g x x A 5.5.G A x x h 5.t.v f f f k k f j A 7.D _ t.7.x k k z k z z j 6.e.c h A A G G t.J.7.A A j x t.t.t.t.l.t._ G G D G G G G G G G A A G t.t._ t.5.j x 5.7.s.,.6.I.t.6.A v I.4.x x z z z k k j 5.D D G G v h k k z k z f x A h f x x A 5.5.5.v j f z B <.G G A G G A A A c j j A A A A c j x x x x j x h a a f f x x f f f 1 1 k f 1 r r e e q e e r f f f f f r e r r r u u f ,.x f f f 1 x ,.f 1 r r 1 f j h j x h j x x h f h h g h j j h h x x x j j j ",
"g c g f x A c j h h g B G j f f f f f j w.w.D D G G t.v f f k k k f j G B g x j f h A A g f x g j G t._ W _ _ _ _ _ F D D D D _ _ _ W F Z W D D D A g x v g x 5.A g h x g h G c f f k k f f B 7.G F F A G A x f r f f f g A A 5 g j g c 5.<.l f j f h G G G G D A A D A N V N j N j A A A A D A A G G j 4 j h f v 6.v h h x g A G h f f f f f f x 7.G D G G D B h f f k k f x K A g c c j A J.t.c x A h j A A D D D F V Z D A V D D K A D A D +._ _ _ t.5.x h ,.x h 5.7.A h x A x A s.x j k z k f j 5.t.t.D D A D A h f k z z f x w.A g x c j c w.5.x x ,.x A t._ D G G _ _ F _ K K _ _ F D D _ +.+._ D D F _ G x x A h j s.F.x h x j h A A l k k k k k j w.J.F._ t.t.e.x k z n n z z 6.R.,.j ,.A v t.s.5.x h x x x G G D _ D D D D D K D V A D D D D D A D D G G A A j f A x j 5.s.x h x x j 5.t.v f k k k k j c t.t.t._ _ t.G x k z z z z j 4.s.v x 6.x x t.).t.j c ,.j c t.t.t.n.B.t.K _ _ D D t._ D A G A A A G t.t._ t.5.j x 6.x ,.s.s.5.c A ,.A I.e.x x m x k k j A t.D F F D t.A z z z x z h v 5.x h x h h 4.R.<.j x x j A G A A x x A x c A A A x A D G N N B A A B x j x h f r 1 1 x x f 1 f f r z k f f u e e > = d z j f f f j f r r r r d d k m z f z f r j ,.f 1 r r u f j j j B B x g f 1 f j j g j N j j x x x A A x j ",
"g c f 1 f z g f f x g B D j f f f f j 6.K K D G G G G 5.c f f k k f h 7.B g j j a f j f f f x f j D t.D F D D _ _ _ F D D D D D F _ W F Z D _ _ _ V g x v f g h h 4 g j f g G c f f k f f A G G G A A A A A G x f r f f g A A 4 g h f f x j f f j f g c A 7.G A N A A V V V A A N j N A A D D D D A A g f h h a h x f a z h g c A h r f f f f x G G G D G G D 7.B f f k k f j t.A j x x g h G A g h v g j D D D D F V V D D D A D Z G A A A D _ _ _ t.t.G x f M x f j A j f x A j A 7.x j x z k j 5.t.D G D G A A 7.A h f k z f j 5.A g x v f f v v f x ,.x c t._ D G G D _ _ F _ Z D _ _ D D D _ _ _ D D G G G x j v f f A x g g x j f A A k k k k k x 4.s.t.t.t.G 7.t.5.x k k n z z ,.R.M z 6.x f x ,.x f h x j j G G G G D D D D A D Z V A D A A D D G A A A A B A j f ,.x f x v z f x x h 5.s.x f f k f z x 7.l.t.D _ D D t.5.j f z x z x 5.s.c x 5.x h A 5.x h x ,.h x G t._ _ t._ K _ D D t._ _ D G A A A A A G 7.t.t.5.h x ,.j j ,.,.j x A x v R.4.z z x k k x 9.7.D D D D D t.7.x k k x k f x w.x h x h f j ,.j j x x h v A c j j c B B j j A A x j G A A A A B A A j j x f a f r ; f f 1 r k f 3 f f f k u < < r d z z f r 1 f f f d < < r u r f x k r k f 1 f k 1 < u r < f x h x A x j h h f g 4 h j j j B j j j B x B B x ",
"h v f f f f f f h x g B G j f f f h A w.K D G v x A G G G x f f k f h 5.A g j j f f k f f z x f h G D F F D F K _ W D F _ _ F F D D F D W W _ _ _ A h v M z f f f f h h f j G c f f f f x 7.7.D A j h B A A G A h 3 r f g A A g h x f f f f f k j f f A A A A A A D A V V V D D A V A A A V G G D D A j g j z f f z f f x j g B A h a f f f j 5.G G A B B G D G w.x f k k f j t.A j B A h h x h f x v h j D D D D Z V D D D F F D D W D D F _ _ _ t._ D G x j ,.x z z j j h c A j A s.x x x l j ,.w.t.D G A <.5.G G 7.c f f z k x 5.A f v v z f x x f v A x c t.K K t.t._ _ _ _ _ _ W W _ _ K K _ W _ _ G G K A h j A j l x z f f x j f A A f f k f j 5.I.I.I.w.A A s.7.7.5.x z z z x 4.W.,.x 6.m f z x j k x v x j A G G _ D D D D W D D D D A A A G G D G A A A A A x z ,.x f z x z h v x h 6.t.x f k f f x t.t.t.7.G A G D _ F.5.x j x j j w.I.A x 5.v x x x j j ,.,.j x w.K K K t.t._ _ _ _ +._ _ B._ D G G G K G _ t.t.5.j x 6.x z z x z j ,.v v R.4.x k n k x 5.t.t.D 7.5.G D 7.l.5.x k z z z x w.x z x x f j x z x ,.x h A A B j A A A A A A A x j c A A V A A N j j j B x g f k f 1 f f r a j f 4 h j f f u r r f x x z k a r f k j l r < r d u k x l f z k a f d r r u e < f j j A A j j j A B h g j j N N j j x A B j x ,.m ",
"f v f r d d r f z x g B G j f f h G G G K G x f f j 5.G G G x f f f h 5.A g x j f f k k f z x f h A D D Z D G G D D D F F F _ F D D D D D W F F _ A f x M f f f f f f h f g A c f f f x 5.G 7.7.x 1 1 g N A A A A h 1 1 g B B 4 g j f a r f f f j f f x h g j A D A A V V V V A A A A A A A G G A A A g g j h f f f a f z h f A A g a d f x A A G G x f f x 5.7.w.w.x f k f x w.A j B x f f k f f j x h j A D D V V V V D F D D D D D W _ W _ _ _ _ G G G x f ,.x k k k z h x A j A w.j k k j ,.5.5.7.7.<.f f x G G G G x f f z x 6.A f x v f d z z f x v j x w.w.G D l.l.+._ D _ _ D D _ _ Z _ _ _ _ D G A A A h h x j k k f f f j f f B x f a f k 5.t.t.I.t.v f j 5.s.t.t.,.x k z x 6.R.x j 6.x k k k z z x x h h A G G D D G D D D D D G D A V V A G G G A A j c ,.j h M x k k z z f x x h 5.w.x f f f j w.t.t.I.A f f x t.t.t.F.5.j j j j 5.I.A x 5.M x m z k x m M j x w.K K _ _ t._ _ _ _ _ _ _ _ l._ G G _ K t._ _ t.5.j x 4.x z k z k x ,.x x 4.,.k k k x 9.s.t.t.7.B h x 5.7.7.t.6.z k z f x w.v j x x k k z j j v x x x A B A A A A A V A G c j A A A V V B A j j j j x g 1 f f f d r 1 r f f f j f 1 r r r k j j x k r r f k f k x k u r r u f x l f k k d d r r r e e % 1 h j B B N N j N N j h j j V B j g g j A <.5.,.j ",
"g x f a d d a f j x g A G 5 4 j A D G K G x f f f f x 5.G G G x f f j w.A g x j f f k k f j x f j A D D D F D D D D D D F F F W W F Z W W F F _ _ A h x x f f k f f f h f j G j f f j 5.7.7.9.x f r f 2 f B A A A A j f 4 c A j h j f i u f d f k f f h g 4 N G D A D A V N A G D D D A D D G A A A A h g x x f f f f f j x f c G g f f x G G G 7.B f i f f ,.7.7.t.7.x f f x t.A h A A l k j k f j v h j D F D A D A A D D Z Z F _ _ W _ _ t._ D G D G 5.x h ,.x k z k k h x A j A s.j f j ,.7.7.7.7.>.f r i f v K D _ 7.x f f j 5.A h x v k d k z z x v j B t.w.K t.t._ _ _ _ l._ _ _ Z _ _ _ _ D _ _ D D G A h j A j k k f f k x h j A c f 1 f A F.t.t.s.v f k k x 4.t.t.s.5.x z x 4.R.,.x 6.m k k z z z x M h h A A D G F F _ G D D A D G G V V V D G D A A j A 5.j z M m k k z z z x v h 5.w.x f f j 7.n._ t.5.k f f f B s.t.t.J.6.j j x t.E.A c 4.v j m m x x m M x x 5.w.t.t.t.t._ F D t._ _ _ _ _ _ G D _ +.l.t._ t.w.x M 4.x z z z k x 6.x x R.,.f f x 4.I.t.s.s.B f f f x 7.t.t.s.,.x f f x s.v x v x k z z z x v v h x A G G A A A A D D D D D G A V A A A A A j j j A h f f f d r r r d k f f x f 1 r r f v x h j r < < d x k f k j j r u u f x l f x k r u r r u r u > r f x B A A B j N A N j j N B h h h h h x ,.>.j k ",
"g x f r a d a f j h g c A 4 j A G G D G j f f k f f f x G G G G x g h w.A g x x f f k k f j x g g A D D F D D D D D D D F F D W F F Z Z W W F D 7.A f x x k d k k d f h f j G j f x 5.7.7.s.x f r u r r 1 f B A A A A h 4 c A g g j i d u u u f f r f x x A A A A A A N V A A A D A A A D D A c A A A h g x j f f f f f j x h c A g f j A D 7.7.A f f k k r f A 7.t.7.5.j f x 7.A j A x f k k k f j v g 7 D D D D V A A D V V Z F D W D F _ D D G A G G A c g x j f z f f h x A j A s.h k ,.s.7.7.7.<.k d f k f f A t._ _ 7.x g h 5.A h x v k d k k k x v h B t.K G G G _ D _ _ _ B.+.F Z K _ _ D D D F D D G A g h x j f f f f f x h g A x f f x 7.t.l.s.x k k z z f x w.t.t.t.6.j z M s.,.j M m k k k k k x x f h G G D D D F D D V A D A D D A V V V A A A A c A A j f m z k k z k k x x h 5.w.h f j 7.l.t.n.G j k k k k k ,.s.s.F.F.,.h x t.J.A x 5.x z n n n x m M z x w.w.D _ _ _ G G _ t._ _ _ _ _ _ D G _ _ l._ D t.5.j x ,.x z z k k x 6.x x e.,.f j 6.F.l.F.F.A f k k k k A 5.t.t.s.5.j z x e.v z x x k z z k z x x h A G A G G B A A D A A A D V A A A A A A G A j j A f 3 k f r r u d r f f 3 f f 1 1 f z j j j f < > > < u k r f j j j r r f x f f j f < u r r r d d > r j x j A B A A A N j j B B h h h x x f f j k k j ",
"4 x f a d f f f j j g B A N A D D _ G x f r k f f k k f x G D G G j j _ A g x x f f k k k j x f h G D F G D _ _ D _ D D D D F W D D F F _ _ D K t.A h x x k k k k f f x g h G A B <.7.7.7.A f r f r r r r 1 f A A A D A j A A g g j a d u u d f k f f A A A A A A A A A V A A A D D D D D G A A D G G j 4 x x f f f f f x j h A G j h A D D 7.A f f k k k k f j A 7.7.l.5.j j t.G j A B k k k k f x A j j A V D D Z F D Z V A D _ D F F W W _ _ D D D D G A h x x f k f f h A A x A 7.B A s.s.9.4.,.k k k f f f f f A K D _ G j j 5.A g x x k k k z k j v j c K t.D _ _ _ t.l.t.B.+._ D D D W _ D Z G D _ _ _ G h h x f f k k f k x f g A A g j G _ 7.t.,.k z z k k x k v t.t.t.w.6.j v R.,.x M x k k k k k x x f x G G D D D G D D A G D D G D D D D A A A A A A G 5.j f ,.m k k n k z x x h 5.t.j j D t.l.t.G x f z k k z k j A s.t.J.F.A A J.J.A B 5.x k m m n m m 6.x M s.t.t._ _ _ K _ t.t._ _ W _ _ _ _ _ l.l._ _ _ l.t.x c 6.x x k k z x 4.x x s.,.x <.F.l.l.s.<.f k k k k j j A w.w.w.w.5.A A 5.x z x x k z z k z x x h A G A G G D A A D _ D A A V A A D D A A D A j x x 4 3 j z a d u d a f f 3 h j 1 f j j j x h r r e < > e u 1 r z j j k r f x k i k f r d u r r f k r a x x j A B B A A B A j h h j B B x B j j j j x x ",
"g A h r r d a f x h g B F Z F F D G x f f f f j j f k k f x 7.7.D D V D A 4 x x f f k k f x x g h G D F D D D D D D D D D _ F F W D D D F D G G w.A f x M f k k f f h x g g G D A A 7.7.A f a f 1 f h f r r r h A D Z Z V V j 4 g x f r d u r f j f f x B j c G c j j A A V A D A A A D D G c c G G A j 4 x j f f f f f x j g A G V A G D t.A f f f f k f f k k j 5.t.t.F.7.A t.G j B A f f k k f x A g j D V V Z D F A V V A D D _ F D V D D F _ D D D G j g x x f f f f h A A h A 7.G 7.7.7.7.,.k p k k k k f f f f c G G t.G A G x g x x k k k k k x x h x 5.G G D D K _ t._ _ _ _ D Z D D D D D D D D D D A h g x f u k u u f j g g A V j G D D t.A z k k z j k f z z x 7.t.t.s.5.6.4.v f m m k k k k k x x f x A D D D D D D D A A D D D D A D D D A A B A G A 5.h f M m k k k k z M x h 5.7.A G _ _ B.5.x k k f j x k k z j ,.F.J.J.F.t.J.J.A B 5.x k n n z z m M x ,.s.t.t._ _ _ t.K _ _ %._ _ _ _ _ l.t.t.t.t._ _ l.t.j x 6.x z k k z M 5.j x 5.A A 7.t.l.F.<.f f z k z l k f z v w.t.t.w.G A 6.x z x x k z z k f x x g B G D D G D A A D _ F V V A A A A D G G A A j x j 1 1 z z 1 r u r r f f 1 f f 4 f j x x f r r r r d k < = < r f j j j f a z k 1 f r 1 r u r 1 f k 1 r j x A x x B j B A c h g h x x j j x x x f k x x ",
"4 G x f d d r l <.x g A _ ~ W F D A f f f f j 5.5.j f k k f x 7.D F F D A g x A z f k k f ,.,.f j D D F _ D G _ _ G G G _ _ D G G D D G D G G D K A g v 6.j k k f f x c g h G D D 7.7.<.h f f f f x A j 1 r r f h A D V D D A 4 j A z f u u r z x f f x x c A A j g j A A A A G G G A A A A A D D G D B 4 x v g f f f h v x g A _ _ +._ t.A j f k f l A B f k k k j 5.F.F.l.l.t.G j A A j f k k j 5.<.h j D F V D D A V V D G D D D _ D A D D D l.t._ D G A g B A g f k f h A A h A t.t.t.t.s.<.k u k f f x ,.h f f f g B 7.t.G _ t.B h c A j k k z f x ,.h x 5.G A A w.t.t._ G G t.w.A A G D D D D G G A c A A h h x j r u r r h c f g V D F F _ t.A z k k f x s.A f f k f x w.t.t.t.s.e.M k m m k k k k k m x f x w.G D D A D D D D G D D D V D D D D G A A A A G 5.h g ,.x k k k k x 4.x h G t._ l.l.l.7.x f k z j 4.4.j k m x x ,.W.E.J.J.J.E.G B R.4.l m m n m T.4.x ,.F.t.t.K B.B.t.t._ %.%.n.t._ _ _ +.B.%.%.B.B.t.I.F.A A e.M z z f z 6.5.j x t.t.t.F.F.F.<.l f k k x 5.,.j j k z v t.t.w.t.t.5.x j A v z k z k f x x g B G A A A A A D D A A A D G D A D D G G A N N A x f 3 x x a r u r f x g 1 f j h c A x z u r r u k z x u < r u d z x x j h j f r k k r r r r r k k r a f f f h g g x c A A h h B B j B B x x j j j k x ",
"4 A A g a a f B 5.x f A _ F F _ A f f f f j G G G A l f k k f B 7.D F D B g j 5.x f f f x 5.,.g j D D D D G A G K D A G t.D G G D D D D D D D D K A g c w.x f d f j B B g g G G G F.<.f a f d f j A A A j r 1 r 4 h A G D D A 4 j A x f r r f x j f f x j j B B h h x B B N B A G A A N A A A A D D G j 4 x A h f f f h 6.j g A _ F D 7.A h f k f f A F.7.B l k l f x 7.l.l.l.l.G j B 7.x f f f x 7.A g j G D D V V A A D D G D G D G G D A D G D G A A G B g B A h f f f x A c h A t.t.7.s.5.k f k i f j A G x h f f f f A D D _ t.B g c ,.x f k f z ,.A h x 5.G A A A G t.G D G _ K A V A D D D D D D A j A c g h A x f r r f x A g 4 V W D D K A f k k f x G w.G x f f f f x 5.s.G 5.e.x f m 6.k f d k x ,.x f x 5.G A Z D A D D D D D D A A D D A D D D A N c A A h f ,.,.z f k k x 4.j f A l._ l.B.7.x k z k x w.J.I.5.x k m x x 4.E.F.J.J.F.A B s.s.x l m z M W.4.j x F.t.K K _ _ t.t._ _ _ _ _ _ _ +._ +.n.n.t._ K t.w.x v e.6.z z z x 6.6.h j t.l.t.l.F.5.h f k f j 5.J.5.x k k k z A t.s.t.w.5.x h A A j k k f j <.j 4 N G B N A A A A D A j A G D D D D A D A A A N j x g 4 x x a r r f j x f : f x x v x k r r r r 1 r f f k r = r r a z x j z z f r f j r r r < r x d , r r 1 r f g f g h h h j A B A A B B x h h j j j j ",
"g G D x 4 4 h G 7.x f B _ W D A f f f f h A G D D D A h f k k h B D D D B g B t.5.h f k A F.<.g j G D D G G A A G G G G G w._ G D D D D D A D D w.A g x s.A f a f x A x g h G _ t.5.j f d f f x A A V A A h f r a a h A G _ A g j G 5.j r r j ,.j f h A j j A B j B B j B j j G G D D D D G G A A G G x g x G c f f f c w.j 4 A D D D A j k k k j A t.D t.t.B k k k f x 7.t.l.l.G j A t.G h g h G t.A g h K D D A A A A D D _ D D G D _ t.D D G A j N A D B g x 7.A h g g A G c h A F.t.e.,.l k k f f x 7.A A G x g f f f f A t._ t.A h A 5.A z f f x s.6.h x 5.G A A B A w.G D _ _ _ D V D G D D D D D D A D A h h A A h 1 1 h G A g g A K Z G v h f k f j 7.t.D _ 7.x f f k f x 4.s.s.s.x f m 4.x f f f m 5.x f j A G D D D D A D F D D D V A D D D G D G A A A A A h g ,.5.x f f x 5.4.x f A B.B.J.t.x k z z j w.F.t.t.I.4.x x m x m 4.E.E.^.E.A B I.J.5.j l m R.E.4.k x w.t.t.t.G _ _ _ t.l.t.D _ _ t.l.+.B.l._ G G G w.5.x v W.e.v f z A w.5.j x t.l.l.F.5.j f k k j 9.F.t.t.5.j k j k z ,.I.t.t.s.c h G t.v f f f A 5.h 4 x G A A A G A G _ A j A G D D D D V A A A A V N A j g x 5.x 1 1 g A x f 3 h c A x j f r r r r r f f f j f 1 e e r f k j x x z u k m k d r < f x d = d f 1 1 f x j h j f 4 g x j x B x x x j x j j j l ",
"4 A D A j j A G G j f B D G x g f f f z A D A D D F 7.A f k k f f B D D c g x t.t.A j A t.7.A f h A A D G A A A A A G G G G G D D D D D G K D D K c f x t.t.c h x A G B f g G t.5.h f d d f x 5.A V V N A A j f r a r h A w.A f g G G c g f A A j a h A A j j B B j B A A N A G G D A D D D G D A A A h 3 j G G j g x G G j g B D G A j k z k f A t.D F _ D 7.A j k k f x 7.t.t.A j V _ _ A j A _ _ A 4 g A D D D A V A D D D D K D D _ G G G G A j G A A N g x D D c h j G G x g A t.s.,.k k k f f j A A A D D G x f f f f h A t.t.B g A 7.G x f h A 5.v f j A 5.G A A A A D G G _ G D D D D D D D Z V A A A A f f c A x 4 f A G A f 4 c G G c h a f f f A D D D D G 5.x f k k k j ,.s.4.j f m 4.5.x f x 5.A j f h A A A D D G D V V A D D A A D D G D A A A A c A A f 4 A D G x j A 7.5.j f A l.B.s.x k z k x w.t._ l._ l.t.6.m m m x m R./.E.E.A B s.J.F.A x 9.E.s.A f x w.t.t.t.t.G G _ l.t.t.D G _ t.l.+._ _ D w.t.w.w.6.h x s.I.A j v w.t.5.h j t.t.t.A j f k k j 5.t.t.D D 7.5.x k z k j A t.F.7.x h G t.A h k B A A g 1 h A B B D G D G _ D V x V A V N A D A A V A V A A j 4 j A c g g x A x f 1 z x j z d u u r r k m j j f f j f < < r e r f z x k r f x z a < r j j r = d f a r f f x x f f f g h h j h j h j x B B j k k ",
"g A D F D D D G G j f ,.5.x f a f f f A G G D D D D D 7.A f f f f f A 7.v g B t._ D G t.l.G x f g A D D G G A A A G G G G G G G G G D D _ _ D D G c f x t._ G G G G G B g h G G j a d f f x A G A V V N V G A j f a a f j G A 4 h G G G G A G A j f h A c j g h j A B B A A A A G A V D G G K A A c A j f x G D G A D _ G j 4 A G A j k k k k B t._ W F F F D 7.x f k k f x 7.7.A j V W ~ W F W +._ B 4 j G D F D V A j A _ _ _ G D _ _ K G A A A G D A G B g x G _ G A D G G B g A 7.A f f k f f x G D A A D V D G x f f f f h G t.B g B 5.G A x A K G A f j 5.6.A 5.5.G c A G D _ G G G D D D D V V V D D A c f f A G A j A D V j 4 4 A G v h a d f f x t.7.D D D D 7.5.j k k k k x 4.4.x f x 7.t.5.B A G A j a h A A A D D D D V A D Z D D A A G D D G A G G A A A h f c D D D G D t.5.x h 5.F.7.m k k z j 5.l.l.+.+._ _ t.s.4.x m m x 6.R./.E.,.B t.l.~.l.t.J.E.F.A f x t.t._ l.B.l._ t.t.l.n.t._ _ t.l.l.l.t.t.t.J.t.t.e.j x s.I.t.5.w.n.t.G h x s.t.A j k k f j 5.9.D D t.D t.t.5.j j l f f A t.t.x h A _ D A A G G A f f j x j j G G G D D D G A V A A A A D A A D A j j j j 4 j A A c A A x x 1 1 z j f r r r u r f B ,.x h j x x x f 1 e r e r k z e $ u x x k a f v z r r k j j f r f j j f f h h j B x x B x B j j j j x x ",
"4 A D F F F F D G j f x ,.j a f f g A G D D D D D D D 7.t.c f f f f j 7.c g B G F _ _ D F G x f g A G D D G G G A A G G _ G G G G G G D G G D D G x 4 h G D D F _ D A j 4 h G x f d f f x G G V V V N N V A A A h a a 3 g A x 3 g G A V G G A A h f j A A x j g j j j j A j j N j j A A A D A A A A A h f j G D D D F F G j g A 5.j f k k f B 7.t.D F Z D D _ D D x f f f f A 7.c g V W Z Z W W W W A 4 j G D Z D D A V V D D G D D _ _ G A A A A G F D G j 4 x D D D D D D G j g A 5.l i k f f j A G D A A A A D G G x f f a f B G x g j G D G G D D G v f x 5.G A A G G A D A A A G A A D D V V j j V V V G j 4 f c A A D A D V j 4 4 c A x a d r f x 5.G G D D D D D 7.,.z d d d d x M x f x 7.G 5.A A A A j f z A A A A V A F Z A A Z D A A D G A D G G A G G A c f f x D F D _ D G G x f 5.s.A k k k k A t._ _ _ _ _ _ t.t.s.6.x m m x 6.E.R.x B F.B.B.B.J.J.J.F.x f x t.t.l.t._ l.B._ t.l.t.n._ t._ t.t.t.t.t.t.t.n.I.5.j j s.t.l.n.t.t.t.5.g h s.5.j k k k j 5.s.5.G G G G _ t.t.5.j l k f j 5.e.h f B _ D D D A A A f 1 x A j j A D G A A D A A G G G G A V A D A j j j j 4 4 j A V c c c j h a r f k a e r r r f x x j j f f h j x x d e e e e d k e $ u x j j z z j f r < f j f f f a 1 f f z f f g x c c j x x f f l j j x ",
"6 V D Z Z D F D G h g ,.,.h f f g B G D D D G D D G G _ t.5.j f f f h 5.A g B t._ _ _ _ D G A f h A D D D D G G D D G G G D D G D G D D G D D G G A f h D D D F D D A j g h A j d f f j G D A V A V V A A A A A A h f f f c A g h G D A A V A A j f j A A A A A j j N j j j j j A c A A A G A A A A G j g j G G D D _ _ D j g A 5.j f k k x 7.t._ W F D D _ D D t.D x f k f x 7.A j V _ W Z W W W W A g j D D D D F _ F D Z _ G G A G G D D G A A V D G G c g x D F D D D D t.j g A 6.k f f f x A G D D D A A G G G D D x f f f h 5.A g j G _ F D D G K A g x w.w.A A A t.G V D _ D G D A A D G A j V A A D G x g h A V D D Z D D V g g c c f a f f x 7.7.G G G G D D G D 7.,.z d d d z M x f x 5.G 7.G A A A j f x G D D V V V D D D D A A A A A D G G D A A G G G A h 4 c D _ _ +.D t.7.x h 4.s.x k k k x t.l.l.+._ _ _ _ t.t.l.s.,.x m z x R.E.,.c F.J.J.J.J.J.J.I.A f v 7.t.l.t.t.B.l.l.t.n.l._ D _ B.t.l.t.t.t.t.t.l.F.5.x x s.F.t.t.t.t.t.5.f j s.,.f k l j 5.t.t.D D D G t.t.D _ F.7.l k k k A s.x g A t.D G A A G A f f x 5.G A c A G G D G G A A c A G G G G G A j j A A g 4 j A A c j c c c h f x z d e e u f x A B j j f f j j j x x d e e < r x d e k x f h j j j k f r f j j x x f 1 a h j j g h x c v x x j f f j x j j ",
"j A V Z Z D D D G h f x ,.h f f B G D D D D A D G D G D D G 5.x f f h A A g B t._ F D D D D A g h A G D D D G G G D A D D D D D D D G D D D G G G A g j D D D F D D A j 4 h A h a d j 5.D V V V N N V V A A N V A c g 4 g j c g j G V V c c V A j 4 h A V V G A c c N j j B N j x j j A A A c A A A A j g j G G D D D D G h g A A h i f x w.D D _ _ D D D _ D F F _ G j f f x 5.A j A D F Z Z W W F A 4 j D A F D D _ _ D D D D A A D V A D G A c c A D G c g x D D D D D D K j g B ,.k f f j G D D D A A A G G G G A G A f f f f A A g j G G F G D G G A h j 5.K G A A A G A V D _ G D A A A A A V j V D A A j f g A A V V V V V A g 4 j x f r f x 7.D G G A A A G D D D G 5.v k k k z 6.x f x G G A A A A A j f x G V D D A A A D D A A A A A A A G A V V A A A A A g f A D D +._ D t.w.j h 5.5.x k k x s.t._ _ +.+._ _ _ _ _ _ t.s.,.x z x 4.E.A c s.l.B.J.J.I.I.I.,.f x 7.t.t._ t.t.t.l.t.t.l.D D _ t.t.t.t.t.t.t._ D t.5.j x s.t.t._ _ t.7.A f j 4.v f k l A s.D G G G G D t.7.D D F 7.A k k k ,.w.x g A 7.D A A A A A f f j G A G A A A G G A A A j g c A A G D A A A A A A g 4 c A c c j j c A h f z z a r r j ,.A B A B j g h j h h h j f r > < r k k r f x f f f f f k d r f f l h j f r f f f h j f g h h x j f f l x x x j ",
"h G G D F D A G 5.x f ,.,.g g A G G D F D D G G G G G K D G t.G j f h 5.A j A t._ D D D D t.A g h G G D D F G G D D A A D D G D D D D D D G G D G A f x D A D D G D G B g j A f 1 h A G A V V V N A A N V A V V Z A j g 4 c A j j K D V V V A A j 4 h A A V V A N j N A B j g 4 4 j A A A N x c A A A x g j G G G D D D D j g 6.,.f f x 5._ D D W W D D D F W F W W _ A z f x 7.A h A F W W W F F _ A 4 j D A F D W W W _ D A A D D A A D D G D c c A G G B g A D D F D Z D D j g A ,.f f j G D F _ G A A D G G D G D A A A k f h A ,.h B D G D G G D G A h x 7.G _ w.A G t._ A A K w.A A A A c j j N D A A G A f h G A V V Z V D G h g c c a a j D _ D G A A A G G D G G G t.5.m k f x R.v f x G G D D G G A j f x G D D D G D D D A A D D D A A D D V V D F A A G A h g 5.D D t.t._ l.e.x j 4.5.h f x 7._ _ _ +._ +.t._ _ _ _ _ _ l.t.x j x e.W.A c I.J.B.I.n.l.l.E.,.h x 7.t.K w.t.B.B.B.l.l.t._ _ l._ l.l._ 7.t.l._ D t.5.j x R.t.t.t.D t.s.,.k x e.v f f A 7.t.t.D G G G t.7.G 7._ G D 7.A k k ,.e.x h A 7.G A A A A A j f x G G D G A c A A A A c j j A G A A A A A w.t.G A g 4 A G N c c c A A h f j j 1 1 j 5.G A A A A B h h x x j f h j a 1 r f z k < f x h f f f k z d < r j j f r f k f f f j h f f f j x l f f j j j x j ",
"g A D D D D D K A j f x A g j G D D D D A D D D G G G K G G D t.A j x 7.A j A t.D G D D D G x f h G D D D D D G D D A A D D A A F A A G D G G D D B f h A D A A A A G B f h A h h A G V V V V V A N N A A V V V V A A c j c A g g A A V V V A V h 4 g A A V V V j 5 j N N j 4 4 j j A A A N j x A A A j f h A G D D D t.G g f A A h h ,.G D D D D D W D D D D F W D _ _ v g j 7.A h A _ F F Z F F D B g j A V V Z D F F D D A c A D A A A A A A c A G A G j g j G D V V D D G h g A A f f A D D D D G A A A D G G A A A A A x f g 5.A f x 7.G D G G G G x f j 5.G D w.K G G _ _ K A A c A A A j 4 j A A V V D c 4 g A A V V V V A V g 4 j c 4 g G D A A A V j D G A A D G G G 5.4.x f x s.x f x A G D A G A A j f j A A A D D D A V V A D D D A A V V A D D A D G G A h f v G G D _ t.t.A x h 4.5.h j 7._ F D D F F D _ _ _ _ _ _ _ _ J.s.j h e.R.v c s.F.l.I.t.t.I.w.A h x 5.t.K K D t.B.t.t.t._ n.t.l.B.l.t.t.D D D t._ t.5.j x 4.F.t.D D 7.7.,.f j 5.x 4 j 7.G D G G G G G G G G G G G G G 5.x h x 5.x f B 5.A A A A A A f f h A A G A c x c A A G G G G A A A A A A G A G K c 4 4 c A A j j A A x f 1 k j a f ,.7.G G A A A B h h x x j g g g h f 1 f z r = r k f f r f k d e $ r j j f ; 1 f f f f h 3 1 f f f j j k f j x j h f ",
"g c A D D D D G A h f A G A G G D D D D D D D D D G _ _ G D D F D G D G G j B G D D F D t.c j f h A G D G D G G D D D A D A D D D D A G D D D D G B f l A D D D G G A B g h A A A G A A V V A G A V N A A A Z V V V D A A A c g g j A D V A A j g f h A V V V D V j 7 j N j j N N N V V c j j A A c A j g f B G G D t.D B f h ,.A c A G G A D D D D D D D D D _ _ G G _ G A A 7.A h A G D F F F G N h g j D V Z D A G D D D D A D D A A A D D A D D G G A x f h c A D D G A j h f c A A A G D F G G G G D A D G D D D D D A A x j 5.<.h h 5.D G D t.G v j f x 5.t.K t.t.G A K w.G A c A G D A j g j A V V V A A g g A A V V A A V j g g A A j V G G D G G A A G G A A A G G A G 7.5.A A 9.B f x A A D 7.A v B j f j A A D D G G A V A D D D D A A A Z D D D A G G G A h f x A A t.t.t.G x x j 5.5.A G t.G _ _ _ _ D D _ _ _ D D _ _ _ t.F.7.A t.s.A A t.t.F.J.F.I.t.,.x z x w.t.t._ K t.t.n.t.B.B.B.l.B.B.l.w.K K _ _ l.t.t.5.x j 5.t.t.G t.t.G A f j w.A j G t.G _ G G G G G G D G G t._ D G t.7.B A 5.x h j x A A A A ,.j f f x 5.G A c c A G A A G _ _ t.G G w.G G G A A K w.G g f j A A A A A c f 1 1 j v x x A A A A A A A x h h j j j j g g x x f f f a < r f f f f f f < > > f x j f r r f f f j j g g j x j x x j j x A x j f ",
"g c j A G _ D j x x f A t.D G D D D D D W D F D D G G D G D D D D F Z G A j B B A G D D B h j f h G G D D A A G D D D A A D D D D D D D G G D D G B f l x j A D A j j x f h A G D A A A A A A A D V V V A D Z V V V V V D A j 4 g j j A D A j g h g h G Z Z V V V j j j j j N j N N N N c j j c A A A h f f j j G t.t.B h f f v A A G D D D D D D D D D D D D G G G D A G G D t.A h A A N G D D j g h 4 j D Z V A V V A D D D A V D A V A A A A D G D G G x g f j c A G c j j h f c A D _ D D D D G G D G D D A D G D D A V G 5.K 5.B f h B A t.D t.A h h f j 5.5.G G G G A c A A c c A A G c j j c N V D D A j g g j j V D D j 6 j g g A D D D D D D D A A A A A G G A A G G A A t.7.7.7.x f x A x <.t.x h B j a z A A A G A A V V A D D D D A V A V Z D A D G D G A h f x x j 7.J.G x x x j 6.t.D D D F _ F F D _ G D D D G D D _ _ _ t.t.t.l.t.A c e.G A s.s.w.A x x h x t.n.n.n.t.t.t.n.J.B.l.l._ l.t.t.t.t._ n.l._ t.t.5.j j x B 7.t.5.c x x f h 5.G D _ D _ _ D G G G D G G D t.t._ _ D D G G w.5.j f j j B 5.5.A h f f f j A A c c A G G A A G D _ t.G G A G w.A A G K G A g 4 f h j A A x f f 1 1 x A A A B A A A x A ,.j f j j j A A g 4 h x h 4 f a 1 f f 1 f f 1 < = > > f j f f r 1 f f j x j h x x x x A x x v A x x x f ",
"h A j j A K j g A A f A D D W D D V V D G D D G D D D D D D G D D F D D A h A c g A 7.A g x A g h G G D D D A A D _ F A A G D D G G D D _ G D D D A f j A g j w.A g h A f j G G D D D V V Z A A D V V A D V V A V V V V Z A j 4 h A h j A j g x x g h A D D D Z D V N j j N N j j V N V V j j x A A A j f j x j x A x j A x g v G A D G G D D D D G G D D D D D D A A D D D _ _ A g A A h B t.A g j c 4 j D D A A A N A G D _ D A A A A D D A A G w.G G G x f x j h x x g h 5.x f v t._ G W _ D _ F F A A G A A D _ G D D D G G t.G B f j x A 5.t.w.x h x j x 5.t.w.G G w.A c x c c A A c A c j A A N V D A A x g j j 6 N G A 5 4 A g 4 V D D D D A A A A A A A A G A c x A 5.A A G 7.7.<.x f B ,.x j j h x A j r k A A A D V V D D D D D D A A D D A D D D G G A G ,.j f ,.x h A s.A B 4.A j 5.t.G G _ D _ _ F _ _ D G G D _ D G D K K D _ B.B.s.v x s.6.j 6.E.5.j A ,.h v n.t.n.n.B.t.t.n.n._ _ t.t.n.l.l.B.B.l.B.l.t.t.t.4.j x ,.j v ,.x h B 5.f h 5.t._ _ _ _ _ G D G G G D _ D G t.t.G G G G G t.5.j f x x h B <.j f x j f j 6.A A A G G G D G A A A A G G G A G w.G G G G G x f j g h j j g f x f 1 j 7.G G A A A A A 5.,.j f h x c A j 4 4 h B j j f i r j k 1 r f 1 1 a f r a k z f f f f f x ,.j f k x x x x j x A A A A ,.x ",
"f A A j j j g j w.c g x D D D D V V V V D D D D D D D D Z D G G _ D D D c j A w.c j h h x A x f h A G D D D D A V A D A G D G G D D D D D D G G G c f j 5.x g h h h A x g j G A A A A V V V A D A V A A V V V V V c V V N A j f h A x g 4 g j B j g g j c V Z D V N j j N N N j j 7 V N j j j j c c x f f h 5.A g g h v A h f A G A D G D D D D D D D D D D D D A V D D Z D W _ A g A 5.x g j j N A x 4 j A D D V V A A D D D G D V D G G D c c A A D G A j f v A j g 4 h A 5.x f A G G D D _ G F D V V A A A A D F G D D D G G G 7.B f x <.x x 5.A h A ,.j j 5.w.5.G G A A A x j c c N A c c j j V A N j j A j g j A j j j j j V A 4 4 N D D D A j j x c A A c A A c x x A A A G A A G 5.x f x w.A l f x A x j r f A A A A c V V D D A A D A A A A A A V D G G G A x f f M 4.c x x x 5.4.x x G t.A D D D D D _ _ _ _ D D _ D D G D K K _ _ _ B.n.c x 4.w.A x 6.A A 4.x f x t.n.n.n.B.l.t.w.K K K K t.n.B.B.B.B.B.t.t.t.t.w.,.k j 4.,.j f h B 4.,.f h G D F G D D D G D A G A G D D G G G G G G G G 7.A f f ,.,.f f l j x 5.j f j v A A A A G G D D A A A A D D A A G w.G G A G G h f v x f f f f x ,.f 1 h A G A A j j A 5.6.x f f h h x j j j h g j j h x u 1 j m 1 = 1 r k x k r r z f f r f f k j A j f f f j j h j x x A <.,.x j ",
"g A A t.V j c t.A j g j K D D D V V A V D D D D D W D D D D D F _ G D G A j A w.t.B g j G G x g h A G G G G G D A D D D G G D F D D D D D D D D D A f j 5.7.h g j G A x g h G A A D A A V A D D A N A D V A A A A N V V V D x g j A A j g h A A c g f g j j A A V j j V V V A V N N A V x j g h x x c h f j G 5.x g c A x h f A G D D A V Z D G D D G D D D D _ D D G G D D F D A h c G G B 4 j D G x 4 j Z D F D D G A D G G D D D D D A A A A A A A A c f f x A A j g B G G j g A _ G _ D A A V D A A D D D D G G G G D D A A G 7.<.h B s.5.x x A A t.,.j j 6.A A 5.5.A A A A A A A A x N A N j j N j j j A c f j G G N 5 j A G A 4 4 j D D F D N j B c x A G A A A A A A G 5.G A A G 7.A f x 5.7.A B A A x j f f A A A A A D A D D D A G G G A D A A A A A A A A x f f v s.e.,.x 5.s.v x j 5.t.G G D D D G G _ _ _ G D _ D _ _ _ _ D _ _ _ l.n.c x w.s.s.A h x I.s.x h v w._ B.t.n.n.t._ K K _ t.n.n.B.B.B.B.l.t.w.w.t.w.,.f h 6.s.6.f j 7.5.x f h G t.D A A A A G G G G A G D D D D G G A A G K G A z f v 5.c h h A 5.A f f x c c A A A G A G D t.G K K G D A A A c A A A w.w.h f v ,.j f 3 x 5.A f 1 f A A G A x x v M x h f f h g h j j A A j j j x x d < k ,.l 1 r j x d r < k x k f r a f f x x x j l f j j j j x B B j h f f ",
"g c c N G A A A c j g c D Z V V A A V D D D D D Z D D D W D D D G D D G c g A A A G A A A j x g h A G D D D G D D A A G G A A D D D D V A D F A G A f j A A B B A B j j f j A A V V A A A N D D A j N A D A A A A N N N V D x f g x j A A x c j j 4 g x j j j V V V N j V j g j A A N j j 4 g h x x x h a f h j A A A j j h f c G D A V V V D D D D D D D D _ D G D D D G D D G x g x x j A A A A j j g 7 A V V D D D G D A G G D D D G A A A c A A c c c f f x x j A A A h x h g A 7.G D D D A V V A A D A A _ G G G A A A G G G D A h x 5.t.G A A 7.5.x f j 6.A A A G A A A A A G A h h B A j j j j j j c c x f g c j N A A A j j 4 4 A D Z W D A j x c G G G A A A G G A G G G G G G 2.B f x A A 5.t.5.x x x f h A A A w.G D A V V A A B B A A V G A A A A A A A x f f v A x 5.s.5.c x x j A t.G G A D D D D G D G D D _ l._ _ _ D G D _ _ _ K j j w.A 5.w.A t.I.5.x j x t.B.t._ K K K K K n.I.K 5.n.B.l.l.t._ _ t.K G 7.A f z x A 7.5.5.5.x x h h G G D G G A c A G t.G G A A A D D t.t.5.A A A A c f f x A A c A A A x f f j x x c A A A A G G G A c A G G c c c c j j A G 5.j f j x x j j A A x f 1 h A c c c x x x j j x x f f h j h j j x A j h x z < < f j j f f f r < e e r f f f r 1 f j j h x x x B j f j j x B B x j j k ",
"g A j g G t.A j h x h A D Z D Z D D D D Z Z D Z D D D D _ D D D D G D G A h v x j B 7.G j g v h j 5.G A D D A D G G G A h g A t.D F F V Z D D D D A f j x j B 7.A g j A h h A D D A A A V V A A A N j A V D D V A c V V V D A g h x g j 5.A g h j g h 6.A V V V V V V V A h 2 4 B B j j g 4 h c x x c h f h f g v 5.v h j h f v K V A V V D V Z G G G A D _ D D D D D D D D F D B h c j g B 7.A j j x j j A D Z D D A D D A A c h h A G A A A A A A A A A j f x j g A 7.x f h x f c G G D D D G A V G G A A D F _ D D A A G D G G t.A h x A A A t.s.A v x h x s.w.A A G A A G A A A f r f x A A A A N A G A B c f h j 4 j t.7.B j j g g V Z Z Z D A A A A G A A A G G G G G G G G w.t.7.5.B f x A h A s.,.j ,.,.g x 5.A A A A A G A A G A h f x G A G G A A G D D t.A h f ,.x f ,.s.v h v ,.j A t.D G G K K G G D _ _ D G _ t._ t._ G D A K _ K D x x w.A x w.J.w.A x ,.j x F.l._ K G A w.w.I.I.e.x x w.I._ B.l._ D 7.D G 7.<.j x ,.j x s.w.j f x j j 5.7.G t.7.G G G G G A G G G G G t.t.G G A A G A A z f x x h A G x h j f f x A A A A G A A A G 6.j f x G A A B A D A j A G A j f z f j ,.5.x h j f f x G j j c A A A x A 4.A h h x h h j x A A j j j f < r k f a j m f < e d r r f f j f f l x x x x j f j x x j j B B B A A A x ",
"g v j f c G j g h x h c D Z Z D F F D D V D Z D Z Z A D D D A D D D G G B h x x g h B j 4 h v h j A G A A A D A A D A j f f j A t.D V V Z Z D D D c f z x g h A j f h x f h A A A A A A V V N V N A N V N V V V A A V V A D c g h x f f x x f h h g f A A c N N V c V A j f 1 1 i h j g j j x j x v x f 4 j f f z x f f z h f c D V V A A A V Z D D D V A D G G D D G G D D D G B g x j f f B j 4 g x g j A G D A A A A A A A f f f h c A A A A A j A A A j f x j f g x z f j x g c A A D D D D D A A A D V A F D F D A A G t.D G G A h x A j h G G h h x h x w.w.G A A A A A A A j d r r f c A A A A A A A A j g h x g 4 A A g 4 x f 4 V D V Z Z D V A G A j j A A c A D G A A G 5.D t.9.x h A x f x A j f A ,.h j 5.G A j B A A A A A j f f f x G G A G A G D D G 5.h f M j f x A j z M v j A t.G G D w.t.t.G A G _ D G G G D D D D D G D D K G j x 6.c j x 4.x j x ,.j x t.t.t.K G G G 5.s.e.x z k x w.I._ _ t.D G D D 7.5.j x ,.j h x j f k x z j G G G 7.7.7.G A G A j j A A A G G G G A G G G A A h f x f 4 j x g f j f f B A A A A G A A A A x f f k h x A A A G G A G G c f f x f f x x f f f f f x A A j j A G A A A A A c h h x j h j x j j j h f r r k f 1 f z 1 > u k r r z k f j j h h j m k r r f j x j j x j x B B A j ",
"j v x f j v j f j x f c D D F F D D D V V Z D D A A A G D D D G G D _ t.A h x x j f f f f h x h j K D A A G D D G G x f f f f j A D D D A A D G G x f z x f f x k f z x f h A N j j A D A V A A A A A V A N j A A A A V A G c f h v f f z f f j j g h A A c j V V V A x f r r r 1 f j x B B A j x h x h 3 z j f f f d d j h f c A V V A A A D D A A D A A A D D D D D D G D D _ A g x x f f f f g h x g j A D G A A G D A G x f k f f x A A A c x c A A A x f j j f f h f f j x f x A A A G G A B A A G G A A A D D D D G G D t._ G A h x v z f v A f f x j c w.t.G A A A A A 6.x f f k d a j A G A G B j B A j f h x h g j h f g x f 4 V D V V D Z D D A j j x A A j A w.w.A A G 7.G w.s.v h v M z j x h h x ,.j j 5.G A A A A c A ,.j f f k f f x G D A A A G D G A j h v j f z x k k M M j A 7.G t.t.w.t.w.G G A G D G D K Z D D F _ Z Z D _ t.x x 5.v j x x z j m ,.j x l.l.%._ w.w.5.s.w.x z z z k v s.s.t.t.G D t._ t.5.x m 6.j z f f k z x j j G t.D G A A A A G G A A G G G A A A A A K G K G A h f x j f j j f f x f f A 7.G G G 5.G A A v k k z k f j ,.7.D G G G A x A h f x j f j j f f j j f j 5.A j c c A G G G A A c h j A x h g h c B x x j f r k f r r f r r k k r r j l f j j f j x k r r k k k x ,.x h x c j j A f ",
"j v x f f k z f j x h x D D F F D D Z V V V D D A A A A D G D D _ _ _ t.A h x x f f f k f j ,.h j G G D D G G D G x f f k k f f h A G A A A D D G x f z x f f k f f f z f f x c j j V A A A V V Z V V D A j j N A V A A V A x g h x f f h f f h j g g A V j V N V A j f r d u r r 1 h x B j j j h h x g 4 f k f d d a a k f f x A V V V A A D G c j A G A V A D G D A D D D G G x f x j f f f f f h x h j A D G K A A G 5.x z k z k k k j A A j c x c A A x f j z f f f f f z x f A G A A G G D A A G G A A A A D A D G G 7.t.D D G A f x x z f j x f h x h x t.K G G A A A G j f f d d k f f z A A A j j j j j h h x h f f f f g h g g A V V V V D D V A A A B x c c c G K A A A G D 5.5.x z x x h z j j h j x f h 5.A A G A A A A x f d f k k f f x G A A A A G G A f f x z f z z k k x x h c w.G G D K A A A A A G G G _ K D D D D F _ _ D K K j x ,.x j x k k x x m j x l.t._ n._ t.w.e.x k z z k z k x 6.s.t.t.t.t._ t.7.j x m z k k k f k x j h G t.G A A A A A G G G G G G G G G A A G G w.t.t.A f f x z a f f r f z f f x G A G G A G 5.v f d k k k f f x A G G A c j j v h f x x k k f a f f f 4 h A A A A c x A K G A A N j h j j g 4 h x A x h j f u k d r e r r u u d r r k f f f f f j k < > e r d r u x x j j A A x h f ",
"g v j f f f k f j x f x A D D D D Z V V V D D D F F D Z D F D D _ _ t.t.A h x j f f k k f z x h h G D D _ D D G B f k k k k k f f h A G D F V V G c f z j f d k k f f j f f c G c j j A D A V V A V V N A j j A V V N N j A x g z x f f f h f z j g h A V V V V A x f 1 a d u r r 1 r f x x x h h j x g 4 h f r d d a d f f f j D D D A A D G G A G G G G G D D D D G G D D G G x f x k f f k k k f x h h G D D _ G D 7.c h k x x k k k z x A B x j c A A B f x z f f f f f z x f A G D D G G D D D G D A D F A D A G G D D D G G 7.A h x x z d f z f z x h A t.w.w.t.7.5.5.x z f k k f k k f f j c B j j j A j h j x f f f f a f j f 4 j A V V A D A V D t.t.A x c c c G D G A A G 7.G 6.x j M x f k j x j j j f h 5.G G G A A A x f d k k k k k f f x A A A A A G A f f x z k k k k k k z z v w.K K A A A A G A A G G G t._ D G G D D _ _ K K G x x 4.x z x x z x x m j x t._ t.n.n.n.s.v j x z k k k z z x 5.t.t.D l._ t.5.x x x k k k k k k x j j w.t._ t.t.D t.D D G G G G G K K K G G K K t.K 7.A h f x f a a d r d z f a h c A G A A 5.,.j f k k k k k f f j A G A j j A A j z x x f k d r f j f f j A G G A G c A G G G A A A j j j j x x x x f f f f f k d r e e e r u k k f k j h h h j l u r e q e e r u i k x x j j x B j ",
"g A z f k k f k j x f x A V A A V V V D D D D F F F F Z Z F _ D D D t.7.A f j j f f k f f f j g j G D G D t.7.x f k k k f k k k j z h A D D D D D x f z z f f k k f k k f f c A A N j j A A V V V N N A B B A N N V V N j G x f h j f f f f h h h f g A A N N A c g r f f d u r r r r a h x x j j j j g 3 f f r d a a r f f f j D V D G A D G A A A G G D G G G D D A A G G A A j f j f r f k f f f j g g A G G D G 7.x f h j l k k k z k f j x c x c c A B f x z a f f f f f j h x G D D G A A D D D D A A D D D D G A G A A G G A c h x x k d k z f z x h x w.t.K t.t.w.v z z j k k k k k z k f z c A A c c x g j x f f f f f f j f 4 j V V V A A j D G D G A c j c c A G D G A G A G 5.x j m j f k z z j x j f h 5.G G A A A x f k k k k k k k k f f x A A A A A A f f x z d d z k k k z f c K G K G A A 5.A A G A G _ _ l.D G A D D D G Z K A j x M x k z z z z x x k x s.t.n.K t.s.,.z x x z k k z m x x x A t.t.D D t.5.j x x k k k k k k x j j w.l._ t.t.t.7.D D G G G G K K G G K G A G w.K A A f f j f r d u r d z f 1 f c A A A 5.A j f f k k k k k k f f x A A A A V A h f x z f k f d d k z 4 g A G G G G A A A A A c c A x j j j j x x h g h f f f k r e r e e e r k f k x f g h j j r u u e % q e r k k i f x j f h j j ",
"j ,.j f k z k f j x h B D D A A V D D F D D F D D F A A V D D D D D D D A f x j f k k k f f f g h K _ D t.7.A f k k k k k k k z z z j j A D D D G x f z z f k k k f k k f h A A A A j j A A A D A j c A A A A A A A A A D D A g h j f f f f f z x h j A Z Z G A h f f f f f i u r r u f f f x A x j j h 1 a a r d a r r k k g B G A A A A G G G G A G G G D G D D D A A A A A A x g j f u f k f f k x h h G 7.G K A x f k j j j x z k k k k k j x A A A 7.B f x z f k f d a f j h A G D D G B A G G A D D A A A D D G A A A A G D D c f x x z k k k d f x j c t.t.t.t.s.,.x z j x x z k k z k z k f j A G A A A g h x f f f k f f j f f j A A D A j j D _ D G A x x c c A G G G D D G G A x j x x f x z z x x x f j 7.5.G G A x k k k k z k k k k k k k k x <.A A G A f z M z d d k d k k z z A G G t.D G G D w.K G G K t.t.G G D A D A V _ W K A j h M x k z x z z x m k x F.B._ t.t.A x x x m x x x x x x x x j A t._ _ t.7.x v x k k k k k k x z j w.J.t.t.t.G G G G t.G G G K K G G K G A A G D 5.A h f j f a d d d f z f a x 7.G G A A j f f z k k k z z z j x h x A D D A A x f x z a f k d a k z 4 g A G G G G A A G G A x h h h j j j N A x h j A x f a k u r r e e r u r < a x j f j k r r k k r > e e u k k f a k x x j h j ",
"h 6.j f k k k f x j g A D D D A V Z F F D D Z Z V Z A A V V V A D D D G A f x x k k k k f f j f h G D t.7.B j j z k k k f f k z k k f f h A D G G B f z z f d k k d f z f h A A A A B j j N A A N j j A A V A D A V j V A D c g g x f f f f f h x h j G D _ A h f f f f f f f i d d f f u r f x A c j g 1 f a 1 a r r r f f f x G A A A c c A A A G G A A A G G G D A N N N A A x f j k r f f f f l B h h G G D G x z j j k k j x x k k z k k k z x A A G B f x j f f d d r f j h A D D G G A A A G A A D A A A A A A B A A A G G G c g x v k f d k d z x h x t._ t.s.A x x x x x x x k k z z z z h f h A D G A g g x f f f f f f j f f N D D D c j c A D D A c x c c c c A G G G t.5.A 6.x j x x f k x z z x x f x 4.A 5.5.x f k x x k k k k k k k k k k f x <.5.A ,.h h M z d d k k d z j h v 7.D G t.D G G D G A G G G G _ D D D V A D D D A A h h v j k z z z k m m k x t.t.l.l.A j j x x x x x j j x x x x x j B D t.t.5.j x M z k k k k k m z j w.t.t.t.D G G G D G G D G D G G G A A A G G G w.A h f x f r d k d f z f f c 7.G G A j k k z z z k k k x x x x x h x A D D A h f x f a f f d d k f 4 h A A A G A B c A A v h a f h j j A A j j x B A x f r f f u r r e r d < , f j f j k r r f k u r e e r u u u u r r f ,.,.x h ",
"j 4.x f k k k j x x g A D Z F D V V Z Z D Z A A Z V D D D D A D D D D D A h B ,.k k k k f x ,.h j 5.t.5.x k j x z z k k k k k z z k k f f h A G 7.A f j x k k k k k l m j h A A A A A B j A A A A j j A A A A A N j j V A D A g j c g f f f f x A h j w.w.A x f f k f f f f k f k k k k k f u f x A j g 1 f f 1 r r r d x j f x G A D D A A A A A G A c V G G A D D A N N V A A B g x x i f k f f x ,.j j 5.7.A v j x x j k l k x k k k k x x z j x A G G x f x x f a f f f j B h B D G G G G A A G F A F A A A G G G A A A A A A G A g x v k d d k f j v h j w.t.w.A x x x x x x x z k k k x x j j z f h A G A g h A j f k k a j ,.j g A D D A B j G D D _ D V A A c A c c G G G K G A 5.x h A x h k z k z m m f x 4.A 4.M z k x x x z k k k l x x z z z k k x ,.4.5.j h ,.x k d d k k x x h c 7.t.K w.t.G A A A K _ G D G K D D G D D A A D K A j j 4.x k k z k x ,.,.j A F.t.t.5.x x x x x x j j j x x x x x x x j A 7.t.5.j c 6.z k k k k x 6.j x w.t.l.t.D G G G t.G t.t.G G G G A c c A G A w.t.5.x h x z a d f f f x j f A w.5.x j z z x z z k k z z x x x x x j h j A G A h f v j f f f d f x h g A t.A A G G A A A A x f 3 f x j j A A h h j A A A k i l x f r u d k k f f x j j k u r d d f u r r r d d u u u r r f x ,.x f ",
"j 7.<.f k z k x 6.j g c D Z D V Z V V Z V Z D D V Z D D D D D D A D F G A h x ,.x k k k j ,.,.f x t.4.x k k l l x z k k k k k k z k k k f f f A 7.A g j ,.f f k f k x A j h A G G A A A A c N A j N B N V A A j N V D D V D A 4 j A j g f f h A A h j 5.A h f f k k k f f f f f f k k k k p u r f j x g 3 f z 1 r r r f x j f j A A A D G D A A A A A j N A A A D A A N A A A G x f x A f i k f h ,.>.l j s.5.x j j x x j z x k k k k k x x x x x j j A A x f x M f a f f f A B j B G A G G D G A A A A D A A A A A G G A x B B A A c g x 6.z d d k f x v g j t.w.c j j x x x x x x z z z z x x j j z f g j G A g h A x f f k f x 5.j g A G A A A A A D D D D G A A A A c c A D G A A A 5.x h A v z k k k j ,.x f x 5.,.x z z x x x x z k k k m x x m z k k k f j ,.5.j h 6.m k d k k z ,.x h c A G G G D D A A A t._ G G _ K K G G D A A A D K A j h 5.,.j k k k x T.,.f x F.t.A j x x x j j x j j j x x x x x x x j j x 5.4.j x 5.x f k f k m 6.j x t.t.t.t.G G D G G t.t.G G G G G A c A A A 5.G w.G h h v x f d f f j 6.j f x 5.x f k k z z j z k k z j j x x x j j j g h A 6.h g M x f f f r k m j g c 7.G A c A A A x x h h j x x j N j j h h j N A A f f j x f u u r k x x j j x k r < a d r d d r e u d d d u r u r r f f l k ",
"j 7.7.B f f f ,.5.j 4 j D D D A D D D D D D D D D D D D D D A A G A G 7.A f x 4.M k k k x s.,.h x e.,.f k x j j j j f z k k f j k k k k k f f j A A g x 4.x f k f j 5.A f j G A c c B A A c c j j V A j c A A A V F D D D D A 4 j G A g f f j w.A h x 4.x f f k k f f f f f f f f k l k k k k r r f x g 3 g x f 1 r a j ,.j f j A D G A A A V A A A A A A A A D D A V A A V A A B 4 x s.j f f f j 9.<.h j ,.x j j j x x x z k k k k k k x x m x x k f j 6.v f x 5.x f f f x 4.x g A G G G G D G G D A A G A N A G A A G G A A A G 7.A h A w.x d d f f A A g x w.A j z j x x x x x x x x x x x x x j j j g g G G h h G G f f f j 5.7.l g A G A A A D A A A A A A c c A A A c A G G A A A 5.x j ,.4.x k f f x 4.x f x 6.v z k z x z j x x z k k x x x x z k k k k f x 4.x h 6.6.z d k f x 4.x f x A A D D G _ G G _ _ G G _ G G _ K D A c c A D K A j h w.s.x k k k ,.R.v f A 7.c j j x x j j j j j j x x x x x x x x x j j 5.4.x c e.6.z k k j 4.4.z x I.t.t.D G _ _ G G t.D G G G G A A c A A A G G G A z z 6.6.z f a f A e.x f c A f f k k z j x j z z z x j j x j j z j f g v 5.h f 6.,.f f f f x 5.j f x 7.A c j x A A c x h j A A B A B j h j B B j A x f f x x x f r r x ,.x f j z r < r d u d d a e e u d f k u u u r u r r x x ",
"j t.l.A h f x 5.5.h g c D D A D Z Z F D V D D D A A V A D D A A A A G G A f j 5.4.j f j w.s.,.f x 4.,.k k z j x j z f k k k j j j k k k k k f f c A g h 5.A z f z A A x g h A A j c x x A A j j N j V D A A B A A Z D D D D c 4 j G D c 4 g A w.A h x 5.x h k k z f f k j f f f f f f f k k k u r d j g 1 g j j 1 ; f v x f r j A A A N j V N N D A A A G G G A A V A A A D A A B 4 j 7.A h i l A 7.B f f x j j x j j j j k k k z k k k z x z z k k f z ,.v z x 7.A f f h A 5.x g A A A G D t.t.G D A A A j j A G G A A A A G G 5.5.A g x 5.v f a f x A c g j 5.v x x x x x x x x x x x x x x x x x j j h h A G h h G t.x f f ,.5.A f f c A B A A A A A j j A A j j c A A A A A A A A A 4.x f ,.e.,.j f j ,.5.x f x 5.x z z z x x x x x x z k z x x z k z k k k f x 4.x f ,.5.x h f z A A j f x A A D D D G G t._ _ G D A G _ G K K A A A G G K A x h 5.W.5.j f x 9.4.x f m 5.j j x x z x x x x x x x x x x x x x x j j j 6.4.x c e.e.x f k A 4.M h x w.t.D D D D D t.D G G G A G t.5.A c A A G A A A x f h 5.5.v h f x 5.G h f c v f f z x z z j j j z z z j z k j j j f f f x A h f ,.4.j f f j ,.<.f 1 j A B x x x x B A j j A A N A N j j x x j B B x h f f x v x f f j A x k f k f < r u r r r r a r e r d k f d d a r r r r j j ",
"h w.t.D G A D t.5.h g c D D D D D F D A V V D D V V A A D A A A A D D G A f x 5.s.A B A t.t.A f x 4.,.j j x z x j j j z k k k j j k k k f k f f v A g h G K c j c G A x g h B c c A A A A c j h j x c A A c j V A Z Z F D D c g j D F Z j A _ K A h x 4.x h j z j x j z z f k k f f f f k k k u d f j g 1 4 j j g 4 h A x f 1 j A j A N N A V N V G A A A G A G D A A V A D F D N 4 g 5.7.A B A 7.G x f h ,.j j x z z x x j x x j x z k z k k k k z k z ,.A z x 7.G A j G D A j g A G A G G G G G G A V j j A B A A A A A A G G G 5.x f x 5.5.x g h G G B g x t.5.x x x x v x x x m x x x x x x j j x j h h A G h h A t.A x A 5.G A f f x A A A c A D A j h A G A j A A D G G G A G 7.7.4.x f A w.G ,.x A 5.5.x f x 4.v x x x x x x x x x x x z x z z z z z k k j x 4.x f A 5.G A c A A A j f x G G D G D A _ _ G G D D D D G G A G G D G D D G G x h 5.s.t.5.A 9.F.7.x f M 9.x x x x x x x x x x x x x x j j j x x x x x 5.4.x c e.t.G c A s.w.A f z 5.t.t.7.t.D t.t.t.G G G G A K t.G A A A G A A A x h z A t.w.A c A w.G h f A 6.z k x x x x j j x j x x x k k j j x j k f x 6.j g A s.5.j h A 7.A f 1 j A A A A A B A A B N B A A A V N A A B B B x h f f f j x x j h B A x j f f f r u k d d d a d d r r d a d k k a e r r f j j ",
"g G _ +._ _ _ t.G h f x G D D D D F V N V D A D V V A D D A A A A D D G A g x 7.t.7.7.D D 7.A f v s.,.j j j z x j j x j k f k k f k f f f f f f A v f f A G K G A A A x f h x c A A A A c j j j x j x A c j j A A V D V V D c 4 j D Z D D G D D c f B 5.x h z z j j j f f z j k f f f k k k u r r k z g : 4 j j x x x x f a 1 k x j j j j V V N V D V j j N A V V V V V D A F D j 4 g 5.G 7.7.G G G A f j 5.j j j z j j j j x j j x x z z z z k z z z x A A z x G G D D F F G j f A A G G A A A G G A V A A B A B j x B A A A A A c h f x 5.7.G A A A G A g c t.6.x x x x v m m m m x x x x x x j j j j h j A G h g A G A G 5.G A c f f x A A A A A D D A c A G A A A A D D G G G G G 7.5.j f x 5.G G G G G 5.x f x 4.x x x m x x x x x x x x z z z z z z z z k j ,.4.x g A D D K K A A A j f x G G G D D G G D D D G G D A D D A K D D G D G w.A x h A t.J.l.F.t.t.t.x g ,.9.x x x m x x M x x x x m x j z j x x x x x x A 5.x x 5.7.t.t.t.t.G v f f ,.G 7.7.7.t.t.7.t.D G G G A G t.D A G G K A c c A j h A _ _ G G G G A h f 6.6.z z z j x x x x j x M x z k k z j j j k f x A j f x A A 5.A A A B i 1 x A B B A A A A A N j N A A A A V A A B A B j f f f f j j h j B B B c f f j k r r k z k d d d d u r r r d d d e e r r r j j ",
"j G _ _ D _ D t.5.j f x D D D F D A V N V D D D D D A A D D D A A D G G c f x 7.7.D D D D _ v h v s.A f k k x x x x x j k f k k f k f f f f f f A A f f A A G t.G A A j f f B V c V A A j j B A A A A G G j j A D Z D A D D A g j D Z D F F D G A h A w.x g h x j k f f f f l f f f k k k f k u r r j h : f j j A x x x h f r z x j j N N j V N V A N j N A A V A V V Z D Z D A h 4 h 5.G A D G G G x f x 5.j k z x x j x j x x x x x x j j x x x z z x A A j x t.F D F F F G j f A G A c j B A D A A A A V A G A j x B A A A G A A x f x 5.7.G G G G G A h A 7.,.x x x v x ,.,.M x x m x x x x x x j j h j A G h g A A A G G G G A f f A A A G D D D D _ D D D G A A D G G A G 7.G G t.5.j f x 7.G G 7.G G 5.x f ,.e.v x x x x x x x x x v x x x z x x z x z k j 5.e.x g A _ F _ _ G D A j g A G G G G D D V A G D D D D D G D D _ F D G K K K A h z 6.t.J.F.J.t.t.F.B f ,.4.x x x x x x x x x v v m x x z x x x x x x x 6.4.x x w.t.t._ t.7.5.v f h A A G A w.t.t.t.D D t.G G G G G G A G A A A x B A x f G t.G G D G w.5.h h 5.5.x j j x x x x z x x x x z k z x x j j z f x 6.h f A A A 5.A G A x f a x A B B B A B j B A A A A A A A N x x A A A j f j k a j j h B A B A c f f x j u r r d k k k d d d a r r d u r r r u r a x j ",
"j K t._ _ _ D t.5.h f x G D D D D V V V V Z D D A D A A D D D A V D G A x 4 x D D D A D F D x h v s.A j k x z x z z x j k f k k k f f k f f f f A A f f A A A D A A A j 4 g B D A A c j j j B A A A A A A A j A D D A A D D A 4 j D D V V D D D A f x 5.j g h j j f f f h f f f k f k k k k k u r r j f : 4 j j j j h h x f 1 j x j j N A j j j V c j j N B A D Z V Z D F D V V h 4 j A A A A A G A x f x 4.j k j z x x x z x x x x z k j j x x x x k z A A h x D F D V Z F A j g A A B j j A A A A A A A A A A A V B B A A A A A 5.x f x G G G G G G G A h x 7.,.j x x x M x x x x m m M x x x x j j j h j A G j h A G A A A A G A f f c G G A A D D D D D D D D D D D G G A A A 5.w.5.5.x k v 5.G G G G G A x f ,.e.x x m x x x x z x x x x x x x x x x z k k j ,.s.x f A D D _ D D D G x g A G A A D D D A D D F G D G G A G D _ _ D A G D D A h z 4.t.t.F.t.t.t.7.B f ,.5.x x x x x x x x x v x x x x j x x x x x j x 5.4.x x e.t.t.D D 7.G x f z A 5.G G w.G t.t.t.G D t.t.G G A G A A A A x h x A j h A D G G G G G A j f 5.5.j j x j x j z z x x x x z z z z j x f f f x 6.x f v A A A A A A x f a x A A B A B B h h x A B A x j j j j j c A B x h h k f f j h j j j B j f f j f d a r e r k d u r r u u d u r r r r r r r j f ",
"h t.t.D D D _ t.5.h f x G D V V D D D D A D D D D D D D D D D A A A A G x 4 j D D F A D F _ A h A 9.A h j x z x x j x x x k k k j k k k f f r f A B f f A A A G A A A x f f B A j j j j j j c A A A A A D A j h A A A D D D A g j G D V D D D t.A h x 5.j h h j j f f f h h j k f j k k k k k f d f j f 1 3 j j j j j h x f r j A j j g j V j V D V j c A N A _ D V D D F D V A j f j A B G A A G A x f j 5.j j j z z z j x x x x x z k z z x k k x z j ,.A j A l.D D D F F G j f A A A A A G A A A G G A A B B A A A A A A G A G 5.x f x G G G A A 5.5.A f x w.A j x x x x x x M M M x x m x x z z x z h x G w.x h K _ A G G A D A f f x A c c c A D D G _ G D A D D D A A A x c G 5.G w.x h A 7.G 7.G G D 5.B h ,.s.A x x m x x x x x x x m m x x x x z k k k j ,.s.x f A t._ _ D D _ G x g c 5.G G G G G D D D D _ G G D G G D K _ G A K G K 6.j j 4.s.t.F.t.t.J.t.B h A w.x x x x x x x m x x v x x x x x x x x x j x 6.e.x x s.t.t.t.G G 7.,.j j ,.s.D 7.t.t.t.t.t.t.G G 7.D G G D G D t.G A j x A j j A G A A G 5.G G x f 6.6.j x x x j j z x x x x x x x z z z z k f j A A x h v 5.B A A B A ,.f f j A A A A A A B h h x x h f g j j j j j x B j j x z a f j h j j j N j f f x j d u r e r d d u u r d k r r r u u r r u r f f ",
"h t.t.D D D F _ 6.h f x G A N V D D D A A A D D A A A A D A D D A A A G c 4 j G G D D A D 7.A h A s.A j j x x z j j l l j j k k k k k f a f r f x x a f A A A N B A A j f f x j j j j j j j j A c j j A A A B j j A A A D D c g j D D Z V D D D A h x A x j j j h f k k j j j k j j k l k k k k d f j f 1 f h j h g h x j 1 1 j c h g 4 4 j A D Z A j j A N N V D V V V V V V A h f h A A A A A A A x f h ,.j f z z z z k j x x j j z z k z k k z k z j A c j A t.D D D D D D j g A A A G G A A A N A A A j j j B A A A A A 7.7.G 5.x f x 5.G G G G G 5.x g x 5.A x x x x x x x x M M M x x x x z z x x x c A w.x h A G G A A G G A f f x c c j c A A G G G D V V D D D A A A A c A A G 5.x f v G G G G G G 7.B j ,.s.A x x m x x x x x x x x x x x x x k k k k j v 4.x f ,.t._ D G A G 7.j g c G G G A G G G D D F D D G G G G K K D D K K A G 6.j j 4.s.t.t.t.t.l.t.A h <.w.c x x x x x x x x x x x x x x x x z x x j x 5.5.x x e.s.D G G G 7.,.f j 5.7.7.t.t.t.t.t.t.D A A A A G G _ _ _ G G G A x A x f j A A A A A G 5.j f A ,.x k j x j j j j x x x z x x x x z k k f j x 6.x z v 5.A A A A A ,.k i j A B B B A A A B j h f f f h j j j j j h j j h x x f f g x B j j N h f f ,.x d r r r u r u r r r u r e e r r u u u r 1 f j ",
"j D t._ D D D t.A h f A G A V A D D F D A V V D D G V A A A D _ D D G G x g x 5.D D D D D 7.A h A s.,.j j x x x j z x x k z l k k k f f r f r f x x f f x A A V B A x f a f h j j A j j h g j A j j j A A A A G A A A V A D c g j A D D Z F _ A x g x 5.j h j k h h j l l j j j j k l l k k k k f f j j f f f f h g h j f , 1 j x j h j g j A D D V j j A A j A A V A A V V D A h f h A A B A G A x f f j 5.j f x k k x x z z x j j x z j z k l k k k j A A h x G G D D D G A j h A G D D A A G A j j j j h j j A A A A G G A A A A x f j A 7.G G G G 5.x f x 5.v j x x j j x x x m m M M x x x x x x x v c G w.x h c G G G G 5.A j f f j A G A A A G t.D G A j j A D G D A G G A A A 5.5.x h x 5.5.G G G G 5.A j ,.s.A z z z z x x x x x x x x m x x x k k k z j A 4.x f ,.G G _ _ G 7.5.h g A G G G j j A K A G K w.A G G G G K A D D K K G G A h j 5.7.t.l.t.l.t.5.A j 5.s.A x x x x x x x x x x x x x x x x x x z j j A 5.x x 5.F.D G t.7.<.x f j 5.5.7.t.D D t.t.t.7.A A A A K G G D D D D t.D A A j f j x A G A A 5.A h f v ,.j f k k j x x z x x x x x x x x k k k k j x 6.v f x 5.G A A 5.A x f f x c c A A A A A A j h f f f x N N j j j j x x B G x f f g B A A B h g r 1 x k a k u u u r u r r d d u u r u r u u u r r k x ",
"j G A A D _ D G c f f A G D A A V D D F D D V D D D V V V D G G D G D G j g j A G D D D G A A j A s.6.j j x x x j z k z k k k k k f f f f d r f j x r r j B B A A x f f r f h A A D A j g g j A j j j c A V A A A V V A A A j g j A V D F F G j h g x A j g f f f f k l j j j j j j l l k f k f f f j f a f f 4 j j x f 1 r 1 f j g j x j g j V V j j j A N j c A A A A A V V A h 4 h h j D A A j h f f j ,.j f j z z z x x x z x j x x j z l k x z f h A B g h c D D D _ A j j j A G D D A A A A A j j j B A A A A A A A G A A A A x f j A A 7.G 5.5.A x f x w.A j x x j j x x m m x m v x x x x x x x v v G G x h x c A G A c h h f f x K G G G D G G G D G j j A G D D G G G A A A A ,.x f x A A G 7.A B A x j ,.I.A j z z z x x x x x x x x x x x x z z k z j ,.4.x f ,.A A t.D G G x f f A t.G G A c A A H K K A c c A G G D A D D K K K K A h j 6.A 7.F.F.t.A A A j 5.s.A x x x x x x x x x x x x x x x x x x x z h A 5.x j A A D G G 7.B j f h 5.t.t.7.D 7.D t.G A A A A A A G G A D G G D G G 5.k f k z A G A 5.A x f f A ,.j f f z j j x z z j x x x z z z k k k k j x 6.x f j c A 5.,.A j j f a h x j A G A B B B c h f f f f j B j g j j x j A 7.x f f f g A A g 4 f r 1 f f f d d r r u r r r u d u d u u u r u u r r k x ",
"j G c j A t.A h x j g A G A D D D D D D D D D D A A A A D D D D G D A A x g j j j G 7.A h x ,.j A s.6.j x z z x x z k k k k k k k d d k k u f f j x f f h g j A c g f h f 4 j G A V j j j j j A c j j A A A A A N N A A A A j g j A j c G G j h h h j A j g f k z f k j k k f f z z x k k k k k f f x j f z f 1 f x f 1 f f 1 f j h j A c h j A V N A G A A N j A D A A G A A A j f f f f A 5.j g h x f j <.j k x j x z z x z z k k z x j j x k k z f h A x h h g j F F A 4 g x g x G G A G G A G A B B A A D A A G G A A A A A G 5.x f j x x A t.G x x x h x w.v j z x x x x x x x x x x m m m m M v v v v 5.5.x x v j c w.A g g A h f c w.G G D D G G D G G G D t.G G A A A G A A A A ,.j f x x x G t.A f x x j v e.,.x x x x j x x x x x j z z z z z m m z k x ,.9.B h 5.A j G t.5.A h z h A t.G G G K G A G G K A c c A A G G G K K D Z K K A j x 5.A c J.J.A h A 5.x 5.s.A x x x x m m x m x x x x x x x m j j x j j 5.4.j x v h A G 5.A j j j j 7.F._ _ _ G G D G A A A A A A G G A G G G G G 5.5.j f j z x G 5.A j j x j ,.<.j f k x j j x x z z z z z z z z z m z f x M ,.x f z j x 4.4.x f x j f j A A A x x B B B x h f 1 f h f 1 4 g j A B j B A j f B j 4 h j 4 f x j f h x k k k u u d u r e e r r a u u u u r u u r k x ",
"j G A j j K c j v h g A G A A D D D D D D D D D D D V A D D D A A A A A x f h c h j 5.x g x ,.j x s.,.j k z k z z z z f f f f k k d d f k f a f x x 2 f x g 1 f f 1 f j f 4 j A c j j j x c A A j c c c A A A j j V A V A A j g j A j g j B h h v h j A h f k k k k k f f f j j f f k k k k k k f j x j f z x f 1 a 1 1 h 1 1 f h g j x A j j j A A D D G A N A A A V A G D G c f f j j 4 j A g 4 x x f j ,.j f f k z z z z z k x x k k j j x z k k f h A c g x j g V A g 4 j j g x G D G G G G G A A A A A A A A A G G A A A A A G x f x A h x 5.x f x v f x w.x z z j x x x m x x x x x x m m v v M M v c G 5.x x ,.c j c j f x A f f x G D D A D D G _ G G G G G G G A A A A A x x A ,.z f x ,.h x 5.x f ,.x h ,.s.v x x x x x j j j z x ,.x k z z m m m z x j A s.x f 5.,.g x s.A h x v h A t.G G G K G G A A A A A c c G K G G K K K K K K A x x 4.A j A 7.j j 9.,.x 5.t.A x x x x x m x x x m ,.x j x x x j z x j x 6.4.j x 6.x h x A h j ,.j j 7.t.t.t._ t.D G G G A A A A c A G G G A G G G G 5.j f x x h A 5.j h m j j <.<.j f k l j j x z k z z k z z k z x x x j z x M j f j x x ,.,.h z ,.j r j A A x g h B B x j h f f x B g 1 4 j B j x j h x j f x A f f 1 4 h x h f j j k z k k d r u e e r d r r r d u u u u u r j x ",
"j G t.A j j j G 5.f f x G D D D D D D A D D D A A A D A A D D A V V A G c f x 5.A g f j A e.,.j x s.4.j z x z x x x j f x A k r d f d d f k f f x x f g A j 1 1 f h x h 4 f j j j j N A A A A j x A A x A A A A A A A A A G j g j G A j g g g A A g j A j f k f k z k f f h A A j f k k k k k k f x ,.x f f v j 1 , r j f ; 1 j j g j x x c j j c A G A A j j A A A A A A A A A f f x A g f 4 1 x B j f j ,.k f f k k z z k k x 4.4.x f k j z z z k f h 5.c g A G j j j j N D V 4 x G D G D G G D A G A G A x A G G A G A A G A A 5.,.f x 5.h g x h h ,.v g x 5.x z k z j x x x x x v ,.x x x m M v v v x c w.e.x x w.G j g f x A A f f c A D D D A A A G A A A G G G K A A A G A A c A ,.j f ,.s.A h f j A 5.x z v e.,.x x x x x j j h x 5.7.A j k m m x m m x j ,.s.B g 5.s.x f x x x w.c h A G G 5.G G G G G K G G w.A A G K D D K _ K K A 5.5.x j w.F.A h x j 7.s.A j 5.s.A x x m m x x x x x s.F.<.j j z x z z z z j A 4.x x 4.5.x h f h <.4.j j w.t._ t.t.t.7.G D G G G G G A A G 5.G A G G D G 5.j f >.,.j j x h v 5.j k <.<.j f k z z z z k f j v x k k k z z z z j k j ,.x f ,.5.x j k f x 6.k f x <.A x h x A c x x h h x x B A x h j B B x h h x j f h A x g g j x h f f j j k k k k r u u e r k x f r r d d d d k r 1 x x ",
"g c A G c j A t.x f f x G A A A V D A D D D D D A A Z D D D D A A A G G c g x G 5.x f A e.5.m z x s.,.j z k k x x z k x A 7.B f r a d d f f a f x x 1 4 j B h 4 x A B h 1 f x j g j A A A j j h j j x j j B A A A A A A A A j 4 h B A A x g B G A g j A j f f k j k f f j A G G A j f k k k k k f j ,.x f g h x k i j j a 1 1 z j g h x x x j h j j j N j j j j B A A A x j j x h a x A x h f h A j h f j A f f k k k k k f x 4.s.9.<.j f k j z z z f h 5.c g x D G j j A _ D V g c _ G D D D D G A A G G c j c A G G A A A A A G 5.x f h G A j x c A 5.x f j 5.x k k k z z x j j A e.I.5.x x x v v v v v c G w.x j G w.A h x 5.A x f f A G A A A A A A c j j c A A A A A A A A A v c ,.,.j f x 5.5.A j x 5.5.x h v e.,.x j x j j j j x G t.7.5.A x z m m m x k j ,.s.x g A 7.5.A h x e.5.j h A 5.G G 5.G G K G A G w.G K A A G t.D w.w.A A D w.5.x x 5.7.7.A v G t.5.x h 6.s.x x x m m x x j x s.J.F.F.,.z k z z x x z j 6.9.j j ,.A 5.x j <.4.A j j 5.t._ G G G G D D G G A A G G A A G A A G G G 5.A j f B <.,.x j ,.9.A h f <.A j f k k k k k f j A 5.,.j k k z z z k f f x ,.j f x s.6.j f x ,.x f f x A A A A A A A c j j x j j j A A g g j x x j j j f f g h h x c c h f f r j j r d d d s r r r f x j h f r r d k d d u 3 x B ",
"j c j j A G t.A h j f x 7.G G G A A D D D A D D V V D D D D D G D G D G c h x A G w.A 5.G c x j x s.6.j k z z x x h j A D A D B f 1 r f d f a f x x 1 1 g j j B A x g g f f B B h j x x j h j A x j A j j c B B A A A D A V x g h x h A G G A A x g j A x f k f k k f j A 5.A A G A h f k k k k f x <.B f f f f x x x f 1 r 1 f j j j x x j j j j j j j j h h j x x c c j j j j h f h x j A 5.A h f f g h A h f k d k z f x 4.s.7.D 7.A j f k k f z f j G c g j V G G A G A j V j A _ D D D D D D D G G A c j A A G G G A A G G A A j f x A A G G G A A j f c w.x k k k k z j j x 7.l.l.t.5.x x x M m x x x w.s.m x A A G 5.w.5.x x f f A G A A A D D A j j j c c A A A A A A A A A 6.,.,.j f v A A 7.5.5.5.A x j v e.,.x x x x z j x 5._ D D D 5.A j l m z z z j ,.s.x f x x c e.5.<.s.A x j A w.G A 5.G G t.7.A w.w.G G A A A G w.t.G A A _ _ 5.x x A v A 7.s.G c x x h 5.s.v x x m m x x x s.J.F.F.F.s.x k k z z z z j 5.s.j j v x 5.9.5.4.m j j x 7.7.t.G G G G t.t.G D A G G K G A A A A G G G w.G j k x x ,.5.5.7.,.x j h A ,.j f k k k k f j <.7.G 5.<.j k k k k k k k x 5.x f x ,.5.A ,.,.x f f f x A B A A A A A x j B j j h x c h 4 f x j j B x h j f h g g A w.j f f f r x z r k k d d r r f x j j j j f r r d d d a 4 j B ",
"g j h f j 6.A h f j f x 7.G G G A A A D D D D D Z D D D G D A G D D D K c g x x j A s.A h j x j x s.,.j k x x z h j A G D A A A B f 1 u d d a a h h 1 r g 4 g A x 1 1 g 3 f x B x j j j h h A A A c B j c x c B B A A j V A j f h x g g A w.A h h h x A x f k f f h j A G G A G A A B h f k k k f j <.x f f r 1 f j f r r r 1 f x j x x j j j j N j g 4 h j g g h h j j j j h j h f f 3 1 x <.h 1 4 h f h A j f k k k f z 6.s.G 7.D G 5.x f f f z h f x G x g j j j A G B 4 g j j A D D D D D D D _ G A A A A A A D G G A A A A A x h f x x g j G A g h x h A t.x f k k z k j A 7.l.l.t.l.t.,.x x x m x x x w.e.x x x h c w.5.x h x k f c A A A A A A V c A G A A c j A A A A c A A 6.6.,.j f x x h A s.6.x h x j v 4.A x x x j h x 7.t.D F D G t.5.A j k z z z f A 5.x f v j f v 5.A j j x f A 5.A G G K w.D D K w.K G A G A A G w.G G A w._ n.w.j j A j h 5.s.A f j x j ,.I.v x x m m x x s.E.F.s.s.s.9.7.x k k z z z j 5.9.j j v k j 5.4.x f j x x G 7.7.G G D D G 7.D A B G G A G G A A G G G G G A j z x j j ,.4.x f x j h <.<.j f k k f f j 5.5.G A A D <.x k k z k k l x 5.x f j j j ,.4.,.f f f i h A j j B N x x j j j j x h j x f 1 f x x j h h x f f j g 4 x v f 1 f k a z z d d k d d f h x j j j j j h f r r u u r 4 j N ",
"g c h f f x j h z j f x 5.G _ D A A D D D D D D D D D D D D G G A G K K c f x x h j ,.x f j m h j e.,.j k k z f z 6.t.D D D A A G c f r r f d a j f 1 f h f f j f 1 1 f 1 1 x A c A A j j x B A G A x B A c x x j c A A A G x g j v f f j j f f j x x A x h k f f j A 7.G G G A A A A B f k k k f j 5.j f f f r a f r r f a 1 f h f j x j x j j B N j j j h g g g h g j j g g h f a z a 1 f x f 1 f j f j A j f f k f f x w.5.G A G G A 5.x f f z z f x 5.j g x h g h x j 4 g x j A l._ G G A G D D D A D A A A A A A A A A c A A c j f x x f f A x a h z h A s.x f k k k z x t.l.t.t.t.7.t.s.5.x x m m x x 5.w.x x x h x v x f f x z f x A A G A A A A G G G G G G A A A G A A G 5.A 6.6.j f ,.x h x ,.x f z x x v 4.v j x x z j G l._ D D D G G 7.7.x f k z x k v 4.j f m j f x M z f x x j A 5.G 6.A K w.G K t.t.G G A A A A A G w.G G w.t.t.t.x x 6.x z x M j f x x j 6.s.x x x m x x 5.E.J.s.5.5.s.7.s.5.x f z z z x 6.4.j x v f f x v k f x x j 7.7.D G D G G G G G A A A G G G G G G A K w.K G A x j m z f x ,.z f x j j <.A k f k f f j A 7.G G 7.G A <.5.x k k k k k x 5.x f j h f x ,.j f k f 1 h B j j B x j j x B x A c j h x h f f j x x h j x f f x h f f f 1 a k f r j x d d d d f h x j j j h h h j x f 1 r u r f A x ",
"g x h f f k k k j j f x G G G G D A D D K K D D D D D D D D A G A G A G x f x x z z z k f x m f j 4.x f k k f k ,.7.7.D A A A A A A x 1 1 r r a j z 1 a k 1 1 d a 1 1 f 1 1 x A A A B A B j j x G A x B x c x x j j A A A A x f x x f f f f f f x j x 5.x h k f h A D D 7.7.G A A A A A B f f k k j <.j f f k f d r r u f 1 1 f g 3 g h j j j j B B j h x x f f g g g j c A c j r 1 f a 1 d f 1 r f z f h ,.z f k k f x 5.A A A j j A A A A x f f z f h A j g j h g f g f f f j g j D D G A A V A A A A A G A A A A A A A A A c A A x f j x f f x z a k x h v 5.x f k f f x 5.7.l.t.A B <.t.F.t.<.x x x j x 5.w.j x M j z z f f k x k f x A B A A c A D D D A A A G A c A 5.5.G 5.w.w.5.6.j z M x h z j f h x v h x 4.v z x k j G t.t.t.D A x A 7.G 7.7.x f k z k x ,.h f x z k z z z k x x z A 5.A A G G K K G G G G G G K K G A G G G G K t.l.5.j x ,.x k k k k z x x j ,.s.x x x x x 4.I.F.E.R.,.j ,.9.5.5.5.x z z z j 6.4.j j x f f k k f k x j j G 5.7.G G _ _ t.5.A A A G G G G G G G K K K A G 6.x z m j f z x k z x x h <.,.k f f f l A G G 7.A B B <.G 7.<.j k k k f x 5.x f x x f f k f f k f 1 f j j N B B h h j x A x j j x x x j f j x <.A x x f f z f a f a r f k f d j j d k d d f x B B j h f f j c x x f r u d f A x ",
"g x z f f f k k x x z x G G G G G G D D D D D D Z D D D A V A G G D D G x h v M z z z k f x m f j 4.x f k f f x 5.t.G A j f h A B A B h 1 r r a j h 1 f k r < r r 1 r f a 4 x A c j j x x A j h B B A x h h x A x A A A A A x h x x f f k k f k x j x 5.x h f h A t.D D 7.A f j A A A G 7.x k k k j <.j 1 k x f d e r u d r < f x j j x x j j j j j g 1 3 a 1 g j g j g g h j x f 1 f a r d r r i f k f j A h a d d j ,.5.A A x a 1 j ,.A G G x f f f j A x f j x g f f f f h x g j D A A D A N A D A A A A c A A A A A A A G A A 5.x f j x f f z z d z x f A 4.j f k f z 5.l.7.t.A f f x 7.t.t.t.A j j j j 4.5.j x ,.x z z f f z x k f x c h j j c A A V A A A A G K A c A A G t.7.t.5.,.j j M v f f k k z x ,.j x 4.x k k j 6.t.7.7.7.,.f f j 5.s.7.t.5.j f k f x 5.h f m z k k k k k x x h A 5.A G G G w.5.A G G D D G t.t.t.w.w.G K G 7.t.t.5.j x ,.x z z k k x x m j ,.s.x x x x <.I.J.F.R.4.z k k ,.4.7.t.4.x z z j 5.9.j x M k k k f k j x j x 5.5.G A A G _ t.G A A G G G G D G G A G 7.G K G A x j m x k k x k k x j j <.A f f f f c G G G 5.j f k <.<.A 7.>.j k k k x 4.x f x x f f d f k k f 1 f j j B B B B h h j h g f x A B B B x x x x x A A h f z f r d d d f k f f x x r d d f x A A N h 1 < r k x B A x f r r f x j ",
"g x f r d d f k l x k x w.D G G D A V A D D D D D D D D D D A A A D D G j h A v z z z k k x m z h 5.x f f f x G 5.7.5.j r r f j A A A B h 1 1 i x h 1 f f e e a e < r f f f c A h h h j c A x j j B A B j h x x A A A A A A x f j j f f k k f f x j x 5.x f h A D G D D v k f f j A A A G A j f f j ,.j f k j f r r r r d r < f x h h A x x j j j h g f 1 ; 1 f j j j 4 1 1 f f a 1 f a 1 r u 1 r f k f x 5.f 1 f j ,.A A A x f r r r j A D D A j f f j A j h x j g f f f f h x g j G A D G D D D A A A B A A A A A A A A A A A A 5.x f z x z f k k k k x k x 5.j a f z A 7.D 7.A f k k f x s.l.t.t.A j z x 5.5.x x ,.j k k k f k x k f x A x j c A D D D D A A c G K A A c j A G 7.A A A x j M x f k k k k x M x x 4.x f z 5.s.t.t.7.<.l f p k x 9.t.t.t.5.j f f x ,.j k m z k k k k k x x j A G 5.5.G K K A A A 5.D t.t.t.t.t.t.t.K G G D t.t.5.j x ,.x k k z k k x m j ,.s.x j j ,.s.I.I.I.4.x k k k k ,.t.t.s.4.x f j 4.9.x x M k f f k f k x h h 5.7.A A G G _ G G A G G G G G G G A A B A G A A 6.x k m j k k k k k x j j A A f f f j A G G 5.x f f f j <.D D 7.B f f f x 5.x f x x f u u u f k f 1 f x B A B B B x x j f f h x B A B A A x f f h A x h f x d e a d r d k f f x z 1 r f x A A A j f < > < r j A B A x f 1 1 x x ",
"g x f a d d k k x x k x t.G G G A A A D G G G G A A D D D _ D A A G G G c h A x z z k k f x m z j 5.x f f x G D D 5.x d u k i f B A A A B h i f x j a d f 1 e r e < r f a f x A j j x A A A A x c A B A A c h x A A A A A A x f z j f f k f f f x x x 6.j g A t.D D D A f f k f f x G G G G A f f j ,.x f f z a < a r e r r 1 f x h h g j j j h g h x j f 1 r f h j g g g g f f 1 1 f a r d u 1 r k k f x 5.h f j ,.A A A A k r r d r f x A G G A h f h 5.c f x x g f f f f j x g j G t._ G D D G A A A A A G A c c A A A A A A A 5.x f j x z f k z k z x z ,.5.h 4 f A 7.D 7.A x f z x k z ,.s.t.l.7.B h x 7.5.j x ,.z k k k f z x k f c G A c G D A D G G A A A G G A G A c x A G A A 6.x z x j f k k d z x v x v e.x h A F.t._ t.9.x k k k k k m 4.t.w.t.A f h A 4.j k m z d k k k z x x j A w.w.w.t.G A A A 5.w.G 5.t.D K w._ _ G G G G D F.5.x j ,.x k k z k k x x j ,.s.h j A s.F.l.F.4.x k n n n k x 5.I.F.s.6.j j w.s.x x ,.k f k k f k m f f 5.7.G D D D G G G D G G G D G G G G A j x c A A 6.j k x j f z k f k x x j 5.A g 4 h A G G 5.A f f k k f x 7.D D 7.x f h A 5.x h x x f u d u u k f 1 h B N A A B B x x j j x c B x x c A A x f f j A x j k j a r a r e d k f f x z 1 f x A A A x f 1 r r r r x A B A A x 4 1 h B ",
"g x f r d d k k x x f x 5.G G A A A A D G G _ G D D D D D G D D D D G _ c h A x k k k k k z x h j 5.x g x G G D 7.x f u u k f i f x A A A B j h x j 3 a d e e e r < r a a f j c x x A A A A B A A v x B A A x x c A G A c A x f f x f f k f f k x j x 6.j c t._ D _ A f f f k k f f x A G G G A j j ,.x f f k r 1 r e e e < 1 f x h g 4 g g h h h h g g h 1 1 f j 4 4 j j j f 1 , = r r 1 r u r 1 f k f h A h h x A A A A k r r e r d r f x A A A A h h G c g x x g f f f f j x g j A G D _ G A A A A A A A 5.G A A c A G A c x A 5.x f j x k f k k k z x h A 5.h h B G D D A j f z k k k k j A t.t.7.7.x x 7.7.j x m j k k k k z x f f A G A A G D D D D D A c A K G A G G A x A A A A A x h j j f k z k f v A j x w.c A t.t._ t.5.x k k k k k k k x 5.w.w.7.A B A 4.j f x z d k n k k x x z A 5.A A G G A A G G 5.5.G G D w.w.D _ D G G G t.w.w.x x ,.x z z z k k x x f A 7.j A s.F.F.F.4.x k n n k k k k j 4.F.t.t.A x w.s.x x A k f k k f k x f f 5.7.t.t.D G G G G D D D G G G G G D D A c c A 5.6.j f x j f k k f f x j j G A h j A G G G x f f k k k k f x 7.7.D <.x g B s.x f x j f d u u f k f f j B j B A A x h h j x x x x B j x A B h j j j x x j f z a 1 r r e r k k a h j h x A B A x f r r r u r r u j A A A G c j j B ",
"g c j f d d k k ,.x f m 5.A A G G G D G K Z D D D D D D D D G _ G G D D A h A M k k k k k x M z j 5.A j A G D G B f u p u i p p i f B A A A A x B j f f f a e e a r r f f f j x j A A A A j j A A c x j x A A A j A A A A A x f h x k f k k f z x h j A A t.t.D _ G h f f f f f f f f h G G G G A x v x f f j f r r r r r r < f x h f f g g g g j g g h f 1 , r g g g 4 g f f r r < a r r r u r 1 f j f g A h h A A A x k r r r d f u r r f j c A G A j A j g j x g f f f h x c g x A c D G G A A A 7.A G A G 7.5.A G G G A j j G 7.x f j x z f k k k m M z x A B A 7.G A A j f k z z x k k k k A t.t.t.G A D 7.h j A j k k k k x ,.k f A A c c A G D D D D A A c A D A G K A A A A A A A x f j j f z z k z v A h x s.7.t.l.t.t.5.x i p k k k k k k k x A 7.7.t.7.G A j h m x k k z n z m x j 6.G A A A G G A 5.A 5.5.A G K K w.D D t.t.G w.t.t.s.x x 4.m k k z k j >.x h A 7.A t.J.l.F.7.x k n k x m x k k k j 5.l.l.l.G t.7.x x A z f k k f x m f j e.t.l.t.D 7.G G D G G D G G G G G D t.t.G A G G 5.x z x x f k k f f x x j A A B D 7.G G B k f k k k k f f f x 7.7.7.7.B A 5.x f x x f u u k f x j f x A j x c x j f f x x x h x B j h j h h x ,.j x A k f k d < r a e r k k a f x c A A B x f r r r d k k r r f j A A 5.K G A j ",
"4 A x f f k f j 4.B f x 5.A A G G G G G Z K Z D D W _ G D D D _ G D A G A h A ,.m k k k k m ,.h h A G G G G G B f r u u k l k i f i i j A A G A A j 4 f x a 1 e a a f z f g x x j c A A j j j c c c x h h x A A A x B A G A x f z x z f k f f j x f h 5.t._ _ _ G j f f f f x j f f f f j A G A A B x h 4 f x k r r r r f d < f x f f f g g g g g g g g 1 = = 1 4 g j 4 3 1 4 f f a f f 1 r r 1 r z f 4 4 j j j A A A f r r r d m x f r r 1 a h A A G A A j g x v h f k f h A c g x A j j A K D A A G G A A G G 5.5.5.G A A A c A A x f j M j f k k z M x h x A A G G A A j f f k f ,.4.x k k k z A t.t.7.D D G h x 5.x z k k k ,.5.j k A G c j j A D D D D A A c A G G G A A A A G G A ,.x f j v z k z k x ,.A h x I.l.t.t.F.w.j f i p f x >.m k k k f j 5.t.t.t.7.5.j h ,.M k k n k x ,.x j ,.5.c B A G G 7.7.G A A G A G w.w.D t.t.t.G G t.J.5.x x s.6.z k z k x <.B h A t.D t.l.F.s.,.k k k l ,.R.,.k k k f h G F.l.l.l.7.j j A x f k f f M ,.j j R.t.7.D G G G D D D _ D D G K G G D 7.t.D G G 7.5.x f x x k k k k x ,.j f A A A 7.D 7.B f f k f k x x k k k f x 7.t.D G G 5.x f x x f f u f z ,.x g j A j h h g f f x A x j f h x j h g g j x B x j B f r f f r e r r f j f a h j j B B x f 1 r r r k m z u r u r j A A A A G B ",
"g A A h f f f x s.A f x w.G G G _ _ D G D D F F D G _ D A G D G A V A G A h A 4.m k k k x 4.4.h j G t.G G G B f i k i f B <.x f i u i f x A A G G c g j v z r a r a x v f f A A c c A x j j j j A c j j x x A A G A B B A A x f j 6.x f k f k ,.A f x w.t._ t.5.x f k k f x 4.A h f f f f j A A A A A h f h A j r r 1 a x f < r f g g f f f f f 4 4 4 f , O = 1 1 4 g f 4 4 h h h f h x a < r < f x j 4 g x A B c A z r r r d j ,.A j 1 r r a f j x G D D j g x 5.j f f f x 5.A g x K A j A G G G G 7.G A A A A G G G G A A w.G A A x f j 6.m k k k x 4.,.f x G t.G A <.j f d f f x s.F.5.j k z k h A 7.t.t.t.7.h x 7.5.j k f j 4.7.j j A A x j j A A A G D D A c A _ G G G G A A G 7.5.6.x f x 5.x f k k m s.A h c J.I.l.l.t.x i i p k j <.5.,.k k k k f j 5.t.t.t.5.x h 6.4.x k z z x e.x k ,.5.A <.A A 5.5.G A A A G G G G 5._ _ G t.t.D t.l.s.x x s.s.x k z j A 7.B h A l._ l.J.F.,.k k k l ,.F.I.I.,.f k k z j G J.J.l.7.j x s.,.j f f x e.4.j x s.t.t.t.G D t.D G G t.D D D G D G G _ t.t.w.G G ,.j f ,.4.z f k k A 4.j f A t.D D 7.A k f k k f x 5.4.x k k k f x 5.7.7.7.5.j f ,.,.j f d f x 4.x f j A j g f h h x A A x j f h h x j f f j j B x j B x f f x a < r 1 l B f f x A x c x f r r r r f x x x k u r u f j A A A G A ",
"j A G B f f h A t.A f A w.K t.G G _ _ G D D F F G D D G G G D D V c A G v h A s.6.k k k ,.4.4.h j 5.7.t.t.v f f f a f B <.A <.x i u f f f x w.G A A h j A x d 1 a h v c f h A A A c j x c x j j c j h x x x A G 5.A j j A G v f j 6.A z f f x 5.A h x t.K t.5.j f k k f x 7.D G A h f f f f j A 5.A A x f h A x i , r j x 1 = r f f g g f h h h f 4 h f 1 , a f 1 ; 1 g f 4 4 h f 1 h A f ; , r j j j f g A B A A z r r e < k A c c A j r 1 a a f j A D D N g c G A h 4 g A w.x f c K A A A G G t.t.G A A A A G G A A A A K 5.5.G A x f j 5.,.k k k ,.4.,.f x w.G G ,.j d d k d j 7.7.7.t.,.z k z k k A F.t.t.5.h x 7.7.,.f f ,.s.5.k f A A A A A A A D D D G A c A G G G G A A G G A A v x f x w.A k f x 4.s.,.h A J.I.J.t.x f i i u x <.A A 5.,.k f k k f j 4.s.7.5.x j 4.s.v z k x 4.e.x k ,.w.5.5.A A 5.A A A G A G G A A G _ _ t.t.D G G t.e.x j s.s.A k f x 5.t.A g A J.t.J.s.,.k k z k ,.F.J.l.F.F.,.k z z f j 5.B.B.7.j x w.s.B f j 6.s.5.j x s.t.t.D D D t.t.G G G D D G G G G G G t.t.K G A A j f A 4.M f f x 9.7.j f A t.t.t.<.j f k k f x 5.5.G ,.j k k k k x 5.t.w.5.x j ,.4.x f r z 6.5.j f j x j g f x A x c A A j f j x x j f h j x x h j A x f j ,.f 1 1 f B B k f x ,.5.v f r r u r d x x j j x k u u u f j A G G A ",
"j G D G j g B t.t.B g A G G _ G D D D _ W D D D D Z A D D A D A A D A A c g B s.s.x k x s.7.<.h x w.7.7.A f a f f f x A A B A <.j f f d d f x G G A h j A A z 3 f v A j f z A x j x c c c A c j c j j x c x x A A A j j A 5.v f j 6.7.A f h 5.7.c g x s.w.w.x f k k f x G D D G K A h f f f f j A A A j 4 f A B f 1 f B j 1 = f f f g f f f f f g f f 1 ; 1 j f ; ; 1 g h 4 4 j f 1 f x j f 1 f x h h g h A x c j r r r 1 f x A A B A A h 1 a a a f j A G V g j G D c j A t.7.j f c G D G A A A G G A B A A A A G G A A G G 5.G c A x f j ,.6.x f x 4.4.v f x w.5.,.x a r d d z A 5.D D t.t.,.j z k f k ,.s.t.5.x x t.F.5.x x w.t.A f f x A G G G D D D D D G A A G G G A A A G A A h j A x g x w.G x x A t.7.A f v J.t.s.A f k f i l A A A A A G A l k k k k x 5.s.5.x j 5.s.5.c x A I.6.x f A t.t.7.G A A v A A G A K K A G G G t.t.G G G G t.5.x j w.F.t.x j G l.t.A g A J.l.t.A k k k k m R.F.l.l.l.F.F.,.z z z f j 7.J.s.x x t.J.t.c A I.s.,.j x w.s.t.D t.G _ l.D D G G D G G G G G G G G A A A A j k A e.5.x h <.s.5.j f 5.t.7.5.j f k k k x 9.7.G A G A z k k k f x 4.e.5.x j A s.5.k f A 5.,.f 3 h x j j h x A x A A c f r k x j f f x B B x h B A j f h B j f f j A B j f j ,.,.x r r d r f x A x x x x x k u u f f j A A B ",
"j A A D G G G G t.B g A G G _ _ D V D _ W D G D D D A A D D A A D G D G B g B t.t.5.A 7.7.7.A h h 5.7.A f f u r f x A A B A B B A j a d d d f x 5.A f j A A v x c A A h 3 f x j j j c A A A A A x j j j A x h j c A x A A G A h x A t.G x A t.7.A h x s.5.x f k f f B 5.A A G D D A A h f d d f h c x f 1 f B B x x x x j 1 < k j g g h h f 1 1 f f f 1 ; 1 g 1 ; 1 f 1 f 4 4 f a 1 f x x h h j j j f 1 g x x f 1 < r < a x A x A B B j x j a r a a f j G B g c G G G D _ t.7.x 4 c G G D D A A A A A A A c c c A A G A A A A A c A x f h A 5.A x A w.4.x f j 5.A h r r r a k ,.A A G _ G G 5.x k k k f k ,.t.G h x t._ D G D D _ A f f A G G G D D D D D G G A A G _ D G A G G A j x x ,.x g x 5.K G G G t.7.B f c s.t.v f k f f j A A A A A A A 5.<.j f k k k x 5.5.x f A t.t.t.w.t.t.5.x f ,.w.t.t.7.A c c A G G K w.G G G G G G D D G G G w.w.x h w.l.F.7.D t.l.t.B g A F.s.x f z z k >.I.F.l.l.l.l.l.l.I.,.k z k f x F.s.x x t.t.t.t.n.t.t.,.k x s.w.w.t.t._ t.D D D G G G G G G G G G G G G A A A x k A 7.5.G G 7.t.5.j f A 7.<.j f k k k x 5.A G G A A A ,.z f k f f x 4.4.x j A 7.5.A A A A A f : g c j x x j j x x x h f r f f f f h j h h x x j A j 1 g B B x x x B B f r j x k r r d d f j ,.A x x h x x x k u u f f h x x ",
"6 A D D D _ D G w.x 4 c w.K _ _ D Z D _ D D G D A A D D G D A D D D D D j g x 7.t.t.l.t.7.7.A g h 5.,.f f f f f x <.G A A A B B A A j f u u d f c j g h A A A G G A A h 3 g A G c c c A A V A A B j j A A A A B c c A G G A A h h G D G G D t.G A h x s.M k f k f x G G D A G G A A G A f f f d f x x g 1 h B B A B B x h 1 , f f f f g f h f 1 g h j h g 4 f 4 1 a f 1 1 4 g g f ; f x j h x h h h f ; a j f r 1 r r r j A A B B A c j c A h r a 3 3 f A j 4 x G D _ D _ G 7.h 4 c G A A V A A A A G G G A c A A A G A G A x x A A x f h A A A G G G w.x a j 6.x a r a a f A G G G G G G G G 5.x f k k a j 4.5.h x t._ D D D _ _ A f f A G D G D D D G G G A c c G G D G G A A A A A 5.v x f x w.K D t.7.G 7.B g x s.,.k k l f j A A A A V A A D G 7.A j f k f f ,.5.x f 6.F.t.t.l.t.w.w.x z <.5.w.t.G G A A D G G G w.K K G G t.G G G w.t.D G w.x h w.l.B.l.B.l.l.t.A g <.9.A k k z k >.R.F.F.l.l.t.t.t.I.J.s.v j k k j 5.9.j x t.l.B.t.t.t.t.,.f x 5.G D D _ l._ _ _ D _ D G G G G G K G A A G 5.5.5.x f v 5.A D 7.7.t.7.j k ,.4.x u k k f x G t.A A D A A A 5.A k f k d f ,.4.j f A G G 5.A A A A g 1 f x A c A c j x x j x x x x f f h j f g j A B j x f 1 h A B x c j j B f 1 k x u < r k f j A A c x h x c x A A k r d f f j A ",
"j V D D D D D G G j g A G K _ _ D D D _ D D D _ A A D G D D A D D D Z A B f x t.7.+.l.t.7.7.A g h ,.j f f f k x 5.A A G A A A A A A A j d r d f j x 4 h A A G G A A c h 4 f A G A A A c V V V A A N N A D G G G c c A G G G A g j G D D G G _ G A f x 5.j f k k x G G A D A A A A A A A x f a d a h x h 1 h A B B B j x h ; = f f 1 g h h j x h 4 4 j h f g g 4 3 3 f f f 4 g f a ; r h h j x j j g 1 , 1 f 1 < r < 1 j ,.A A B A x j j c A x z 3 1 a f x h 4 j G D D D D D G h 4 x G A j j V D A A G A A G A c c A A A A w.A c A A x f f A A A A G 5.6.z a j A h a r r f A A A G G A A G G A G w.x f d d f v 6.h x t._ F F D D _ G h f A K D D D D G G G G A c c A D D G G G A A A A 5.,.j f x 5.G G G G D G B g x 4.x k k k j A A A A A A A G D D D w.A h f k f x 4.j f 6.t.l.t._ t.t.5.x k <.t.K D G G G G t.G A A w.K K G 5.t.G G G t.t._ G G j h s.l.B.l.l.t.B.t.A h <.4.j k k k x s.J.F.F.l.t.t.t.t.I.n.I.I.M k k j 6.9.x x t.l.t._ _ _ D A f j 6.G A A G _ _ _ D _ l.t.G G G _ t.K G A A 5.5.w.4.x k A 5.G G D D t.G j k 5.A f f d f x 5.G D G A A A A A A A x k f d f x 4.x f x 5.A A A A A A f 1 f x A A A A x x h x B A A B x x x h f f j A x x c f f h x B B j j j x f r j k r r r u h A A x h j x x j j j c x k r r f j v ",
"j D Z Z D Z Z D G j g A G G D D G G G G D V D G A Z A D D D A A D D A A N g B D l.F F l.D D A h j ,.j k f k x 7.7.G G A A A A G A A G A z a d f j x 4 h A c A A A A A j 4 g A A D D A N j j N B A A V N G D A A A V A D D G v h j A D D D D D D A g x M f k k x 5.G A A A A A A A A A V A x f 1 a h A j 1 f A B j B j j j 1 1 f f 4 g x x j B x j h f : 1 f f f f 3 f h f 4 g h 1 ; r f h j j h g h f , a f 1 < r 1 f x A A B A A j j j c j A A h 3 f f j j g j D F Z Z V D G j g c A A N V A A G G A A A G A N j A A A G t.5.A c A x f g v A c A G 7.v z a j v f 3 1 f c G G A A V A A A D A D G A x f k k v 6.x x _ l.W F D D _ D j h A K A A G G _ G D G A A A G G G A A G A A A A A 6.x h v 5.G 7.G G _ 5.B f x 4.j f k h A G G G A A A D D D D D D K v k f k x ,.j g A t._ _ D t.t.5.x l <.t._ D 7.G t.t.D A A D _ K K w.G A A G t.t.t._ D A j x s.B.l.B.l.+.B.F.A h ,.5.j k k j 7.J.l.l.l.t._ t.t.t.t.w.n.J.s.x k j ,.9.B A I.t._ t.D D t.<.f j 5.G G G G D t.D D t.t.D G G G G D A A A 5.G G w.w.j f v 5.G D G D G A j k 5.m k k f x 5.5.G G G A A A G G A A A x f f f j 4.x j 6.t.G A A A A A f 1 f j x x x A A j f x x x h j x x j k f g j x B A x f f x x B A j j j x f f x k u u r f x A B x h j c j j h j j c x u < a x A ",
"g G D F Z D V D G j g A 7.G D G G _ _ G D A D G D Z V A D D V A V V A G j 5 B 7.F F F +.+.t.5.h h ,.x f f x 5.5.G G A A A G G G G G A A A f r f x x f h A c c c c A A j 4 g A A V D D V N j j A A V A A A V B V A D A A G D A j h A D D V D Z D c g j v f f x 5.G G D A A A G A A A N N V A h f 1 h ,.h 1 f A B B B j j x f 1 f f h h j h x x j j c h 1 1 3 g g f f g g g g g g 1 ; 1 g h g g 4 4 j h 1 f f < e < a j A B B A A A j g h j j N A c f 3 f j j g c D D D V V V D x j A A V A A A A D A A A A A A j c A A G G G 7.G A A x f g v A c A A A v z a h A g : f c A V D D j j j A A A A A A G A j f f v 4.x v t.D F F D D _ 5.h h A G A A A t._ _ G G G G G G _ G A c A G G G A A A x h v w.G 7.G G D 7.c f x ,.f f f A G A D G D A D G G D D D D A A M f f x ,.j g G t.D D D t.t.5.j l <.t.t.t.D G t._ D A A D _ _ K G A c A G t.t._ G G G j x t.J.B.B.B.l.l.J.A h ,.4.j f j G J.t.l.l.l.l.n.t.t.w.t.I.I.I.s.5.j h 6.s.B A I.l._ D D t.t.<.g j G t.t.D G D _ t.t.t.G A G G G G G A A G 5.G G G 6.j f c G D D G G G A j f ,.,.k f j 6.A A G G A A A A G G A A G A j a r x 4.x j e.t.G G A A A 5.h 1 f j h h x A x j h g j x h h h j h f h x x j j x x f f x A j j j j B x f f x f r d f j A j j j x j j j A A j j j x z r 1 h A ",
"g A D D D D D D w.j f A D G D D D D K _ D D D D D Z V A A D A V V A A G j 5 A t.+.l.+.F l.l.A h h ,.x f j 5.7.G D G A A B A G A A A A A 5.x r a x x f h A A j B c c A h 1 g A G V V Z F D A j j A A A A B j N G A A G G A A c f h G D V Z D Z D A g x x f g A 7.G D G D A G D A A N V A V V A h 3 f ,.j 1 f A A A B x j f 1 1 f f f g g f g h x x x j g f f f f f g g g h h g f f ; r h h g 4 g g h j a a 1 = ; 1 f x B x A A x g 4 f h c c j V A j 3 3 x j g j D D A V D A A h g c G A A V A D A A G D A A B A G A G G G G G G A v x f f v A A A v v ,.j 1 f c g 4 j c A A D A j j A A A A A D G G G A j f c w.x A t._ D D D D D A f h A G A A A G G D D D K G A G K K w.A A A D D w.G v x f A t.D _ 7.G D 5.x f x 6.j f x G D A D G D G D G G _ K D D G w.w.x f x 5.j f A t.G G t.D t.4.x j >.A G 7.t.t.D D D D t.D _ _ _ G G G G _ _ _ _ F G K x x t.J.l.l.l.t.B.J.G h 5.w.h h A t.B.+.B.l.l.B.B.l.t.w.t.t.n.n.I.I.5.x 6.s.v A I.F.l.t.l.t.t.<.g j G t.l.t.D A G K w.G A A K G G G A A G A A A G 5.6.x f x 7.G D G A G A k j ,.A f f v 5.A A D A A A G G A A A A A A A f 1 f 5.v x s.t.G A A A ,.,.z 1 f j g h c x x x g f j x c j f j h f x A x h f h x h f j A j j j j j x f f m f r j x j x h h x A A A A A A A c j j A x g j A ",
"g A A D D D D D A x h A G D D G G D _ _ _ D D D A Z A A A D A V V D D D j 5 N D l.l.+.l.7.7.A h h 5.A j A 5.G G G G A A B B A B j j A A A A g f j x f h B B B B c A c h f g A D A Z V Z F D A j j N A A A j A G G G D D D G A g g A D V V Z V V c g j A j A G D D D G G A A A D G A V A A A A x h x A h 1 f c A B B B f r , 1 f f 4 g j h g f j h f g g h f f f g g h c x h h h f 1 a j j h g j j h j a 1 a 1 1 j h j j A B B j g g j h j c V V A c h h c x g j A A A A D A B g 4 j A D A V V V A D D D A A A A G D G G D D G A A 6.v f f x A A A v ,.x k 1 g j j j c j N A V V j j N N A D A A G G G G x j A A x x G D D D D G A h g h A G G G G G D G D D w.K G G G G t.K A A G t.w.w.6.x z A w.D 7.G G G B j z x 6.v A G D D A D D G D D G G K A D D G G K w.A A ,.j f A 7.D D t.t.t.,.j j x x x A t.D D D l.t.t.D D _ _ _ _ _ _ _ _ _ _ F D G x x 5.t.l.l.l.l.t.t.A h 5.t.B A l._ _ B.B.l.B.l.B.J.J.n.t.w.I.I.n.n.I.t.t.s.v c t.t.t.t.F.t.7.x f x 7.t.t.l.t.G A A A G G G K G G G A G G G A A A 5.4.x f B 5.7.G A G A x f f A A x v A A A A A A A A A D A B A A A A A j f h 5.A j ,.s.7.G <.5.,.x a 1 f h h x v c x x j f f j x j x j g h x A c h g h x z f j x x j j B A h f f x x x x x h f h x x B A A N j j A A c j x x c c j ",
"g c j N D D A A x x j A G G G G D D _ _ t._ G D D D D D D D V V D D F A j g A A D +.l.l.A B <.h h 5.<.5.5.G 5.A G A A A A B B B A A A A A A B j x A g f j B A B x A h f f j A D A D A D D D D V j V A A A A A A G _ D D G G x f h x j A D V V j j g j G D G G D D D D A G D G D A N V V V N j A G G A g 1 f f x A A x f 1 r 1 f h g h c x h h f f f f h j f f f f h x x j f f j f r f h x A A j j g f 1 1 j j j j h j N A j j x A A A j j c c j c A G A A x h c j c G D D A h g f j A A A A N j A D A A A A G G A K G G G G 5.A A 5.v f f x c A A A A j f a g A G A A N j A V j A j j N A A A A A D D A A A G G x j A G D _ D A j h g g A G _ D G G A A t.t.D G A A _ _ D G A A w.t.K w.w.x j v v A t.w.G x k j z x A G t._ G D V Z G G D G G G G G F F D G D w.t.A 6.j f v v G t.K _ G x x j x x h A G D _ _ F D D F D D K _ _ _ _ _ _ _ D F D D B x ,.A n.l.t.t.G A A j A l._ l.B.+.+.%.%.+.+.t.n.n.t.5.5.t.I.n.n.t.I.I.J.t.c c 5.A t.t.t.7.A j f x t.t.t.t.t.D G G G G 7.t.D t.D A G A G t.K A A 5.4.x j x A A 7.A <.B l l j A D 5.5.A G G G A A A A A A A A V V G A A A A A 5.c h x A 5.5.5.,.x f 1 1 f x A A c c c x x j f j A v x j f j x x x x x j h j f f j j A A A x f f f j A 5.A x j h h A A B B j j j N V N j j j A V V A ",
"g c j g A G A j j c j A _ _ G G D D D t._ _ G D D D G D D D A D F F V V j g A A j l.l.A j A 5.h h 5.G A 5.G <.A A A A A G G A A A A G A A A G G A x f f j h x A A h 4 g f g A A V V D D D Z V V V V A A A A D G D D D G G A x g g h 4 j D V j 7 h 4 g A D D G D A D D D G G D V j j V N j j A D D A B f 1 j f h A A f f f f r f h g j j c x h f f a f h j j f f f h h f 3 f f h h 3 f h g j A j 4 4 f : 1 j A V j j j B B j j A A A B j j j j c A A G A A x f x j j G t.A j h h f x A A D D V V A D D A D D D G A A G G G G w.w.G A x a f x h c 5.A h f f f h G A A A j N j j V A A B N A A A A A A D A A _ t.A h x A c G _ G j j A h g A D G _ t.G G G G t.D G c A G G G A A G 5.t.w.w.w.x j ,.v j 5.w.x g j x f x G G D D D D V V G G _ _ t.D G t._ F D D D D G D 5.j f M x x K t.D A x A l x A A G G G _ F F D D D D G G A G D _ _ _ _ _ F _ t.x j A x G I.J.K j A A h A l.Q.B.+.B.+.%.n.B._ _ K w.w.A G s.I.n.t.t.n.l.I.s.c x 4.x A e.w.B j x k x 7.t.t.D t.t.t.t.t.G G D t.t.G A A A G K G A A 6.,.x j x j j <.9.A h j x j A G G G G G G G A A A A A A A A D D G G A A G G 5.x j A A c 5.4.x x x f 1 f x A A A c c c c x h x A A j h h x A A A A A c x f f h h g x G c g f k f f x A G G A B j x j A j j j N V V V j j N A V Z j ",
"4 A j 4 g G j 4 A A h G _ D _ _ D _ _ _ D D D D D D D D D D D F F Z V V N g A A j A A j c t.5.f h G G G A A A A A A G A A A A G A A D D A G G D D B f f v g 4 x x 4 4 j g 4 B A c A D D D A V D D V A A V A D D A c A A A x x f h ,.h g x j 4 j c 4 g G A Z G D D D D A A D D V V V V A V A D D A A A g 2 x x g h h f j <.f 1 f h j N V A j f g g f j h j x h f f f f 1 1 f h f f a h j 4 3 h j g g h 1 4 c j j x h j B B j A A j j j A c j j c A c A G A h a x A g j c j h A x g j A D D D D D A A D D D V A D D D K K G G G A G A x f j v h f x j f f j f h A V V A V j j j c j j N N A A A V A A A A D D _ G j A t.A c A x h G t.h g A K G _ t._ t.t.D D D G G A D G G D G D G 5.w.w.6.x z 6.e.j x c g x 7.A f x 5.G D G D V D D D _ W W G D G G G _ G D G G D t.5.j g 5.A h c G A j G A h x 7.G w.w.D _ G G _ _ D D D A A A G _ _ G _ _ D _ D j j 5.x j 5.I.A j t.5.h A B.B.l.t._ B.B.l._ _ t.t.t.t.w.K K n.J.n.t.I.t.n.t.x v W.A j A A j A 9.j j 7.t._ D t.t.t.t.D t.G G _ t.G D D A G G A A A A ,.j j 5.A h x >.j h <.j h A A A A G A A c A A A x c A A A A G A j j A A A 5.x j w.5.x x x j A 5.g 1 h c A A A A j c A c j z f j f j x v x A A A x A A f f x A f g x g f x x f f x x A A B B B A A B j j j B j V V j j A A c c j ",
"6 A A A j j j c 5.c j G _ D _ _ D D _ D _ D D D D D D D Z D D D D V V V j g N D A j g j t.t.A f h G G A A A A A A A G G B B A G G D D G G D D G D B f f 5.c g g g h B j f 4 j A c A D D D A A A D D A A A A A V A A A A A A x f h A A h 4 g j A A 4 4 G A Z D D V V V V D D D A A A V A D D D A A A A g 4 j A x g 4 h x B g 1 j A j A D A x g g h x x x x j f g h f 3 f j h h j f 1 h c h g 4 4 j j h f 4 j j j j h x x j A A j h j B j x h h j c A A c v x a x A A g 4 j c A x g x D D D D D D D D A D D V V A D G G K A c A A A A x f x 6.x f f f j x j f h A A V V c j j j c j g j B N j N A A D G A A A D A j j t.w.A h h A D D j g A K G _ _ _ t.t._ D G G G G G D G _ 7.t.7.w.5.5.6.v j ,.s.5.c h c t.s.A f x G G D A D D D D D D D D D A A D D G G D K G D D G j g 5.s.A x x c G G A h A G G t.t._ D D _ _ _ D G c c c A G G G _ G _ D G A j j w.5.c x v x 5.s.5.x A ~.+.l._ _ B.l.t._ _ t.t.t.l.J.t.t.l.n.t.I.n.w.t.w.x c I.s.x h x A t.5.h x 7._ _ t.t.t.t.t.t._ _ G D D G D D A A G G A A 5.6.j j 5.s.A j l j A <.l g c A A A A A c x j A G A j j N A A j j j j A A A A h h w.s.G j f j A 5.g 3 x A A A A v v c A A x f f f j x x x x x j j h x c f 1 x 5.x f 4 f B <.x 4 g x v c B j j B A A x h j x N V V V N c A A c j j ",
"j A A D A j A 5.c j x A _ D D G D D G t._ D D D W D D D D D D A V V V A N j N A _ G j G t.A B h h G G G G A B A A A A A A A A A D D D A A A G G A A g f c A B h j G G j f g B G A A D D D D D A G A A G D A c x A G A c A G x g h c A A j x G c j 4 6 D D D D V N j j A D F A A D V V D D A A V V D A h 4 h A A j g x B f f f x A j A A A c h g h j x c c g f f g f f j A x h h f 1 h c c x j j A j f g 4 j j j j j x h B A B j j A G j x j h g j c c c c x f j A G x g A A j j 4 c A A D D D F D D D A D A A A G G K G A A A A G 5.x f h ,.x h h h A x z f h c A c j j j j j c j j A V j j j A G G D V j A G A g j A w.t.D A 7.G A j j G _ D G G G G G D G G G 7.7.G G _ _ t.t.7.G A A w.A j v 5.w.w.A t.t.c x h h A A A D D D A V V D G D G D A A D A D G D G D G G h g ,.w.7.A x G 5.x x j A 7.G D t.D D _ _ _ _ l.D A A A G G _ D D D G D G G j h 5.F.t.x x w.J.5.A x G ~.l.+._ _ _ K G _ l.t.t.l.B.t.l.B.l.D D t.t.t.w.5.x x e.s.5.c G w.5.A h x 5.G G w.w.K G D t._ _ _ G G G G G A A _ _ G A 5.5.h h v 5.5.A j <.,.j f g x 5.A A A A G A j j G A j j j j c j N A A A A A A j h A w.5.,.x A A B g 4 x c j x x A A x c A B x x x j j j x j f f h c x x k a j A A h h A 7.A h f f A A x A A A j B A x h j x B j A V N j A A j j j ",
"j A j j G t.t.A j x j A _ D D D A D G G G F D G D G G D D D D D V Z Z A A j N N V _ t.D A x x h h G D G G A B A A A A A G A A A _ G A V A A G A A A f f x j x c A A x h g g A G D D D A D A V D G c j A G A x x A A A A A A A h x x h A 7.A j g g 4 j A Z Z Z V V V D D D D D D V V D D A A j A A A G j f f j B A A x g f f f j A A G A c j x j h h x x x h j h h h x x j j j j h f x c g h c A j g f f 4 x j j j j j j A A B j j j A A c j j h h j j j A x f j x x A A A j j j 4 j A D F D A A D D A G G A A G D G K G G A G G A w.x a g h h x v x h h z f h A A j j h j j j c j j V A V j j j A A V j j A D A h x c x _ J.F.A B A x j G _ _ D G G G G G G 7.5.B A D t._ _ t.t.7.G A G w.A x ,.6.c t.I.K j j x f h A A D D Z D A V V D G G G D A A A D D D _ G G G G h f A A x 5.w.G j x x h <.t.G D G D D F _ _ _ t.w.G 5.t.7.G _ _ D D G D _ t.c x 5.w.w.5.s.s.G ,.,.x A J.t._ _ t._ K K _ l.t.t.B.l.t.l.B.t.G D t.t.w.t.w.x x 6.x A t.s.A j x j x G G A A A D G D t.t.B.t.A A 7._ G D D G _ t.K G A j z x c A 5.9.5.j h f g A G A G A G K G c j A A j j c A c c A G A A A A A x j x x A 4.R.5.j j g f j x j h h A A A x x x A x x x x x A x f f j x c A z f j c j j B 5.x g k f f A A A A G G x j B B h h h B A A A j j j j N A j ",
"j A j g A t.A j j v j A _ D _ D G D D D D _ A h g A _ D D D D A V D Z A B j x x j A t.G h h x f h G D A A A A A A A A D G G G G G G A A G G A G G c g h x h h v A j g h h h A D D D A A A c j D A h f j G A B A A A A A A A A h c c f j A j 4 g h 6 g A D Z Z D A V Z Z Z Z D A c j V D A V c c A A A j f f g h A A j f h f 1 j A A G A B j x x j j k f f j x x x x B x N j j B j f j x 4 f c c g 1 f g g j h g g j j A A N B B j g j c x j c g g j j x 6.x f j z f v G j g g h 4 j A A A F A A A A A G B h h A G G G A G G w.K A 5.x 3 f h f j ,.x r f z f h A c c c h h j c c c j N D D V j j N A N N A V A A h x v h A s.5.x x A c h G _ l.D G G G G D D e.x f j A 5.G D w.K G G w.t.w.A x M v h v w.v h j x f j G A D D D D W F D A A G G G D D D G G D G G D t.G j f A v j 5.e.x f x v j A G D D D G D D F _ t.5.x z M 4.w.t.t.G G G D D _ s.A x ,.x c s.E.<.j ,.6.x A J.l._ %.t.t.t.t._ +.B.B.n.n.l.l.t.t.D t.D t.t.t.w.x x M z x e.w.j j ,.x j 7.G A G G G t.D D l.t.c g h A G G D G G G _ _ A x h z x j j 6.5.x f j z g A 7.A G G A A G A j c A c j j j c c A A G G A A A x z x h x 5.4.x f j j a h c j x j j j B x x x x f k x A A A c x x B x A ,.k a j x f f A A f 1 f f f j x A A A 5.j f x A j h g j A B N j B j j N N j ",
"j A h h j v x h j v j A _ D G _ _ _ D _ t.A h f f j G G D D D D D D D A N g x x h h A B g h x f h G G A A A G A A A G D G G G G A A A G 7.D G G A c f h x f f x x f 3 j h g A t.A A A A c c A A x f a f x A A A A A A A A G c h x c f g h g 4 f j 4 j D D Z Z V V Z V Z D D D A A j V D D V c c A A A h 1 f g f x x f f j h r j A c A B B j x x x k u r r a z A x j j x B B N x x f f z f f x x f 4 f g g h g 4 j h A G N B A j h j j j x x c j j g x A A x f j j f h x g f h h 4 N A A V V A A D G A j g f f f x A A A A A G K G A j 3 h h a h x z r f z f g A c c A c j g j A A c N V A D A A A N N A N A G A h x v x x A x j v 6.x j G _ D D G G G G t.w.x k f k x A 7.G G G 5.5.w.t.I.6.x M M z x v x h x x h x G D F D _ F F _ G A G G G G G G D D G D G G D t.5.x f ,.x h x ,.z k x x f A D G D G _ D D G _ n.v f f z x 5.w.G G G G D t.t.s.A x ,.x x 5.,.x x ,.4.x 5.J._ n.%.l.l.l.B.+.+.l.B._ _ l.l.t.t.t.t.t.t.t.n.5.j x M z z x x z x ,.j j 5.7.7.t.t.t.t.D t.t.c f f f h B A G D G G D A A A h j x x h x M z h x z f B A A G G A A G A c c c c j g j j A A A A A A A 5.x z x j j v x f f x f f h c A G A x j j c ,.x k u k k x A A x x j A A A x f r h j f f x j f f j f f x h j A A x h j x A x j f h j B j j j j j j j x ",
"j A h h h z h h x M j A t.D D _ t.G G t.A x f j j h x G D Z D F F D D G x g x j f f j j f j v f g A G A A A A A A A A G G G G A A A A t.D D G A A A f f x h a f z f f x h g A K A A A A A A A x f f f f f x A A v v A A A G A h j c z f f f a h h 4 j D Z Z Z V V Z D F D D D A D D A D D D A A A G A g 3 f f a f f f f x f f j A j j x B N x x x f r u u 1 d x x x j h j x B x f a f z f f f z f h j g f j h j N j A x j A A h h x j j A j c c j j A A A x f x x f f f f g j j 4 A G A A A A A A A j g f h k f j x A A A A A G D A j 3 h z a d k f r k z f g A A c A A j h j j A A N j j A A N j j j B V D G A h x ,.x j x j j x A x j G t.D D _ G G G 5.x z k z z j x 7.D G G w.w.w.t.W.6.x ,.M z z x x z x v h x G A F F _ F D _ D D D D G G G G G D G G G G G t.5.j f m x f z x k z v x h A G G G D D D F D D A x x z z z m ,.G G G G t.l.t.s.x x ,.x z x x k x ,.4.x 6.J.n.t.n.t.l.l.l.t._ t.t.t.t.D t.l.l.t.t.J.t._ t.5.j x M j k k f k x x j j A 7.t.t.l.t.D t.s.B f k j z z h c A A A A c A G A j h ,.x f f z f f x j f B A A j x B A A A A c c A A j c c c G A B A G G A j f x j f j f f z x f f j A G t.G A x x ,.,.k f k k d k x A x h j A A A x f f j h a r f f f j j f x ,.j j A B x B x j x x B x h j h x x j B j j B j ",
"j c z f f f f k x x j A t._ _ G G t.t.G x j j j j j h j A D D D D D A G B f x j f z k f f k x f f A A A A A A A G A A A D G G G G A A G _ _ G G G A f k x f a d f a f x z h A G c A A A G A x f f k f f f f j v x x A A A A c h j x h f f f f f h g g A A Z D D V V V F D D D D D G D A G G A A A A A h a h f a a d f f z j f h A j j j j B B j f d u u u u u f j x j h h j B x f 3 f f f f f f f g c h 6 j A D A N j h x A A h g j c j c A j j x A A A A j f x j f f f f f h j j A D D A V A A A h g g h k k j f z B A A A A A D G x 4 h z d r d d d f z a f c A G A c j j j j A G A j j c A N j j j A D A A A g x ,.x j j x j x ,.x h A K G _ G G 7.5.x j j z z z j j A t.t.G w.w.w.w.e.,.x ,.M z z m z j x x h x 5.D F F F F _ _ l.D D D D G A G _ _ G D G t.D w.G x k M x f k z k k x x f A t.G G _ D D _ t.A j x m z z z z v 5.7.D _ t.t.t.s.x j ,.x z x z z x M 4.x A J.J.n.K D _ l.l._ D G G D D G t.l.l.B.t.t.t._ t.5.j x ,.x k k k k j M j h A G D _ _ t.t.7.x f f z x z z j j A A A A c A G G j h v z f k k k k j j f B A B j j j A A A A A A D A A A A A A A A A A A A f f x j f f f f f x j f j A 7.G A A A A ,.z f k k k k u f j x x h x j x x k f j h r r d f f f j l j A x x x x B B x x A B A A x x x x j h B A B B h ",
"g v h f k f f f j x z v _ F F F D t.A x j j j j j j j j j G _ D G D D G B h x x k k z k k z m f f A G G A A A B A A A A G G G t.D A G G _ D G G G c g z x f a a d d f z j h A A A A A A A x f f f f k f f f f x x A A B A A x h j x f f f f f f h 4 4 c A D V D Z V A V D D D D A D G A A A A A A A A h a h f a a d f a z x f h A A B j j x x f 3 f d r u d f f f z j h h j x x h f z f d d a a f f j j 4 c A D A N h j A j A h g c A c c A c j N A A G 5.h f x j f f a d f h j 4 A F F A A A A x g h h z f f k f f j c A c x A G A x f h h a r d a d d z f h c c c A A c h j j j A j j j j c c j j A G D A G c g x ,.x z z x j x 6.x h A G D D G 5.6.x j j x x z z x k j A t.7.5.5.7.t.s.A x 6.M z z x z z x x h x G A D G D _ _ _ D F _ D D G D G _ K A A G G K w.5.x z M x f k k k k j x f A t.D G D D _ G B h j m x z z z z j ,.7.t.t._ _ t.t.v j 6.x k k z x x M 4.x 6.J.B.t.G G _ t._ B._ _ D G G K K K t.B.t.7.D _ l.4.x x M z f k k k z m j j 5.G K D D t.t.m k k z z z z x x z j c A A A A G A j j x h d d k k f f h f B A A A A B B A A A G G A j j j c A A A A A A x A h h x x d d k f k x j f h A A G A A <.x k d k k d k u r r u j x x x j A A j f j f r r u d d i k l j x x v A A c j c c x B B B A B B j h j x x h h j ",
"g A z f f k f f z x f v _ D F D D G x j j j j j x x x x h x G _ G D D D v h v x k k z k k z x f f A G A G A x j x G A A A A G G G G D G G A A G G A g h x f d d d d f z z f A G A c A A x f f f k f k z k f f z x ,.A A A A c h j j f f f f f h h 3 4 A D V D A G D A V V V D A A D D D A A c c A A A h f z f a f f d d z z f h A A B B c j f f f f f u r u k k f f j j j h j A j f z f a a a a a f j 6 4 c A A N j c c A G A h g j A A A A A A V A A A A h f x z f f d d a h h g c A A A D A j h j h f j z f f k j j j x x B B A A x f h h a r d a r f z a h v j g g B A c j j j h j c x j j j j N A A A A A x f x ,.x z z z z x ,.x h A G G t.t.6.x k z x x x j z k k h f A t.5.G G t.s.,.x 6.M z k z z z x x h c G A G G D _ _ _ D D D D D D G G A A A D G G K w.w.x z M m k k k k k j x f A t.D G G _ t.x f j x x x z z z z x j A t.J._ D t.s.x x 6.x k z x x x M 6.x 5.J.t.t.K G t._ B.l.l.l._ G D K K t.n.t.t.t.t.t.l.w.x x M z f k k k z x x j 5.w.K D t.7.x k k z z x x x x x x k j A A G G G A h f j z d k k f d f f g x A A G G A A A A A A A A j f f h c A A A c x x A h h x z f k k f k x z g x A B A G 5.x k f k k k d u u u u u f j A A B A A j f j k r u d u f k j f f x x 5.5.A x x c x j h j B A A B x j h h g j h j ",
"g A h f f k k f j x h A _ D G D G j h j x j j j j x x x x j v 5._ _ F _ A h ,.x k z k k k z m k f A G A G A x x A A A A A A A G A D A A c c c c G c f j m f u d d d f j f g A A A A A x z f f f k f k l j j k f j A 5.G A A A h f f f f f d f z h 4 g G D D D D D D G D V V A A D G D A G G A c A A A j f h f a f d d d h h f h A B B A x f 3 a f f f a r d k k f f f j x j j B j g j k a d f r f g j 4 4 A A c j x A j c G A h h j x c x c A A D D A A v h f x z f f d d a f h g c A A A B h f f j j f z z f f f k j h h h c A c A c f g h a r d d r k z a f x g 4 g j j j j j j j j N B j j j j A V V V A A j f x A j z z z z x ,.x x A t.G w.5.x k k x x z z x z k k f f h A 7.t.D 7.s.,.x ,.M k k k z z x x h A 7.G A A A G G G +.F D F D D A D G G A w._ D G w.G x z ,.m k k k k k x j f A D G D D 5.x j z x x x x z k k n x j x A s.I._ t.t.j x 6.x k m n z z ,.,.j A t.t.l.B.l._ _ +.B.l.l.t._ _ D t.l.t.K w._ B._ t.w.j x ,.z k k k k z ,.x x 5.t.7.t.7.x f k k z k x m x x x x x z z x G G G A h f x k f k k k d f f f x A B j j B A B j h B A A A h f j A A A c j j A A h h x z k k f f k j j g x A A A 5.,.j f k k k u u d u d k d u f x A A A A j f x f d a d d f f j f j x x x x j j x B B A B A j x x B B j h h j B B j ",
"g A j f f k k f v v h A t._ _ A h g h j j x j j x x x x x x j c t.B.l._ A h ,.M x z n k k x ,.j h A G G G A A A 5.G c c A A A A A A c j j c A A A c g j M k u d d d f x f g A A A A x f f k k f f k k j j j z f f j A G A A c f f h f f k d f j x g h G D D D Z D D D D A A A A G G D D G G A A A A A x f h h f f f d a j x f h A A A B f a f f f f k d r k k k f f f f j A A B j g x z a d f f f h x 4 4 A c j j c j j h j j j h h h h h j c A D G A A A h f x j f d d a f h j g j G G A h f f k f f j f f k f f j j j f g h x A G c f h x a r d d a z z 3 f h h h h h j j j j j h j N A B j j j A V V N A G A f h A x z z z z x 5.x x G n.s.G x j j z z k z z k k k k f k f f A F.l.t.s.,.j M m f z k z x ,.,.h A t.D G G G D G _ D F D F D D D G G G t.w._ _ K K G x h 6.x f k k k z M x f A t.D t.G j f z x z z x x z z z z z x x x v t.I.t.t.x j 5.x k n m z x 4.6.j v t.t.t.l.l.l._ t.l.l.t._ _ _ t.t.t.t.t.t.t.B.l.l.5.x x ,.x k k k k x 6.x x e.7.t.7.x f k k z k k x x x x x m x z k k x A 5.A h f x h f k k k f j j j A A j j j B A x g h A A A A A A c c B B j j x A 6.j h x z f k k f f x x f x A G 5.,.x f k k k k k d d d k k k k d f x G 5.A f f j z d a d d f j x f j A x j j j v A A B A A <.x j h B x j h j B B B j ",
"g A x f d k f j 5.A h A t.D A j g h h j x x x x j j x x x x x x x D t.t.G h A 5.x z n k k M 4.j x A G G A A A G A A j c w.K A A x j j j c A G G G A h x ,.k r d d d j x g h A K A x f k k k k k k k j x j j j k f h j x A A c g h A j a d a f x x g h G D Z A V V V A D D A A D G A D G G G G A A A A j f h j a f f r f x j f h A x x f r a f f f f k d r d k f f f f r f j j B h f x x a a f a f x c f 4 j j j A x j j j g g j h g f h j j j A A A A A 5.j f x x f d d a f x x g j 7.A j f f k f f j z j f f h j j j x z f f f x A j g h x z r a d d z j a f j x c A j j j j j c c j N A A N N A V N A A A G A f h 5.v f z z z ,.4.x x 5.t.5.x j j x k k k x x k f k k z k f h j A t.w.e.x j m M z k z k x 6.,.h A 7.G _ D G t.t._ _ t.G D G G D G G G D G t.t._ K G j x 4.M k d k z j 5.x h A t.5.A x k z z z z x x x z x z z n x x x x v w.I.t.c j 4.,.k k m z x R.5.j A F.t.t.t._ t.t.t.t.l.K G t.t.J.t.t.t.t.t._ t.l.l.5.x x 4.x k k k k ,.4.x x 5.w.5.x f k k k z k k x x x x x x z z k k f z c A j f x x f k k k k M j f B A B A A A G A B B A A c x A v x x B x h x A A 6.x f x x d f k f j ,.j g x 5.A x z f k z k k k k k u k k k u u d d z x B x f f x j d a k d f x x f j x x 5.A A A x A A x j x x h B B j N B B j B B j ",
"g G A h f f f c s.A j A t.A h f h h j j j x x x x x x x x x x x x x A 7.5.x A s.m x n z x 4.4.h j A A A A A G G A j j A K D A A x h j A G K G G 7.A h m 5.x a d d f x A g h 5.G j f f z k k k k z z j x x j z z z k f h j A v g h 5.x f r r h A x g h G A V c c V V A A D A A D G G A A G G G G A G A x g x v f a f f h A x f j x j f r d d f f f f f d d d f f k k k f f f h x h f x ,.f a a r g A c 4 4 j 4 h A A A c j h h h h g g h h j c c j h A A A h f x v z a r a x A j g c G x f f j k k k h z j j z z z j z z h h f a f h h g h A x a r d f x z a j x j j j j h h j B A N j N V V N N V V N N A G G A h h 5.5.j k k x 4.5.x x w.w.x j x x x k z k k z j z k k z k k j f f j A 5.A j ,.4.x k f k m T.A f x 7.D _ _ G D _ l.t.t.D G G D 7.G G G D D D t._ t.5.j j 4.6.z d d f v 4.v h <.t.v z k x x k k z x m m x x m n z m x m x z c t.I.v j s.4.x k k j ,.R.5.j 5.F.t.J.l.t._ t.t.l.t.K K G t.t.F.l.t.B.t.t.t.t.l.t.x v 4.,.z k k j 4.4.x x e.4.x f k l l j j z k k z j x j k k z k k f f j A x h x v k d k k x 4.j f B A A A A A A A A A A A A c j x v A x j j x A A 6.h h ,.x f d k f x ,.h g v 5.x f d k k k k z k k k k k k r r u d k k k x x k f x x f r d d j A x f k A v v B x v A A A B j j j j x A j N N B j j B h ",
"4 A 5.x f f x 7.7.B j ,.5.h h j h h j x j x x x x x x x x x x x x x c 5.5.x A I.4.x k x ,.s.,.h j c A A A A A A c j A A A A A j h j A w.K G A A G A f x s.A f r f x A x f h 5.B f f k k k f k k x x k j x z k j k k k f g v A g h G G h 1 f A A j f h A A V V D A A D A A D A A G G A A D D A A G G A x g x 5.j a a h x A h f j x f 1 f k k f d f f k f f f f f k k k f r a g A x 4 h A j f 1 f A A j 4 4 j g j h j x x j j j j j j j j j j A j g h A A A x f x A x f 1 f A G j g x B h h j j f z f f z j j z f f z k f f f f a f x x f g A x f r r f x f 1 j x c j h h f f g j j B j j V N j j j V A N N A A c h f G t.,.f h 5.s.5.j j 5.A j j m x z z z k k k z z j k k k z k f f f x e.v f ,.s.5.x f j 5.s.B g x t._ _ D D G G _ _ D G G D G G G A A A G D D G w.5.j h w.w.v f f h 5.5.x f ,.5.j f x x x z x z m m m z x x z z x x m m z x 4.R.A j s.F.A f k A F.F.A h A F.t.l.t.t._ _ t._ _ t.t.D D _ l.t._ t.l.l.l.t.l.t.x x w.w.v f f ,.s.4.j x 4.,.h j x j j x l z k f j z z k k k x k k k f x ,.x h c A x f a x 5.,.z f A 5.A A A A B B A A A A c x x x z z h h x x x c x f f ,.e.x f f x ,.A h g v 4.z u d k k k k k k f k k k r e e d d d k f j m k a x M j a r f A A j f x ,.x x x j x A A A A j h j j h B x h h j j j h f ",
"4 A G G h h G t.D j h ,.6.x j j j h h x x x x x x x x x x x x x x j x 5.5.j A J.F.<.x x 5.t.A g h A A G D A A c c c A G A A A h g x G K G G A A A c f h G G x f j 5.5.x f h A j f z k k k z z x x z k k z z z j j x z f h c A h g A G A h x G G j 4 g A A V V A D D D D D D A A D D A A G G A A A A 5.x g x t.A h h x A B h f x x f u k k k f f f k k f f f f f k k f f a a f B x 4 h A A j h j A A j : 3 j j A h g j j j j j j c x B j c c A c x j c A G x f v 5.G x h A D G j g x A j h j j j z f h f j z f f h h k k f a r 1 f v x f g x c h f f j x f 1 f j x x h g f f g j j j j N N V j j j V A A N V A x f f G F.5.x A s.s.6.j x 5.A x j x x z z z k k k k z j z k f k k k k k x 5.A h v s.t.5.A A t.t.B g j t._ t.t.D G G G G 7.G G G G t.D A A A G t.D G G 5.x h w.w.w.v j A s.5.j f 5.e.x j x x x x x m m m x x x x m x x m m m z x 6.R.,.j 4.F.7.A A t.J.l.B f A F.t.t._ _ _ _ l._ l.t.t._ _ l._ K _ t.l.B.B.l.J.w.x B t.s.w.c c t.s.5.h x 4.v j j x j x x x k f j j j z k k x z z k k k x 6.x h c 5.6.x j A 5.v f f A G G 7.A B x B A B B A c x x f 1 1 f x A c x x x f a v s.,.j j ,.4.,.f f M 6.z d k k k k k f f k k k k d r r d d d d d k m x f x 5.,.j f x 5.A j f x A c A j j x c A A A B j h h j j g h j j j h f f ",
"4 c A D A A D D D c h A 5.x j j j j x x x x x x x x x x x x x x x x x G G j A J.J.t.G G _ t.A g h A A N j j c c c A A A A A A G c A G D G G G A A x a f A 7.G G G G G x f h 5.A z z z z z z j x x k k k k z j j z j z z h c A g j A A A A A A A h 3 g A V V A A D D D D A A D D A A A c A A A A A A A j f x G A B A A A A h 4 x x j f f k k k f f f k k f f k k f f d d f a f x x g g A A A A A V j g : 4 j A G A j 6 j c j j A A j j j h j j c A j j A A x g x G G G G D D G N 4 A G j h j h z j h f f z z k j z f f k a r < < f x x a f x c j x h j j f r f f f j j j x g j j B j j N A N j N N N V A V V A x f g 7.t.7.t.t.F.t.5.j j w.6.x x z z x x l k k k x z k k f f k k z k k x 6.c h x w.D 7.t._ _ 7.x f x G w.t.t.t.G A G t.G G G G G t.D G A G G G G G A A x h w.K w.t.D D 7.<.h f 5.s.x j x z z x x m m x z x x x x x x m x z z x 6.e.v j 4.s.F.s.F.l.l.t.x f ,.t.t._ _ _ t._ _ _ _ _ t._ _ l.t._ l._ n.n.I.l.t.5.x c s.t.l.t._ t.t.A g x s.,.x j x x x l k k j j j x j k z x z z k k z x 6.x g c D G K 6.5.G c f f x 5.A A j f f h x x A A j f f k r f x 5.A x x x x a r x 5.A A ,.,.A x f f ,.,.x k k k k z f u u k k k k k d u u d k d d k x z f j A x x x A A B f a x ,.A B j f h A A x x B x f h j h g j A N j j x f ",
"4 A A F F F D D D j g 5.5.x j j h j x x x x x x v x x x x x x x x x x G G h A l.l.l._ D F D c g j A A j j j j A V c A D A A V D A A A D D D A A 5.x 1 f c A A D G G A j g j 5.A h k x x j j j x x x k k z z j j z f f k j v A g j A A A A A A A h 3 g A A V c V A D Z Z D D D G D A A c j x A A A c x h f j A A G A A A B g f x x j f f k k f f f f k k k f k k k f f f f d f x x f h A A V V V j j g : 4 A V D D V j j A A j j V c j h j j j B c x x j c h f x A A A A A D G j 4 A G x h f h z z h f f z j z z j z k k d r r 1 a x j : 4 x j c c x x j f r f h f g j x j j j j N V N N A V N A V V A A D V A j g f G t.7.t.t.t.t.G j x e.5.x x z z m x k k k k k k k k f k k k k k k x 6.c h x 7.G D D D _ D x f x 5.K t.l.t.D D G G G G G G G D 7.5.5.7.7.5.A A A 6.x h 6.w.G _ _ D D <.h f 5.s.x j j x x x x m x x z x m m x x m m z n z x w.R.v j 4.t.l.l.F.l.l.t.j f A t._ _ %.t.t.t._ _ _ _ t._ t._ l.B.l.n.n.t.I.t.t.5.x x t.t.t._ _ _ t.A g v s.,.j x x x j l k k k k j j j x z j x x z k f x 5.x g A G D _ 5.G A v f f B 5.A B x j h g g x A x f a z x x v A A A A x j z d r j A A A <.6.A x g f ,.,.x k z z z z k u d k k k k k k d d d d k f f x k a j A B j j j A B f f x ,.A c h h j c A A B j j h h h h h j j B B B B h ",
"4 A A Z Z Z Z W G j g 5.7.x j j j j j x j j x x x x x x x x x x x x x G A j B t._ _ D D D _ c 4 j A G V j j j c c c A G D A A A A A A A A A A A A h 1 f x j A A G G A B f j 7.x f f z x j x j j x j k k j f k k k f f f j c A h j A D A A N B A x f g A V V V V V Z Z Z Z D D G D D D A c c A A v x x h f h A A A A A A B g 1 j x f d k k d f f f k k f k k k k k k k u d a f x x f j A N A V N V j j 1 4 A V V D D c j x j g g j j j g g j j j j j x x A x f j A G A A A D A j g A G x h z j j z h f f h z j f h j f f f f d r a j f : f j h x x x x h k r f x h h x j j j j j A N j j j c j j V A A A A V A j g h G _ D D t.t.I.5.j x w.5.j z x z m k k k k k k k k k k k k z k k k j 6.x f x D D G G G D 5.x f x 5.G K t.t.D G t.G D G G 5.G G G G D K K 5.A c A 5.j f 5.w.D D D D D A j g 5.s.x z x m x j x x x x x x m x x m m m z z x x 4.R.x j s.F.l.l.l.B.l.t.A h A l._ _ t._ t.t.w.K _ t.n._ K _ l.B.t._ _ t.t.t.s.5.x x t.l._ D _ _ t.A h A s.,.j x x x j j l k k l k k x j k x x x x k k x 5.x f A 7.D D G A A A f f x A A A A A x f g x A h f h v A v v B B A c x j j f r z A A A A A A x g f x ,.z f k n k k k u d d k k k p p k f d k k d k x k r j A A A j j N j j f x x j x j x x x A B j h h j h g j x j h B B B j f ",
"4 A A D Z Z Z F _ j g 5.G x j j x x x x j x x x v x x x x x x x x x x G G j x t._ D G G _ D c g h A G A G G A A c c A G A A A A A N A A A A A x x f 1 f x x B A A A G A f h G x f z z k j j j x x k k k k k k f f f k f f v A g j G D A N j B A A g h G D D D A V Z Z Z D D A A D D G D G G A j c c x h f x A A A A A A A g 4 j x f r d d d f k k k k k k k k k k k k d d a f x j f x A B V V V V V j 3 4 A V Z D A c j j 4 4 g j j j j j j j j x c A A A c h x G G G G G A A B j 7.5.h z j j j z h z z k z j z h z f f f k f a a h f : f x h h h h j x z d f x x x c c j j j j V A c j g j j A V V A A N A A B g h _ _ D D t.t.t.w.x x w.5.j k z z k k k k k k k k k k k k z k k k k j ,.c f A t.G G G G 7.5.x f j 5.5.w.G G G G t.G G G G G G A A G G w.K 5.A A A 5.j f A K G D D D t.7.j g 9.e.x k x x x j j x x m x x m x m m z z z z x x 4.e.v x s.F.l.l.F.B.J.J.G h A l.t._ _ _ B.t.K K K _ t._ K _ _ _ _ K n.n.n.n.s.w.x c t.l._ F F t.l.5.j A s.,.j x x x x x j k k k k k k l x m x z k k z x 4.x f A 7.G D A A A 5.j f x A B A A A c x x v A x x v A A A c B A A x j j x f f x A A A A A A A h f x ,.f d k k k k u u d k k k r u k k f k k k k z x k f x G A A B B B A j f j x h f j x x x x j x j j h h g j j j j x B B h f ",
"4 A D C V F Z F G j g 6.5.x h j x x x x x x x x v v x x x x m x j j x G 5.h j w.W Z F F D G c 4 h A A A D D D A V V D D A A V D A A j B A A j h x h 1 f x x B A A A A B f g A x f k z k z z j j k z z f f k k k k f k f f v x f j G A N j N N A B g h G D D D D V N A D D A A A A V D D G A B j j c A f f j A A A G A A A h f j x f r d d k f f k f f k k k k k d a a k u d f x j 3 j A B N V N V A j 3 4 A V A D V j j j g 4 j j j j x A A A A A A G G A B h A 7.A D G G A G j g A 5.j f f x k f k x j k z j j j f f f f f f a a h j 1 4 x j g j h h x f < f x j j j x j j c c N V c j j j A A A V A V V A G A g h t.l.G t.D D t.5.j j 5.A f f k k r r u k k k k d r u r d k k k k f k ,.x f A t.G G G G 5.7.x f x 5.5.G G D G _ _ 7.D G G G G G G G t._ _ t.t.K A 6.j f A 7.G G _ G t.5.h g <.5.j k k k k z x x x x x x x m m x z z z z z x 6.e.x j s.~.l.F.F.B.J.s.A h A t.l.t._ _ t.K G K t.l.t.t.t._ t._ _ _ -.n.n.n.n.w.j x l.l._ _ F F l.5.h A s.,.z x x j x j k k k k k k k k k k k k k z z ,.e.x f A w.A A A A A A f f x A x h j j x A x j x x A A A A A A x c A B h j j f f x A x A A B A ,.h f x x f f k u r r d d u k k u r u k k f k k k k z x k f x G A A A j A A j f j A h g f f x j j x j h j h g g g j j x x h f f i ",
"4 A D D D V D F K j g 6.5.j j j j x x x x x x x x x x x x x m x z z x G 5.h j G D D F F F G x g h A A A A D D D A D V D A A A D G A j A G A c x v j r f x x A A A A B j g f A x f f z z z z z z k f f z k k k z k k f a f x x g g A A V j A A B h f j G D D D D V N A D G A A A D D D D A A N A A A A h f j A A A A A A A g f j x f r r d k k k k k k k k k k k r e e r d d f x j f h A A V V V V j h 4 4 A A V A V c c j j j j c j x A A A A c A c A G G A h A 7.G D D D 7.5.x g x 6.x f f f f k f k k z z j z j f f f f f d r f x B f g x j j x j x x a ; f x c j g j j B A A A V V A A G G D D D A A D D G A h h G t.t.D t.7.G A h j 5.A k k k k u r r u u u u r r r u r d k k k k k ,.x k ,.7.G D G G 5.A x f x w.5.G G G D _ D D t.t.t.G G G 7.7.D D _ D t.w.5.A j f A 7.G _ _ _ w.5.j f 5.5.x k k k k k x j x x x x x m m x z z z z z x 6.e.v j e.J.F.F.l.J.w.A x j A J.t.t.n.t._ K K t._ t.l.l.B.n.n.t.t._ t.n.n.n.n.w.x x t.l.D D _ t.l.A f x s.,.k z x k f k k k k k z z z k d k k k z z z ,.s.v h A 5.G A A G A x a a x A x h j j x B x j j j A A A A A c x x x A A x x f f x A A A A A x j f a x x f k k d d d d u u d p u r u k k k k k k f f x k f x 5.A A B A A x f f j A x x h g h j x x h h x x j h j j B B j j h f f ",
"g c N V A V A A A j g A G x z k z z x x x x x x x x x m m x x z k h j G A j x c A D D F D j x h g A V V Z D A c A G G A A A A A D D A j h j A A A j a f h j A A A c g h g f A x f f k k z z k k k k k z f k k k k f f d f x x 4 g j N A j A A h 4 f h A D _ D V V V V V D D A D D A V A A A G A G A A h 4 f h x A N A A x 4 f ,.x f u r u d k k f z k k k k k k r e e r d a f x j f f j B V V V c f f 4 4 A A N j j j c c j c j j j j c A c j j x A G A A A g h A G K G w.G v h f v 6.j f f d d k z k k z f f z h f f f a k f r g x x g f h f x c c x f a r f x x j h h c c A A c c V D D D D G A A A A D D A A h h x c 7.t.7.G x j z h A ,.k k k k k d u u u r e e u u u u d k k k k k m x k x A A G G G x j j f x 7.G G G l.D D G G D _ _ G G D t.D D G G D D G G 5.h g A A G D _ t.A c h f <.e.x k k k k k x x x x x x x m x x z z z z x x 6.w.c j A G l.t.t.I.A x ,.j A J.t.B.B.t._ t.w._ t.t.l.l.l.l.l.l.t.t.t.n.n.t.s.5.x x 5.7.t.G t.t.6.j f x s.,.k k k k k k k k f z k k k k k k z z k z j ,.4.v h A G A G G A x h f f B A A j x A A A A j j j x c A B x c x f f c A x x z a f x A A A x g g f f x x f k k k k k k u r r r r r u d k k d d k f f x z f j x A A x c j f a f j v A A c j j c A c x f f j h j x j N j j B B j f ",
"g x 4 5 A G j 6 j x g A 5.h f k z f z x x x x x x x x x x z z k k f j G A g j h j A K A j g x g g A V Z Z D G x j A D A N A A G D D G x g g c A 5.j 3 h x j B 7.A g g j g f A x f k f f k j k k k k k k z f k f d f f f f v x g g j 5 N G A x f g g h D D W D A A D D V A A A D D D D A D D G G A G 5.h f f g h A B A B f 4 g A x f r u r r d f k f k k k k k d d a a r a d f x j f h h j A D c g 3 f 4 4 c A N c c j j c c c j j j j A A c h j x A G G G c f j x x w.w.A j j h f v 6.x k k k k k k j z k f f z z f f f f f f f f x x f f h g f A v f f k d j A c j j j c c A V c c A D D D G D c j B G G D G A g f h j A F.7.x h x x h 6.,.k k k k k k d u u u r r d d u k k d k k k k M x f j f j 5.w.A h f j f x 7.G G G D l.l._ D D A D G G G D D D G D D D G D 5.h g A B N D J.A j x j f <.4.x k k k k z z z z x x x x m x m x n z z x x ,.w.v h A A A F.E.s.x x ,.j A l.t.l.B.B.t.w.w.l.l.B.t.t.t.t.l.B.t.t.t.t.n.n.t.e.j x A c A 7.G c x x h x s.,.z k k k f k k k k k k k k k z z z z z z j ,.s.v j A c j 5.t.A h j j j A G A c A A G G A A c x x c A c c A A j h h A A j r 1 f g j A A f f j j g x ,.f d d k k k k k u e e r r u d k k d d f f k x k f j f g A A h 4 f f f x ,.x x A A A A A A A g 1 f j j h h j j B x x x k ",
"f c j 4 j G j 4 A x g A 6.h k k k z z z x x x z j x x x z z z z k f h G c g x c g j A j 4 j c 4 g A A D D D G A j x A A V c A A V A G A x j j x A j 1 j A g f x j g x x 4 f A j f z k k k k k z k f f f k k f f d f f d f A x 4 g j 4 4 A c g f x g j G D Z A D D Z D A V N D A A D A A A A A G A A 5.h 4 j h 4 h A c f f f g x x f r u r r d d f f d d d k k d d d d r r d f x h f x x 4 j A j 4 g j 1 4 c j V V c A j j j j j h 3 g c c A A A A c A G G j f x A h v A j j A A g c 5.x k k z k k k x z f f z f f f k k f f f f g c v 3 g x f a x j f x j a k A c c A c c A A V V Z V A A A A A j j j A D G G B f h A x j 5.A f x 5.j z 5.,.k u d d k k d d u r r r u s k d k k d d k k v x f x x g A G j f v x f j G G G G D D t._ D D D A G G G G G D D D G D D D A h f 5.A g x t.A j 5.j f <.4.j k k k k z z z z z z z z z z z z n z z z j A e.c j w.A j w.I.v x 5.A h A J.l.+.l.n.t.t.J.t.l._ _ _ _ _ _ l.t.t.t.t.t.t.s.5.h x 5.x h ,.A h v 5.x x s.,.j k f k f k f f k f f k k k z z z n z z z ,.s.x h A x f v 6.h j A j f A A A A c A G A A G A A c c x c A A 6.A x j c x j a a x f f j j g g B h f x v f d k d k k k k d r r r r u d d k k k k d f j f a j h 1 z M f f x j f x ,.x c A x c A A A B f f g h g h h j j x h j x h ",
"4 v A h g j g j 5.x g v ,.h k k k k z z z z j x x z x x z z z k f f h 5.A g c 5.c g h g j A c 4 4 A D V D V A G A A A A c c A c D D A A A c x c A x 1 j G B f f h x A x f f A x f k k k k k k k f f h f f f f f f f d d f v j 4 g A h g g g 4 x A g j G D V V A F Z D A V V A D D V A V A A A A G G A h 4 j x h g h j f x j g x x f r u d d d d f f a r d d k k d r u d d a f x f 3 x A h 4 4 4 j x j 4 4 j c V A A A A c j j g 4 : 4 c A c A A A A G G G j f x 5.A h g j A t.A h A 5.j k k k k z x z f f x x f f f k k f k f f f v x 3 f x x f f f f ,.x f f A A A A A A A A D A A A A A A A A c j j A G D G c f h ,.5.x f f x 5.5.x h A ,.f u d k k k d d u d k k u s d d k d s d d z ,.x f x 6.x j j g x 5.B f j G G G 7.D D _ _ D D D D D D D D G D D t._ D G G 5.h f 5.s.x h x x A 5.h h >.5.j k k k k k k z k k j x k k z z z z k k k k 6.I.A j s.s.c x v c G t.A j A J.l.l.t.t.I.J.J.l._ _ _ t._ _ l.l.t.t.t.F.t.t.s.5.j x w.5.x k j x w.w.j x s.,.f f k f k k k f f f j f f k k z z k k z z ,.e.x h A 5.x h f h A A f f A A A G A A A A A G G A A c A A A G A A A v c x x a f m A g 1 f f x A h 4 x v f u k k k k k k k k m k r u u d d k k k f f x f f x ,.j f f f x A h g x v v A c x x A A B x j j j j j j j h j x x x j f ",
"f c A A g 4 j w.6.j g v ,.z f k k k z z k k x s.5.x z x z z k k k k j 5.A g x A G c 4 h G A j 4 g A D A V V V D G G c c j h A D A D A N j j A A A j 4 f A A j h A 5.x h f f ,.x f k k k k k k f f x 5.h f f f f f f d a f v x 3 g c A B 4 4 j A x g j G A V V V Z V A D D V V A A V N V A G A A D G A g 1 f B A g 3 h A A h g x x f r u f f d f a r f j j f a d d a u u r r 3 h f 1 g x j j g j A h f 4 3 j c V A Z A A V V A c j 4 4 j c A A A A A A A A j f x A 5.j g c 5.A x g A 4.j k k k k z k f f B G A x f f f f f z k a f x h 1 f x A x f f B A z f j A A A A A c x c G G A A A A A G A x x c A G A A A f h A s.5.f j ,.5.A z f A A f d k k d k k d f j ,.x k u d d s s k k d z ,.x f x 5.5.j 4 j G A x f j G G D D _ D D _ G G D D D G G D G G D _ D D G G A h f ,.7.7.x x 5.5.v j f <.5.j f k k d k k k f j 5.4.x f k z k z z z k j 5.s.A h w./.w.c A n.I.A v x A B._ _ w.t.t.t.n.t._ _ l.t._ _ t.t.t.t.l.t.F.t.s.5.j x 5.s.5.h j 9.7.A x B F.A h f k f f k k f g A G A f f k k k k k k z v 5.x f A t.w.j g A 5.j f f c G A A G A A A A A A A x j A A A A A A A c x v v f a x 4.c 4 f x x j f 4 x x f u k k u k k f k m 4.m k d u k k k k d f f ,.j f x 7.5.j 4 f A x g h B c A c c c x j j j h j A j j B N j j h B B x h f ",
"g v c A x j G t.v h f ,.5.j k k k k z z z m s.F.s.5.x k z z z k k k j w.A g x B A G B A A j B g j A D D D V A D G G A A h g B D D D A j j c A D G A f h A B B <.5.c h j f j ,.x f k k k k k f f v G G A h f f f f f d a f x x 4 4 j B B x x A x x g h A A A A V V V D D D V A A V V N V G A A A V A A g 4 f h x x f x A x f f x x f d d d d f a a f j A A h a r d a u u r 1 3 h f 3 f g g h G A j h f 4 3 c A V A D D V V D D D A A j j j A A V D D A A A j f x x v ,.x A A j h g A 4.j f k z k k f f x D A D G h f f f f f f a f x x 4 f h j x x x B j f f h A A A A A v j j A w.w.A A A A A A A A A A A A A A j j A A 5.5.4.4.v v z z 5.A f d k k k k d f j A G A x f d d d d d k k z 5.B f x ,.5.5.A A A x x f h 7.G A D D _ _ D A A V D D D G D G G _ _ D D G D A f f m B A 5.e.4.x x x f 6.4.j f k k k k k f z <.t.7.5.x k k z z z z z j 5.I.A h 6.w.w.t.J./.w.v x j A n._ K G 7.5.K t.t.t._ _ _ t.t.t.7.t.t.t.t.t.n.t.,.j x 6.A 5.6.5.7.A A x B F.5.h f k f f f f h B D l.7.B f f k k k k k k A e.x h v A A A A w.A j f f x G A A A A A A A A B B j j c A G A A A A c v v ,.j d k B v j x x j f f f x x f f k k k k k k x ,.A 5.x f r d k k k d f j 5.x f x A x A ,.A j f h f B A c c x c x f f j N j N N x N B B x j B j j x j ",
"f x z f c K A x j x z 6.e.h f k k k k k x R.s.7.t.t.5.x k k k k k k j e.A g j h g B G G j g x g g G G A A A A G D D D G A A V A A A A N V D A A G A f z v h x 4.v f f j f j 5.x f k k k k f f A 5.A A A A g f f f a d a f x B f g g 4 h c x f f h g h A A D D A V V Z Z V N V V N V V V A A A A A A c g 4 f f g A A v x h f f x v h u d d a d r f h B j B x f r r r r r r 1 3 x f 1 h g 1 f A A 4 f z 1 4 A A V V V V Z D Z D V c A A j j c A A A A A G A j g x z f x 5.A g g j f B 4.j k k k k k f x D A A A G A x f a f f d d f c B 4 f f a x ,.x f f z a f A A A A A A j g j G w.A A A A c A G A A A A A A A j j M j x e.4.j h v x h 5.A k d k k k d d z 5.A A A A j d u d d d d k j 4.x k x x x 6.s.6.g f x f h 7.D G D D G D V A A A A A G D D F D G D t.D D 7.A f f M j f ,.R.,.z x x f 6.4.j f k d k k k h ,.t.D D t.7.x k z z z z z j 5.I.A j v c c w.E.w.j x v h A t.K _ t.t.t.t.w.w.w.K _ t.t._ _ G G t.t._ _ t.7.,.j x ,.j x w.w.c j A x B F.A f k k k f f k A l.7.D D D A f f k k k k z A 5.x j ,.j j 6.w.v x x z f x A A A A A A B A A B x j B B B A G A x x x j x ,.j f f f j v M j a f f f j x f d f k k f f x A c c A v x f u u k k k k x 5.x f x x f z 6.x 4 f f g j A B x j B B j h x B j j B B j j B B B x j h j j ",
"f x z a h v x f j x j 6.s.h k k k k k x e.s.t.t.t.t.s.5.x k k k k k x e.A g x j g h A B g h B g g A G V j V G G A D A D G D A D D D A A D D D D G B f j v f k M x a f x f z ,.x k k k k f f x 7.G G A A G c f f a a d a f x A g g g 1 g j f 1 f z f g A A A D D D V c j j j V V N V A A A A A A A A c g f j g f x A x f h h f x A h u d d a a f j x B j N j B j r 1 r u a r g x j f j f f f j j f f z a 4 c V D D Z D W W D V V V c A V j c A D A N A A A x f x z f h x j g h x h B 4.j k k k f f x G A A A A A G 5.x f f f k f h A B f j z 1 f m k r k m f f v A j A A A c c A 5.K A A G A c A G D A A K 5.G A z j M j j m x f z v x h A 5.f d k k d d z ,.G G G A A A x d d k k k k m 4.x k x j f x ,.x f j x f h G D G D _ A V D D G A A D G G D D D t.t.t.D D 7.6.f f x j f x 4.x k m m f ,.4.j f k k d k k ,.w.D D D G 7.5.x f k x z z j 5.s.A x ,.v x A 5.x h x v h A t._ t.I.l.t.I.t.w.K K t.J.t.G D G 7.G t.l.t.t.t.5.j x ,.j j ,.A h h ,.c A F.5.j k l k k j <.l.+.x.D F D 7.B f d k k k k v 5.x j A j f v M z z x z f x A A A A A A B N A B B B A A A A c j j j j x A ,.j f f f f x j f r k f f j x f r k k f f x ,.x A A B B A x k f d k k f m 4.x f x j f f j h f h j f h B x x B B x x B B B B N N j B B x B x j B A A x ",
"f x z a f z z f j x j 5.e.h k z k k j e.t.K K w.w.w.t.t.5.j k k k k x 9.A g x x f f j f f j x f g A A j j j A D D A V A A A A A D D V A A A A A A j g j v f d z k f k z f h 5.x k k k f f A 7.D D A A B A G A f f f f a f x A g g g 1 3 f 1 1 f h 3 g G D V V D V j 7 7 N V V A A V V D A A A A A A x g a z h a g z h f z h 4 x ,.f u d r r f x A B B B B j B x f 1 r u r r f x f i f f r r d r 1 f f 3 g A A A Z D D V A V V A A c j j j c D V A N j N G x f x j f f f f f x x g c 4.f k k k f j 7.G D A A A A G A <.x f r k f f A x f h z a d k k d z m f z A c c A c A G D G A A j c A A j x A 5.5.G A A A x z z M j f z f f x A x h A A f d k d d z ,.5.A A A A A A v x f k d k k x 4.x k m j f f z z f x m f h G G D D F D A D _ D D D G G G G A G t.G G G A 7.A g f x x f k j k z M x f ,.e.j f k k k k ,.w.G t.7.G D D 7.7.x f z z k j 5.t.c x e.M x x x z z x v j A t._ t.t.I.n.n.n.t.G 7.t.l.t.G G 7.7.w.w.w.G G t.5.j x ,.x k z k k x A x B F.5.h k k f j 5.F.l.D 7.D D D D 7.x f d k k k v 5.x h ,.x h x z f k x z f x A A A G G A j j G A A A A A A B x c A c c 5.5.,.h a f f a f f r f j f 1 j x f f k f f x 9.,.x x x x A A A x f d f k k x 4.x f x j a r f f f z j 4 f x j B A B j j x x B A x x B x j f j B A x A ,.j ",
"f x z d f k k f x x h 5.I.x z k f x 4.s._ t.w.A A w.t.t.t.5.j k k k x 7.A g B x f k k f f z x f f A B N j j N D D D A A A D D A A D D A A G A A A c g j v h d k k f k z f x 4.j k k f f x 7.t.D D A j B A A G A h f f f f x B g g f f 3 a 1 r f h f f A A V V V j j j V V V V D A V N A A G A A A A A h f f z f f f f f x h f x A h u u d f x x B A A h h x A B x f r e u r f x g 1 k f r r r r r a f a g A A D A V V j j N A A A c j j j V D F D N j A A x f x k f k f f f j x f x 5.z k k f j 5.G D D A j h B A A 5.5.x f a f h A x f h z d d k d d k x f j ,.A A A A A G G G G A A A A A A c A G 5.5.A j x x z x M x k k k f j 6.x j A G k f k k j ,.5.A w.A h x G A A ,.j k d k k x 4.,.k m x f k k k k x m f j G D t.t.D D A F F D G A D G G G A G G G G G G G B f f x x k k z k z m x z 5.s.j d d d k x 5.K t.7.B j A t.D 7.7.x k k k j 5.s.A x 6.M j z z z z x A x A J._ t.n.I.n._ n.l.t.t.t.t.t.D D 7.7.G w.A G G t.9.x x M j k k k k x 6.c B J.5.h k k k <.F.F.l.l.G j A 7.7.t.7.x k d k k x 5.x j v x h z k f k x z j A w.G G G G A x j A D D A A G A A A A G A 5.5.5.v f a k f f f d r f j g 4 j B f f f k x 5.5.,.5.x f k x A A A x k f k k x <.x j x x f f f f f f j f h B j j A A c j j B B j j B B x f f h x x x x j k ",
"f v f d f d f f x x h 6.e.j k f j 4.t.t.t.s.M f f A 7.D D t.,.k k k j 9.A g B x k k k k f k m f f x A B A A N A A A D D D D A V A G G A A A A A A c f j x f d k k k k z f x 5.x f f f x 7.D G t.A g i h A A B G A g f f f x x 4 4 f a 1 1 1 1 f h f f c V V V V V V V V V V V D G G V A A A A A c c A h f h h f f f f a z z f v ,.f u r f x x j B x x a 1 f ,.A x x f < r r f j f 1 f r 1 r r e r r f 1 g A A V V c A A N A D A A A A A G V V D G A A j A B f l f f k f f f j x f x 5.f k k j 5.G A G A f i r l A w.G A A h r 1 g v x f z z f d k d d d k a j 5.5.A A A A A D G K K G A A A G G A A G G A A A x f j M j k k k f z v x h G 5.k f k z ,.5.A 5.M f f f x w.G A A z d d k x 4.,.f x x f z k f f x x f h D 7.D F F A V D D D D D A D D D G G A A G G G A A h f x z f k k k j x x z 6.e.h a d f x G G t.w.x f f j 5.t.7.F.9.x f f j 5.s.A x 6.M z z z z z j v j c _ _ t.t.t.I.n.t.5.G t.t.7.w.D t.7.7.l.t.A G G 7.9.x j m k k k k k x 4.x B F.5.f k k A F.l._ J.G j f f x s.7.G 5.m k d f x 5.x j v j f z k d d z x j A 5.A A G G A A c x A D D D A A G G A A G G A x x f a k f f f f a f h g 3 j x f f f j 7.<.<.,.x f r r f A G A A x f k f j ,.x j M x r d d d d f h f h B x j x A A B B B B j j x A B j j j j x x f j x ",
"h M z f k k f h x x h 6.4.z f x 5.t.7.t.s.x f k k k x 7.D D w.A k f j s.5.h B x k k k k k k x f f c A A G G D D A A A G G A V V A G D D A c x A A v f j x f d d k k k z h x w.x f f x 7.7.7.7.c f r f f f B A A A j f a g x c 4 4 g 3 a a a 1 a f a f A A V D D V j N V V V A D G G D D A A A A A A A h f h h f f f f f z z f A 5.f r f j x x x x j a r r r f B x x x f , , f x h 4 f i 1 r r r 1 a f 1 g A A A V V A G A A A D A A D D D A V N G G A A G A f k z f f k f f j x f B ,.f f j <.G A G A f 1 r f f j A G G A A f 1 f c x f h z d d k d d k k d j 5.5.G A A A A G D K K K K K A G G G A A A A A 5.A z x m k k k k k z M x h G A f f j ,.6.A w.M k d k f f v 5.A A ,.z f f x s.A f x x f k k k k x x f j D D D D D D D D F D D D A G D D _ _ A A A G t.G A h f x z f k k k k x x z 6.s.h f f x 5.G t.5.x f k k f x 5.t.t.t.7.j f h 5.s.c x 6.v z z z z z j v g h D D t.t.n.I.n.w.G G t.t.7.w.t.t.t.t.t.t.7.G A t.9.j j m k k k k k x M x x F.5.f k ,.t.l.t.F.G j f f f k x 9.7.D 4.x f f x 5.x j x j f z k d d z x j c A A A G G G G A A A A G D A A A A A A A A j x v h d k f f f f 3 f h g 4 h x f 2 h A 5.<.<.x f u d u d f A 7.G 5.x f f x ,.,.x M z r d d d d f k f j B j x A x x x A B B B B B x x A A x x x j j x z ",
"h v z d k k d f v x h 6.5.f j 5.s.t.7.9.x k k k z k f A t.D t.5.x f h t.G j x x k k k k k k x f f A A A A D A V V c A D A V V A G A A G A j x c A c h z x f d k k f k j f x w.j g x t.t.D D A f f f f r 3 h c A A c g 1 4 x B 4 4 f 1 a f a r a f 3 f A A A G A N j V A V A A A A A A A A A x x A A A j f z h f f f d a z z f x c 4 f j x x x B x f r u d r 1 f x j x x f , 1 x h 4 h f r r r r 1 f k 1 f A A A N j A A D A A G D A D D D D V j A D G G G x f l k r f k d f j x g x A g f A G A A A f 1 r d f f f j A G A A c f 4 x x f f z d d d k d z x a j 6.A A A A K G G G K G A K K K K K 5.5.A A G A A A j z x k k k k k h v j g A A g z ,.5.A 5.A f f d k k f f v w.A G ,.j f j w.A f x x f k k d k x x f h A G G D D _ F _ D G D A D G D W _ _ _ D G G G D 5.f g x k d f k k k x z f ,.5.g g x G G G 5.x f k z k k k x w.D t.l.7.h h 7.t.c x 6.x k z z z h x v g g G _ _ l.l.l.t.K w.I.t.D G t.t.t.l.t.t.t.D G G 7.5.h j m k k k k k z M x j s.5.j A s.l.t.J.t.x f k k k f f x 5.A A ,.j f x 5.x h x j f z k d k x x z x A A 7.G A G A K G A A A A A A A A A x x h j v v f f f f f f a f f h g 4 h j 4 g A A B <.>.k u f k u d a f A G A A h g x A B j x f r k k d a f f f x x x x j f f h B x x x B j j x A A x x x x x k k ",
"h M j f k k d k M v j 6.6.x A t.t.t.s.m k k k k k z k f c t.t.t.w.x j t.G j A A k k k k k x x f h G D D D A V N V V A A V V A A A G G A A N x c A c h x M z f k f k j x f x 5.x A t.l.l.t.A z f f f f f a a g x A A B 4 4 N B 4 4 g a a a a a a f 3 h A A A A A N N V V A A A A G A A A A A x x A G A j f j x f f f d f j x f x j g x A c x x j f d f f u r d a h x B x x f 4 j x 4 h f i r r r a j x f f x x x A A A A D A G A A V A D D A A A D D D A A x f k k f d k k f x x g x A h x 5.A A A j r r a a f f f f x A A A G A h x x g f z f d d d k x m h x G A A G K K K G D w.K A A A K w.K 5.5.K G A A w.A h j m j k k k f j 6.x g A c h v 5.6.5.,.k f k k d f k k k v w.G G A x x w.A f j x f k k d k m x f j G G _ F _ _ F _ _ G G D D _ _ _ _ _ _ _ _ _ G D 5.j f v j a d k k k x j f v A j B G D G 5.x k k z z k x z k x 5.t.7.t.G B 5.t.c x 4.M k z x z h x A h h D _ l.B.J.B.t.K t.n.l.t.t.7.t.l.t.t.t.G G t.7.7.5.j h M k k k k k x ,.x x s.5.A 7.F.t.l.7.x f k k f f k k f x A A A <.x c 5.x h x x f k z k z m x j A 5.G 7.7.7.G G G A A A A A A A A G A x h h c A v f a f h a f a f g x g 3 j B j B 5.<.5.B k k k f d d d d f f A 5.A A x h A B h x j f f k f f j j f x A x h f f f f h B A h h j B B B A A v x x x x x ",
"h 6.x f k d d z 6.v j ,.G G t.t.t.t.,.k k z k x k k k f f A t.w._ _ D t.A j A A z k k k k x ,.f h 5.D D V V V A V A V V N A A N A G A V V A A c A A f x 4.x f k f f v x h x G G t.l._ t.A j k k f f j f a a a f x V A V j j j 4 g x f 1 a a a f z 1 h A A V N N j j c c A A A D A A A A A G x A A A A j 3 j x f a d d d x j f x x A A A B A j f a d f f f r r d f f x x x j g j j 4 f j r r u r f x x f f j 3 f A A A N V D D A V V A A A c A G D A A B A j f j j f u k k k x x f x A c A A A A j r u u f j j f d f f j A A G G G G j g h x k a d k f x x f x w.A A _ D G _ _ D G A c c G A G 5.G A A A A A A A h z ,.x k k k f x 5.j g v A B G A 5.,.z k k k k x k f k k f v w.G 7.A A 5.A h x x f d k k k M x f j G G G D G F F D G G G A A G _ G D D G G G G G A A h g v x f a k f k m x f c A A 7.G D A j f k z k j x z z z f x w.t.7.l.7.t.t.x x 4.,.z z z f z A A g B G G J.F.t.K G K t.t.l.l.w.t.t.l.t.t.K G 7.t.D 7.7.j h ,.x f k k f m 6.x x s.t.w.t.t.t.5.x f f k k x k f k f f x A A 5.5.A A x h v v k k k k x 4.x z 5.s.A G 5.G 5.G A A G G 6.v A 5.G A A j g x A A c f f x j 3 r a 1 g B j 4 h A A G A 5.,.k u u u i j j r r u r f A 5.7.B B A x g j x f d k f f x j f x A x h j x x f h x j f g B A B B B B B B j x M x ",
"h 6.,.z k k k v 4.x k 5.t.n.l.J.s.x k k k k j 6.,.k f k f f x t.l._ _ t.A j A 7.x k k k z ,.,.g j G D Z V V A A D V A A D D A A A A A A A A G A K A h x 4.v k f f z 6.A g x l.J.B.l.t.5.x z z k f j A x f 1 d a f j V V V N j 4 j A h a a a a z x f f 5.A N N V V V V A D D G G A A A A G G A A A A A j f x v f f d d k x x g x A A A A A j f d d r f x j f r f d f f x A A j B j 2 g j f r r r f x j r f f f g x A A A G D D A A A A A c c A G G G A B A j f j x f d k f j ,.x f j A A G A A j r r u f j 5.A h f d f f x A 5.G K t.A g x ,.j f d f z 4.M h x s.K K t.t._ D G G A A A A G G G G G A A G A A G A h j 5.A k k k k A 5.j h A G G A 5.,.k k k k f v 6.x f k k f k v 5.D G G w.A h >.,.k k k k x 4.x f x t._ D D _ _ F D D G G D A D G D A D D D G G G 7.5.h g ,.,.f a f f x M z f A 7.G t.7.G j f k k k x 5.s.x k z z h x t.l.l.l.l.t.A x s.4.x k z z c w.A g A t._ t.7.K K K t.w.t.l.l.t.t.l.l.t.t.K w.7.7.D t.s.j j 4.M k k k j 4.4.j x s.I.n.l.F.5.x f f f f x 9.<.f k k d k x 5.5.D 5.5.x j 6.6.z k k z ,.4.x j 5.F.7.A A G 5.G A G t.t.6.A A 5.w.G G j j j A G G f f x x f r r f h B j g j A A A 5.,.k u u u i j <.A f r r u a f A 7.D A A j g B ,.k d d a h A j f x B j x B B x x x A j f h B B B <.A B B B A ,.x z ",
"h 6.4.x f f j 6.5.x h 5.I.t.n.s.A k k k k j 5.t.s.5.f f f f f A t._ _ _ A j A 7.A k k k v 5.,.g j D D V A D A A V j j A D V D D V V V D D D G G G c g x w.6.z a f v G A g x J.B.l.F.5.j z z k h x A A A h 1 a d 1 f j V N V j 4 j A x f 1 r z x j f j A V Z V A A V A V A A A A A A A A G G G A A 5.A h f x A h a a f x M h g c G A A A x f u d r a j A A x f 1 d r r k A B j B h : 4 j f 1 , r x x f 1 3 j h g h c A A G G A A D A A j j A A A A G N B A j f x ,.x f a f A ,.h f x G D G A j 1 r u r h A G A v k r f f f x ,.e.7.t.A g x 6.x f k k x 4.M f x 5.K w.K G D G G G w.w.G A A K G A G G A A A G 5.A h j 5.5.j f f x 5.A h f A w.A G A z d k k f j 6.K A x f k k d k ,.w.G G 5.v h A s.A f f z ,.4.x f x 7.G G G _ _ D D D D D A A G G A A D D G G G A 5.A f g A 6.x a a f ,.,.j f ,.t.D 7.5.x f f k f z 5.n.t.G x f z k f x F.t.t.J.F.A x 5.s.,.f f x K t.c 4 j D D G D t.t.K _ t.l.l.t.t.t.t.t.l.t.w.t.K K t.7.7.j h 5.5.j f k ,.4.6.h j s.J.I.s.e.x a f k f x 7.7.7.A k k k d f M 9.5.G 7.x h ,.e.v h f x 4.4.x k ,.w.G A A 5.G G G G 5.5.v v A A D G A A j j x A x f f x ,.f 1 1 g x x g 4 c G A 5.,.z u u u r j A A A x f 1 r r r f ,.5.G G j g B A j f 1 f c A h 3 j x j x A x x A B B j h x j x A A B x x B A x j f ",
"h 6.e.A z f A t.5.x h 5.J.l.t.x z k k k j 5.t.t.t.7.,.f f k f f A l.t._ A j A t.5.x f j 5.t.A g j D D V A A D D V V V D D D D D V V V D D D G A G c g x w.w.v f x 5.t.c g c I.J.F.5.j k z k z v G A V A A f r r r a f j V V B g j A A h r f v ,.j a h A c A D G D A V V A A c c A A c c A G A A A G 5.h f x 5.A h f x ,.A h g c G A A j i u u r f x B j j j h 1 r 1 r r z A A B g : f x x h f h c j f 1 f x h h h j A G G G A N A G A x c A A A A A A A A x f x 5.A j f x G 5.j f x w.K A j r u r r k A A A A G A l f f f f x 6.w.t.<.h c 4.6.z f z 6.5.x f x 6.A A A A A A G w.K K t.G G K K K G G w.A A A A A h h w.t.A f j 5.s.A j h A w.w.A h d d k f x 5.G A K G x f k d d z A t.D 5.v h ,.t.7.x f x t.7.B g j A A D _ _ _ W D D D D A A A A D D G G _ t.G G A A f 4 A 5.A h f x 4.<.z f ,.s.t.9.x f f k k z A t._ G D 5.x f k k f x s.J.J.J.A x s.J.w.x x G n.t.N g x D D D t.t.l.t._ l.J.t.t.t.t.t.t._ t.t.t.t.t.D t.7.j h w.t.A f j 5.s.,.h j t.I.J.s.x f f f f x 5.7.D G 5.B k d d d k ,.4.7.5.x j A s.w.x h ,.F.7.x f v 6.A G 5.5.5.5.5.A A x x A A A A G A A A x g g j j f x 5.j 1 f c A A g 4 x G G ,.k d d u d h A A V A A x f 1 r d f j A D G x g x G x h f h A A h f x c x A A A B B B B A x x x x h j x x B B B j h f ",
"z 6.5.5.A A t.D 5.x f 6.l.t.x f k k f j 5.7.t._ D G t.A f f k f k A t.D A j A t.t.7.A G _ _ A 4 g A D A V V Z D V V D D D D G D D A A A A A G A A A f x w.t.G A A 7.D A g c w.t.5.x k z k z ,.5.D V V N N x f a r r r f j c j 4 g A A A j x x x z 3 g A c c A A A N c V V V A A D A V A c A A A A A 5.j f j A 5.x x A A A h f x A B j f r d r 1 h A j 7 g g h h 1 1 r r r j A x f 1 g x j N B j j x f 1 f h h h h h x A A G A j c A A A A A A G A c D D A x g j 7.G A B G G A x f x w.5.j r u d r f c A A V A V A A j r f f f z ,.4.x f x 5.5.A x v 5.5.x f x A A A A A G A A K K H G w.G A K K w.G G A c c A A h h 5.t.5.A A 7.G A h f A w.A j a d d k j A G G D D D G x f k d d j A G 6.x h A 7.t.7.A G t.5.B g j A j A G _ _ D D D D D D D G G G D G _ G G 5.A A v g 4 A G G A x 5.5.5.j f ,.5.5.x f k d f k A G G G D G 5.5.x f k k f ,.w.t.w.x x w.I.F.s.7.B.t._ j 4 c G D t.t.t.t.t._ t.t.t.K t.t.t.t.t.t._ _ t.t.K w.5.h h G t.t.A G D G 5.g h w.t.t.x f a f f j D 7.A D D G 7.x d d d u k ,.4.A x j A t.t.5.5.t.t.G j f x v B 5.G G 5.A A 5.A x c A A A c A A B j h f f f f f j A A x A A x c h 4 j A A j f d k f f A D A V A B A A f r d d r f A A j f j A A A c c A c g g c x A A B B A x j x j x j h h h h h j h x B j j j ",
"z 6.G t.t.t.D G w.x f A w.x f k k k x 6.w.G D D D _ 7.7.<.f f k f f A t.A j A G G t._ t._ _ A 4 j A G D A V V Z D Z D D D D D D D D G G A A A A G c f x D _ _ t._ G G A h x w.5.x z k k z ,.5.G D V V V V B x h r r r a g x x 4 g A A A A c x x h 3 f c j j j j j j c A A V A A D D A A c A A A G G 5.j 4 x A A G G G A v h 4 x A j f r r r i j A A A j g g j x f r r r r a f j h 1 g x j j j j V c f 1 f x h h h j c j A G A j j A A A G G G G A A D A G A f x G G D D D G G j f x A j d u u r f x A N A A D A A A A l a a d f x 5.,.g x 5.7.G 5.6.5.A x f x 5.G A A K K A A A G w.G G G G G K w.w.A c A A w.A h j t.t.t.t.D D K A h f A w.j a d d k j 5.G A A G D D _ 5.x k d d f j ,.5.x j A t.D 7.7.D D 7.B g x 7.A A G _ _ W D G D D G D D G D D G G G G A A A ,.f 4 A G G 5.G 7.7.5.j f ,.5.x k f k k k A K G D D G G G 5.w.x f k k f x w.w.x x e.F.J.F.l.B.B.t.B g A 5.G _ _ t.D G D G t.t.K t.t.J.t.t.t.G _ w.w.t.w.A g h 5.t.l.t.t._ D A g j t.w.x f f f f j 5.7.D A A A D D 5.x d a d d z ,.<.x j <.t.t.l.t.D _ 7.j f v ,.A A G 7.G A A A A c c A A A A c A B j j h j x j f h B A A A A x c g 3 x A f f d f f k A A A A V A B A A x f u d k f j A j f x A G G A B N j g h 5.A v A A B x h x x N N x h j x j j x x x x j j j ",
"h A G D G _ D t.w.x h ,.5.z f k k z ,.w.G G D D F D D D t.A f f f f h G A g A K D _ _ _ _ _ A 4 j K G D D A j V G G G D D A D D D D G G A A A G A c f x G _ D D D D D A f x 5.B f k k j A t.G A D V V V j j N A f 1 r r a h h 4 g c j j B j j x h : f x j j j c V N V V A A A A D D A A A A A A G G A h a j A B D D A x x g 4 j x f 1 r r 1 h A V V V j 4 j j j c z r r r 1 3 x z 3 g A j j j j V j h 1 f x g g j A A j c A A j j c A A A G A A A A A V G A h x G A D G G G G j f x x f k k u f c G A N A A V A G A A ,.j r d f f ,.,.g x 5.G G 5.5.A A x f x 5.A G t.G K G A A G K A A G A A G D G G A K K A A h x 5.D G D D G K A h g v ,.f r k k z ,.G A A A A A G G A v z d d d f v 5.v z v 7.G D 7.D D G x f x t.t.D D D _ _ D D D G G D D D D D G G G A A A A A h g A 5.G G D 7.7.5.j f ,.6.j f k f f ,.w.G A A A A G G G w.A j k k f z 6.w.x x 5.F.l.F.J.t.t.I.A g c G G D D t.t.D D _ t.K K G 7.t.l.t.D G K t.t.G 7.5.h x K D _ _ _ _ D A g h 5.A f a f f h G t.A A G A A D A 5.4.x u d k k x 4.x k ,.7.t.D D D D D j f 4.4.A A A D G G A A A j j c A A A j h c B A A x x h 4 h j j A B N A x 4 1 h j f r k k f x A A j A A A A A N A x f u k d f v j f j A A A A N j j f f x h f j A A B j j c c j j B A j B j h h j j x h k ",
"g A G D G D G t.t.x h 4.5.j k k x 5.G D D K D D F F D D _ t.A f f f h A A j A D D _ D _ _ _ A g h w.G G G A V V D D G D D D D D D G G A A A A G A c g c t._ D D D D t.A h x 5.x k f j 5.t._ F D D V A A V V N N j f 1 r f f f 4 4 j B j j j B A h 1 f A c j j V A D V V A A A A D A A D D D A A A A v h a z A B A G A c B h f x j 1 r 1 a h A V V V A j j j j c c c z d r a f x x 4 h B N N j j j c j 1 a h h c A A G A A A A j j A A A A A c j A G G D G A h x D K G G G A G B f x M k k u f B A V A A V V A A G A A A x f r f k ,.,.f j 5.G G G A 5.5.v f x 6.G G _ _ w.w.G G G D G A A G G A D A G _ K K _ A j x 5.t.G G D G K K x h A v f u d k ,.G A A A A c A G A A G v z d k k x e.v j A G G 7.D D D G B f x t.t._ D F F _ _ _ _ G D D D D D D D w.A A A G G A j f A 7.G G D 7.t.5.j f ,.6.x z k k ,.t.t.D A A A G G G t.G G ,.j f f f ,.e.c x s.J.J.B.J.t.B.I.5.h A G G _ t.t.t._ _ _ l.t.D G G t.t.t.t.w.t.t.l.D 7.5.h x w._ F D D G D 5.g h 5.x f f f h A t.G A A A A A D D G 7.6.x k k k x 4.x k ,.7.t.D G G _ t.x j ,.5.A 5.G D t.t.D A A x h j A A A c j j A A A x j f g j A j j B A A c g 1 f k a d f f x A A A c j j A G A A B B x k f d k x j f x A A A A N N B g f f h h j x A A j x c c j j A B B A j h f h x x j k ",
"h A G D D G D t.t.x f 5.4.k f j ,.t.G G D D D D G D D D D _ w.x f f f c A 4 j D G F _ G D D A g h G G D G G A V A G D D D G G G A A A A A K G G G c f c _ F D D D D t.A g j 5.x f f A D G D D D V A A V V N j j j h 1 1 f h h 4 4 j j j j j j j g 1 f A c c c j V A V V c c A A A V V A G A c j x A v f 1 j A j A A N A c g f x j 1 1 1 h A A j V V V j j g j A j j x f < r h x h g j x j V j j j c h : 3 h c V A V A A A c B j x j A A A c j x B B G G A B f x D G D D G A G B g x m f d f x A A c A A V A A A A A A B A x d a z ,.m f j 5.G A G A A 5.x f x A A A A w.G D G G G G D A A A A A V A G G G D K A h x w._ D D F D D 5.x h G v f d f v 5.A G G A A G A A A A A 5.x k k k x 5.v z v G G D D G G G x f x t.D G _ G G G _ _ _ D D G G A A G G G A A 5.K G 5.h f A 5.G D t.7.t.4.j f ,.4.x f f A s.5.G D G A G A A G G G G 7.A f f f x w.c x s.F.l.J.B.n.n.I.A h A G G D t.t.D _ _ t._ _ D G G G 7.t.t.t.t.w.t.w.5.A h j K D D D D G G A f h 5.j f f f A D D D A B j A A A G 7.G 5.4.k k k x 4.x f B 7.G G G G 7.5.j f A 6.5.5.A A A G G G A x h j A A A A j h x A A c f f f x A j j B j j c g 1 j j f a f x 5.A j j j j j j N A N j j x x k r f x z f x A B A j j N j f 1 h A c x j h h x c j A B j j A A x j h j x j x j f ",
"h A G D D D G t.w.x h 4.4.f h 5.7.G D D D D D _ _ D D D _ _ _ G z f f A A g V G G D G G G G v g j G G D G t.G A V A D D G G G G A A A A G G G G 5.A g x _ F D G D D t.A g x 7.h f v _ F D D A V N A A A N j j j j j j g g x A 4 4 x j j j j j j h 1 4 A A A c j j j V V A V A G D A V D D A c c A A ,.f 1 h A A A A B A A g f x j 1 1 h A A A A A N j j j j c j j j x j d 1 h v j f x A N j j j j j j 3 f c A V A V A A c c B A A A G G G A A B B B G G G B g x G D D G G G G c h v M f a x G D D A A V A A G D A A A A A A j r f ,.,.f x 5.A G 5.G 6.5.x f x A A A G G _ _ t.D D A A A A A A A V G G G G G K A j x 5._ G G _ D K G j h 5.A f f 6.G G D G G A A G G A A D G A 6.v k f x 4.v z x 7.G D D G 7.7.B f x 7.t._ _ _ _ _ G D D A D G G D G G G A G 7.7.w.t.5.j f A G 7.t.t.t.s.4.x j 5.e.x f ,.s.w.G G G G A A G G G G G G G 5.M f f c w.c x s.F.l.J.J.n.n.n.G j A G A A G G t.t.t.t.t.D G A G t.t.7.t.t.t.t.K G 5.5.j x G D D D D G G A f h 5.x 1 f x D _ F A V B B A A A G G A 5.4.6.k k m 4.m k B 5.A G G G 7.<.j j ,.5.A A A j j A G G A A A A D A A A c x j x A B j f f j c h j A A c A g f x A f f x 5.5.A A x j j j j j A B N N c ,.x r f ,.x f B G A B j N B c f 1 h A c A x h h x j B A B j x A A x h j x x j x j k ",
"h A A G D D D t.G x f 5.6.x A t.t.G G G D F D _ W D D G _ G D t.A h h A A g j A D G G t.G A x g j G G G G D D A A A A A D D A A c A A G G G G G _ A g j G G G D F F G N g j 7.A B G G A A A V N V V A N N N N N V A G c g j A g 4 h j j j j N j g 1 4 A c c A A j j c D A V A A D V V D A A A A A A v h 1 f x A A A A j x f 4 x h 4 h A A c A V j j j 5 j h h j j j j x j 1 4 c j 4 h x j N j j A j h a g c A A A A A A A A c x A G A A A G A B x A A A A x g x A K D G t.G v j h v ,.f g A D V V A A A A A A A A A A B c A x f h ,.,.f j ,.7.A A G 5.A x h x A K A G G D _ D D G A c c A G G A A G D D D G G A j x A A _ D G _ G c h f A G x A t.G A G D D G A A A A c A A A A 4.x z x e.v h x 6.G G G D D A x f x G t.D D _ D G G A A A D G G G D G G G G 7.5.5.t.A h f x A 7.G t.s.9.,.x j 5.w.c x 5.w.G A A A A A A A A A A A G A G 5.x f c s.x x w.F.J.l.t.I.t.G A j A 5.A x c A G D t.t.t.D G A G t.t.t.t.w.t.w.A A 5.A h x A G D G G G A x f h A x 4 j t.D Z F V V V A A A A A B A A A 5.M z x T.x k x A G G A 5.A x f j A A A A A A B A A A B B A A c x j x x f h A A B x f 1 f h j j j A A x g 4 c A g g A 7.A B B j c x h j j j A A N N c A j x ,.j f x A B N j j A j f 1 h x j A x x x j B A A B A j x x h h x x x B x h j ",
"h A c A D D G A A x h A G G t.D D G G G D _ _ _ _ D D D G G D G w.G A A A g B A G t.t.7.A x x f x K t.K K G D D D G D D D D A A A K G G D G G G t.A g h A D D D _ _ G B g B 7.t.t.G D G D A G A F A V N A D A A A A A A x j x f 4 g j j j j j 4 3 1 g A c V A A A N c A A A A V V V D G D A A A A A A h 1 f x A A G x g f f g x c c A A c c j j j j j g 4 g j x j h j j c j h v j 4 g g j A A D A h h f h A A G A c A A A c j j j c A A A A A B A A A A A j g x x A t.D G B x j h v 5.A A A A V A j A A A B B A A G A A A A A A A A ,.f f x A G G 5.A h h j A G 5.K G G D G G D A A c A G G G G G t.D G D G K A j x A c G K t.K A A j h G t.7.t.G D G G D G G G G G A A G G A A 5.6.A 5.5.x z j A A 5.7.G B x x f j 7.D D _ _ l.t._ D A D D _ _ _ G D G G G 7.t.t.w.5.h f x x 5.t.s.s.5.x m x 5.t.5.5.w.G G A A A A A c B B B A G A D G G G A 6.t.j x 5.G t.J.I.t.A A A x A w.G A A A G G G D t.G G G 7.G t.t.t.w.w.G G G G 5.j j v A 7.t.7.A x j f h A A A D D D Z V Z V A A A A G A B B B A 5.4.6.5.4.x f j x A G G G x j k j x A A A A A 5.G A A A B j j j j j x j j j x A A A f 1 f f j A A x x h f 4 x G B A G A A B j A A A A B B A A A A N A A A G A j f j j j B A A x f a f x A c j x A A c A A A A c c x h h x x x j c x j j ",
"f ,.x g G t.c h A c f A K _ D D _ D A D D _ _ _ _ D D D D D D D G D D D A g x x h G w.A g j A g h G K G K G G G G D G G A A G G G G G A A G _ D K A g j x j G J.t.j j B h x t.D G G D D D A A A A V V V A A G A j j j B c j g 1 3 g 4 g j h 4 4 g 4 g c V A A A A c N V A A V A D D D D A A A c A c c g 1 f h j A x f f h g f x A A A j j j j j j j j 4 4 j j j j j j j j j j A g 4 h h g x w.A g f x f g A A A c j j j j j c A A N A A A A A A G G G A A h g A j h 5.A j g B c f c G G G A D D A D D V A A A A G G A G G A A K G 5.x f f j j 5.s.5.f h x h x G A G G D D D A D D A A G G D G G t.G G G A A G A h x ,.x x w.w.c j A x h G t.G t.D G G G G G G G A A A G A A G G A G G 5.A x f x x h A t.B g j B f j 7.G _ _ _ t._ _ _ G D G _ _ D _ _ _ _ G G w.7.G A h f x j x s.s.,.j ,.,.j 5.t.K G G G G G G A A x x c A A G G G G G G 7.7.t.5.h x 5.x A J.E.w.x c ,.j v w.G K G A G G G D t.D G G D _ _ _ _ t.G G 5.G A 6.j j ,.h j 5.,.j j ,.f g A A A A A Z V V V D D A A D A A A A A A c G w.5.6.j f x z h 5.s.x g x j f v A A A G G G G _ D A j j j j j j j j j x j A A x f 1 f f f x x f 3 f 4 1 h A A c j j j A A B B A A j N A V A V A A B A G 5.j i f h 4 j G j 4 f f a h A j x B j A A x h x A A A c j h j j j A j h h f ",
"h 6.A h j A h j w.v h A t.G G D D W K _ F F _ _ t.G G _ _ D G G D G D G A g c x 4 j A h f A ,.g j G G G D A G G G G t.G A A G 7.G G K K A A D D K A g x G j j G B j A A h B 7.G G G D A V N N B A N j V A A A j j j j j c A h 1 f x 4 4 4 1 4 j x g f c A A A A A A V V V V V D G D G G D A D A A j c h f j x h j f f f A f 4 x A c c j j j j j j h j 4 4 j c c j j j j j j j A j f x ,.h j A c h x ,.f h A A c A c c x c c A A G G A A A A A G D D G A A x f ,.A j h g g x 5.A f x G A D D G D _ _ D D A A A G G G G A A A A A G w.x f j ,.h x ,.j g A 6.h x A A A G G D D D D G G G G G G G t.t.G A A A G 5.A h x 4.A x c c h A t.x h 5.t.G D D G G G G G A c c c A G A G G G G G G G A j f M ,.h j A j j <.A g x t.t._ _ t.t._ _ _ _ _ _ F _ _ t._ _ _ _ K G G 7.5.h h 5.A h A ,.x m s.,.x 5.s.G A A A G G G K K A c c A G w.D G A G G G G G G j x w.A c A e.A v 6.6.x v w.G G G G G G G G t._ _ D D _ _ _ _ D G G G G A 6.x j 4.x j h h f x ,.f h G G V N A Z Z V V D F D D A A G G G G G G G G 5.5.j f m x f c A h j A j f x A A A G 7.D D D G A j j x x x x x x c c x A A x a a j j f f 1 1 f j f 1 x G A j j h j A V B j j j N V c V A V A A A A G 7.j r j x f g h 4 4 j x f h A A A B A A x h g h A G G A x x x A A A x h h f ",
"h A G A j j j t.w.x h A D G D D D _ _ _ _ D F F _ D D G _ F D D D G V A c 4 j G c j g h A G B g j G A A A V A A D D G A G t.7.G G w.G G A A D D _ A 4 j t.G h g j G 7.A g j G A G G G G A A j j N j j V A V N j g j j j c A h 1 4 x x g 1 1 j A j 4 g A A c A c A A V V A A A A D A D A D A D A B x c g f x A j 3 f x A x f 3 h j j j c j j j j j j g g h j j V j j j g g 4 j A j f x 5.A x g h A G v f g c c A A A D A D D A V D D V A A A A G D D A A A x g x 7.G j g A 5.A j g x A A A A A A D F D G A A A A A G G A c c A c A A x f x 4.,.j j h A 5.v f x G A c A G A A G D D D t.t.G G G G G G A A G D G A h j 5.7.A h f v w.5.h h A t.t.D A A A 5.G G A c c A c A G A A c A G G G A h f M s.A f h B <.A B h x 7.t.D _ t.t._ _ _ D D _ D _ _ _ t.t._ _ t.G G G A h g w.w.c x x ,.I.s.x j 6.5.A 5.G A A A G G G A x A G G A A x A G A G G A A h j 5.t.5.x h x s.4.A j x w._ A G A A G K K G G G t.t._ _ _ D A A A A A G A j h 5.s.c h x ,.,.j f h A D A N N V D A V A D D A A D G A A A G A A A G 5.j f ,.4.c h h x A A h f j A A G G G t.D G A A A j j x j h j B A x x x x h f r z x f : 3 f j j f 1 j A g 4 j B j h j j j j j N j A A A N j A D A A A f 1 j ,.h 2 3 j j j x 4 4 x A A B A N j B B A A A A x v A x A A B j j j l ",
"h ,.A A x c K w.A x h A D G D A D _ G _ D D D _ _ G A A D D D D D D D D j g j G t.A h A 7.A x g j G G V A D A A D G G G A A 7.7.5.w.D G A G G G _ A g j D G B j A t.D A j j G D A A G G G G A B N j j V V V A j j j j j c A x f f h x j f g c B f 4 g A A V A V V A A V G A A A G G A A D G D A A A A x g h A x g j A j h f f x x j j c c x h g h h h g h j j j j j h 4 g j V A x f x A A A x A 5.A x f g A A A A D D D D D G A A A G D D D G G A A A A G B h x A G A A G j j x f x G G V V A A A D D D G G A A A A G G A A A A A A x f j 5.,.A ,.A 5.A x f c t.G A G A A G G G D t.G A G G G G G G G G D G D A h x 5.7.s.6.,.e.9.6.h h G t.t.7.A c c A t.t.G A A A A A A c c A G G G G A j f x 7.5.x A 5.A B B h x t.D _ _ _ _ _ _ D _ t.D D t.t._ t.t._ D G D G G G j h 5.5.5.6.6.4.s.,.x j 6.w.K 5.G K G A A A w.G A A w.G A j x A G A G G G G x x 5.5.t.6.v 4.W.5.,.j v t._ K K G A A G G w.t.A A 5.t._ D G A A A A G 5.5.j j 5.5.6.6.w.A x j f h G D D D N A D A A D D D A A D A N j c A A A A G 5.j f x <.5.A A A G A h f x A A D G G G G G G A A B x x g h A G G G A x h j f f z x x f h x A j r 1 j A g g j j B A c A D G G A A A A V j j A D A A A j f h c j g j j j h x 4 4 x c c A A B A A A 5.A A A c x x B j j x x N B j ",
"j v j x A 5.G x x x h A t.G D G D D D G G G D D D D A A D D D F Z V D G x g x A A G G 7.x h x g h G A V A D D G D D D 5.x z ,.s.5.G G G A G G D K A g h A B G t.7.A B B h h A A B B B G G A A j j j j j V V A A j j j x h x z a f f 4 h x x h f f 1 f x N V V N V A V V G A h g c D A A D V A D A A A x f f f x A v f f h f 1 h x j j j j V j 4 4 g h 4 4 j j 7 j j j j j j j A x f x c j 6.t.G x h x f h A A A A A D D A G G c f g A G A A G A A A G A A B h x j h A A c g g B f x 7.A A A A A A D D A A A A A A A G G G G A G G A x f j A x ,.s.5.x x x h B t.G A A A A G D D _ G j z A w.G G t.G G G D D t.A h x A x A s.s.A x A j f A w.G G G A c c G G 7.G A A G G A A G G A A A A A j f j x x 5.7.x g B B g x t.t._ _ D D _ _ D t.t.B x A t._ _ _ G G A G G D A h h A x A s.s.,.x x x h A t.G A G K K A A G G A G A G 5.A A G A A A G A G 5.x x 6.c A s.E.R.,.m ,.j x w.w.w.G A A A A A w.5.z f v w.G G A x c A 5.G G 5.j j v x c 5.5.x h x j g G G D G A j j A A D D A A A D G A c c A G G G A A j f j j x t.s.c j x z f A G G G D G A G G G G x h x c j j <.A A A c h h j f f f f x A x x k a 1 r k c B j g g h B B A D G A B A A B c j j j A A B A j f f h g x c g 4 h j 3 4 A c c c j B A A A ,.z f j x x j x j j B j B B j ",
"z v j f A 5.v h x m z ,.7.G t.t._ G D D D _ D _ G D D _ _ _ _ _ D D D G A h c j j c G 7.j f j f j G G D G D _ _ D t.s.A f f j 5.s.5.G G G G _ D _ A g j B h A F.5.j h A h g A 5.A x j A A A j j j j j N V V A A N j h g g x x 3 f f 1 f c x f 1 f f g c A V D A A Z D K A h f f h x A A A A V D G A A j f f f h x x f f f f 1 h A A A B A A c h 4 4 h j j j j j A j j j j c A A h f j j h ,.s.A z f x j x G A A A A D D _ K A z a 1 h A G D G D A G G G G x h x h f c A h g j B f x 7.D G G A A D D D D G A A A A D G G G G G G t.w.v f j A z x e.6.z x x h A 7._ D A A B A D G 5.x k f j 5.w.D D D G G _ D G A h x ,.h x 5.5.j f x j h G w.D D w.G A A G G 7.5.A A G G G G t.G G A A A A j z x j f x 5.j g x x g x t.t._ _ D _ t.t.l.t.A f f j A t.t.G G D A G _ t.G h h A j x s.e.,.x x x j A 7.t.s.F.w.G G A G 7.t.7.G t.t.G t.t.5.G A A A G 5.x x 4.x x 6.s.,.j x 6.j v t.w.K w.G A A A G 5.x f k k A 5.G G A A 5.t.K w.5.x x v j x v x h j x j j 7.7.D D G N j j N V V j V D D D G G G G 5.7.7.G A j f x f g A 6.j h v x h 5.t.7.7.t.t.7.7.K t.A j f x x x A 5.G A x h h j h f k f r f x x f 1 r r r f A A A B x g g j D A A j j j A A A j j j A A A A j f k f 4 h x f 4 h x 4 h G G A A x B B A 5.j r r f x x B N j A A B A A j ",
"z x f f j M x f j x k ,.7.t.D t._ G D D G D D D _ D G t._ _ _ _ _ D D G c h x h f h <.B f h x f h G G G D D G G w.t.,.f f k k x 5.t.G D G D _ D D A g x x g h 6.A g h x h g A t.A A j j A A N A j j j V V V c j j h j h A A f : 1 f 1 3 z f 1 f f 1 f x A c A G A A A A h a f f f h A A V A A A A A A h f f f a f f r d f f 3 f x x A A A j j B j 4 g j j 5 j N N 5 4 5 j A A j g f j f a z v x f z x j x G G D A V A A G A f a d d r h A A A A D A D t.G B f x j f z j f f j x f x D t.w.G D A A A G G G A c A G G G G A A G G G G x f x x f f x x f x M f B t.D D G A G D G G x z z k f x w.5.G D G G G G G A j x v j h x x f j x z h A t.7.t.G w.w.G G A A A A c A A D D G G A A A A A j z m x a f z f f x x f x 7.D t.G t.t._ t.t.A j k k k j ,.G A A G G w.G D G h h x j z m 6.x k x x h v G G w.w.7.G 5.A A G t.G G D D 7.D _ t.D A G G G 5.x x ,.x z x m x z m M j v t.K G _ w.w.A A 5.x k k d d z ,.G G G D G D t.t.5.j j x f k z k f j x j j 5.7.G G A D D V V A D A A A D D G A A A G A A 7.6.j f x z f j x f f v j f A s.t.7.G 7.t.G 5.A x j j j f j x c A B j j h g h f f k r 1 d a r 1 r a 1 f x j A A j j h j A A A j j j A A A A A B A A A x f f k f 1 f f 1 3 h h g x G G G A B j x A j r r d u f j B B N N A A B B j ",
"z v z f f f k k x x z v t.t.D D D _ D _ G A A G _ G G _ _ _ _ _ _ t._ D c h x z f k x x f z m k h G D D D G D D t.A z k k z k z j A t.D G D _ D D A g x v f f j h f j x h h G t._ D B j j j A A A N N N V A c j j h j A G G h 1 a f a 1 a 1 1 a f f f x j j V D D G A h f f k f f g j A A A A A V A A j f f k d r a d r k f f j j h N A j j B A A c j g j j B j g 4 g j j j j j g f j z f f k f f j x x x w.G D A A A A A h f f k f f f c G G D G G D _ 7.c f x j f f f f f j x f x D D w.w._ D G G G G w.A A A G G G G G G G G G A x f x x f d z z f x v j A t.G G G G D _ G c z z z z k f x 6.w.D G G D D t.A j x v x k j z f j v x h A t.s.t.w.G G w.K G A A A c c A D D G A A A G G A j z M m d d k f f x x h j 5.D G w.t.t.t.t.G x z k k k k x ,.5.5.5.w.w._ _ 5.x h M j f z x z k x x z 6.t.A A A A G G G G K D G G G t.t.t._ D D D D G D 5.x x 4.x z z x z x m M x x t._ _ _ w.t.w.5.x k k k k k k j A 5.D D G t.t.7.5.j j M z k k k f z m j k 6.G G A A D _ D G D D D G A A D G G A A A A G 5.6.j f x j f f f f h x j h ,.t.7.7.7.7.D t.A x j x x j f f j x A x x x h j v h d f d d r r r r f f r f A N j j B B j B A A G A A A A A D A A A 5.A B j f f j z r r a 1 f f j h c t.G G A B c A x f r u u k k f x A A A A B j x B ",
"h M k f f d k z z x z ,.5.G D G G _ D D D D A D D D F D K _ t._ D K D G x f x j f k x z k z x f h G D D A A G 7.c f f k k k z k h x A t.G D D D D A g x x g f f f h h x h j G t.G A A j j j j c D A j j c c j j h j x A A A h 1 1 a 1 < < 1 1 3 f a g x j j V V A A j f f h f f f g g j A A A V j j A h f f k a r r u r d f f x B j j j c c A j A A j j N j j g 4 j j j j j j x h f j z a d d f k k x x c G G D D A A A x f f k f d k f z c 5.G G G D G 5.A k m j f f d k d f x f j G G D G D _ G D D D G G G G G G G G G A A A A A x f x x f d k k k j x j x 7.D D G G D G c h z z z z k k k j 5.G G A D G 7.<.j x m z z k z f j v x h G w.w.K G A G G K K G G G A c c G D G A A A A G 6.j z m x d d d k k z x g h G G G w.w.t.t.G j j j k z z z z x ,.5.5.5.t.t.D A h h M z k k z z z x x j 6.t.A A A A G A D D D G A G t.5.G K K G G _ _ G G 5.x x 4.x k z z z x x m j x t.K _ _ K t.e.M k k k u u k k f z A 7.G G G G 7.A j z m k k k k d k x k f A 7.G G A A A F D D A A G G A A A A A B A G 5.A A h f x j f f f f f j x g x A A 7.G G 7.5.A x x x x j x k k j B A B j j x v f d k d r r r r d k a 1 h x j j A N j N j B A A A A A B A A A A G 5.B x x k f x f a r 1 r a f z g x G A A B j A x f r u u u k k f f x A A j j x A x ",
"j ,.z f k k k k z x z ,.w.G G t._ _ D D G D D _ D _ _ _ K K G D A D G D A f x j k k z z k z x j h G D D D G G x f f k k k k z z j j j A t._ F F _ A g x x f f k f h z x h h A D A A c c j j j j A V A A c j j j j B j j A A h 1 a a 1 < 1 1 : 1 f 3 g x N V V D A j h h z h f f h h h h j A G V c V A x f f k a r a r r d f f x 7.G A x A A A A A N j N D V j g g j j j B N N A x g j z d d k k z z x x v G G D G G A x h k k k k k k k z h x A G _ G D t.c k m x f k k f d k x f j G t.D G D D G _ _ _ t.G K K G G G G G A A A A A x f j x k d d k k j x h x G D D G _ w.x h z j j z z z k k k x A G D D D 7.<.j x M z k k k k x v x j 5.5.A A G A G G K w.G D K G A A G D G G 7.G A G 6.x z M x f k k d k z j j x 5.5.w.w.t.s.6.x j j j j z x z x j x A 5.5.G G t.G j h v z k k z z z x x h A t.K A A G 7.t.t.t.D A A D t.5.G A G t.t._ _ D t.G x x 6.x k k k n x m m x v t.w.K K t.s.M k k k k d r d k k f k A 7.G 7.G t.5.h j M z k k k k k x f f 6.7.D D G A A A D F A A D G A c A A A B A 7.5.7.6.h f x j d k f f f x x f h A G G 7.t.5.x x x x x x j j x x x x A A B j h f r d k d r u r < r f f a h x j j V N N A A A A A A B j N B A A G G A B x ,.x k x z d r e r d f j h j A A A A A x z f f u u k k k k k k x x j h x A x ",
"h M k f k k k f z j f A w.A G _ D D G G D G G G _ _ _ _ _ G D G A D D D A f x x k z z z k k x h h G D D G 7.x f k k f k k k k z z z z x G t.D F _ A g x x f f z f f h x h g A A A B B A N j A N j j A A j j j c A N j j j j h 1 1 1 ; 1 r 1 1 1 f 3 f A A A A A j g h j h f f k h h j f f x A A A V A x f f f a a r r r f k f j G A A x g j A G A j j V V D j 4 g j j A V N N c j g j k d k k k k j m j x w.G D G w.A f k k k f f k f k k f f x G G D D t.x f x k f k k f f k j f h G G D D D D G D D D G G A A A A A G G G G A A A x f x x k d k k f z x g j A G D D G v h z z z z z k k z x z z x G _ F G D A j x M z z k k k j A x h A 5.A G K G A G D D G A A G G G A A G G G G G A 6.j f m z f k k d k x x k x 5.7.t.w.e.,.j z x j j j z x x m x x x v 6.G G 5.G h h v z d k z k k x x h A w.D t.D G G w.K G G G G G w.G A A G t.t.G _ _ D A h x ,.x k k k k k m m z v t.K K w.I.,.k k k k k u u k k k k f f A 7.D A G A h j m k k d d k k x k j 4.G G K w.G A c A A A D A A A A A A c A G G G w.A h f j f a f k a f j h f x G G G 5.5.A j x x x j z j z x m z k j v x j g f 1 f k d r r e < < a a 1 h x j j j B B x x x h x x x B B x A A A A A A 5.,.j k x z d d r e d k j f j G A A A A j f k d u u k k k k k d f k x j j x x ",
"j ,.x f k k k f j x h A K G G _ _ _ G G D G D A D G _ _ G _ G G _ _ D _ A g x x z z n z k x ,.j h G _ _ G x h k j j z k z z z x x x x x x 5.t.t._ A j x x f f k k f h x h h A A A A A A V V A A c c A j j h j A A A B j j j h 1 1 r 1 1 r 1 1 a f f g A G D G j g h h z h h f f h x j j j h x A D D G j f f z a a d a d z j f x G A x x x j A A x x A A V A A j j g j j N j j A x g j z k k k k k x ,.j j w.D D t.A j f k z k k f k z z k k f f A t.t.D G x f x x f k k k k x x g x 5.G D G D G D D D A D D G A A A G G G D t.G A 5.x f x x k k k z f x v h j G D _ 7.c j z j z z x z k k z x j x j c w.t.D t.G x x 6.x z z k k x ,.x j A 5.G G K K G A G t.K A A G G G A A A G G G G 5.6.j f m x k k k k k x x j x s.t.s.w.x j z x x x x x x m m m m m x x v 5.t.t.G j h M z k k z k k v x h A D G t.t.w.K A c A G t.G G t.t.G G t.t.t._ _ D t.5.j x 4.x k k n k k m M j ,.t.t.t.s.,.z k k k k k k k k k k k k f j G t.G D 5.h x M z k k k k k x j j 4.t.D G K D D A A N A D A A c G G A A t.t.D G G A h f j f a k k f f x j g A 7.D 7.6.x j x x x x x j z z x x x z z h h h h h a f k f r r r > < f f r h A A A A B B j h g f h x B B B A G G A x A 5.5.,.x k x z d k d a d x x h x G A G B f f f f d d u u d k k k k k f x <.,.B j ",
"j ,.x f k k k f x x f A G K _ D _ _ G D D _ _ _ A A A G K K t.t.G _ _ K A h j M z k k k k x ,.j h G t.w.x z z j z z j z f f k x j x x x x c G t.t.A g c v f f d k f z x f h G G A A A N N V V A A B x g j j N j j N B A j j h 1 1 f r ; 1 1 1 f h 4 g A A A x h h h h h z h k j x j j j z z z h A t.G j 4 h z a r d d d x j a h A A x A A h j j j j A j V V B j j 5 g g j A N j j f j x d k k k k m ,.h j K G t.G j f k k k k f f k k k k k j h j 6.7.5.A x f x x f k k k k x x g x G G D D G G D G G D D D D G A A G A A 5.D G D G x f x x z d k k f v v g j G t.G x z f z z j z z x z z z z z x j z x G t.t.A j x 4.x k k k k v 6.j j A G G w.D t.G A G G A A A G A G G A c c G G G 7.A h f x x f k k k k x x f x s.5.5.x z z x x x x x z x x x x x m x z x v 5.5.G h h M x f k z k z M v f A t.G G t.t.G A A G G G t._ _ _ _ t.t.G t._ G G D 5.j j 4.m k k k k z ,.M j ,.F.t.s.5.z k k k k k k k k k k k k k k f j G D 7.6.h j ,.z d k k k x ,.j j 5.t.G G G G G G D A B A B j c c c A A G G G A A A h f j j 1 a f a f v j g A G D A x z z x x x x j z x x z z z x k f f h j x f f z a < e e < u z f 1 h B B A A B N A x g f g h x B A 7.G A c A A A 5.6.j f x z f d d a f ,.x g j G G A f a f f d r r r r d f d f k k f k x <.<.j ",
"j 4.M f k k k j 6.v h 5.5.G _ D D G D D D _ _ _ K A G D A G G t._ t.K n.G g x 5.x k k k k 6.4.j j 7.5.x f k j j j j j j j j j j x x x x x x x A w.A h A 6.z d k f f x v f h G D G G A A N V N A G A g g j A A A A V A A A A h 1 1 j f 1 1 1 3 h j f g 5.A h h j j h h j j j z x x x j z z j k z x A G x f z x a a d k k v j f x A A A G A c j j j c c c c A N j j g g j j j V G x g x ,.k k k f j 6.6.h j t.t.A x h j z z k z k k k z z z z x j x x x A 5.v h m ,.k k k k j <.A f x t.D D G G G D _ _ _ _ G G G G K G G G A G G _ w.x f x ,.j d f k x 5.6.h B t.7.x f k z z k k z k k z z z z z x x z f x A t.G j x e.6.z k k x 6.5.j h 5.t.K t.t.t.A G w.K 5.5.7.A A G G G A A G 7.G G 5.x j ,.m f k k k j 4.,.f x s.4.x f j x x x m x x x x x m x x x x x x x x 6.5.x h 6.v f k z k x e.,.h A t._ 7.t.t.t.5.G G G G G t._ _ _ _ _ t.t._ G G t.5.x x T.6.k k k k x R.,.j A F.s.v j k k k k k k n k k k k k k k k z h h A 7.5.j x 5.x f k k k x 4.j j 5.7.t.t.G A A G D G A B B c j j j A G A A A A G A j f x x f a f f h 6.x g A 7.A j j j x x x x x z z j x x x x x j z f g h v h g x f 1 r r 1 k x f 1 z h g j A A G t.G x j c c B A A A A A A A 5.5.5.5.j f x x k d k f x 5.v g j 5.A f f f f f k u r r d k k k k k k k k f >.4.x ",
"h 5.5.j f k f x e.v f 6.G A G D D D G _ F D G G _ _ G G A A A G K _ _ _ A g j w.,.k k k x e.5.h h 5.A g h z k j j z j j j j z z j j j x x h h x G A h v 4.v d d d f 6.A g h A A A A A A j N A A A N 4 4 j j x A c j j V j j x 1 1 x j 1 ; 1 f x h f h A j h j j j h z x j x j z j j j j x x x z z x ,.j a z v z 1 a f z x h f x A c G D A A j j c j j x c j j h j j j 5 j j V G x f j 5.x f f f c 5.A f j 5.A j z z z z z k z j k k k k x z x m z z j x 5.A f ,.<.x k f f v 9.B f j G G D G D D D D D _ D D A G G G G G A A G A A G x f x 6.,.f a f v w.v h A 7.x f f z z k k k k k k k z z z z z z j j h x w.5.j x s.e.x f k ,.s.G f h G w.G t.t.t.t.G G D D A A A G A A A G G A G G G 5.x h ,.6.z f f f ,.s.x f x 4.v z j x x x x x x x x x x x x x z x m x z j x 5.x h 6.6.z d f z ,.4.c h A t.t._ D D t.t.G A A c A G D _ D G t.D D G D G 7.5.x j 4.4.x k k x 4.4.x f ,.4.x k z n n z z k z z m z k k k k k k z k f j ,.5.j x 4.v h f f j ,.<.j j 5.G D D G G G G G G B B A A A A A A A A B c G A A h f x ,.f a f h c A h 4 B A j l j x x x x x x x j z x m x j j x f f g h x h f x x r < e f x j f 1 f h j h h A D G A h x A c B B A c x A A A 5.7.,.A j f x ,.z d a f A A x h x x f f k f f f k k d u d d d k k u d k k d f x x ",
"h w.t.A f f x 5.t.x f A G A A G D D G D F F G G G _ _ _ G G G K K _ _ _ A g j s.s.x f k 5.t.5.h j G c h h j j j j j z z j j x j j j x x j x j x 5.A h v s.6.z f f v 6.v h h A A A t.G A A A A G A j g j j j j j j j j N N x x 1 1 x A 4 , r x x h f h x f h j j h x z z j j x x j j j x x x x j z x ,.x a h A c a 1 z v A h f x A G G G c x c A A c j j j j g g j j j j N D D A x f j 7.<.x j x 5.w.A g x 5.c h x x z z z z z j j z k k x x x x x x x x 4.A j ,.9.4.x f j w.s.B f x A G D D D G G G _ _ D A G G t.t.G G A D D G A K x f x 5.4.x f j 5.w.c g A 5.x k z k k z z k k k k k j z x z z j x x k x 5.w.x x t.J.5.j x s.J.7.h h A w.t.t.t.t.t.D G G A A A A G A A G 7.G A G G 7.5.x k ,.e.6.x f x s.s.A f x 4.v x x x x x x x M x x x x x j x x m m m x j ,.4.x h 6.4.v z f x s.5.x h 6.7.D D D t.t.D G A c c c A D _ _ t.G _ G G t.t.t.e.x j R.R.5.x x ,.s.s.j f ,.,.j x m m n m m z z z m z k k k z m z z z k j ,.5.j j w.s.x f z A w.4.j j 5.7.G G G A A G t.A B B A A A A G A G A A A A G 5.j f B 7.B g g x G 5.h g A A j j j x x x x x x x x x x m x j j j z f f h A j f x 4.j 1 r j ,.j i 1 f j x x j A A B j x A A A G A A c c A A B <.4.5.5.x j ,.w.,.k f x w.G x g x j f f k k k k k k k k k d k d d u f k k k f x x ",
"h w.t.7.B x A w.G h f v A A A A D D D D _ F F D G D _ D G w.K G K w.D D A g j t.n.5.x A t.t.A g h G c h h z j j j h j j j j j j j j j j j x j x 5.A f x s.w.v j x 5.5.x g g A A A A A A B A A A j j j j j j j j j j j h j h a ; 1 j A h g h x j g 3 h c h h z h h f z j j x x x x j j j j j x x j x ,.x a f A G j f c A A j f c A A A A x j j j A c j j j j g 4 j j j A V j c V j f x 5.G G A G D G v f x 5.j j x j x z z z k k x j z k k z x x x z x x A A z x w.t.5.A D t.7.x 3 j A A G G G D A G G _ G A G G D D D G D G G D w.G x f x 6.5.A x A 5.G x f A G x z z k f k z z x z k x z j z j j j l x z j 4.w.x x 5.J.t.G 7.F.t.G h f A K G t.G G G A A A A A A A A A G A A G t.K A G 5.x k M e.t.7.A 5.t.w.v f x s.A x x x x j x x x x x x x x x x x x x x x j ,.4.x h 6.s.5.5.,.5.7.A j f A 5.A G D G K G A D G A c A G G w.t.t.G G G G 5.5.e.x j 4.s.E.9.4.t.t.w.x f M ,.x x x x m z z z z x x x k k k z z z z k z j x ,.j j 5.t.7.A G t.7.6.j j 5.G G G G A A A G A A j B A A B A G A A G G A 5.5.z f x 5.G A A G G A g g A 5.j j j k j x x x x x x x z z z z x k z f f z v x f j <.B g h x x j 1 ; h j h j j j A c A A B A G A A A A B x A A j j A 4.x f A G 5.A j A 7.G j g c A h f k k k k k k k k d d d d f d d u k f f j x ",
"h w.7.D t.D D D G h f v A G A A A G G D D _ _ _ D D D D K w.w.w.t.w.D w.A g x t.l._ t.t.t._ A g j w.A h j j j j x x j j x j x j j j j j j z j x 5.A g x w.5.5.5.w.5.G c g g A G A A B j j j j j j V A j j c B A A A A x j h r , r h j A c c B j g 4 x A x h j j h f k j x x x x x x x x x x x z j x 6.x f h A G G A 5.A A x h v A A A c c x j j c j j j j j g g j j j j j 7 j A x g B 5.G D G G G G A f x 6.x x x x x z z k z j x x k k k k x x m x x x A A h A 7.t.t.7._ t.t.x 1 j A G A G D G G _ _ G G G G G _ D D D t.D D t.t.A j f v w.5.G K K G A c g A G x k k k z k k x x j x x j z z j j j x l k j 5.w.x x t.t._ t.l.F.l.G h h 5.w.G G G G G A A A A G G A A G K 5.5.5.t.K A A 6.x z ,.w.t.l.t._ t.t.c f A s.,.x x x x x x j x x x x x x x x x x x x x x ,.s.x h 5.7.7.9.7.7.G A x f A G A G 7.t.w.G G G t.w.G A G G w.D t.K G A A A w.e.x x s.F.J.F.s.t.t.t.x h 4.5.x x m m m m z z z x x z z z z z x x x z k j m ,.j j 5.t.t.l.t.7.7.5.j j <.G 5.A A A G G G A A B A A c A A A G G D 7.7.5.A z f x 7.D t.7.G G G h h 5.5.x j k j j j x x x x z z z k z z x k z k f j ,.x f f A B B B B B x a 1 x x x x x A A A G A A A x j B G A B B A A x j h x j f x G G G A A G G x g A 6.z f k k z k z k k k k d r k k k k k d f f x x ",
"h 5.D _ D D D D G h 4 A A A A A A A D D D D G K G A G G G G t.t.t.t.D K c 6 c t._ t._ _ F _ A g j w.A h j j z z j j j j x x j j x x j j j j h x A A g j G D G 7.t.G G c g f A A A c j x j j h j c A j j j j j A A c A j j j f 1 r h j j A j j j g 4 x ,.j h j z h h z x j j x x x x x x x x k k j x ,.v f h A A G A A A A j h v c c j c A j j j j j j j j j h g j j j j j V V V j g N 7.A D D A D G c f x 5.x j x x m x z z z z j x j k k k k x x m x x ,.v f v 7.D _ D D _ 7.j f x G D G D D G D D G D D D A A G D D D G D D G A x z f j A G G D D G A x g B G x z k z z z z z j j z z x x x z z z k z z j 6.5.j x 7.t._ _ _ l.l.D h h A t.G G D G G G A K G G A G A A A w.w.5.A A c A 4.x f ,.t.D t.t.D _ 7.c f ,.s.A x x x x x x x x x x x x x x x x x x x x j A 4.x f A 7.G G D D 7.A j f A G A A A 5.G G G A K t.G A A D _ G w.G G c A A 5.5.x j s.F.l.F.t.w.t.t.x f ,.5.x z m m m x x m m x l z k k k x z z z z k k m A h h 5._ _ _ t.D G A h j 5.5.A B B A G G A A A G A j j A A A A G G 5.G A A h f x G D D D G G A h g <.A j j j z z z z x x k k k z k k z k f d k f k v j 2 f B x x x A A j 1 1 h x j f g j A c x c x A j g x G A N B B A 5.x h h f f x 5.5.A G G G G j g A A j f k k k z k k k k k k k k k k d k k d f z x ",
"h 5.D _ F _ F _ K h f A A G G A A A A A D D D K G K G t.w.w.t.t.t.t._ D A g j _ _ _ _ _ D t.A g x w.A h j j x z h j j j x x x j j x j j z j z h A A g j G t.G G D G t.A g h A G c c c x j c c c A A A j g j j A c j c j j x z r f x j j c j j j h g x ,.j j j z j j x x x j j x x x x x z x x z z x ,.v g j D G G A A 5.A j h v A A A c A A c j B j j j c j j j V j j V D V D V B g N D D D D D D D A j c 6.v x x m x x m x j z x x x j z x x x x x x x ,.A h A t._ D D D D t.B f A D G D D G _ _ _ D G F D D D G D D D G G D G A x j f j G G G t.D G 5.x g B G j f z z z z j j j x z z x x x z z z z k z x 6.5.j x 7.l.l.l.t.t.l.l.j h G t.D t._ _ t.D K K t.G G G G G G w.w.5.A A A 5.4.x k 6.s.t.t._ _ _ t.A h ,.I.,.x x x x x x m M x x x x x x x x z x m x x v 5.j f 5.7.G A 7.7.t.4.j g <.w.G A A A G G G G t.t.G A G G t.w.w.t.G A G 5.w.4.x x R.J.J.J.t.t.n.t.x h 6.,.x x z m m x x m m x x x x k z x z z k k k j x ,.j h 5.t.D _ D D 7.<.j x 4.6.x h A A G G G D D G A j j A A G G G A A A 5.,.j f x G 7.D G G G A j h <.<.j k z j j x z z z z k z z z z k f f k k k k v h f j A A x j B A x f 1 h h g f f x A c j j c G A j A G A j x B B A 5.A B j h v 5.5.G A G G G c h A 5.x k k k k k k x z k k k k k k k d u k f k j x ",
"h 5.D F _ F F _ 5.h f x A A A G G A A A A D G G G G G G w.K G G t.t.t.t.A g x K _ _ D D D t.A g x t.A h j x j j z z j j x x x j j j j j z z z z A A g j G G A D G G D A g f A A j c c j j j A A N A A h g h h j j j j j j j h 3 3 j A j j j j j h 4 j A h h j j j x x x x j j j x j x x x z z k k j ,.x g x t.D A A A A A h f x v c x A c A c j A j j j j g j A D V V A A V V D B 4 N D D D D D D G A f x 5.x j z z z z x x x x j j x x x z z k k k k x 6.A f A t.D D D F D t.x f x G _ D _ _ _ G G G G D D G G D D G 7.D G t.t.G A j f j A A G G D G 7.x f j A j f k k f k k j j j x z j j k k f f k k z x 5.5.j j t.l.t._ _ _ l.t.h h A _ _ _ K w.t.t.D G G D G G G G G G G G A G G 5.6.j k ,.t.t.t.7._ D t.A h 6.I.,.x x x m x x x x x x x x x x x z z x z x x x ,.j f ,.7.A A 5.G 7.4.h f ,.w.G A A A A A G K t.A A A G G G _ _ G G G t.K 5.4.x x s.J.l.l.l.t.t.s.v h v ,.j k z z z x x x x x x x z k x x x k k k k z v ,.h h G D D D D G 7.<.f x 5.A A A G G A A D D D A B j A B A G G A A A A A A j f x 7.7.G A A 5.7.j f A A f f k k z z k k k k k k k k k k k k k a f z x h f x A B x x j x x 1 1 f f h h h f h c c j A A A A j A B h c A x A A A 5.x f x 5.A G A A A 7.v g B ,.j k k k z k k k k z f k k k d u r r d d f x x ",
"h 5._ F F F F D 7.j f x G G G A A A G G G G G _ t.G G G G A A G _ t.t.t.A h x t.t._ D D _ t.,.f x s.A h j x x x j j j j x x j j z j j x x z z x A A f j 7.G A D G G D A g f x A A A A c j j j B A A x x j j x j A j j c c j j 4 f j A j j j j j h f j A j h j j x x x x x j j x x j x x x x z z z j 6.c f x J._ A G G 5.6.j f x h h j A G A A D A c j g h j c A A V V V V D Z D j g j D D D D D D G c f x 5.x j z z x x x j z z j j z x x z k k k k k x 5.A j ,.t._ D D D D t.x f A D _ _ _ D D D D D D D D G D G D A D G _ t.t.t.G x f x G 7.G t.G 5.t.A g x 5.x f f k f f k j j j x j x j k k f f z x k x 5.5.j j w.l._ _ l.l.t.w.j h G K _ _ w.K G G G G G D G G G G G G A G 7.7.5.5.4.x j 4.F.l.t.t._ t.l.A x 5.I.A x x x m x x x m x x x x m x x x x x m x x M 4.x f ,.7.A G 5.7.t.5.h f A 5.D 7.G A A A w.w.G A A K K G G G G A G D t.w.w.e.x x e.I.J.J.J.n.I.s.x h A 5.x k z z z x x x m x x x x x l x z k k z k k M 5.x h 7.t.D D 7.D 7.,.j x 5.t.t.7.A A G A A A A B B A A B B G G G G G G G 5.j f x G 7.7.G A 5.7.j g A A f f k z k f k k k z z z z k k k z m z z k j ,.x f B A B B B x B j 1 1 f h c A x h h j c A G D G G G G B x A A A A A A 5.,.j x 5.5.G A A <.5.A f B ,.j z z k z k k f k f k k k d u r r d k d f x x ",
"g A _ F D A D G A h g c G G A c A A G G A D G D G G G A A A A G G D t.7.A h x 5._ _ D D t.w.x g j K A h z x x x x j j j j j j j j j j j j j f h A A f h G D A A A 7.A h f g N A A c A G A j j c c j N A V j B A A N j j N c h 3 4 g j N j j j j f 1 h c f f h z x j x j j z x j x z z x x x x z k x 6.v h x G t.w.A A w.v f f j h h x c A D D A A A j 4 g c A A A A V V V A V V j g j A A F A A G A j g x A j z z x x x x x z z z z x x z z k k k k k j A A j m A D 7.D t.G A h f A t.F D _ D A A D D D D D D D G G A A G G D G G G x f h A A G G G t.5.j g B A j f f k k k k k k j j j k j k k f k k z z x A 6.j x 5.t._ _ _ _ G A h h G K K t.w.A A G D G G G G G G G 5.A A G w.w.w.w.4.x z ,.7.7.7.7.t.t.7.A x A s.v x m x x x x x x x x x x x x x z x x x z j v 6.x h A 5.A G G 7.7.x f f B t.D G w.w.A A G G A G t.K K w.G A A A G G D t.w.,.j x 4.w.n.J.F.I.t.6.x f A 6.x z z k x z z n z z z k l z z z k k x k k j x 5.j h A 7.7.G t.t.<.j f x 7.t.G G A A A A A j N N A A A A B A A A G A A G A j f x A G t.A G 5.A f f A <.k f f k k k k z z k z z k k k z z z z x k j M x f k A A x x x h f 1 1 h x j c h g j j j A A G A A G A A A A A A B B A A x f k x A <.B A ,.j f f x x k k z k k k k k d f f f k k d d d u u d f j x ",
"h A A D G D G A x h f A G G A A A G G G G K G G G A A A G D G G D G t.t.A j x A G t.D t.G x x f j K A h j j x x x x x x j j j j j j j j z z h h c A g h A G A G G A j h f h A G G G G G A A c c A A A A A A A D G A j j j c j 4 4 4 5 N A V h 4 3 3 h A h h h h z j j j x x x x x x z x m m m x x v 1.v h x x A s.G w.5.x f j x A A A c A D D D G G j 4 j A D A A A V V V V V A j g h j N F A A A j h g x A x z x x x x x x z z z z z k z z k k k k k j ,.A j x j A s.t.G x h f f A t._ _ _ D D F D F D D D D G G A A A G G D G G G x f x A j A t.t.G x h h B 5.x f k k k k k k k k l j j j z k z j z z z x A A j x G w.l._ _ D A A j j G _ t.n.t.K A G D G G G G G t.G G 5.w.G G w.t.s.e.x z M A G F.t.t.A j x j A s.,.m m x x x x x x x m m x x x x x x x m x x ,.4.x h v A A 5.t.D B h h h A 7._ w.w.5.A A A A G t.t.K K w.G A A G G G G w.5.,.j x 6.G t.J.J.t.A x x j A 6.x x x m m z x n z n z k l k z z x x x x k j m 4.x h v A 7.7.t.A h j j x 7.G G G G A A A A A A A A A A A B A D D A A A G G x f v x A 7.7.5.A j f f 5.5.j f f d z z x x x x x m m m z z z z z k z x 6.v f f j B A A x f a 1 1 h x j j h j c A c A c x j B j j B A A A A B B A 6.x f f j A 5.A x j r f x x v z z k k k k k k f f k f k k k k k k d f f j x ",
"h A h h G w.A h j x f v 5.A G G A G D G A A A A A A G G D D t.G D t.D 7.A h x x h G w.A h x x g j G A h j j j x x x x x j j j j j j x h f f f h A A g h x g j w.5.h g j g h A G A G G A c c c c c A j j c c c c A c j j j j h 1 4 h 4 4 A j 4 3 g g j c h g h z z k z k z x x x x x x x z x m x x x 6.x g c x g 6.e.w.x h f f B A G A A A A A D D A j j V A A A A A V V V N V A j 4 h j 4 A D A j h B h j A j k z z x x z z x z k k k z z k z k k k k j ,.x f m x g A e.x h A j g A 7.D D D D D D D D D G A A A A A A A A G G G G A x f j B g h w.5.j g x h j A j f k k k k k k k k f k z k k z j z z k f z A A h x A c A l.7.j j A j j w.t._ t.w.K G G D D G G G G G 5.G G G G 5.w.7.s.4.x f M v h 5.s.A g h A h v s.v x x x j j x x x m x x x m x x m x x x x x A 5.x f v x g A s.A j A x g A 7.G A A A A A A G n.K G A D K A A A A A G G A 6.v h j 4.6.c s.E.A h A A h v 6.x z x m m z z z n k k k k z z z x z z x z k M 4.j h A h x 5.5.j j ,.j h 5.t.D A A A A A A A G G A A A A A A A G A A A A 5.j f A x h 5.s.B h x f f <.A j f d d k k z z x x k z z z z k k k k z k x ,.x f f g h A x f f k 1 1 f x B j c A x c A x j h c A x h h A A A A A j c A z f j j j x 5.x f f x f x M k d k k k k k f k k k k k k k k k k f a f x x ",
"j G x g c G j h 6.x f v w.G G G G G G G A A A A A A G G G G t.t.7.t.D 7.A j A A j c 6.x h A 5.j j w.A h j j j x x x x j j h j j j z z h f h h j G A g j A g 4 A c g j A g j A G A A A A A c A A A j j x A c c c A x j j j c z 1 f x g 4 g 4 4 g x j j A j g f j z z k z j j x x j j x x x z x x z x ,.x g A A h j v v h x x f B A A A G A c A G D D G A A A G A A A V A A V A V j 4 x c 4 j A j 4 c A h x A j k z z x x x x z z k z k z x z z z k k k x 4.x f ,.6.h h h h B s.A f A 7.D t._ _ D l.D D D A A A A G A G A G G G G G G x f j A j g A A g x A h j 5.j f k k k k k k k f k k f f z z z f k z z z A A h x G j j G A h A w.j j t.t.G t.w.t.t.t._ _ t.G w.A B A G 5.7.7.w.5.7.t.4.j k ,.6.x x 5.v x G 5.j v s.M x m x x x x x x x x x j j x m m x x x x x 6.s.x f A A h h A j c 5.x h A 7.K w.w.5.G A 5.t.w.K A A K w.A A A A A G G 5.5.,.z x R.5.x c s.c c I.A h A 5.j k x x x x z z z k x x k k z x m m z x k k M 4.j j 5.x f h j h ,.4.j h 5.t.D G G A D G A G _ G A B G G G G G A A A A 7.5.j f ,.A g c 5.j j 6.j f A <.j f d d f k k z z k z k k z z z z k k z x x ,.x f x x f f f r f x a 1 h x j c A A A A A c x x A A A x x A A A G A A A A j f M ,.z j ,.x j x x j x M k k k k k k k k d f f f f k k f k k k f f x A ",
"j K w.A j x x 5.6.h f A w.G G G D D D D G D A A G G D D D K G A A G G t.A h A s.5.x h j A 5.A g j 7.A h j j x x j x j j x x j f z f f f h f f j 6.A g h 7.A h h g x G B g f A A A c A A A c c A x h j A A c x j j x j j c x f 1 f j x g 1 1 g x j 4 j A h f k f z z z z h x A A x f j x j x m z k x ,.x g c K A f f j x 5.h g A A j A c A A A A D D A A A A A A A A A A A V V A j f x 5.j j g 4 j G A g j A j f k k z z z z k j ,.5.x z j z k k z z f x ,.x f x 5.5.x g B 5.G B h A 7.t._ K _ D D _ D G G A A A G G A A G G G G D A j f h A A j h h x 5.v g j A j f k k k k k k f k ,.A z f f k f f k k f h A A h j G G B h h A t.G h h K K G G w.K D D _ _ K G G 5.G A G G G G 7.7.7.7.5.j f ,.5.A j f j G 5.A x v s.v x x x x x x x j j A G x j x m x x x x x x A 7.h f v w.A h g x G A j h ,.G G G G A A G K G w.K A A G G A A j c A A G G 5.v z x 4.s.A f j j w.5.x h A ,.j z z z x z x k k j 4.s.m k l x z z z z k k M ,.j h 5.s.x f h A 5.,.z h G G G G G A G G G A G A j N A A A A A A A A A G ,.f a x 9.A h h j ,.,.f f A A j f d k k k k k k ,.4.,.k k k k k k k k z x x z f x A f 1 1 f x f 1 1 h j j c c A A A B B A A j x A A x B A A A A A x x l f x ,.x f f f x x j g B x f k k f k k k d a h c h f f f k f f f f f x x ",
"j G w.t.c c s.s.,.h z A w.G G G D D G _ G G c c D D D D Z K G A A G t.t.A h A s.t.G j A w.5.A f B 7.A j j x x x x x x v F.F.<.h f z h h h h k j 5.5.g h G G c x A s.5.j g h A A c c A A A A A c j j c A G D A x j j x c x x z r f j x j g f j j f f j A h f k k h x z h j A t.t.A x j j x x m z j x 5.c g A 5.A j f x 4.A f g A D A c c A V A V G A x j c A A A A A A A A V V A x f x 5.A c j A G A B g j A j k z z z z z j x ,.s.t.5.x f k z k z z k x 4.x f x ,.5.5.c <.5.A B j A 7.D _ K _ _ _ _ t.D t.G G A G t.D G G G G D A G x f h B A A c x A 5.v g x 5.j f k k k k k f k A s.7.A h f f k z z z f h A A j x 5.t.G j c 5.7.A h j w._ G _ t.I.t.t.t._ w.G A w.t.D G G D t.7.7.7.7.5.x k ,.5.5.A x A w.A v x A s.v x x x m x x x x A t.t.7.x j x x x x x z j 5.7.h f v G 5.A x <.5.A j h ,.w.G A A c A A G K w.K A A G G 5.A j x A D D G w.5.x x 4.w.5.A A w.t.,.x h A 5.x z z z x x x k x 5.t.s.9.B k x x z z z k k M 4.j j <.4.5.x x 5.5.x h h 5.t.D D G A c j A G G A A A A A A A A G G A G G ,.h f x 7.e.c h A 6.v k f A A l f k k k k k k x 5.s.5.x k k k k k k k k x ,.j f j A x f f j j f 1 f j x B A A A A A B A G A A A G A A A G G A A A A A j f x ,.x f f x 5.A j h B ,.k k k k k k k f h A G A h f f f k f f f f x A ",
"x A x A A 5.e.c x j f c K D A G A D D G D A A A V D A D D Z D A D G _ t.A h x x x 5.t.w.c c x g B t.A h j j x x j x A t.l.l.l.A g f k k h h f j G G g h c j c G G A j h f g B B j c A A A A A B j c B j A G A N j N A j j x j a f h f h x x f a a f j c h g f h h h f h A _ D _ t.A j z x z z z z x 5.x h j h c A x A x j f f x A V j A A j N A c j g g j j A A A A V A c j V D x f h h h A G A c g h j j A j f z z z z z z ,.s.7.5.7.5.j f k k k k k j 6.v f x x j ,.5.5.x x B j A 7.D G _ t.t.7.D D D G A A G G G G G G G G G G A j f j x g A 5.A A x x g x 5.j f k k k k f k A G G G t.A h f f f k f f h A A j x A A D G w.A c A h h G _ t.t.w.K G A G t.5.G G G 7.t.K G 5.7.7.5.G 7.5.x k ,.x x 5.w.w.c j c c A t.v z z x x x j j A t.D D t.t.A j x x x j z h A w.h f x x c 5.7.A x x j f ,.5.A A x c A c A A A A A A G G G A A A A G G G G ,.j j m x 6.I.I.w.x x x h A 5.j k k k x x k z 4.w.t.7.s.9.x k k k k k k k M 4.x z x x 6.G 5.A f x h h 7.t.D G G A A N A D G G G A A A A A A A G G A A A f f x x A <.5.,.x x k f A ,.k f k k k k k f x 5.A A ,.j f k k k k k f k M x f f h j x x j a r 1 1 j B j c A A x x A B B A A A B B A A A G A A B A A j f z j j x ,.,.x f f f B >.f f k k k k f z A G A A A j f a f f f f f x A ",
"x A x j A w.A j x x h A K G D D A D D D D D D D D D F F D W K K _ _ _ t.A j x x f A s.G h x v f B F.A j j x x x j A t.F._ D 7.7.A z f z z h f x 5.K h j x h x s.5.h g j h g A A j A A G G G A A G G A j A A G A A A A A A v x f f z a f x v f 1 f f h A j f z z h f h A _ _ _ _ _ t.A j z z z z z x 5.x h h f h ,.,.x f z z f x A N A A A A N N c j j x j j A A A A A A A A A A c f j h g x G A g g x h c G j f z z z z z A w.w.7.7.7.7.<.j k k k z k x 4.v z x j f x 4.,.h j v h A G G G _ t.t.t.7.t.t.A B A G G G G G G G G G G A j f j x g j 7.A j z x h x 5.x f k k k f f x 7.D G D D t.A f f f k k f z 6.5.j x x h A t.A x j A j h G _ t.t.G G A A t.t.w.G A 5.G G G A A G 7.7.7.7.4.x j ,.x f v e.A h x v v A I.v z x x x x x 5.l.t._ t.t.t.t.,.j j x x z j 5.t.j f x h h 5.s.x h x x f ,.5.A A A A A c A A A A A G K 5.G w.K G G G G D 5.,.z x M x x s.I.x h x M h A w.j k k k k k k M s.w.t.t.s.F.4.x k z n n k z M 4.x z m j x 5.5.j f v j h G t.D G t.t.G D G G D D G G G A A A G G 5.D G G 6.h f x j j 5.4.A h j j f x ,.l k k k k k k x 5.7.G A 5.,.x k k k k k f z ,.x f f f f x x k r f r 1 f x j A x j j x A c B x j x x B A A A A A B B A B j f z f f x 5.j f f z f B <.k k k k k f j A D F A A G A j f f f k f k ,.A ",
"x A j f j M x f x x f v K D G G D V D D D D D D D D D D W D D G _ _ _ t.A h x x h j M x z v x f j 7.A h j x x j A t.l.D _ _ 7.7.w.v h f f z h j w.K h h x f h 6.x f g x f g A A x j A G G A A A G G c j j c B A A A A 5.A x j f f x a a z z 3 3 h g h v h f z f f h A _ _ F _ _ _ D 7.A z k z k f x 5.x g j f f x m f f j h f j V V A N V A c j h x x h j j x A A c j A G A A G j f x h f f x j f h x h j G h f k k z f v s.t.t.t.G D D t.5.j f k k k j 4.A f x j f f m j f x x f x A A G D t.l.t.D D D A A A G G G G G A A G G G G h 2 j x f f A x f j v h x 5.x d k k f f x 7.D t.D D D D 7.A f f k k f z ,.5.x x x h x 6.x f j A f f G _ D _ t.t.t.D K t.G A A 5.7.G G G G G A G 5.w.4.j k ,.x a k M x f x v x A s.v z x m x j A F.l._ _ D t.t.t.s.A z z x z h A t.j f x z f x ,.f f x x f v G A B A c A A A c x x A G G A G A G G G A A A G v f x 6.x z m M j h x x h A 5.j k k k k f m s.5.w.w.5.t.7.s.4.x k z z k z ,.4.j k x z f x x g h v h g G G D t._ G D G G A D G G 7.G A A A A G G 5.w.5.,.f f x k f x M k f x j f x ,.f f f f f f x 5.A A A A A 5.,.j f k d d f z A j f k r 1 f f < r k r = r j B j j j h j x x x j h x A c x A A x h x x B B f f j f 1 f x f a j z f x x f k k d r z A G A A A A A A A j f f k f f A A ",
"x ,.x f z j k z x x h A t.G G _ W D D G D D D D Z Z D W D D D D _ _ _ t.A j v x z z x z z M ,.j B t.,.j z j j B 7.F.l.t.D 5.7.w.t.w.B f f j z x K K j j v f f j h f f x h j G G A A A c j A A G t.G A j j c c B A A A A c v j f f x f d f f a f j g h A j f k f j A t._ _ _ D D t.t.t.t.v z k k k x 4.x f j k f z j f f j j f j A A D D D A c j j c c x h j A G G c j A G G D G x f x x f f f f f z x h c G j f k k f x s.t.t.t.A A G 7.D t.5.j k k k j 4.,.f x x k k j f f x x f x 5.G G G 7.7.t.t.t.G A G 7.G D G G G A A G G A G j f j x f f j z f j M h x w.x a f f f x 5._ t.t.A B G t.t.7.x f k k k z 5.5.j x ,.j z z f h x A z f A _ G _ t.t.t.t.w.G A A 5.5.t.7.G t.t.t.5.G G w.4.j j M x f k z k k x A c A s.v z x x x A l.l.l.l.D G t.t.t.F.9.x z x j x 6.t.x f v z f k z f k m x f ,.t.G 7.G A A A c j j c A A K K A A A G A G A A 5.v f x 6.x k k z z z x x j 6.s.x k k k k x 4.9.9.e.,.x 5.s.t.s.e.x k k k z ,.4.j j m j f k k f j A x g A t.D _ _ D A A G G D G G G G A A A A A G G A A A j f x k f z k k k m x h ,.4.k f d f f x 5.5.9.<.x x 5.5.5.,.k d d k k z ,.j f k f f d r e u x f = f x A A A A x j B A A x x A A A A A x f h A A A B f f x f r f k a f j j h x A k u d f z A D D G A A A A A G <.j f f f j ,.A ",
"x ,.j k k k k z z x h c t.G _ G G _ G D D D D D W D D _ D A D G _ _ K w.A j m x z k k k k x ,.j B s.x f k k j 7.t.t.t.7.x h A w.w.5.5.x f f j j G G g h v f a f a f f h g h G G A G A j c A D D G G B c c j x x j A A j j c x a f x k f a a a a f g h c z f f f c t._ _ _ D x j A t.7.7.t.A j k k x ,.x f j z f k f f f h h f j A j A G G N A A c j j x j x G G A A c j j A G A h f x z f f f f f f x j x G j f k f x 5.w.t.t.5.h f x 7.G D t.,.k k k x 4.x f x x k k k k f j x f x A G 7.G G G t.G 5.G D G D D G G G G G A A A A A h f x x f f f f f z x h c 5.z a d f j G D G t.A f f j 5.7.D w.x f k k z 5.5.j x M j z k k k j x j g A G w.w.t.t.t.D w.G A A G w.w.K t.G G t.t.G A A A j j M j f k k k f j ,.c A w.x z x x A t._ t.J.7.j f x 7.t.t.s.5.x f j x A w.j f v z d k k k k x j f v 5.G 5.A A A B A c A A A G G A A A A A A A A A A A f x 6.x k k k k z j x h ,.e.x k k f x 7.7.7.s.,.k f x e.t.e.s.s.x k k z ,.4.j k x x k k k f z v h g A D D D G D D A D G G G A A A A A A A A A A A G A z f j f f k k k k z z z ,.,.k r a f x 5.A A <.j f f x 4.A A x f r d f z x z f k k f u e e u k f 1 h c j A B B A A c A A B A A B A G A A j j A A x A f f j f r f a d f f j h x x k u d j A G A F A j f h A A A A A l a a f A A ",
"x 4.z k k k k z j x z A t.G _ _ _ _ G D D D D D D D _ D A A D _ _ _ K t.A x ,.m k k k k k x m j v s.A k k j 5.l.l.l.7.x f f f ,.t.t.t.5.x f f x D D h j v f a d a f f h g g A G G w.G A A A G G G G A A A c x x c A A x c v x f k x k f f a a f z g h A f f k x D _ D _ A h f f j A t.D D 7.x k k x 5.B f j z f f f f f j j f j A j j A A A G D K A A A A A 5.G A K G A c j x c x h x j f f k f k f j j x G x f k j 5.w.t.t.5.j f f f A 5.D t.7.,.z k x 4.,.f m x k k k k f x x f v 7.G 7.G A G t.t.5.7.7.D t.D G G G G w.G A A A A j f x x f a d k k z x h c 5.j a f j G _ _ t.A f f k f x 7.t.t.w.x f f j 5.5.x v ,.x z z k z j v j f A w.K w.K K t.t.w.K 5.5.5.t.w.w.t.t.D t.w.K G A x j j M j f k k k k x v x A w.c z x A s.+._ B.w.j f f f x 7.s.t.t.5.j f j A s.x f x z f k k k k x j h v A x A 5.5.A A A K w.G G A G G G A A A K w.A c 5.,.j x 6.m k k k k z x x j 5.s.x f k j 9.t.7.s.,.k k k k x w.F.F.s.5.x k k ,.4.x j m x f z k k j v x h A t.D D G D G 7.t.7.G A A A G G G G G G G G G G 5.j f x z f k k k k z j z ,.5.f a f x A A A A x k k k k ,.5.A A x f r f x ,.h f k k d r r r d x f 1 x A j B B B A c x B j A G A A G D w.w.A A B B c A k f x f r d d a f f x h B ,.f d z ,.G G D G x f r f h A <.A 7.A j f g A A ",
"x ,.x k k z k k x x f v 5.D G D _ D D D D _ G D D D D D D D D _ _ _ D t.c j >.x k k k k k x m j x s.A f j ,.F.l.l.s.x k k k k f A t.w.5.A j f j D G f f x f a d a a f f 4 g B A A A A A V A G D D A A V A A j j c c A A c c x f f k d d f d a a f f g c f f x K D F G A f f f k f j A G D G A x g x A x f j f f f d f a k h r f A A x h A A G A G G A A A c v A G G t.D G A c x j f j j f k k f f f j h x 5.h f j 5.7.7.7.5.j d k k k k ,.5.7.7.5.c f j 4.x f x x k k k z f j j f x 7.5.G 7.G G G _ G G G t.7.G G A G G G t.G A A c j f j j a a f d a z x g j G h 4 j G D F t.A z f k k f f x w.7.t.7.B g h G G j v ,.x k k z f x x f f A w.G D D G G G _ t.t.G A 5.t.t.D t.t.G G G t.7.,.h h v j a d d d k x v j v w.x h v t._ _ l.t.j f f f f f A t.s.t.t.,.h g A s.x f x z d d d d k z z f x A x c A A A A A A G 7.A A G A A A A A A G x B 5.A f x ,.k k k k k k x x h A w.j f j 5.t.7.7.6.k k k k k k x 9.F.n.t.,.f f ,.4.x j m x f k z k k m j f ,.7.G G G G A G t.G A A A A A G G t.t.G A A G G A j f j k f k k k k z k f A A f i j A B B A >.k k k k d k A A B A x f 1 j ,.h a f f u r r r r k a 1 h B j j B j j B B j j B A A G A G A A A A j j B x f f j a r d d r f f j f A A f f x 5.A G G j f r f a a j <.A A 5.<.f f x A ",
"x ,.x k z z z z x M z x w._ D D G D D D D G D D D D D _ F D G _ _ _ _ t.A j A x k k n k k x M j x s.c h A F.J.J.t.A k k k k k k x 5.w.K t.G x j G G f f j f a d a a f h f h A G A A A N A D G G D D A A A A j j A A A c A A x f f z d d d d r f h f h A h x G _ _ D A f a f k f k f j A G G t.A j x G c g j j f f k f a h f f f A A A j A G D D D D 5.A c j v 5.w.w.t.D G G A A x h x j k k k k f j x j c A j j 5.t.7.7.4.j k k z z k k z ,.7.7.w.G x x w.c f x x k k k z k j j f x 6.G 5.7.7.G t.G G G G t.7.G G A G G G G A A G G x g x x f a f f f z x g c D j j G _ _ t.A j f k k k k f h v t.t.l.7.j j K w.x v A x k k z z x x j j G w.G _ _ _ t.D t.l.t.5.5.5.t.t.l.t.t.G G 7.t.t.w.x h x j a f k d f j x j v 5.x x t.J.t.t.w.x f f f f f f h A s.7.7.7.A h A s.x z x z f k k d k x z f v A A A A A A G G A A A A G G A A A 5.5.w.A x A 5.6.h x ,.x k k k k k x m j A 5.h x 7.F.l.s.,.k k k k k k k k x s.s.t.9.x h 6.s.x x M j k k z k z m x k M 5.G G D G K G G A A A G 5.5.G t.t.G A A G D t.w.j f x z k k z k k x x k A x f j A A A <.,.x z k k k k d f x A B A B g j v f f k k u r r r a f f a j B j B A A B A G A A G G t.G A B A G G A A B B B f r f f r d d r f f j h A A f j A G G G x f r f r r f f j A 5.5.5.A j v A ",
"x 4.x f k z z f x v j A K G G D D D D D D D D D D D _ _ _ K t._ _ _ D G A h x x k k k k k m ,.j x 5.A G t.t.t.t.A f k k k k k k f j 5.7.G t.G B A A g g z f r d a a a h f f A A A A A D A A A A D A A A c c c c A c j c A A x f f z d r d d r f h f h c c G D G G A h a f f f f k k f j A K t.t.A c A j 4 h j a f k f f f j f f A V A A A A D D G G A A c j A 5.G G D D A D G A j f x z f k k k f j x h x A j A t.7.7.5.x f k k z x k k f z ,.w.7.7.A c G c f x x f k k z k z x f x A A G A G G 5.A A G G G G G G A A A G G G A A G j f j x f a d f f j x g x G D D _ _ _ G j f k f k k z z f h A s.t.l._ G t.G h x A x k k z k j c h h K _ D D D t.t.t.t.t.t.A A G t.t.t.D G G G G G 7.e.j g j z a f d d d z x h c 5.A t.l.t.t.w.x f k f f f f f f z x 7.7.7.t.G G 5.x f x z k k k k k x z f x w.A A A A A A A A A A G A A A B A G A 5.A x G 5.A f j ,.x k k k k k m x h A G N G J.7.s.4.j k n k k x k k k f x w.s.5.5.v A e.x j ,.k k z z k z m j f x A G D G G G G A A G A G 7.G G t.G A A A A A K G z f x j k k z k k x j f x x x A A A A ,.x k k k k f k d a k x A B B x h x f f k d r e e r r f 1 1 h x j A B A A A A A A A A A A A c A A A A A B j j f 1 h f r u d d a f z f B A x A G A G x f f f r f f a f f j A 5.A x x B A ",
"x 4.m k k z z x 6.v x 6.w.K G G D D D G D G G G G G _ G A D t.t._ _ D G A h c A x k k k z ,.4.j x t.K _ l.l.t.,.z k k k x x k k k f j G t.t.t.G G A g h x f r r a a f x f f A A A A D G G A G G D A A A A A A A A j j A A A x f f x k d k d d h z f h A D _ _ D A f f k f f j j k f k k j A w._ _ D A c 4 x x f f k f f j j f j G V D D A A G G G G 5.A A A G K K K G G D D G G c j x x k f k z j c A x c A G _ _ t.7.x k k k k ,.4.x k k k j A e.w.w.G 5.c f x x k k k k z x x j x ,.5.A G 7.G A A A G D G G G G G G G D _ t.G A G x g x v z d f f f v v g c _ _ _ _ t.G x f f f h ,.,.j h z z x 6.F.l.B.B.l.G j c A x z z k z v 6.j h t.l._ t.l.t.t.t.t.t.w.G A 5.t.t.t.t.w.w.t.7.5.7.5.j g x x f f k d k v x h v t._ l.B.l.t.x f f f f j ,.j f f k k B 7.t.t.t.K 5.x h A x k k k k z m z f ,.5.G A G A A B B G G A A A G A x A 5.5.w.A A w.w.,.z j 4.m k k k k x 4.,.h A t._ B.B.J.7.x k k k k m 4.x f k k k x 4.s.t.w.w.e.x x ,.x k z z k x 6.x k x A A D t.G t.G G G K G t.7.A G t.t.G G G G G w.G j k m m z k z z z x z f A A G G A A ,.j k k k z m x d k f f h c A A A A x f f z k r r e e a k f 1 j A B A G G G A A G G x j h j A A A B A A 7.A x x j f x j d u d d f j j f A t.K t.t.G x f f f f f x x f f f f j ,.5.A A A A ",
"x 4.,.k k z k x 5.v j 5.t.G A G D G G G D D D A A A D A A A A G _ G A G A h A 5.x k k k j 4.5.h x t.t._ _ t.,.k k k k x 4.4.x f f f f j G t.7.D G B 4 h x z r r r a j x f f A A A A A A G K G G A N V A V V D D A N B B A A x a f M j a a a f x h 3 h K D D _ A h f f f f x 6.A z f k k f h A _ _ _ D j 4 j A g a f a f x j f j G V A D A A A A G G G A A A A t.G G G A G D G 5.c h x ,.z d f f x A A j c K _ _ t.7.x f k k x ,.s.F.<.j k k f k A t.w.D w.x g x 6.j f k k z ,.x j ,.6.A A A A 5.G A G G A G A G G G G A A A G w.G A h f x A x f d f x 5.x g c t._ _ t.G j f f f f A t.l.G h k z f j 5.F.l._ l.G j x w.A k k k z 5.5.j h G _ _ _ K K t.t.G K K G G t.w.w.w.K D D G 5.G A A h f x A h a f d j 4.x g x _ _ _ l.s.x f f f f j G 7.A f f f k f A t.7.t.t.5.j h ,.,.f d k k j M h g ,.A A G A A A x A A A A A A G A x x 6.G A A G G 5.5.j k 4.6.k k k f A s.A h G B.B.B.B.s.x k n k k A t.7.5.j k k k k x 4.t.w.t.5.x x 4.,.k z z z ,.4.z j ,.5.A A 5.K K D G A A G t.A c G G G 7.7.G w.G G G j f ,.,.z k z k x ,.j f A w.A A A x k d k k k x e.6.f d d d f h c G A A A f f x z r e e e d x f 1 z x j j A A A x A A A A j j A A A A c j c 6.A h x f f x x d r r r f x h f A t.G G w.A f f f f f x 5.A j f d f f j ,.5.A A B ",
"x s.4.x k z j ,.s.A h A 5.G A A D G G G D _ G A A K D A G G A G G G G G A h A s.5.j k k A s.4.h c t.B.l.t.A k k k k j ,.s.w.5.x f k k f j 7.t.D G A g x A x f 1 1 f A B f f A A A D D A A G A A V N A A V A D V A A A A A A x a f 4.,.f a a h c j 4 j K _ K A h f f f f x G G G A j f k k f j G _ _ _ j 4 A 7.x f f f x A j g A G D A D D A A c A 7.G A A A G G G A A G G D G G x h v 4.v f f h v w.A j A n.+.t.t.x f k k k m s.t.t.t.A k k k f f v t.t.t.x f ,.4.v k f k M 4.x x 6.w.G 5.G G 5.G K t.G G A A A G G G G A A A A A G x 4 x 5.A z f h A s.A h A t._ t.G j f f k h x w._ F _ A z k z f j 5.F.F.F.7.x A s.4.x k z M s.t.j h D _ D D A A G t._ t.w.G K t.t.w.G K t.t.G A A G 5.j g x 5.x f d f ,.s.x g x n.+.t.t.x f f f f x G D D D A f f k f h A F.t.7.7.B j 5.4.x z k j ,.5.h f 5.w.G A A A A A A A A G A A G <.c x c c A A w.G 5.5.j j 4.s.x k k j e.F.A h 5.(.B.J.s.v z k z x ,.t._ D t.5.j k k k k x w.t.n.5.x c s.4.x k j x s.e.j h 4.t.G A 5.K K G G A A G G G A G t.D t.t.t.t.w.w.5.x k 6.T.x k k x ,.4.x h 5.t.7.5.M k d k k k x 5.w.A M z d d d a z A G 5.5.j f m M f e e d m m f 1 z x h j x h h x A A A G x A G A A A A A A v h h A j f v ,.f 1 r a x 5.x g A t.t.5.A h f k f f x A A G A j f r f k j 5.w.G A ",
"x w.t.5.j f A s.w.c h A G D D A A A G G _ W D D A D G _ G G _ K D A A G A h B l.l.A h x 7.F.5.h c _ _ _ A f k k k f A 7.7.G t.G j f f f f x <.7.G c g h A A j 3 f v A x f g A G A A D A V A A c j A D V j j A A c A A A c x z a g A 5.h 1 f A c h 4 h G t.A f f f f f x G G D A G A j f k k f j G D G N 4 B D A h f x G A j g A G V D A A A c j A A G G A A A j A A A A A G G x j f c 5.5.j g x K K A j c _ _ t.x f k k k x 7.7.t._ _ t.A f k k f k ,.s.5.x f B 5.w.x f j e.w.x h ,.5.G G G G G D G D G A A G A A G G A A D A c A G j 4 j A 5.x f j w.w.A g A t.t.5.j f k f f v K G F F F _ ,.k z k f j 5.s.s.5.x c t.F.,.j j 7.t.5.h h A G D D G G A G t._ w.G G t.t.G A G G w.G A A G 5.j f x 5.G x f x w.5.x f x w.n.t.x f k f f j G D D D F D x f f f f z 5.l.7.7.B h 5.s.A j h x 5.A h g A A v c c A A A A c A A G G G G A x h j A A G A 5.,.j j 9.9.<.k j G t.t.A h A B.J.I.v k z k z M s.t.D D D 7.A j f k k k ,.w.t.5.x c s.F.4.x x 5.s.5.f f ,.7.G A A G G A A G A A G G G A G G A D 7.5.t.w.5.j f ,.4.6.j k ,.5.5.j f A 5.5.4.z r s k f z A 5.A c A x f r d d d z ,.5.A z a x 6.j r r x ,.j 1 1 f j x A c x h h j A A A A A A G G c c A j h h x x j f x A j a 1 z A A j g A 7.5.A f f z f f x A A A A A A j f d a d j A A c ",
"x 5.l.t.A A D t.w.c h A G G _ _ D D G _ _ D D W K K _ G D _ t._ G D G t.A j A l.l.l.7.t.J.J.5.h c n.n.A z f k k j A G _ _ _ D D G x f f k k j 5.w.A f x G G A j x A A x 4 g A G A G D D A A A A A A D V c j A A A A B j j x j a g A G A h x G A h f h G A h f f f f x 5.G D D D A A ,.x f k k k j A t.B g B D D A c G G A j g A G A D D A c j j A A D G A A A j B A A A G A j h h g c 5.w.A A G t.t.A h j w.t.A h f k k x 4.7.D t._ _ _ t.,.k k k k z ,.e.c f B 7.t.5.v G t.7.x f v 5.7.A A G t.t.G G A G G G G G 5.G A A G _ A G A j g x G w.G A G t.t.A h A t.G h f f k f j G G D F _ G _ 7.A j z k k x 6.s.w.x A t.B.9.A A F.t.5.j h G w.D D l.t.G K l.B.t.t.w.t.t.t.w.G G w.w.G G 5.5.x f x 7.t.5.A G w.5.x f x I.K x f k k h B 7.G A D F D D t.A f f f f j 5.l.7.B j 5.s.s.5.A A G A h f x x x x c G G A G A A A A G G G 5.G A A G 5.G G 5.,.j j 4.F.l.5.5.l.l.t.A h A I.w.v z z z z M s.s.D D F D D D 5.j f k k k A s.4.x v s.F.F.5.5.t.s.5.j j 6.5.G A A G G G G 5.5.G K G G G A c c G t.t.w.w.5.j f A s.s.6.A 5.t.5.j f ,.s.,.z u r d k x A A A A c x x x f r u d f z v 6.h a x ,.x j x x x j 1 1 f x x A 5.5.A x x G A A G G A A A A A c x x x A B j f x A A x j x A A j g A s.A z f k f f x A A A A A G G ,.j f a d a j 5.,.",
"h 5.7._ D G _ _ t.x h 6.G D D _ _ D D F D D _ D G G G D D D K K G D G G A g j t._ l.B.J.l.J.G g j 5.A h f k k k A G G D D F G D G 5.j f d f f x 5.x g j G A A A A A A h 1 f A A G D A V N A A N A D A V j j j x A j h h h x j f f c A A A A A c h 4 j A h a f r a h A G D Z V V A A A A j f k d f v 5.j 4 j G A G G G A x g f A G A A A A c j j A G G N j A B j j A A B V j j A j f j G A A G G _ t.A g h G A h f k f z 5.t.G D D F D G D t.A k k k a x 5.x f x G G <.5.7.G A h f x A A A c N G G G c A G G G G D G A A D G D G A A x 4 x G G _ t.t._ t.A g A w.x f f d f x 6.D G _ D G G G G 7.v k z z f v R.5.j x t.t.t.t.7._ t.K h h G w._ t.t.t.t._ _ B.n.w.t.D 5.w.G G t.A G w.A 6.4.x f x 5.5.5.5.G G G x f x e.x f k k f x 7.D A Z D D Z Z D 7.<.h f f f x s.5.x h G D t.D G A G A f f x j j j A A A V V A A c c A A A A G A G G G G A A A h h 5.l.t.t.t._ l.t.A g A w.x k z z z x s.s.t.D F D D D D 7.A k k k f j 4.5.j x s.s.F.F.t.t.7.<.j h 5.7.G A A A G G G G G t.G A A A A A B A G 7.7.G 5.j f x 7.7.7.G G G A f f A ,.z r r r d j A G A c c j h j v x a r d a 1 z v f 1 k x x j j x j f 1 1 k x j x A A A A c A A A A x j h c A x h j x x x A k r j A A A A x A B f 1 x A k d k f f x G A B x j B A j A x f r r r f x ,.",
"h G D D F _ _ _ t.c x 5.D _ _ _ _ D D W _ D D _ _ _ K G D D A K D _ D _ A j A B.l.+.B.B.B.J.G h x 5.x f d f k ,.7.G G D F F D D D 7.5.x f k k x 5.A g x t.D A D A A A j 1 f <.A A D G D A V A G G A A A A B x c A j h h x c j a g c B N V V V j x h j v f f d a h G A A Z D V V D D G G A k f k f x 5.j 4 j G D D D G A c g g A G D A A G G A c A G A j j A A N h h N A j j A 7.c f j G A A G G _ t.A h x 5.v f k k z 4.w.w.K G G D D D _ t.w.x k k f z 6.c f x A A G G G 5.5.j f x <.A G A A A G A c A G G D G A A A A D F D G G G x g j G D F _ _ _ n.A g A 5.x h f f z 5.t.D G D _ G G G D t.w.x z z k j 4.e.x x D t._ _ l.t._ t.j j G w._ t.t.B.l.t._ t.t.t.t.t.t.w.G G D w.w.w.5.5.4.x f x s.5.G K G G 5.x f M 4.j k k f x G D G G D D A D F F F t.5.h a f h A e.x h t.t.D D D D G A g f A A A A G A D A V j c c A A A A A A A 5.5.5.G G G A j h 5.J.l.t.l.+.l.s.A h A s.x k z z m 4.W.s.t.D F D D D D D 7.<.j k k j 6.4.j v s.F.F.l.J.t.7.5.j j 5.7.7.A A A G G t.t.K G G G A A A G G G G G D G 6.j f x 7.D t.D D 7.A k f x x k f r r j 5.G G A A j j x x x x z a d a a f x h 3 h x A B x x h j f d j x j x A A A B B c A A A x h h A G c h j A c A ,.z r j 5.A A A A A B f f A A f d k f j <.5.B x j x B A A A A j f u r f x A ",
"j K D F _ F _ _ G x h 6.t.G _ D G D D D D D D G _ G G D D D G D A K _ _ A g A t.B.+.l.B.l.l.G g j ,.z d u f x 7.D G D D G G D D G G 7.5.k a k x A c g j G D A A A A A j 1 f A A A A A G D A A G A B B A A j N A B A B B B x j f f x B N j j j c j 4 h x f f f h A D D A V V A A A A A A G A f r f h A j 4 x G A G G A A x g g x c c G G D A A A A A B B B j j j j j j j j A G A x g h A G A A D D G A f x 6.k f d z ,.s.w.G G A A D D F _ D D 5.j f f f A c f x A A A A G G 4.j f x ,.A A A j B A A G G G G A A A V A A A D A A D G x g j D D F _ D _ w.c g c A x h f z A 5.G G G G G G G G _ G t.G j k k z ,.5.x x D _ _ K _ t.t.D j j G G D D t.t._ _ _ _ w.w.w.K K G c A G K G K K 5.6.x f x 5.K G A G G A x f x 5.j f f h G G D D D D D D F F D D D t.A f f h x 5.j h G G D D D A A x f f x A B N A D D A V j j A A x A c c A G A G G G A G A h h 5._ +.l.l.t.t.7.A f ,.4.z z z x 4.s.s.t.t._ G D D D D A G 7.A f k j ,.4.j x s.F.F.t.t.t.t.5.j j 5.t.D 5.A A A 7.t.t.G G G A A A G t.D G A A A A ,.j f x G D D G G A A f f x x k f a f ,.G A A A x x B B x j h v x a r a a j g a x B x x h f f j f r f x x h x A G B B B c A c c A A x A x h x B c A c f a j A A G A A B x f f x x a a r z 6.A A B h x x x j c x x A x f 1 a j x ",
"h G D F _ _ _ t.w.A j A t._ G G G K _ D D _ _ G G G _ _ G D D D G K t.t.A h A l.B.B.B.J.B.J.5.h x ,.j a f j 5.t.D D D D D D D D G G 7.7.,.f f j A A f x G D D D A A A B f f A G A A A G G D G G A N A A A N B A A G G G A A j f g x A A N j j V j 4 x v f 1 h A D Z D D V V D D D D G G D D A f f j ,.j f c D A D G A A A h f x x c A G D j j j A A A A A B B B A B h g j j A A j g x G G G A G _ t.,.j v 6.f r k 4.e.t.t.t.G G G G D G D D D w.A j f j 5.A f v 5.G G G G A 4.x f x 5.A A N j A G G G G G G D D D D G A A A A A D G x g N D D _ _ _ t.t.c h G 5.x f f ,.w.G D D D D G G G G G G _ t.,.j k z ,.e.v c t.l._ _ _ t.l.w.j h G K D G t.n.t._ _ _ t.w.w.K K A A G w.K K K G G 4.x z ,.s.w.G A K w.5.c z ,.5.h f j A D F W F F V D _ D D D D D _ t.,.f f A 5.j j 5.G D G D G G ,.h f x B A A A A D D A A G A A A A x A A G A 7.7.t.G G A x j w.l.B.l.l.l.F.s.A j ,.4.z k x e.W.F.J.t.t.G D D D A G G D t.7.,.k k ,.s.x x I.F.t.t.t.t.t.4.j j 5.t.t.t.D G A A A G G G t.G A A G t.t.D G G A A ,.x h A G t.D 7.G G 6.x f A v f 1 h A A G A G A x A 5.A A x x v A j a r f x h f v A x x j h j x k r f x x j x A G 5.G A c c c A 5.A A A x B A B B A A x f x A A G A A 7.5.x f ,.x f d z 6.5.A A x x A A A A c A A A A x f 1 z x ",
"h A D D F _ F _ K x h ,.D D _ D _ _ D F Z Z K K D Z _ _ D D A G _ _ D _ A j A l.l.+.l.l.J.J.A g x ,.z 3 h 5.G D G D D G G G G A G G G A A x f f ,.A f x D D A D A A G N 4 g A A B A A A A D A A N A V B A A j j A A A D A A h 1 4 c A N j j j V j 4 h A f f A D Z Z V V V Z F F D V A F A A G x f h A h f x G A D A A A A h f x x j j c V A B j j A B B A j j B A A j g g g x x f a x G G A D A K w.,.z x ,.f f ,.s.D G _ t.D G A A D D D G G A G A h h <.c f x G A G 7.G A <.j f x A G D G D A A G G G 7.G G G D D A A V A F D D G B g j D D D D _ _ t.A h A G g 4 c G G D A V A A D A D G _ D G _ 7.A k f 5.w.x x G _ _ _ t.t.t.5.j z A G D D Z t._ t._ _ K K K K t.G K w.G G w.G A 5.4.x z ,.s.G G 5.G w.7.c f v 5.h g A t.F D _ D D D D D G G D D D G t.t.x g B 5.j h G D G G G G A x f f j A A A N j c A D A A A A A c j j A A w.w.w.5.G A A x j 5.B.+.l.l.t.l.t.A j 6.6.f j 4.J.s.t.I.l.t.G G G A A A G G D D 7.B j <.s.x c t.s.t.7.t.7.s.5.j j 5.7.t.D D D D A A A G D D A A A A G G G G A A A ,.x f A 7.G D D G 7.5.z f A A f h v A j B A A j h h x x x j x x x M f ; 3 x f f x A x h h h f x f < f j x c h j A ,.v A x h x A A x x A A A B A B B A x f x 5.A A A B A 5.j f x x d f A 5.A c x x B B A <.c h x A A A A j 4 f x ",
"f 5.G D _ _ _ _ w.c x 5.G D _ _ t._ _ _ K K K G D K _ G D D G G _ _ _ _ G h A J.B.B.~.~.B.t.A h x 5.j h A t.D D G A A A A A A A G G G G G G x x 5.5.j x 7.D D G G D A B f h A A A A A A A A B V A A V B A j j j A A V N c c j f f A A N j V V V j 4 h A c A D V V Z V V V Z Z Z D W D A A V G G x x A x f x G G D G G A A h f x j j h j A A A j j x A A A A A j h h x x x c j h f f x A G K G K w.t.,.j x ,.x A 5.G D _ G D D G A A A G D D A A G D A B A A h x G G G G 7.5.<.x k m A G _ +.t.G G D G G G G G G G A A A V D D D D D A g j G _ _ _ _ _ w.A x A G j c K D D D D V A A G A A G _ _ _ _ t.t.A x 5.s.v x w.t.t.t.t.t.t.w.j j A w.t.t.K K t.t.t.t.t.w.w.t.t.t.t._ w.w.5.G 5.s.4.M j ,.I.w.w.w.5.t.5.x h v s.A G _ D _ F D D D D D A D D G D D D _ 7.D A A w.x h 5.5.G G 7.G A j f f x G D A A j j V D D D G A c c A x c G K K A A A G 5.v x e.J.l.B.B.B.t.s.A j 4.5.v 5.I.t.I.n.t.t.t.D G G A A G G D D D t.7.G 7.4.x x s.J.t.7.s.F.9.,.j j 5.t.t.t.t._ _ t.7.t.t.t.t.A A A G G G G G G A A 5.x h A t.D _ D D w.A z f A G A 5.A A B B c v x f f f f f j v x x ,.j a f ,.x f x A x x B x j z r 1 k x A A x j j x v x g h A 7.A x h B A A A 5.A A A v j A w.A G G A G 5.x f ,.x k x 5.A A A A A A A A A j j x B A B A A h j B ",
"g A A D _ _ K w.A x x A w._ F _ _ _ _ _ Z Z D A A K G D A D G _ D _ _ _ A h A G _ B.B.J.l.G A h j G A G D D G D D G G A A A A G G G G G A G 5.5.7.A f f c G D D G A x h f h A A A A G G A A N j N V N A j j j B N j N N j x j 1 1 f j j N V V j g 3 g A A D Z V V V V V N N V Z D Z A A V D A D G G A h f j B A G G G x h g f j h j N j j c A A j h x j j A x h h g h g A A x h f a j j c G A G G c x z h A A G G D G G G G G A A D G G A A A A D D G A A B f x A A G D 5.x x j f x A G D D _ D G A G G G G D G A A V V A A D D D D j 4 j A D _ _ _ t.A c j A A A A G G D D D D G G A A G D D _ t.G G G A A w.5.x x 5.5.t.t.w.5.5.6.j j 5.w.t.t.K A G w.t.t.l.t.t.D t.t.K K w.G A 5.5.w.5.x z M 6.5.5.w.t.6.x x h x t.t.t.D D D F D D D V V D Z D F G D _ D G t.t.t.5.x f x A G G G A x f f f A A V D A V j j A D D A A A A x x A A A A A A A G 5.x x 5.G t.B.t.t.G A x h ,.t.t.s.F.F.l.t.t.D 7.t.G D D D D G G D D D 7.t.7.9.x x 5.5.7.t.t.F.<.x j h 7.t.t.t.7.G D D _ _ _ t.K A A A A A A B A G A A A x f x A D D D t.A j f f c A G G G A j j x A A x h j j x c x j j x x j x A f f z j x x j x x f < < z x x A A j h x c x h x A A B h j x x A G <.A A A x f x A A G A 5.5.x j z x ,.x x <.A 5.A A ,.A A A B x x x x B B x x B B x ",
"h G j j G _ G c A v x 5.w.K _ _ _ _ _ _ K D G G K K G D D G _ _ _ _ _ K A j A c N t.J.t.j A 5.h j G G G D D D 7.t.t.t.G G G G G G G G G G G D 7.t.A f f x x A 7.G j g h f h A D A A G A A G A N j j A A A B A A A A A A A c j 1 1 f 4 j D N 5 4 f 4 4 A A V F F Z V D D V N V D D V A A D D A A G t.G h g h g j G G A h g h f j x A A B c j G G c j j j c x h h j x j 4 j j j c z f x h j A t.A x j v x x G G G G G D G G D t.G A D t.G G A A A D D G D G B g j j x 5.t.A f h B f x A G _ D D G G A G G t.t.G G A A D D A A D D D D j g x x A _ l.t.c j x x A G A A D G D D D G _ G G D G G D D G G G G G G t.5.x x c x A F.t.A c 5.x x 5.t.t.t.w.G G w.t.t.7.D G t.t.t.w.K A A G w.w.w.e.v j x x x s.t.A j h x h A F.G D D D D F W _ W D Z Z D _ _ _ _ _ _ t.t.D l.w.x g x j c 5.5.c f x x f ,.G A A D G D A D D D G A A G A A A A G A D D G t.e.x x 5.A A U.J.G h A A j A F.t.t.t.t.t.t.t.t.7.t.t.D D D D 7.D D D D _ t.F.s.x j A B A F.l.A j 6.A x 7.F.t.t.t._ _ _ D D G K G G A A A A A A A A G G A x h x A K t.t.G x x z k A A A A G A x j A A A A c x A ,.A x x x v v c A A f a k f z x x j r f r r x A x c x c A A A A A A A A A x j j j A A <.A G 6.x f j x A t.w.A h h x j x 4.5.6.A x j h j x A A A B c x B x j A B j B A x ",
"g G x g x w.B j A c h G K K _ D _ K D _ _ F G G D _ _ _ G D D _ _ _ D D A j A A h A w.j j t.A g j G A G D D D D _ K G G A G G A A G G A D G G G t.A f f v h f A A 4 4 h f j A G A A A G A A A A j j A A A A A A A A A A A x h 1 3 j 4 4 j 7 4 j h 1 4 A V V V V V V V D V V V A D D A A A V A G D D A g f x x g x x g g x f f B B j j A A N A B j j h h x h h j A x j j j j A j g f j x f x 4.x g c ,.h h G A A D G D D _ D G G V D D G V V A A A D A A A j f j x g j x h h 5.x f x A A D G D D D A A G D G G A D D G D D D D A D G j 4 B A j j w.A j j A h A w.A c c G D D D D D _ D V G _ D D A G G G A G t.G h x 5.x j 5.,.j A 4.x x G t._ _ t.D G G w.K A A G K G G K A c A A w.5.5.4.x k m ,.h A 5.j h x x h c t.D D D D D D _ W W D D D D D _ _ G D D _ G G t.G h g ,.x g x v j h x j f ,.G A A D G G G A A D A A A A A A A G G G G t.t.5.6.j x 4.A j 5.s.B j 7.A g ,.F.D G K G 5.t.w.D _ D D D D D D D D D D t.t.D 7.7.j j 5.B h A A j A 5.x x s.t.K D G K n._ G D D D D G D G G A A A A A G G A h h A c j 5.G x j ,.k f A G B A A B x h x c A B B x B B x j x A c x v x j f a x z 1 f k f r k f 1 k A c x c B B A A B A B B A A A j A A c A A A A v j f v A h x A h g x x f x 5.A A A h h x j j x A B B B B B B B B B h j B f ",
"g G 5.j h x j A e.v j w.t.D D D Z K _ _ _ _ G D _ _ _ _ _ _ _ _ _ _ _ _ A h A t.A j g j G t.A g j D D G D G D D _ K G G G G A G G G 7.G G _ G G t.A f z w.c f f h h c x f h G G A N A G G G A A A A A A A A A A A A A A A A x 3 4 c j 4 : 4 j A j 4 g A V V N N V D D D Z F D A F D D D A A G G A A A h f x 5.j g g h v G h f A A A A G D N B j j x h h x j j B 5.B j x A A D A h f x v h z x h x 5.6.h x w.G G D G _ _ _ t.t.G V D _ D D D A A D D A A G j g x 6.x g f x A w.x g c G G G K G G G G A G G 7.G G G D D G D A A A G G x g B G j 4 h h j 7.G h A t.G A A A D F G D A D D D G G G G _ _ t.G D t.l.G x v F.s.A j j ,.E.s.x x 5.t._ _ l.t.w.w.t.K K K K K D D w.G A A 5.w.5.5.4.x k ,.R.v h h c 5.5.A f c l.D D D D D D l._ D D D D D D _ _ G G _ _ _ _ K A h f 5.5.h g h c ,.A j k ,.G D G G D 7.D G G G G G A A A A A G 5.G G G t.t.5.x x R.s.A x x A F.s.A f ,.F.l.t.K A G w.w._ t.D G D _ _ D l.D D D t.t.D 7.9.j x s.7.B h j A F.s.x B t.5.G G t.K _ B._ _ D G G G G _ G G D D G G G G A h h 5.A j j x x 5.4.j f A 7.A A A A x h j x A B x A A x h j ,.A A A c v x f f m x f r r f j m k r k A x x A A A A c B A A A G G A A G G A A A <.A x z f 6.4.f f f h A ,.x f B <.A A A x v 5.A x x A A A x x B B A A B j j A j ",
"h A G D x h A w.6.x j G D G D D D K _ _ F F G G K K _ _ F _ _ G G D F D A j A G G A j A G G A g j D G G G D G D D G G A G G A A A G _ D G G D G G x f f 6.A j 4 A G A x f f A A N A A B A A A A A A A A A A A V A V V V A A j f 3 j c j 4 j V j j 4 4 A V N V V V Z V Z Z V A D D Z D D V D D A A A A h 4 x G A g j A A x g 1 j A A A A V N j j x j h f z h x x A A h j c j c G h 3 j x v v h x A v x f h A G G G A D t.G t._ D V D D D A A A A A A A D A x f x A A c j A A A j g c G G G D G G G G D A G G G G G D D G A V A D D D B 4 j A A j j j A D c g x 7.G D A A D D G D Z V D D D D D _ _ _ G G D t.t.G x x 7.F.t.x B s.4.,.j j w.K _ t._ t.7.G G G G K G G G t.G G D G G G w.5.6.x f m R.s.A A t.t.5.A h c t.D D D D G D D W D D D D D A A D G G G t._ Z D A h f A 5.c x A G A A j f B A A A A G A A A A A A A B A c A A A G G G D _ t.G x x 4.s.t.A G F.s.A x f ,.s.t.n.w.5.5.G K t.t.G A A t._ _ t.t._ _ t.D D t.5.j j ,.5.G A G 7.G 5.x x w.w.w.G D K K _ t._ _ _ G D D A G D A A D D A A B g g A t.A j B 7.5.v k f x G A A A B B x h h x x h j x h f j x x A ,.x A M f 1 j v x f f x ,.k r 1 a h j c x A A x x x x B A A B A G G A G G 5.A c x j f x 6.x x B A 5.x k f j ,.A B c A A A A A A B A B j h B A A A x j j B j ",
"h A x A G G G G A x j A t._ _ _ K K _ _ _ _ G A A w._ W F F _ G G D D _ A h A A G t.t.D A A A h j D D D G G D _ G G G G G G A A A G G A A A D G D c f f A G A A 7.A B x h h A 7.A G A A A A A A G A A A D D D A V V V A A A j f f g g N V A A j j 4 j A A D D Z Z V Z F Z Z A V D F D D D D A A V D G h g x j B A A G j h f f j A j j B B N j x B j j f f x x x c A j j c j A G h f z j x 6.5.A A c h g h w.A A G G G G t.t._ D A D D G A A t.G A A N G G B f x j x G 7.A x A x g c G _ _ _ D _ G G G G t.G A G G G G G D D G D D D j g j A N G t.D D G c f A t._ _ K D D D D D D D D D D _ _ D G G G D _ _ t.5.x x A 5.s.s.s.5.A ,.x x 6.t._ l._ t.G G K K w.5.5.7.D D t.t._ t.5.5.5.5.6.x z M 6.A t.s.7.A A A x c l.D l.l._ G D D F W W W D D V V A G _ D D G D K G j f x A A t.J.A x A x l ,.A A N A c c A A A A 5.A x 5.6.A A A G G G G _ J.G x x 4.6.s.F.J.t.A A A h ,.F.t.t.I.s.t.K w.t.t.D G D l._ t.t.t._ D G G t.t.4.x x ,.x A s.F.<.B ,.x x s.n.t.t._ t._ t.l.B.n.t.G G D D G A F G G A V A A h g B A G t.t.s.w.v k f A 5.G G G A A A j h j x x A A j k x x x x A A 5.4.z a k x x x M ,.j f r 1 f h c c j x j x x x x x x A A A A G G G t.5.A c A x f x A A A G A A j f f x 4.5.A A c A A 5.<.A A A x j h x A A B x x B B x ",
"h v h h A 5.5.x x x j 6.t.t._ _ _ _ _ F _ D x j j A t.D _ F G D D D G D A h A c j A t.A h x A g j G D F D D D t.A A A G G G G A A A D G D D G G G B f h j j B G G h g x h h A A A A G G A A A A A h g B G A A A V N V V A A x 4 f g 3 j A j 4 4 h 4 5 A A V A A V D D V D V j c D D D D D A A A D D A j 4 j g g A A x f f f 2 x x j c j j h x h x v k r r k j h x j j j j A c x f a z f 4 x A c j g h f h G A G G A G G D _ G G A A D G D D G D A j A A A x f x h g A 5.x f j h f x G G _ G G D G D G t.A h h A K A D D D F D A V D N 4 j N j A l.t.j x x f c t.G D G D D A A A Z D A A D G D D D D G G K K t.5.x x v x A w.5.x x ,.x j 5.t._ t.t._ 7.7.G w.w.c h A 7.G G G G G G G A 5.6.x z x x j A s.A h x ,.h A l._ F +._ F D D F _ D W _ D V N D D G G G G D K A h f x h h 5.w.j f A v f ,.A A A B A A A A A 5.,.k f x 4.A A G G G G D t.t.5.j x ,.x x s.F.A h B A h A t.t.t.t.t.t.t.G D t.G G G t.l.l.t._ 7.t.5.t.G 7.4.j x ,.j h 4.s.x f x x j s.t.t.l.t._ t.t.t.n.w.x h A G D A D D A A V c A A h f x h x s.s.6.v x z k A G G A 6.A A A c x h x A A A x j f x c x x A A ,.k r k d f x M j r a r < f x h B B j x c x A A j f j A B B G _ G A A c v x x f j x f B 5.5.j f f f j 4.,.,.x x A G A B A A B B x h h B B x A A c A x ",
"h A h f x 5.x h x v x A t._ l.t.t._ _ _ t.A h z z x G _ _ _ G _ _ _ t.t.A h A x h x ,.x f x A h j D D D D D t.t.A A A G G G G A D G G G _ _ G G 7.B g j j 4 g A x g g A h h A 7.A A G G A A A A x g f j A G D A A D D A D G j 4 g h 1 4 j 4 1 f h g j A A j j N D D A D Z V j j A G D D A A A D D D G j 4 x h f B A f f j f f B A A A j h h h h x x d < e k x A x x A c c c x j f a x f a z v x h h x g g A G t.t.t.G G G G G G D G G D D D G G A A G A A x f x z f x x f f j j f x G G D D D G G D G A h g f x A K G G F _ D D D D V g j A h j 5.x f j x h A _ _ W G D D D D A Z D A A D _ _ D D G t.t.w.t.s.5.x x M z j ,.x k x ,.x x w.l.t.t.t._ l.t.t.t.,.j f h A t.D D G A A G G 5.5.x z m x f x 4.j f x A x A J.l.+.+._ _ D F F _ _ _ t.G A D _ F G G t.t.K n.w.j f x h g j x f k ,.A j 6.w.A A A G G A G 5.,.x k f z ,.5.G G G G G t.t.l.5.j x 6.x j ,.5.x z m ,.h A F.t.t.t.t.t.t.t.D G D t.t.t.t.t._ _ t.t.t.t.t.t.w.x x 6.x k x ,.x j ,.x x s.l.l.l.l.t.t.t.t.w.x z z j A G G G D G A A A A A j h x f f v 6.x j m m x ,.5.G A c A A A v x A A A A <.A x j x A x A ,.,.v f d k d d k z f r f d r f x B A B A A A A 5.,.f a f x c A A A c j x A 6.v j z x x f j ,.x f f j z x A x j x A A A 5.5.A A B A A x B B B A A A G A x ",
"h A h f f z f f x x h A t._ D D _ D _ _ A x k j z z j 5._ D _ _ D _ l.t.A h x x f k j k f x ,.f h G G G D D D G G G A A A G A A A D G G D G _ G D j 4 j x f f f f f h x h h A G A G A A A A A x f f f g g A A A D D Z Z D A j f f k 1 1 1 1 : a f 3 g N N N N N V V V D V V V V D A D D V D D A V D D g 4 h h f f f r r k f f x A c j B j g g j z 1 u r r r f v x x x x x g j x h a z f a f f f f h x f g A A G G w.K A A A G G A G G A c A G A K D D G G x h j z f k f d f j x f x G A A A D D D G A h f f f f x G D G D G D D D D j 4 j c f f k h f j x f x _ G D D D G D D D A D A A A D G D G G G t.t.t.w.A x x M j k z k k x M x x G t.t.t._ _ t.t.s.,.z k f f h A K A A A A A G 5.5.x z m m k k x k f x x h v F.t.l.D D D _ W F F W W D D D D D D _ _ t.t.t._ A h g x z f f k k f x v j 5.A c B G G A A 5.A z k k k f z ,.5.G G D G G t.t.6.j x 6.x k x x k k x x k c 7.t.w.t.t.t.t.t.t.t.A A D t.D t.t.t.t.t.w.t.t.s.4.x x ,.x f k k j j x x j G t._ _ t.t.D 7.t.v x j j j x A G D A A A A A D G h f x f f z z z z M x x ,.5.c c A c x j j x A A A A B B x x x x v v A A j a r k d e r r e u k r 1 z x x x x j B A 5.,.j f d f f h c j j h x A A A A j f x x f f f f f z x g j A x x x x x A 5.5.A x B B c A B x B A A A G A h ",
"h ,.k f f k k z x x h A t.F D D D _ _ G x z j x j z z x K t._ _ _ _ t.t.A h A x z z z k k x ,.j h 5.t.D D D G G G 7.5.G A A A A A A D D K K G G t.B f j x f f k k f j x j h A A A G A G G A x f f f f g f j A D D D Z Z A A j f f j r r a 1 1 a f 3 4 j A A A B A A D V D Z D F D D D A D D G D Z D A g f x j f f f r f k f f x A j j A x h j k d u d k d e f k x h h f f h c v z f j z f k k f f h x f h G A A A A A A G G G G 5.5.G G A G 7.t.K K G G G x f x z k k k d f x x f x G G A G D D G A j f f j j f h x G G D D D G F D N 4 x x f f k k f x x h B _ D D G G _ G G D D D A A A A G G _ t.t.7.t.t.5.5.x x ,.x k k k k x M x x 7.l.D D _ _ t.t.A j k z z k f j A G A A G w.w.e.5.x j m m k k k k k m m j v s.F.F.l.t.t._ _ D D D W D D D D _ _ D D G G _ D G h h x z f k k k k x v h A A A A A A G 5.v z f k k z k k x ,.e.s.7.G G _ t.5.j M 4.m z k k k k x x f c t.t.D K t.t.t.t.l.l.w.w.t.t.t.t.t.I.I.t.t.t.t.s.4.x x ,.j k k k k x ,.x j G t._ _ _ t.l.t.,.x x x x x x x A G A A G G A D G h g x k f z z z z x x x ,.5.v v A 5.A j j v A A A A A A A x x c 6.A A A v k d k k e e e e r k r r x A c A x B A 5.A j f k k f a f x A x j A 7.G G 5.x z v x f d d f f x v h c 5.A 5.5.A A A A x j h j A A A A B A G A A A B h ",
"j ,.f f k k k f x x h A _ D D G D t.A j j j z z z z j f x K _ G F F D t.A j A x k k k k k x ,.h h A G G G G G G G G t.G A A A G G D A A G G G D G B f j x a d f f a f x h h A A A A G D G j f f k f f f f f j A G D A A A A j f f f r r r r r 1 a 1 4 x A V A A N N D D V V A A Z V V V D D A D V A D g 4 h f f f f d r f f f j x h x h x x z r r a d u d r e r f z h z x f h v h a z f a d d a f f x f g A A G D G G 5.t.G D G G G G A G A G K K w.D G A x k x z k k k k d j x f x A G G A A G 5.j f f k k k z f f x A G A A A D D c 4 j j f f z z f x x g j D D D G G _ _ t.G A A A A A A Z D G G t.G G A G A j x m k k k k k z M j j G t.D D G D t.A j z x z z z k f h A G G G 5.5.5.w.x k m x f k k k k j x h x w.G t.t.F.t.G D A D D D Z D D G G G A D G G D G A j g x h f f k f d z z g x A A A A A 5.6.z d d k k k z k k z M 5.G A A G t.6.x x 6.m k z z k k x x g x 7.G t.t.7.7.D G t.t.t.K G w.w.t.n.t.K t.t.D G 5.5.j x ,.z f k k k z M x x 5.t.t.t.t.t.t.A j x x x x x x j x A G A G D D A A h f j f d z z z k z x z x A A A A A A A j h A A c x x x x x c A A A x x x k d k d q q e < e u r 1 f A x j j B A x k k k k k d a a f j c A A A A A A h z x k a f f d f j x x x 6.5.A A G A x x j j h B A A c x x B A A A A B j ",
"j ,.k f k k k k x x j A t._ _ _ t.A j j x x x z x x j j h x 5.D F _ _ _ A j A A z z k x k x ,.j h G 7.t.G G G G G t.t.G G G G G _ D D A G G G G G B g j x f d k f f f x h h G G G D t.A h g f k k f k k k j h j G G A A A A j f f k a a f i r r f 1 f A A D D A V N A Z Z V A A D V N V D D A D Z D D g f j k f f k f d k h f j x j x x v j d r e r k d d r r r u f j x v j c A x f z f a d d d f z x f j A G w.D t.t.t.D D t.K G A 5.5.K G G w.K w.t.G G B j x x k k k k k x x j x 5.D D D w.A j f k z j j z j j j f h A D D A D D c g j x f f z z z x v h j D D _ D D D D G G A K K A G A V D G G G A A A G A j x m k k k k k x M j j G t._ _ _ t.A h z j x x z z z z k z A 5.G G 5.s.w.x j x k f k k k k x x h x 5.G w.t.G G D A G _ G D D D G _ D D A A G D G t.5.j h x h f f k f f x x g x A A A A 5.6.x f d k k k k z k k k k x 5.G G G t.w.c x 4.m k n n k k x v f j D 7.t.l.t.t.t.t.t.t.t.w.t.t.t.t.t.t.n.t.t.t.5.w.5.x x ,.z f k z k j M x x 5.t.t.t.t.w.A x x x x x x x x x j x A 5.G G D G A h f j k f z z z k m x f x A A w.G G t.t.A A A A A A x h h x A 5.A x j B ,.k d z d e e e e r k k 1 f x h x A A x f k z z z k d a f h f x A A A A G A h f x k f f f f f x v h j A A A A G A x x A c A A A c j j x A x A A A A x ",
"h M f d k k k k v v h A t.D _ t.A h j j j x j z z z z j z f x 5._ D _ _ A j A A k z n k k x ,.k h 5.G G G G D G G G A A A A G G A F G A A A G G G B f j x f f k k d f j h h G G G l.5.j f f f f f f j j j h f f j A G D V A j f f f r u f i 1 f f 1 f B A V V V V V N N c V V D A A A A D A A A D D A g 4 j f 1 d f d d z h f h x h j x j r r r e e u d r r u r d r f x v c x c z f z f a d d d d j x g h 5.G G G G G t.G G G w.A c G w.G G G A K G G G G x k m x f k k k k x x k x G A G G G j f f j k k k z k j j j f h A 7.G D G c 4 x x f f k z f x x g j D D D D G A c c A G G A A K K D A A A A c A A A A h j m k k k k k z m z z 5.t.D _ t.A j k z z x x x k k k k f h c G G G 5.A j f j k i k k k k x x f x 5.G A A G G G G D _ K A A G G G G D G G G G G G G h g x h a d f f f x x f x A A A 5.6.j f d d d d k k d k k k k z A 5.G G t.G x x 4.m k k k k f x x g j D _ t.t.t.t.t.7.t.t.K G t.t.K w.w.t.w.w.5.5.w.w.5.j x M z k k k k j ,.x j 5.t._ t.t.A j j x x x x x x x x j j j A w.G G 5.A h f x j d k z k k m x f j ,.6.A G G G G G A x x c v j f h v A A A c x h x f r k d e q q e r k f 1 f j j B A A h f z k k k f a d k j f 4 g c A A c x f f j f a f f f f j x f j A c A A x h h A x A A B x x B B j j B A B A A j ",
"h ,.z f k k k j A v h A t.t.t.A j j x z j z j j z z x x j j j v D l._ t.G j A ,.j x m z k m 4.j j 5.t._ G t.G G A A A A G G G G F D D A A B G 5.D A g j M z f k d f k x j j G t.t.G x f f f f f k k j x j j j j f h A D D G x f f j f f f i i f j f g A G V V V D Z V N V A A A A A A D D D D D D D A g 4 x z a d d d f x j f h x c A j f d d d r e r d u u u k f r r f v A A x h f x j a k d f f x x g x 5.D D D G G D _ _ t.t.A A G 5.w.A G G K G G G 5.c h ,.x k k k k k ,.,.j x w.K _ A h f k k j j j j j x j j j j f h G t.D D x g c v z k k z z x v g j G D D _ _ G D G G K G A A K K K K A D A A A A G A j j ,.x k k k k z 6.x x 7.t.t.t.G x j j x x x x z k z x z f f j A w.w.5.A x h x j f k k k k x x f x e.A A G G G t._ _ l.w.A V G G G G G D K G G G t.A j h A x f d k k z M v g c A A 5.A j f k k k k k k k k k k k z z j c t.l.l.w.x x 4.m k k k k k x x f x t._ l.J.t.t.t.t.t.t.t.G G t.K K n.I.t.t.w.w.t.t.7.B x ,.x k k k k x 5.x x w.l.t.7.A x x x x x m x x x x x x x j j 6.7.G 5.5.j f x j k k z d z M x f x 6.A A G K G G c c x A A c h f x 6.A A G 5.A c A f r k k r e q e k m j f j B A A A j z x z k k k k f k j j h f g j A A c x f f x h f f f f f x x g x A G G A x h x A A G x h j x A A B B A A A A A x ",
"h 5.x f k k f x 5.x h A t.t.v j j j z z j j x z k k z z k z k f B t.l.D A j A 5.x k n n z ,.4.j j G D _ G G G _ G A G t.G G G G _ D D D A G G G K c f j 6.j f k f a z v h h D t.5.x f f f f f f k j j j x j f z z f h x G 5.x f h x k f f i f j j 4 f A V V N V A A V V V V F A V V A A D F G D A D A g 3 x x a r d d f x h a h x x j f d k d r r r u r u r r k f d r r z A j h h f x x f d d a h A B g x 5.G G G G D G D t.7.G K A G 5.G G G G w.w.G G 5.c h ,.,.z k k k z 5.A j x G G A h f z j f f f f z j j j k k z z f h A D G j g x ,.z f k k h v x g j G D G _ t._ G K G A A A A G K K G G G G A A D D A h j ,.x k k k f x ,.x j 7.t.t.A x j x x k x x k k x x x k k d f z 6.w.w.A j g x x f f k f k A B g x 5.A G A A w.K K _ _ G V A G G G G G G G t.G A G A h g ,.v f a d f x 6.x g x A A v k d f k k k k k k k d k k k z x z j A F.J.5.x x s.,.l k n f j ,.x g x t._ t.t.t.G 5.7.D t.t.G G D D t.t.t.t.w.w.t.7.t.7.x x 5.M f k k f ,.4.x j 5.s.5.x x x x x x x x x x x x x x x x z x ,.5.5.5.h f x x k d k d k M x f x A A K G A A c N A A c A A c c A A A A A A A 5.x f 1 x x e e w e k x f 3 x A A x z f z z x j j z k z h z h f f f f h x A c f f x x f a d a h v j f x A A A A A A x B A A A x x A A A A B j B A A B f ",
"h s.,.f f k f A s.B h <.7.c j x x j z z j x z k k k z x z z z l f j A t.A j G F.,.z m z x 4.4.h h 5.t.D G _ _ _ G G G t.G G G t._ _ G D G G G G K A f x 5.x k k f f v A h j G G x h k k f f f f k k j j x j h k h j j h B 5.A f h ,.x f f f h B x 4 g B A A A D D A A V V D A A V V A D D D G D A G A j 4 c v f a d f z ,.h f x x g a d f k k u u u r u d d k d u r d r f h x x j f x A x d d f j 5.A h B t.G G D t.D D D G D G G w.5.G A G w.5.t.t.K K w.A j ,.w.x f k f x w.A h x w.A h f z j j j h f f z j z k f k z j k f h A 5.x g A 5.x k k f j 5.,.g B D D G G G G _ t.G K A A A K K A A G G G A A G D A h j s.,.k k k k ,.4.j j 7.s.A j j x x x z x m l z x x x k d k k k k x 5.5.x j A ,.h f f f j 7.A f x w.A G G K K K K _ _ G G G G K K G D G _ t.G A G G h g 5.,.f d d f v e.c g A 5.c f f k k k k k k k k k k k k k z x x z j c t.e.x B 7.9.x k k f x 7.B g x t._ G D G 7.t.t.D t.t.7.G t.t.t.t.t.K t.I.t.t.t.7.x c s.4.j f k j 4.s.x j 4.s.A x x x x x x x x x x x x x m x x x j j ,.w.5.x z A ,.k d k k x 6.x j ,.5.G G A A A c A G G G G A A A A A A A A c B x j f 1 m M d e e r k x f 4 x 5.j f f f z k k j x j j z z z f f z z f f h A A j f v x f f a f j 5.x f x 5.G A G G A A A A A A A A A x B A B B B j B B j ",
"h 5.5.x f f x 7.7.B h A A j j x x z k z j j j k f k k k z z k k f f h 7.A j G F.e.x k j ,.s.5.h h G D D D G D G G G D G G G A G t.G D G D D G G A c f j 5.A z d f x A A g h G A f h k k k k k k f k j h h j z z j j h f h x x f f ,.,.f 1 a x A h 1 4 c B A A A A D A N V D A A A A A V A A A G A A A j 4 x 6.j a a j x c h 3 j x a r u d a f d r r u u u d d u r r u r 1 f j x j f x A x f r z A G A g j s.D G G G G G G A A G K G G 7.G A A w.t.w.t.G G A h ,.t.A j a h 6.t.A g c G x g h x j z j j f f f k j f f k k k z f f x 5.x g x s.6.f f f A 5.x g B t.G D D D G G G G G A A A D K A A A A A A G A G A h x 7.5.k f k M e.5.z z 5.5.j j x x z x z x x z x z z k k d k k k f f v 6.x h A G c f f h G 7.x h x t.D A A D _ K A A G Z _ _ D G G G G G G G G D G A h 4 A w.x f a h 6.6.j g A G j f k k k k k k k k k k k k k k k z z z f j ,.4.x x 7.F.<.l k x 5.5.j 4 j G G D t.7.t.K G _ _ _ t.G G D D w.G K t.t.t.n.s.5.x x s.J.A f f 5.I.w.h j 4.6.x x M x x x x x x x m x x x x x x x z z x 5.5.x h A 5.x f a z 6.6.k f A 5.A A c c c c A A G A A A c x j c A c x c j h j f 1 x ,.f r < f x j f f x c g f f k k f f k z z f f z f f f f z z f f j A k f c A h 4 3 j G G x f j c A G A A A A A A A A A B c A B x j j j j j B x ",
"h 5.t.G h j D t.7.B h A A j j x z z k k f k j j j z k z z k k k k f h 5.A j G J.J.5.x A t.t.5.f h G G D D D D _ G G G G G G A G G G G D G D G G G c f z 5.5.x f h 6.5.c g j t.A h h k k k f k k f f f j j f z j j j z h h x x f h ,.5.x f f A A h 1 g B B A A A V V A A A V A N A G D A A A A G D D A j 4 c 5.A x h A A A j f x v f r d d a d d u u k u u u u u d u u u d a f A v g c w.5.x h x 7.G A h j w.G G G D D G A A G t.K K D _ t.K K w.t.n.t.t.w.A j ,.t.t.,.x A w.t.A g v G x h j x j x z j j k k j k k k l l j j x k x A A g x w.s.A h x w.7.x g B t.G D A D G G G _ G G G A D G A A A A A A A A G A f x s.J.,.x x 4.I.5.j j A A x x x x x x z k k z x z z k k k k k k k f j ,.v h c _ _ A c G t.G x g x K G D A D G A A A D Z Z G D D A A G G G G G G D G h 4 G t.G x h A t.6.h g A 5.x f z k k k k k k k k z z k k k z z z z k j m 5.x x 7.F.l.<.B 5.F.7.j 4 h G D t.t.t.l._ K _ _ t.t.t.t.t.t.w.t.t.t.t.t.I.I.5.x v I.J.t.A A n.J.w.x x R.6.x x M x x x x x x x x x x x x x x x x x x A s.v h A W.e.x z ,.s.5.z f x w.A x A A A A A A B x c A A v c c A c A A x x v k r x 5.B f f x A x f f x x h f z k k z k k f f f f f k f z k z z f f h c j f x G A j j A D G x f j x x j A A G A c c A A A A A x B B A B B j j A x ",
"g G _ D D D D D D j g A A h j z z j k k f k k z j k k k k k k k k k h A A j A t._ _ t.G _ _ A g g A G D A A D G G D D G G A G G A D D D D D A G G x f f A G A x A G G x g h A A h f f f f f f k f f f h z z k f z z f h h x x f h A A G A A A B h 1 f B A c j c V V A A N j j A A A G A V A A A A A A h 4 j A A A A A B A j 3 h x f a 1 a d r u r r d d r d d u d r r u d r g x x f x G G G A A G G A g h A A A G G D D A G D D t.t.G G D K A A K t.t.5.w.A h ,.t.t.t.w.w.w.K x f c A x j j j j x j j l k f f f k f f l j k k f z v v g j A 7.G A A G 7.x 3 x G A A G G G G D D D D A G D D G A A A j N A A A c f j 7.F.s.7.7.s.t.A j j 5.A z x n z n k k k k k z z k k k k k k k k k z A x g j _ F _ _ K G G j g j G G D A c A D D D G A D D D D A A A G G G G G K G g 4 A w._ G G G w.A g 4 A A h f z z k k k k k k k k k k k k z z k k z k x 5.x j 5.t.7.D 7.D D D j 4 j D D 7.t.t.t.t._ t.t.t.t.t.7.7.7.G t.t.t.l.t.5.t.5.h v s.t.t.l.F.t.t.5.h j 4.M x x x m x x x x x x x x x x x x x m m x x 6.e.x h A t.w.A A 5.w.A f f x 5.A c j j c c c j j j c A A A x j h j A A x x x f 1 j A A B A A B x f a x j h f f k z k k z f f f f f f k z f f f f f g c h 4 j G A A A A A A g 4 j x h h x A A A x j B A A A x x c c A c x x B B j ",
"j G _ W _ _ F G t.j h 5.A j j j z j k k k k z x j f k f k k k k k k j G A j A t._ _ _ D _ t.A f h G D G G G D G G D D _ G G G G D D D G G G G G A x f h A G A A G G G B g h 5.A h h f f f f f k f k h h h h k f f k z z j v x f h A A G G G A A h 2 h A j j h j A A A A c j B A G G G A A A A A K G A h f c G G G G A A A j 4 x ,.f a d d d r d d r u u d k k f d a u r r a g x x f c w.G D G G G D A g j A A G G G G D G G _ D t.t.G G t.K A A A K t.t.w.A j 5.F.t.B.t.K K t.c g ,.e.x j j x j j j j j x z k k f f l k k f k f h 6.,.g j G t.D G G G 5.x a x G A A G G G D D D G K A A G G w.w.G A A A G A A A h x s.t.t.t.t.t.t.G j j 5.,.k z n m m n k k k k k z z z k k k k k k k x 5.x g A _ F _ _ K G G x f x G t.t.D A A G D D D D D D G G G G A G G t.G A A A h g A _ F D D G t.A h g 5.6.h f k z z k d k k z z k z k k k k k z z z z M 6.x h 5.t.D D _ _ _ t.A g c t.t.7.t.t.t.t.t.t.t.t.t._ l.t.t.t.t.t.t.J.t.t.t.,.j A J.l.l.l.l.l.l.5.j x R.6.x x m m m x m m m m x x x x x x x M m m x 4.R.M h 6.t.G G G t.w.A h f A 5.5.A x x h h j x B A A A A G A x h h x x A A x f r j A V D D A A A f a x x z z k z z k z z k f f k k f f f f f f f h j A j 4 j D D A A V A A g g A G c j B A G A A c x N A A A A j g h x A A A B x ",
"j A F W D _ F _ G j g 5.G h z z j j k k k k z k k k k k k k k k k f h G A g A t._ Z G _ F _ A f h 6.G G G G G G A A A G K A D G D D D D D D D A A x 4 f A A A A A A A B f f A j f f k k f f f f f f f f f k j j h h z z g A x g h A V A A A N A h 1 j A j j N A V V A A c j V A A D D A V A A A A A x g f c G V A A A A A g 4 x x f r d r r d r a r r d d d f k d r r r a 1 f A j 3 j A G D A D G G A g h G A A G G G G A D G G G G A G G A A G G w.t.w.5.A j 5.t.t.w.K K K t.j g A 5.x f k j k k k x j k k k k k k k f f f k f h A A g j 5.G A G G G A z 1 h A A j j D G A A A A A c h c G G G A c A G A A A c h j 5.t.t.w.t.t.t.G j j 5.,.k d k b b k k k k k k k k k k k k k k k f j ,.x f c G K D G K D G B g x w.K _ t.D V V D G A D D G A D D G G D G t.G c c v h 4 A D A D G D D A j f 6.5.h f k k k k d k z k k k k k k k k k k k k k x 5.j h A D D 7.D _ _ D A g A 7.D t.t.t.t.D t._ _ _ _ t.t.t.t.t.7.t.t.t.t.w.5.A h x t.B.t.t.F.t.t.5.j x R.6.z x m m x x m m m x z j x x x x m m m M x ,.4.x f A w.A A G 7.w.A f f A w.A A A j j v c A A x A A A A A A j g j c x h x f 1 z B j A A A A j r 1 z x k k k k k z k k f f f f f f a a d f f f f x A j f j A A A V A A N g g A A A A B A G G B x x A x x A A j g g x B B A A x ",
"h G _ W D _ F _ _ j g G A h z z x j k k k k j j k k k z k k z k k f h G A h c K _ F D _ D t.A f j 5.A A c c A A A A D G G A G G D D G D D D D D G x f j G A A G A A G B f h x h f a f k f f f f f f f f f j x j j h j h h A x g h A A V A N N A j f h A A G G G V V D A A A A A A F A V D G G G A A A h g A D A A A A A G h 4 x x a r d d d f f f 1 r k k d f f f r r r d a f A c f x K G D D D D D A h x 5.G G G t.t.G G G G t.t.G K G G G 7.w.w.w.w.w.s.,.x 5.t.t.t.t.t.w.t.v f A 5.j f k f k k z j k f f k k l k k k k k k f j A A h B t.7.G G G 7.5.x a j 5.A j j D D D D A A c h h c G G G A c A _ G G 5.A j x 5.t.t.t.t.t.t.7.j j 5.5.k u u u u d k k k k k k f f d k k k k k k j 6.x h A G K t.7.K w.7.A f x w.K _ l._ D D D G D G _ K G D G G G G G G G A c A x g A D A G D D _ w.x f ,.5.h f k k k k k z z k z x x x x z k k k k k k x 5.x h A 7.+.7.D _ _ l.A g A 7.D G D t.t.t.t.D D G _ t.B.B.l.t.t.t.t.t.t.t.s.4.j x t.l.t.t.t.t.F.9.x x R.6.z z m m x x m x x x z x x x x x m m m x x ,.4.x z 6.w.w.G G t.n.5.j z A w.G G A v A G A A A c A A A A G A A x A G A c x f r x A G G A j j x f r z f 1 r d k z k f f f f f f f f d a f k f k k x 5.x f B G A A A A G A j h A A A A A A A A j h j A A A A A x x A A B B c 6.x ",
"j A W F F F D D D j 6 A G h f k k k k k k k z j k z k k z z k k k f h A A h B t.D D D G t.7.x f h v A A V c A G G G A D A D D D G A A D G A A A G x f j G D A V V A A j f f x j r d d d f f f f f f f f h z z z z j f f g j x f g A V V N j j j g 1 h A A V A A V A V A A A V N A A V V A D D G A A A h f x G A A A V A A g 1 h x f f r d d f k f f d d f k f f d d u r r f j A x 4 j t.G D D D D t.A g x G G G A A G G G G K K w.w.G A A G K G 5.w.5.5.e.A j 5.t.K _ t._ t.w.x g v A h f f f f k k f j k f k k k k k k k k f f h G A g B t.D G G G 5.5.j 1 h 5.G V A A D D D V A A A A A A A c x x G G G G A A j x 5.t._ t.D D t.A l l 5.,.k d d d u d d k k k k k u u u k k u k k k j ,.x g A K G G G D G 7.B g j G G G D D G D D D D G D A G _ D G G G G G G D D A j g A D D D D D G G j g A 5.h f k k k k k z z x z z x x z m z k k k k l B G x h A D D D D _ _ t.N g c 7.G A A G 7._ G G G G t.t.t.B.l.l.t.t.t.t.w.K w.5.j x w.t.t.t.t.t.t.4.j x R.6.k z z m x x x x x x x x x x m x x m m z z ,.4.x h A s.t.G G 7.t.A f f B D D A A A A A A A N N c x A A x j B A A A G A j f r j G A A B j h j 1 1 z f 1 r k f f f f d f f f f f f f f f f f f f x A j g A G A A A A D G h f B G A A c j j B j j h h j j j h j B j j c A x x j ",
"j A _ W W F Z D G h 4 A G h f f f f k x z z j j x k k z k k k k k k h 5.A h B t.7.D 7.D 7.5.x f f A G G A A A G G G D A D D D D G G A D D A A G A x f h A D A D A A B h f g A x d d d d k f k k f f f f j j z z j j z g g c x 4 g A V V N V N j f 1 j A A A V N N V V A A A A B A A G A V V A A G t.A h g x G A A A G A c g 4 x c j f f k u u r a f f d k f k f f k f u f f j A c g j t.t.D D G D t.,.h x w.t.t.c j G t.G G A A G A A A G w.K K 5.w.w.t.e.A j ,.t.t.t.t._ t.s.x f v A j f f f f f f k k z k f f k k k k l l k k h G G h B t.t.G D G G ,.z f j A G D G G G D D A A A w.K D A A c j A G G G K w.A x x 5.t._ t.l.t.t.<.j x 5.v k k n k k k k k k k z k k k k k k k k k k j ,.v h A w.K D D G G 5.j f x G G G D D G G G D V V V V A G _ _ _ D t._ _ _ t.G j g A t.D G G G K A h g 6.t.j f k k k k k k z x x x x m m z z k d d k j B 5.x h A 7.D D _ _ _ t.B h c 7.D A A A 7.D G D D t.t.t.l._ t.l.t.t.w.G G w.t.,.j x e.I.l.t.t.F.s.4.j x R.4.k z m z m x x x x m m x x x x x x k k z j ,.4.x j ,.s.t.7.G 7.7.A f f A D D D G A A A G A G A A A A A j h B G A A A j f f f x A A B j j x j r 1 z m f d k k f f k f f f f z k f k f f f f f f x 5.x g A G A A A A G A h f A G G A c g j A G j j j h j j h x A c x x j j j h ",
"g A D W Z Z D A c h g A A h f f f f k k z j j j l k k k k k k k k f h 5.,.f x A G G G t.5.x z f f A G D D D A A D D G G G D G D G G D V A G G A A x f f j j A A A A h f f h x h d r d k d f k k k f f f f f z z k f h g g B x g g j j N N V N g 1 1 h B A A A A N N A A A D A j x A A A A A G G G G A j f h j V A N A A h 3 4 x A g f d d f d f d r d k f f f f f f d d d r f A c f x A A D D G t.A j f j G t.t.A A G G G G G A G A G G G G 5.5.5.5.7.7.w.x z A 5.t._ _ t.t.G h 4 c A f f f f f f f f k k k f k k f k k f k l k j G 5.f h A G D A 5.A j f f j A A A D A A A V V A D A A A A A A A A A 5.G G G A h h c G t.D t.7.A v j j G A k k k k k k k k k k k k k k k k k k k k k x ,.x f x v A G A K G x f f j G G D D D D D D A V j V A A c K _ _ _ D A K D G G j g c A A G D G c j h g A w.j f f k k k k k k k z x x k k k k k k f f f x A x f A G G D D _ t.A x h x G G G G G G G G D t.t._ t.t.t.t.t.t.w.G G K G 5.5.j x 5.t.F.t.t.t.7.x j x R.4.j x x z m z z k z m m m x z z x k z z k k ,.4.v z ,.,.G G G 7.A j f f A G A A G G A j B A A A A A v h h j x B A A h h f r u f k j x j x x x r r x j f f a f k f f f f f f f h h f f z f f f f x A j f h j j j j A A g f f x A A A j h j c A x B B j j j A A B c j j j A A j ",
"h c j D W D V j j j h A G h f k k k k k k j x j l k k k k k k z k k j 5.,.h j h j K w.5.x f j f h G _ G G G G G G D D G G G G G A c A A G G G G G x f j j j A G A j 4 f f h A j d d d k f k k k k f f f f f z k k f f h h A x f g j 7 V Z V j g i 1 h A A A G G A A A D D G A j x A A A A G G D G G A j f h h j G A x h h f g A A h d d f k k z z f k f k k k f k f d d d a g A c g x x x G t.w.5.x f f j G G G G A G G D G G t.w.w.5.5.K w.w.w.7.5.7.7.s.A j A A A t.t.K A j j g v 5.h f f f f k f k z j f f k k k k k k k k f j 7.5.f f x A A G G v h k f x G G A D G A c V A G G G A G A A A A A G G G G w.A j h j j A t.7.B h x x h G 6.z k k k k k k k k k k k k k k k k k k d k x 4.x f h h c w.w.5.A h j f j 5.G D D G G G D A A D _ G G A G _ _ G G A G D t.7.j g x N N G w.A j j x g A w.j f k k k k k k k k k k x z k k k k k k k f x ,.j f x c A t.t.D A h x h x 7.G t.G G G D t.t.t.t.t._ D _ _ t.t.w.w.w.t.7.7.5.j x 5.A A F.F.7.x x x B R.R.x x x x m x x z m m x x x z z x x m m x x ,.e.M x x j c e.s.A x j j j A D G G G D G A j j B A A A x h j x x B A j x x z a r f f f x ,.x j k r f x x f a a f k k f k f f f f j z z z k f f f f x 5.A f g g j c c j j 4 f f A G G A c x x x A B A A A A A A A A c j c A A 6.x ",
"g c j j A Z j 6 j x g A G h f f f k k k j j z j k k k k k z k k k k j 5.A g j j g x e.A f j x f h K D F G G D G G D D D A A A c j j V A G D D G G x r j x f 4 x c 4 f j 4 f A j f d d k k d k k f d f f f k f f f f f f h A x 1 g g 3 j D V 4 g j f f c A V A G D V A A G A B j B A B B A G A A G G A h f x x 4 j v g f x f f x v h a d d d f k k k f f f f k k d d u u d r f x x 4 j x g x w.5.x j x f f G A A G G A G G D G t.D D G G G w.G A D t.t.7.e.x f ,.A h A t.c j A x g c G h f f f f f k k k f z k f k k k k k k k f h A ,.g f x h x 6.A h x x f j 5.D A A A A A A G F D A A A A A A A G A B c G 5.c h x ,.x j w.5.f j ,.k f A A k f k k k k k k k k k k p k k k k d d d d k ,.x f x h f v w.v h x x f j G G D G G G G D D D D D _ G D D G G A A G G G D G h 4 c c 6 j 5.c g c x f A w.j f k k k k k z z k k k k k k k k k k k k k x A h f A x j A s.A g x A g x D G D D D G G t._ _ _ _ t.7.G G _ G G K D D t.t.,.k j 6.x h A w.c x 5.x x s.4.z z z x x z k z x x j z z z z z z m m z j A 4.x f x h f 6.4.x h A j f A G A D D D D A j j j B c h j x x x x x j B B j h r 1 k z 1 f x z r a r a j j r 1 a r a f f f f f f f f h z k f f f f f x 5.x f x j 4 g c 4 4 j h f B G A A A B x A x h x A j N A A A x h j c A c x j ",
"g w.G j c D j j G A g A G h f k k k k k k k f j x f k z z z k k k k j w.A h A 5.x h x x x 4.<.h x w._ F _ D G G _ G D A D D A A A A G G D G G G A j a j 6.g 3 f g g x j 3 h A h f k k k k k k d f k j f f f k k f f f f f A x 1 g j 4 4 j g 4 x v f f x A A A G D D A A G A x j B G A A A G G A G G A h g c A g g g f x ,.f g A v g f k k f k k k f f j k f k k f f d d k f f A x f x ,.h h v x j ,.4.f h 5.G G G G A A D G t.G D D G G G A A A G t.t.t.s.x f ,.5.x h x j A t.A g A G h f f k f k k z f f x x f k k k k k k k f h A A g j 5.h g x x j 4.m f x 5.G A D D D D G D D G D A A A A c A G A B c A w.A z x s.5.h g j x 5.4.j j A A k f k k k k k k k j x k f k k k d d k k k x 4.x f M 6.j x v f h 5.A f x 7.G _ _ G G D D D _ D D _ _ D D G G A A G G D D A g 4 A K j g j j x A j f A w.h f k k k k z z x x x x z k k k k k k k f k x ,.j f 5.5.j x 5.A A 4.A h x t.D _ D D 7.D t._ _ _ _ t.t.D D G D K K t.t.t.t.5.f j R.4.A h x x 5.4.A x R.6.z z x k z m x k k j ,.x j z z z m m x z z ,.4.x j 5.5.x x v h A w.j f A 7.D D D D D G G A A A x j x A A B B x x A B A x f f m x f 1 r 1 1 x k r x x r r d r d f a k f f h h f f f f f f k f f c 5.x h G A g 4 j g j A x g A D G A B A G G j g h x B B j j x j j j A A A A x ",
"g A w.A 4 j j A G h g A G h f f k k k k f f j 5.<.j f k k k k k k k x 7.A h B 9.5.x g j A 5.A f x K _ F F D D D G G D D A A G G D G D D A A D A A h 1 h A x f 4 g x x f 3 f x h d k k k d k k d f x 5.j f a f k f f f a f B x 1 4 c j 4 : 3 j j f 1 f x j A A A A A A A A c j x A A G G A A A A A c A h g x A j 4 4 x x x f f v x f f r d k k f a f x 5.B f f d f a k k d f f A x f j ,.A h f f A A x f z 6.7.G G G G A G G G G G G G G G A A G t.7.t.t.s.j f x A G j j B A A B 4 A G g f f f k k k f f j 5.5.j f f k k k k k f h A A 4 h 5.A g f h A ,.x f j 5.G A A A A A G D D G D D G A A A G A A B A A G A h j 5.w.A f f A A A k f A A f f k k k z k f f x 5.x k f d k k k k f d j 4.x f x 5.c f f f x A j f h 5.D G K _ D D D D D D D D D G G G A G G A G _ G A g 1 x 7.A g g x A x h f v w.h d k k k k k k k j 5.9.x f k k k k k k f f x ,.j f ,.t.G h j A s.,.x h x t._ D G G D D D D G D _ t.t.l.t.A G A A G 7.w.5.,.f z ,.4.,.f h A 5.A x x s.,.k k n x x z z k z A s.5.x k z x z z z k k ,.w.x h A 5.,.h g x 7.A g g A G G D D D A A c c G A h h x x A A B x x x N B j f r k x h 1 1 f j x a 1 j k 1 1 u a r d f f f h A v f r a f f f f f f x 5.x f x A j 4 2 7 j j h g x A B B A A A A j j h j h j j x x x x x x B A A x ",
"g A A D h j D l.A j f A 5.h f k k k k k f h G t.7.A j f k x k z k k x t.6.x A A A <.A A A A A f x w.D D F F _ F G G _ G G A A G D G G G A A V A A j a z c x x x c A h f f f A j f k k k k d d f x A A A h a f k k f f a f A x 3 4 j j x g h c h f r f x c A G G D A G A j c A A A A A D G A A A x x A h f h j A A x A x h g f v c f f u k k k d f j G t.G A f f k k k f k f h ,.v f x v A 6.x ,.5.x j f j 5.G G t.G G G t.G t.t.G G G D t.D A G t.t.t.t.s.x j x x A 5.A G A x j 4 A G g f k k k z f k x 5.t.7.5.j f k k k k k k h G A g h A 5.v x v 5.x f f x w.K A c c A A G G G G D G t.G G G G A A G G G G A z j x 6.5.<.,.,.A x f f A A k f k k k k f f x 5.G 5.m f k k k k k k f j 4.x k x ,.6.,.x x ,.B j f j 5.7.G G G G D D D D D D D D G G A G G G G G G D A g 4 x A A A A w.A x h f ,.e.j f k k k k k k j 5.t.t.t.x f k k k k k f f >.5.x j A 5.5.5.,.s.6.x x j x t._ t.t.G G G G t.D t.t.t.t.l.t.K G A 5.5.t.t.w.,.f j M x 5.A A 4.,.x x x W.5.l k n x x z k z ,.F.t.w.6.x k k x z z k z ,.s.x h A 5.w.A A 5.A B f f A G A G D G A N j j B x h x B x B A A B x x A B x f r k x x z k j x k 1 1 x j 1 1 d d d d d f f B A A x f a f z z z f f x s.M f h x B j j A j g h h j B A G G A A A A A A x c x A A A A A A A 5.A 5.x ",
"g A j j A K D A x x h A G h f f f k k f j G t.D D G A h f k z k k k j s.A h x j h 6.I.w.j j x f j G _ G D _ G G G G G _ D A A A G A A A A V A A A h 4 j j 4 x w.A f f f f g x h f k d k k d f v A A A A c f a d f d r r g x x 1 3 f 4 j c c g f f 1 f B c A G G A D A A A A B x j A A A A A A j j x c h f h f g A A x f f f 4 x c f u d k d a a j A A G G G v f d d f k f a f ,.x f x x f A s.5.x z j f j 5.A G G G G A G G D D G A A D G D G D _ _ D 7.5.x h A h h A t.A h j h 4 c G h f f k k f f j 7.t.t.7.7.A j f k k k k k h 5.A g h x h x 5.5.x f z f j 7.G A A c c A D G D G G D A G G G A A G G A G G x f x m j x 5.s.x h x f f A A k f k k k f f M e.G G G A j d u d k k d f j ,.x f x j h ,.s.,.j j j f h 5.A A A A A G G A V D D G D G A A A G A G G A G A f 3 x j h G l.A h x j f A w.h f k k k k f j ,.7.D D t.5.j f k k k p u f x 4.j z M x A F.E.w.x x A h B t.D t.7.G G D t.D 7._ _ _ D D _ _ A A G G G G 7.x f x m f x 5.s.v z x x x E.5.j l n z z k z A F.t.D G w.6.x k k k k k z ,.e.x j x j v w.4.x j x f g A G A A A A A A N j h h h x B B j j B A B j B B f 1 r k f f x M x f r < 1 j j 1 r r d d r a f x x j B A x f f f z z k f x 5.x f f g g j D A 4 4 h g g x j c A A B j x x A c x x x x A B c G A A A A j ",
"h A h g A w.x g x x h 5.t.j f k f k f j 5.t.7.D D D t.A f k k k k k x s.5.j ,.x f x 9.A f x m f h A t.D F _ G D G _ G G D A A G A G A A D D A D A j 4 j x 3 g A j 1 f k f j ,.h f k k k f f c G G D A A G c f u d d d a f A x 3 f f : g v j f f f r f A A c A G D A A G D A j h j A A A A A x x x x v f f h f f j c h f h f f v 5.j f d k d d z ,.5.G A A A G A f d k f f f j ,.x f x j f j ,.x z j x f x 5.G D D G G G G G D G G j j V G G 7.D _ _ _ t.s.x x <.x f x 5.x f j x g c 7.j f k k k f x s.t.t.D D G t.A j f k k k k j 5.A g x j f z 4.v f f x f j 7.w.G w.A c A G G G D D A A A G A A A 7.G A G 5.x h M ,.j h B ,.j h x z f A 6.z f k k k f x 5.w.G G G G 5.j d k k k f k x 4.x k m x f j 4.x f j x h x 5.5.7.G A G G t.A A G G G 7.G A G G A A _ G G G A g f x h g A 5.h f x x f 5.W.x f k k k f z A t.t._ _ _ 7.5.j f k k k k f ,.4.x j 4.v x A 5.x h x x h A t._ t.G A G t.t.t.t.t._ _ _ _ _ _ A A G t.D G t.A f x m k k ,.6.z z M x x J.e.x x m z z j 5.F.F.l._ _ t.s.6.j f k k k z 5.s.x j x f x 4.4.z z v j f A G A B A A A A G A A x j x A 5.A A A j B A A j f < r k f r k x f 1 d r r x v f r u d a f j A c B B B j A x f f z z k k x ,.x k x f 2 g A N 4 g j h j B x x A B x A c x x g f x A c x B A A A A A A j ",
"g x h f h j z f x x h A w.h f k f f j 5.t.t.D D G _ D t.G z k k k k x s.5.j M x f f k f f x x f j A G G _ D _ _ D G D G D G A A G D A D A D D V A j f h j f 3 f f 1 f f 1 f A f f k k d f x G D D G A A A A x f 1 r u 1 f A j 1 a f 1 a h a 1 f f 1 f A A A j j A A A A D A j j B B A A c x x x c c x g 3 h f a f f a r z f f x A j u d u a h ,.A A A A c A A A x f r d d a j 5.x f j x f f z k f z x f j 5.G G G A G G c c c A A N j A D D D D t.D t.t.5.x j ,.x f f x l f x j g A 7.j f k k f j 5.t.D D _ 7.D D 7.A f f k k k h G A g x x f f x k f k j f h G G G G A A V D D D D D D D D G G A A A G G A A x j x M j f k k f j x f h A A f d k k f x 5.5.w.w.G G G 5.,.j f d k f d x 4.x k m x f f z k d j x f h G G 7.G G A G A A G D D D G G A A A G G A w.t.A x f f x j f h j f f x x f A s.j f k f f z 5.7.t.t.D D G D 7.5.k u p d u f ,.4.x j 4.m z z x z j x x h x 7.t.5.A A G G G _ _ t.D D _ _ D G G A A 7.D 7.7.A f j x x k k z k x M x x s.5.j x x k z 5.F.F.l.F.t.t.w.7.s.,.k k k k z ,.5.x j x f k m x f k x k f B <.B j N A A G A A A B j x A G G G A A B B h f f r r d d r r r r d k r 1 j x f u u r r j A B j x x j B A A x h f z z f x 4.x f x x i r f f 1 f h g x A j j j B x j c A j g h A A x x j j x A A A x j ",
"h v h f f f f k x x h A t.x k k f j A t.t.t.G A A t._ _ t.5.j k k k x s.4.j M M k k k k k m m j j 6.G D D _ _ _ G D D G G G G G G D A D D D D D A j f k j f a a r r f f f f x f f k k f x 5._ D G A B B A A A x 3 r d 1 4 c j 1 f f d a a r 1 d f 1 f A A j j c j A A A D D A A A B A A c c A 5.A A v g f f f f f f f f f f f x A f a d d f v A A A A x h A <.A 5.x f u f f j 5.x f x x f k k d d z j f j 5.A A A A A G A c c A G A A G D D D _ t.t.t.D 5.A x ,.x k k k k j x x h A t.j f k k j A 7.7.7.D A A D D D 7.A f f k k h G A g x x f k k f f z j f j G G A G G A A D D _ D D G G G _ _ G A A w.K A A v j v ,.j k k k k j x z f A A f f k k j 5.t.w.e.A j x 7.5.5.,.j f k k k x 4.x k m x f f k f f x x f j 7.G A G A A G G G D G G D G G G A A G G A G G A x g f x k f f f f k m x f 5.s.x f f f z A t.t.t.7.A N G t.7.t.,.f u k k f ,.4.x x 4.M z z z z j x m z x t.t.G G 5.w.G _ F _ l.t.t.t._ _ t.G G G A G t.7.,.f x x z k k k k x M x x I.4.j x k x ,.F.F.J.J.t.6.G t.t.t.s.,.z k k z ,.s.x x x z k x z k z x l f j x j j A G G G G A A A B A A A j B A G 5.B f f k k u k k r r e e u k f r z x f u u f z A c c A x h f x A A 5.x k k z k x 4.x k m x f r f f f f h f x A A A A 5.G c A A A c A 5.5.A c x x A 5.A A B j ",
"h x k a k f f f x j f A 5.h f k j 5.7.t.t.w.x f j ,.t.t.t.t.,.z f k x s.5.j x x k k k k k x m l j A G G G G D D G D G G G G A G D A V N D G D D A h f z z a r a r r a f 1 f h f f d f j G G D _ A f 4 h A A A A j 3 1 r 4 x h 1 f f a a r r 1 r r 1 f B A V V j V A A A A G A A A A A c A A A A A A c g a f f r r a a 1 f f a j x f r r f x c c A A x r 1 f <.A A <.j f r f j 6.j f z k d d d u d f z f h A B A c c A A A j c A A A D D G G A D w.5.G G 5.x h ,.x k k k k k j x g x 5.h f f j A D D D G B f f x D _ D G c f d f h A c g x j f k d d f k x f h A A A D A D D D D D G D D G G _ G G A A A G G G x h x m k k k k k k x f f v c f f k x A G G w.,.k d f x 5.G G ,.z f f k x 4.x f x x f u k d f x x f j 5.G G A A A A G t.G G A A A A G A A A A A A c c x g f x k a d f f f z z f ,.e.x f f z 6.w.t.t.7.x f f h A G D 7.<.f r u f ,.9.x j 6.x k z z z z x m f h 5.G G t.7.G G D D _ _ t._ D G G D G G G A A A 5.,.f x m k d k k k x M x x s.6.z k z ,.s.t.t.F.e.x f j A s.t.7.5.x f k k A w.x j m z k k k k k j k f h B j B G G A A G A A A c j A A x j B c 5.5.j f k d u k d e e u e e k f 1 k j r r r f x x j x x f r 1 f x A A A x z k k x 6.x f x x u r d f f f f f h B A 5.w.A c x B A A A A A A A A x x c A A x x x ",
"j m k f d k f f x x f A 6.h f x 5.s.t.t.e.A k k k j 5.7.G t.t.6.k f x I.s.x x x k k n k k x m l j ,.t.D G D D _ _ _ D t.G G A G D D A A D G D D G j f z z a r a a r f f f f j g a a f G D D D A h 1 1 f j c A D A j 1 1 4 A x f f k a r r r 1 < r 1 1 x A A A G D A N V A A G A A A A A G D A A A A A j a f f r r a a r f f f x x 3 1 f x v c B A j r r r r j <.A A 5.j f r h 6.x f x k u a d a d k z f h c B A A A G G A c A A A A D D G D K A G A G 7.s.c j x x k k k k k j x f x 5.f f h B 7.D D D B f r f f c G D D 7.x f f h 6.A h x x f k d d k z x f j A G D G D G _ G D G G D D G _ G D G G A A A G 5.A j x m k k k k k k x z h A v f r f ,.7.7.5.M k u k k k ,.6.A G A j f f x 4.x j x x k u k k k x x f j 5.G G G G G G D G t.7.D D D G G G G G D A A c c A f f x k f f k f f z z z 6.w.h f h A w.t.t.t.A f r d f j 5.D t.t.A f r f 6.s.x x ,.m z z z z z x M z x 5.5.t.F.t.D G _ l.l.t.t.D _ G G D G _ D D G A 5.,.k x m k k k k k x M x c I.,.f k x t.J.l.F.4.j k k k x 5.7.7.7.5.x f f A s.A j m j k z k k z m l f B 5.A A G G G D A A B A A A G G A A x A 5.A x x x f u k k e r u q e k f a j z 1 < f j x j x x f 1 r r r h A A A 4.v k k x 4.m z ,.x d u f k f f h f B 7.5.A A x j x A 7.G A A A A B A A A x B B v A x ",
"z x f d d k f f j x g A A 4 j A t.t.t.7.,.f k k k k j ,.t._ t.t.A h x s.w.h A x k k k k k m m k j w.G G _ _ D D _ _ _ G G A G G F D A A A G _ G A j a f h 1 r a r 1 f f f f x f 1 f A G A A B f a d d a a h A V V c g 1 4 c c 3 f f r a d r r r 1 ; 1 x c c A G A j j N j j A D A A A G G G A B j B ,.k r f f 1 a r r r f f a z h 4 f j x x A A j r r u u r r f A A A A h 1 f x x a z k u a u r u k x f g A B A G D G G A x c A A c A D G G D D G A G G 5.x g j x k k k k k j j f x A f f A D D G G B f r a f a f x D G G A j f g A A g x x f f k d d z z f h A G D G G G G G D D G D D D D D D D G G A A A 6.v h j x k k k p k k j f f A x f f x 5.G 7.,.f u d k k u k A 5.G G A h f j 4.A f x x d k k d k x x f j 5.A A G G G D D G t.7.D D G G G G G A A G A A A x g f x k r k k f f z j f A 5.j j A t.D t.t.,.k f k d d a z A K G 7.A f f ,.w.x j M z k k k k k m M z x w.t.t.t.t.D G _ _ l._ D t.t.G A G D G D t.G G 5.M f k m k k d k k z M j x s.A h x s.l.l.F.4.x k k n k k x 5.7.G 5.5.x h A s.A j m z k k k k k x k f x 5.A A A A G A B B B j B A A A A A A x x x x j x k u k u r u e q e k f r f f 1 ; f h h h j a 1 r a a r a f A A A 5.x h x 4.x f x z r d k u f f f g B 5.A x j j h g x A A A B B A B A B A x j j x x x ",
"x M k f d k k f x x f A A j A t.t.t.t.A k k z k k k k j G t._ t.n.A x t.w.j A ,.k k k k k m m k x s.t.t.t._ _ _ _ _ G G D D G D F D D A A G G t.w.x f z z a r d a r f l f f x g f j G D A B f u f f d d d r h N j N j g 4 A c 4 f f r f d r r d d 1 f A A A c j j 4 j A j j N A c j A G G G A B A A ,.j r f f 1 r r r r f h f h x h j c N A A x f r u r r d u d j A A A A h g A x f z z r a d u u k x f h G G G G G _ D A x x A A A D D t.G G _ D D t.7.5.x f j x k k k k k x x h x c h x 7.D D G c f i f f a f f f A G G G A j h G A g x x f f k d d z z f j A A A G G G A V N V _ W Z D D G G G G G G G D 5.6.j j x k k k k p f x f f A x f j 5.5.7.,.k u d k u k k u l A G G 5.A h x e.6.h x z k k k k k x x f j 5.G K A A G D D t.t.D G G D G A A A A A G A A G A f f x k f k k f k x x j A 5.c G _ _ _ t.A j k k k d f u d j 5.D D t.A x <.w.x j M m k n n k z m M j c s.I.t.t.t.t.B.B.B.B.t._ t.l.t.G t.t._ _ t.t.7.w.4.z x m k k k k k x M x x s.w.A t.J.l.F.4.x k k k k k k k x 5.G G 7.5.A A s.A j m x k z k k k x k f B A A G G A B A A A B x B A 5.A A A x h h x c A v k u k u r u r e r z h 3 j x f f j j h j f r r d a r a a a h A 5.5.w.A A 4.v f j j r d d d f k j f B x h x x x x h x c A A B B B A A A A A c A A x x ",
"h ,.z f k f f f x x g x G A _ _ t.t.,.j k k k k k k k k h 5.l.t.-.t.D t.G j A 6.x k k k k x >.h j 5.t._ D G D _ _ G D _ G G D D F F A G D A A A G h f j x f r u r 1 f f 1 f j j N A A A j f d k d f j f r r 1 g j j N j j x x 4 f f r r r r r a f 1 f x x A j j j j j j j j j c j j j B A x j j c A x f 1 f z r 1 r r r j h 3 j A j N j V A x f u r u k f r u u r j A A G A A A x f z z u r u u f z x f g G G G D A A A A A A B j c G G G D D D G D G G 5.x f j x k k k k k M c g c A A G G D G c f a f f f f f a f g B A A G G A G A h x x f f k d a k j a j <.A A A A V V A V V D D D D D D D D G G G K K w.A h j ,.x k k p u k x f f x x j A G G 4.l k d u k k d u k k j 5.t.t.w.G A 5.A h j j f k k k k x x a j 6.G G A A A A K D G A A G G G A A A A A x A A A A h f x x f d k f k m x f A G D _ D _ t.A f f k k k j f u k f j 5.t.t.l.7.5.5.x j M m k k k k z 6.,.f x t.D w.w.t.t.t.J.J.l.D _ t.t.t.t.t.t.w.t.t.t.G w.4.j j M z d d d k m ,.j x e.w.w.l.l.F.s.m k k k k n k k k k j 5.7.D 7.7.G 5.x z x x k k k k k x k r x 5.A A A A B B v A ,.,.j h A A A x x h j x A ,.x r r k d e w u < d j f f h x h h h j x f r e e r z z 1 r d f h A w.5.w.w.5.x f j j d u d a f z f f j j h A A x h h j A B j j j B A A A A x A A A 5.x ",
"j e.x f k k f k ,.x g c K _ _ _ t.A k k k f k ,.,.z f k f j G l.B.B._ t.G j G s.m k n k j 4.9.l x 7.t.D D _ _ _ D D D G F _ _ D F D F D D G A c A j f x x f a d r r j j f g N V V A A j f r u u f x ,.z r r u f h A A N A c j f f x f r r r f k f f x A j j j x x c j j j j j A V V j j x j j x A A A h 1 f x f r d r f x j f h A V A V A j f 1 d u f ,.x f d u r r j A G G D G x f x x d r u r f x x f g A A A V D A A t.D G A c x A G G D D D G G G A A c f x 6.k k k k x 6.A h c K w._ G G x f a f r f A A f a f f f B G D D D D A h A v f k k d f x x f j 5.A A A A V D D D D D W D D D D D G G t.G A A G A j x 4.x k k k k x ,.k f c 5.G D G ,.x k k d u k m j u u k a j 5.t.l.l.t.5.v h B x f k k k k ,.x f x 5.A A A A A A G G G A A G G G G D G A A c x B A 5.h g x x f f k k j 4.x f A t._ D _ t.A f f k k k ,.5.j d u d a h 7.F.l.l.F.s.x x 4.M k k k k x T.,.j A 7.G w.t.t.F.t.J.J.l.t._ t.l.t.D t.t.t.w.t.t.5.5.4.x x R.x d k k z M 4.x x e.I.I.J.J.s.x k k k k x 4.m k k k k j 5.t.7.t.t.7.x j M x k k k d x 6.k i x 5.A A A A A B h g j x j h j A A A B x x A A A x f f m k w r u r f x z 4 h j j c j h a < < e r f x x z r a a a j 6.5.t.s.5.x f x ,.k d d d f x j f x A A G 5.A c j c A x j j A A B A A A A G A 5.5.x ",
"h 5.,.z f f f x 5.x f c K Z t.n.A z k f f f A K w.c f f f f j w.B.+._ l.G j G s.,.j k x A R.6.h x 5.A A A G G G D _ D G G D F _ G G D D D D A G A j f j A x a r r f x h 1 f A A V A B f r u r u j A A x f r u d f j A A j A h 4 h x f 1 r r f j f f z x j j j j j g j j j j N V A N j j j j j h j A A f 1 f x f 1 1 a j v g 3 j A N A A g 1 1 1 1 f x x B x f r u r a j A G A G j f z x k u r r f A x f g j j N A A D G D D D G A x A G D D D D G A A A A x g x A x k d k M 6.c g c t.G K w.x f r a i f x A A x h 1 f f g A t.D D D A g x 6.x f d d f ,.x a j A c c A A G A A D D D D F D D Z D D G D D V A A c f x 4.,.k f k m <.,.f f A K G 7.A z k u u u k x v v x f f k f x w.n.t.7.7.B h B ,.f f k f x 4.x a j 5.B c A A A A A D G A A A G G G A A G A x x j A A h g x ,.x f f k v 6.j g A l._ _ t.c f f f f k A 5.G A k i u u f x 7.t.t.F.s.x j T.4.x k k k M s.x f A 7.G A t.w.t.J.t.t.t._ D D t._ _ 7.t.K G A G 5.5.6.j x 4.6.k d k x 4.4.j x s.I.I.E.W.M k k k k x 5.s.4.x k k k f j 5.s.5.t.7.x j ,.,.z k k z m ,.k r j A A A B A A A x g h B A c x A A A x j x x A ,.x a r x x r e r d z j f 3 h B j j h r = > q > r h h x x f 1 1 a a z 5.5.G 5.j f x ,.k u r r j A l f x x A A A A j x A j B j B B A A x x c x A 5.5.A x ",
"j w.s.A f f x w.w.x f v w.t.w.A j k k k f A _ F D K c f f f f j w.J.l.B.w.j G J.s.x k x s.J.<.h x A A A D G G G D _ _ _ D _ _ _ _ G D D G D G G G x f x e.A f 1 f x A h 1 g A F A N f r r u f j A A V A x f u d d f x A A A x g h A x f 1 1 x A f 1 r h h j j j j g 4 g j j N A A N j N x x x h c A A f 1 f A x f 1 h A c f 1 j D A A h f 1 r f f j A N N A x f r r r d x A A 5.x f j ,.x d r f x A j f h x j A G A G G D D G G A A G G G D G G A A A A 5.x g x w.6.z u j 5.5.x 4 A t.t.G x f r f i f x G A A A c g f f f f A D D t.A h c w.6.h f f x 4.x f j x j x D G G A D D D D D D D D D D G G A A D _ t.A f x s.s.x f j 4.7.A j f A t.D 5.x d d u u k x A A A A x f f k f x w.t.t.t.B h <.s.x f d f ,.s.x a j ,.A A G w.G A A G G G A G G G G A A G A c x A A A j g A 5.A f f j 4.,.j g A J.l.7.A f f f k f A 7.G A G ,.j u k f f x s.F.J.s.v x R.R.,.k k m R.s.c f A t.t.7.7.G w.t.t.t.t.t._ D t.t.t.t.7.K G 5.5.A e.4.h x e.e.M f k ,.R.4.x x I.J.I.s.,.z z k k x 5.t.t.t.t.x f k k f x s.s.t.t.x j ,.4.x f f m 4.,.k d j x x A A A A A A A A 5.A A A B A A B x x x A A x f i x ,.f r u j x j f 3 h A B x f r < e r r f h j j x j f 1 1 d f x 5.5.e.x j x 4.x f r f A <.j j ,.x x j x x A A A B B x x x x j x x c j B c x x x ",
"h 5.t.A h g A w.G x f v t.t.v f k k f f A K F D Z A G x f k k f x t.J.t.A h A l.J.7.A 7.l.t.<.f x w.D G D D D _ D D _ _ D _ _ _ G D A A G G G A G x a j 6.5.x f h A A h 1 f B G B f , r r r j B N N N N j j f r u r f x A A j 4 g A A h 1 f x x f , 1 f f g h j j j 4 4 6 4 j c j j j j j j x c A j x j 1 f x c j h x c x 4 : h G A j 3 1 a r f x A N N N N B j r 1 u r f j A A x a j ,.x j f x A x j 3 f c j j B A A A G D A A x A A A A A G G G A A A A x f j G D A x A G A h 4 c 5.5.x f i i i f j A A A A N A j f 1 f f g A D t.A g x A A x f h A A x 3 f x j x G A A A A A Z D Z V D D A D D A A D G D 7.A f z G t.A h x 5.G A f f B 7.5.j u u u u f x A x c A A A x f k k f x 5.t.5.A f A F.7.x f x t.5.j a j A c A A D D A c A A A A A A A A A A x c c A x A A g f x G A j h c G A j f c 7.7.A f f f f f x 5.G A G G G A x f f f f M w.s.4.x j 4.E.9.x x 7.t.5.A g c t.F.s.7.D t.K _ t.t.t.7.D D t.t.t.G G G G G G 5.,.f z e.s.5.x x 5.5.5.h x s.I.I.,.k k k k x 5.t.D D D t.7.x f k k f x s.t.5.x z ,.s.5.x h A 5.c f r j B j j A A B B B B B B B B A A B B B x B A A c x r r j B j f j x h h f 1 f B A j 1 r e > 1 f h g 4 g g j j f 1 r r f x w.5.x h B 7.A j f f A A f f x h g j j B A x A x h j x x h h x x x x x j h j x ",
"h 6.7.D A A K K G x f ,.s.A k k k k f c _ Z W D D K w.5.x k k f k v t.J.A j A l.t.B.l.l.l.l.<.f x t.t.l._ D _ _ _ _ F _ _ _ _ _ D D D G G t.G G w.x f x A G 5.A A A A x 1 f A A h 1 r r r f B A N N N N N x j f u r r k v A x f g A A c h j A B f , i j f g j j V A j j g 4 g j j j j j h h j h c A A z 1 f x B A A A j j 4 1 j B j f r d f f x A A N N A B A <.j r u u u f x A x a j ,.v c x x A B j a j 5.A j j j A G A A G A x c A A j A 5.G G G A c A x f x A G t.G A A A h f v 6.x f f f r f x G D A A V V A A x f a 1 f h A t.c g x A G G B B A G x 3 f x x A G G D D A A D D D D D F G D A D G G G G 7.A f j G t.5.A A G G A j f B 5.x f u u u k x ,.A A A A A G 6.j f k k k x w.s.A h B t.t.7.A G w.5.x f x A A A D D D c c c A A A A A B j A A c A A A A A A g f A G G A A A A A g g A 5.A f i k k k x 5.5.G G G G A 5.,.j f k k z x s.R.x j 4.F.J.s.s.F.t.t.A f c t.J.F.F.J.t._ t.t.l.t.t.D D t.t.t.7.t.n.w.G A 5.,.f z 5.5.5.G G G G 6.h x R.W.6.z k k k x 5.F.t._ +.D D t.7.x k k k k ,.s.e.x j A t.t.w.6.G G A f f B A x B x A B j N A B B B B A A B A A x j B B A x r 1 j x j B A B h h f 1 j x j f r r r r f x x g 1 4 h x A x a 1 r f f x ,.j h A G A A x x A j f a j f f h B A A c A j j j B B x A A v A A x j j x x ",
"g A G D G G D D G h g A 4.j f k k f x w.K K Z D D K A 5.4.x f k k f A t.A g A t._ _ l._ D l.A f j 5.D D D W F _ _ W F F _ _ _ F D G D G D G D D G c f h A G G A A A A j 1 f A h i r r 1 f B N j j j j N j j x h a u u d z v j 1 g c A V V A N j f , i j f g 4 4 j j j j g 4 4 j j j h g 4 4 g h x x x h 1 f j h c A c j h 4 1 h h 1 1 r r 1 h A B j j j j B B B x f r r u r f ,.j 1 f x x j B j j B j 1 h A A A j h x A A A A B j j x j j c A A A j j x c h 1 h A A D A c c v g 4 x v f a f i f h A D A A N N N V A A x f 1 d f x w.x g x c A A A B A G j r z B c A A G A A D D A D D Z F D G A A A D G D D A B f j G K D _ G G G x f f x x k r u u f x A A c A c c A A A ,.j d d d k 6.s.A h B 7.G t.D G G 5.h f j A G D D A A D G x j x v A A B B B B B B x A A c x g f x A A A G A A x g 1 B A h f k d f x 5.G G A A A G A A 5.A z k k k z 4.4.j l 4.t.B.F.J.t.t.7.x g c 7.t.l.F.l.t._ t.l.t.t.G G w.t.w.K K K t.t.5.A 5.,.f f A 5.7.G G A A A z x R.R.x k m k j 7.l.t._ _ _ D _ t.7.4.x k k k x 4.s.x f A G G G A A A A f f x ,.B A x j j B c x x x x A A B A A B j h h j x j 1 r j j j N B x h f r 1 z x r 1 r < < f x h h g 1 4 h j j x x 1 ; 1 r f j f 1 j G A A c B B B f 1 f j f g j B A A x j j h j x B B B A A x z z h h j ",
"g A G G D D F D K x f ,.4.k f k f x 7.D Z K K K K D G 5.w.6.j k k f x w.5.h A t.t._ t.t._ J.<.f j 5.D D D W D D Z Z F _ _ _ _ D G _ _ D G D D G 5.A f h G G D D A A A j 4 g B g 1 r r f B A N N j j j N N j N x k f k d f ,.x f f A A A D V V j f 1 f j h h 4 3 4 4 4 4 4 4 g j j j h f 4 4 h A A x x h r z x j j j x x x h f x x 3 r r f f c A A B B j B A A B ,.,.k u u r r x j 1 j x v j B B B B j 1 h c A G A j j A G A 5.A j x x x c c A c x j x c v h a h A A A V c c A h f ,.x k f r r f A D A A A N N V A V A G x a r a j ,.j g x c A A G A A G j f j A A c A G G A G D A D A D F D G A j A G D D G A A z j G K D G G G G A j f ,.x k r u k x A A A A A A A G G G 5.,.k k k k m R.A h B w.K G D G G 5.x f x G G D D A D G G G A j x B A A A A A A A A G A A A j f x A A A A A A A h f ,.,.f f k f j 6.G G G G A G G 7.7.w.5.,.x k z z ,.R.x j 4.l.B.t.l.t.t.t.A f A 7.7.l.l.t.l.l.B.l.t.t.t.G t.K t.t.G A A G A A 5.4.f h A D D G K A A 5.x M W.4.x m m x s.F.l.l._ _ _ _ t.t.t.s.5.x k k x 4.e.x h A G A A A A A ,.k k x A A A x h x G A A c x A ,.A A A 5.A B j x A x x r r j j j B B j h j f r x z r r r u f x c j j x g f x x j A x f 1 1 r f x x 1 h G A B A B A A j f x x x h j B A A x A A j j x A A A x j h z j x j x ",
"g A A D D D D G G j g ,.4.k d f x G K D D D G G A A G G G 5.6.z f f x 5.A h A t._ _ t._ _ t.A f j A G D Z D W F F F F F D _ _ _ _ D _ +.D D G G w.A g j G A G G A A A h 1 f x f 1 1 f B A j N N j j N j N j j x x f u f f x x f f c A V V V j j f 1 f x g g g 2 4 4 4 4 4 4 f g j c c x h h c A B x h f r f x h j x j j v f 3 x x 1 1 r f A c j B A x g j c A B A A x f r r a x j 1 h v x c j j x x j 1 g x j x A A A A G w.A x j j j A c c v h h j c x x x f h A A c j j c c g f x x f a 1 f A G A A V A A A A V V V A A h 1 r f ,.x f x A A A A A A <.j 1 f A A c A A G G G G A V G D D A j j A G D A A A A A z z A G G G G G A A k f v x u r f x A A A G A c c A G G A G 5.A k f k x 4.A h x G A G G G 5.5.x f x G A D D A A A G G D j j c x x A A A A G G A c A A h g x A V A A N A A f f ,.v f f f k ,.G D G G A G A A 7.7.5.5.4.,.z z z M e.x j 5.t.t.t.t.t.t.5.x g x 7.7.w.t.t.t.t.t.t.t.G G 5.w.t._ K K A A A 5.G G ,.f h 5.G G D G G G 5.x M W.4.m m m s.J.J.t._ G D _ t.D t.D G G ,.j k x ,.5.x j A A G A c A A A k a x ,.B B B x B A 5.A j B c x A A v v A A A <.5.m j r 1 k x j N j g h j 1 r x f 1 r r k x j g h x h h h g j c x h h f , , f m x f h A B A j B A A j f x A x B j h j c A A x j h j x x c h f h j j h x x ",
"h G A D D D D _ t.x j 4.6.f f x G _ Z Z W D A A D D D G G w.t.,.z f x s.5.j A t.t._ _ _ t.l.A f j 6.D D D _ W _ _ +._ _ _ l._ _ _ _ _ _ D G G 5.w.v g x 5.A G G A A A j 4 f A f 1 f A A V V V V V N N j N N N A A x f f f A v f g c V V V N j j f 1 f h g h h f g h j g g 4 4 4 g h g f g c A x x h j z a z A h j x j c x f a x x 1 1 j x A x j x j x j g j j B c c A j u 1 f M x f j v c A j j A A j 1 f x j A A A j j c A B A x j x x A A v h g v A x x x f j A c c c c c A f f m x f f h A G D D D V j j A A V A A A A G j 1 f A v g x A A G A A A A j r f A A c B x A G G G j j A A A D c c G t._ A A A A A z j G K G G D G 5.5.j f ,.x u d x A A D G A c c c A G G G G t.t.,.k f M R.A j ,.t.G 5.G G w.s.x f x G G D D G A D G D A c A G A c A G G G K K A j c A j g A A V A A A A A f f ,.A f 1 x ,.5.G G G D G G A G 7.5.5.5.t.5.x f h 4.R.v x s.t._ t.t.t.t.s.A f c 7.D w.t.l.t.t.l.l.t.t.t.5.w.t._ n.n.w.G A G K 5.,.f x s.7.G 7.7.t.t.4.x ,.E.4.z M E.J.B.B.B.t.A D _ w.w.t.G K K s.,.k k ,.4.x j A G G D A A G 6.k f j x B A A A B B c j B A A A A x j j B A A A x k f f r k x j B B g h j f f x j r d x M A j g g g h j h f h g h j x x f 1 f x x k B A B A A B A A j f x ,.A A B j j j A A A A j x x A x h j x x j x M x ",
"g A G D D D _ t.5.x f 4.5.h x t._ Z F Z D D A A A D G G G A G 5.x f x t.A h B K t.t._ t._ t.,.f h A G D D D F _ _ _ _ _ _ _ _ _ G _ _ D D _ D G K c f j G A A A A A A h f g B j 4 x A j N V N N V N N N j N N N V A h f g v x f f j N V V j j j f 1 1 h g g g g 4 g j j j j g g g 4 3 4 h x c h g f h f r f j h g j j x z 3 3 j x 4 g x x j j j h h B j f h j c B x j j j 4 f x j a j x x j j B A A j 1 f j j x c j h g h h x x x x j j A 5.x h h j x x x h f z c j h j j A A f f x j g h A G A V V A V A N j j N V A V A G A f g A x f j A A A A A A x f r f x A G A B j c G A j j j A A j c A G D A A c c A c z h A K D D D G G A k f v x g x G A A D A A x j A A A A A G G 7.7.x f x s.A j x 5.G G G K w.6.x f j A A D D A D D D A j A G G G G A A G G G A x c A v h f x A A V N A A j f g x A j j 5.7.A D G G D G G G G G A A G G 5.A h h 5.s.x x w.t.t.D t._ t.7.B f c 7.D G w.w.t.t._ l.t.w.t.t.t.D t.t.t.w.A A G w.w.A f j 4.7.D G G 7.7.4.x M W.4.,.s.E.B.+.l.l.D D G G _ D G G D t.t.w.x f x 5.x f v K G D G G A x k a h x x x A A A A h g x A A B x x j j x c A A h f k d r f f h h h j B j r r x j 3 f x x j h g g h g g h h g g f f h h j f f x j f A 7.N B A A G A z f j A A B A x j j A A G x f j A c j x A j j x m x j ",
"h A A G D G _ K G x h ,.5.A G _ Z Z F F D D D D D Z _ K G K _ _ 5.A G t.G j A G D _ _ t.G A x f x 7.D _ _ D F W _ _ _ _ _ _ _ _ _ _ D D G _ _ _ w.A f z A A A A G A x f f g B A j A A N N V N V N j j j N A A V A D A j j x x f 4 g j V V V j g 1 1 g x h j j j g g j j 6 6 j c j g g h x j j j h h x f 1 a g h j j A x f r f x c x x A c j j j x A A B x x A A A x x B c j x A h 3 f h c c A B G A f r g x A A A x j x x x A x A A x x A A v A 6.c x x c h f h A A x j A A j g f x x x G A D D F D A D G A N A A j A D A A A B c A x f j c A G A A A j f f j A G G 7.G A A G G A c A A A x c A D A A c c x A c z j A A G D D t.A c k k A A A w.D A D D G G A A G G A G G K G t.t.5.x A R.A j x w.5.G K w.5.v z f x 5.G D G D D D G A A A G G G G A A G G A c c A A A h f j B A A A A N f f f c t.G G D D D D D A D G G G G A A G D G t.t.G A t.w.x x A 7.t.t.t.t.l.G x h A t.t.K w.w.t.t.n.t.t.K w.t.t.l.l.t.t.A A 5.w.w.w.,.f h ,.7.7.D t.7.5.4.x ,.s.s.t.J.l.+.B.l.t.l.l.t.t.t._ D D t.t.t.t.e.A A w.x h c 5.K G G w.A x k f x A A A A A G G A x B A A A A A x x x x 6.A x x x f u f f h x B x h f 1 f x ,.j x ,.v x x g x x g 4 f f f j z h h j x j x A j 1 h A A A A G A j f f x ,.A A A A A A A A G A j A G A x x B B A ,.,.x l ",
"g A j j K K A j A x h A G G _ F F F D D D D D D Z Z D Z K K G D G G D D A j A A c G t.A h x >.h x 7.D D _ D D D _ _ _ t._ _ _ _ _ G D G D D G G G v f z x j A G A x g f f f A A j V N V N j N N N N j j V N N V V V D A A A j 1 f g j V V V j 4 1 1 f x h h x j g 4 j j 6 6 j j j j j j j x j g f f k f 1 a f f x c j f f 3 f j x c j j N N j j c j B j h x B B c x x j j c B c f 1 f f f A A A x f f f f x c c x c c x x A x c c c c x x h j A A A A h h f a f f j A A x f f f f x A A A N V D W Z V V A A V N N V V A A N A D G A j f f x h c G A j f f f j 5.G A G G G A A A G A A B B x j A D D A A c c c x f j c j N t.t.B h j f f A A G G A A A G _ D A G A w.t.G A G t.G G 7.5.<.5.v f j v c w.K A j j j f h A t._ _ D G D D A A A A D G A A A A A x x A A A A g f j j j A G B g f h f A G D D A A D D A A A A A A G G G A G t.t.t.t.D t.G j h ,.x A F.J.w.c x x h A l._ D K G G t.t.w.A A K G 7.w.t.w.K A A w.w.5.w.,.f f v x c w.w.x x ,.x A t.J.J.l.t._ t.t.t._ _ t.t.G G t.t.t.t.t.t.w.5.w.5.x f j A w.n.t.A x x j f x A A A A A A A G A x B A A B A A x x A A A x x x f r k k f x 6.x f 1 1 r x B x A A A j g j j j h 4 g h h g f f f h j x B x f 1 g h x 5.5.x g f j f j ,.,.x x B A 5.G D G A A A A A x A A c A A j j f ",
"g A j 4 A w.h j w.A h 5.K D _ W F W W D D D D D Z Z Z Z K K D D G D F D A j A G j j G x h ,.9.j x 7.7.D _ _ G D G _ _ t._ +._ _ _ D G D G _ G G 7.A f j A h j 6.A g g x f g A A j A V N V N N N N N j N V N N A A V A V G G x f h x g j G c 4 4 h f f A x x j j j g j j 7 j j j j j g j j j j x x h z f r k h 3 h h h f x h f j A j j j j j j j c j x h h x B B A A A c A A A A h f x f 3 f j h f f x f f x j h j x A A A j A A A A A x h g h A A A A h h h f f f f x j f 1 j x f x A j j j V D F D D V V A A A A D A V j A D A A G j 1 h x g h A A g j x f j w.w.G G G A G A c A A A j j j c A G G A G A A A x f z v j j G A g h ,.j f A 5.G G A A A G t._ G G G G G G A A G G t.t.G 5.5.c f x x g A t.j g A ,.f j 5.G G _ D D D D G A A A G G A A G A x j c A A A A g f A x g j G x h A x f A D V D A D D D D D K A A A D t.t.G K t.t.G G _ l.5.j x 5.x x 5.I.A j A A h A B.l.t.l.t.w.t.t.5.G G w.G t.w.t.w.G G w.w.t.t.5.M f j ,.j h A A h c w.c v F.J.B.B.l._ t.l.l._ _ t.D G w.t.t.t.t.t.t.w.w.w.5.j j x x c w.A j x 5.x z A 5.G G A A G A A A B A A A A A A v A A A 5.,.x v k f m x f f j f f j j f j A B A A j g h A x x x f f j j f f 3 1 f h x A x f f x x f j x f f x x f x ,.j h j A A A 7.7.A A A A A x A A A A x x j x z ",
"g G A j j j h A w.c f A K Z D W Z W W F D D D Z D D _ K D A A A A D F D A g A t.A j h h B 7.<.h B 7.D t._ _ _ D D G _ _ _ _ +._ _ _ D D D D D G D B f j 5.x g h h h x x g g B A N N A N N N N N N N N j j V V N V N N A A A x 1 f x h g 4 4 4 j x 4 g x x h h h f g g g j 7 j j 6 6 4 g j j j A x g f a 1 f j f 4 f f f x f 3 h j g j c j j j g h x h h h h x A c x x x x j c A z a x x f 3 a 3 3 h x 1 3 x f h h h x A A A A x A A x f g h x h x x h f h f r k v h f f f h ,.x f j x x N j A V Z D A A V N N A A c c j c V A A A A h 1 h A h f f g j A x f j A A A A A A A A A x c G A N N G G D G G G A A A x a f A A h g h j <.<.f f A A G G G A B A A w.G A A A G G A G A K G G G 5.5.x f A 5.j j A j x A x f x 5.A A A G _ D D A A A V A A A G D A c j B A A A x f 1 x ,.g g h h B v h g x G A A D D V V D _ _ G A A D D G D t.D G G G D t.5.h j 4.,.h j A j B 7.A h c t.t.I.I.t.G G 5.7.7.G G D D w.w.G t.w.5.5.w.w.5.x f j R.5.j h x x 5.w.x x s.J.B.B.t._ _ t.t._ D G G G D _ _ _ _ t.G A A G 5.j j ,.A j x x j c 5.x f x G G G t.G A A A c B B B B A A B A A A A A A A x k f x ,.f r r f f x j 1 h A h x c g g g h x x h 3 f h j j g f f f f h x B f 2 x ,.f a f f j x k f j <.j j x x x x x A A B x j x B A B A c x x x x k ",
"h A A A j j G w.G A h 5._ K F F Z Z W _ D D D Z D _ _ _ D A A K D D D G A g A t.t.A h x 5.t.A h B 7.7._ t.t.t.D G G G _ _ t._ _ _ +._ D D D G D G j f j w.G h g h A A x g g A G V j N N B A V N N V A N N A A V N j N D D A x r f ,.v j 1 4 B A x f f x j h h x h f 4 g j j j j j g j j j A j g f f k f 1 f x x f 3 f x x f 3 g j j c c A D x g g j x x x j A A x g g h x j x A j a j ,.x f a f x j k 1 f x h x x h h x c c h h x x h f h x x j x h f f j k r f 6.v f f x c x x f x x A G A A D D D A A V N N j j j j c A c c A V A h 1 h ,.x f h h A 5.x f f v A A G A A A A A A A G G A G G G G G G G A A G x f f A 7.A h j 5.5.A f f A 5.G G A G A A A w.G G G G D G w.w.K G A G G 5.5.x z v s.A j j A 5.5.x f x s.A A A A G G G G G G D G A G G G G A c A A A A x f a x ,.c f h A 7.c h g c D A A D A A V D G G G A G G A G t.D G A G t.D 7.5.j j 4.4.A j x A t.7.A f c t.t.w.w.G G G 5.7.7.w.w.7.7.w.t.t.t.w.w.5.w.G 6.M f j 4.4.x x x 6.s.e.v A s.~.B.B.B.t.t._ _ l.D G G D _ D _ l.t.t.G A G 7.5.j j 4.5.x h x 6.w.A j f A G A D 7.G A A A A G A B A A A A 5.5.6.A A A A A j f x ,.x k k x x j f 4 g x x x j h x h h j c x f f z j j x v x h h j B B f f x 5.M f h x A x k f j A B A A A A A j x A A ,.x x A A x x c B A ,.x k ",
"h v x A G K G c A A h 5.K D _ _ Z Z D F _ D V Z D D D D D D D D D D D G c g x B j G G G G B x f B 7.t.t._ _ D D G G K t.A A _ _ _ F _ _ _ D D D G x g j A A A A G A j j g g A A A A j j j j A A V j N N A V V j j N A A D D h a g j B B j c A j h 4 f x j x x j h g g g h f f f j j g g h h g 1 1 r f f 1 f f x j g x ,.x 3 1 h c V j j j A G A j g x B N B A x h g h j h h j x f 1 f j j x j j x f f 1 a x j j x x j g h h h f r f j z h h j x f f f f f j r r f j j x x f f j g x A B A A A A D c j j c c N j j j V A A A x j j B j 1 f x j c 5.A B A x a f A c x A A A A A B A 5.x h A G A A G A A B A A A x f f x A <.A A A A v k h A K A A A A G G A A G G G G G _ n.t.K A A G A A A x f x A A A A 5.G B x f x 5.G G A A G D D D G G c x A K G G A A A A A A A B f f j j x A A G A x h g A G A A A A A V V A A c c A K G G G G A A G t.K w.6.h l x A 5.A A 7.s.A B h A s.t.t.G G 5.D 7.5.7.w.A x 4.s.5.D t.K K G G A 5.m f j ,.x 6.s.5.5.,.6.x x E.I.I.J.t.t._ D _ D G G D D G G D w.G A A A G G G j f ,.s.G A 5.s.5.x f f x A v A A A A A c A 5.x f x 5.A A 6.G A x x c x A j f k x x x M x h f f 1 g x h j A j j g g B A h f f f j h j x x x x j x j f r f j j x ,.A h j k 1 h 5.A A A G A B x h j A x x B B A A x h B B A ,.j ",
"z M h h G t.A h c A j A _ D _ _ W Z D D D Z D Z D D D D D G D G _ _ D _ c h x h g B 7.7.x f x j B 7.t._ _ G D _ K w.w.A j h A _ _ _ _ F F D D D G c g x x j c w.G j 6 j j j A G G D A B c c A N N j N A V Z V V N D D A D A j f f f f x A A x g g g f x A A A x c x h h j r < r h h h h h g f f f f j f r a r f x A ,.j g a 1 j A j j c c A A j j j j x A A A x h A A x x x x j f r f f f j 6.A x f f 1 f A c x j x h h h h x f < r z x j j j h f f j g j j f a a f x A j f f x h A G A A A A A j j j j c A G N j G G A A A j j j B j f f z 4 x 5.A g j x f j 5.A x A A G G A A 5.,.f f j A A A A x j j N A G B f z j g j 5.5.x j A j h A K G K w.w.G t.G K K A A G t.t._ G A A A w.G G 6.x z j x x w.s.A j j x j x 7.G 7.G G G D D 7.G x f f x A K G A A G G G A A B g f x h g <.s.A h h x h A A A V A A D A V c A A A A G t.D A A A G l.t.K t.A h j x j A 5.I.7.A B ,.j A s.t.t.t.t.t.t.t.t.s.,.j k m 4.w.t.D G G G G G w.,.f x v j A I.s.A x M x ,.s.I.I.J.l.t._ _ l.t.G G t.D D D G c c A G K K D t.x f x A A t.W.A x x j f x A v x v A A A A 6.5.j i k 6.5.A 5.5.A c A A A 6.j f k z x 6.4.j a f f f j x j c A A A B B B x h f j f h v B j x x x x x j f r f f f x 5.h f j x f j 5.A A G A A A A x x j f j A B A A x x B B B A k ",
"h M f a j M j f x v j A _ _ F F W D D D D Z Z D D D D D D D K K K K _ G x f x x f j ,.x f h x j x G _ F G D G D G t.6.j h z j A _ _ D G D A A D G j g j x 4 f v x 4 4 j g g A D A A A A N N V N j j j N V V V V V A D D D A x f h z 3 f j h f f f f f x A A A A j h j j f r < e a f h g f a f j k f f 1 1 d r 1 a j k 1 r 3 1 f j j c A c h j j h j h j x x x j j B A B B j h j f r z f 1 f x j a r k r 1 x x j h j j g h x f r r r r k x j f f f f f x v f r k f a f z f f j j f x G A A A A c c j j A A A A V A D D D c j j N A B h f z f 1 f x h f j x f j A v c A A G A G 5.A h f f f j A A j j j j N A A A f j x f f x x f f x z h G w.t.G G G K G D _ G A G A G w.K A A K A A A G A j z x x f v 4.x f x M j j 5.G G G D G G G 7.A f f f f j A G A A D D D D A x f f x k r z m k f h j 4 c A j B A A D A V j c A A A A A A A c A t.t.t._ G A f j x k k M R.,.k x ,.j x F.t.t.t.t.D 7.t.t.5.x k k k x w.7.D G G A G G 5.,.f j x k j A ,.x j M M x s.F.t.l.l.t.t.t.B._ G G G D D _ D A A A 5.G G w.w.x f x k f M 6.j z x j f ,.A x x x A A v A ,.j f k k j ,.4.A A A A A w.s.,.f f z f f x x a 1 f f f f A A j j A G G A j g g f x x x A A B j j j j j j f f f f a k x f 1 j f 1 f A A A B A A x v ,.x d d f j x A j x j h x h j f ",
"z ,.z f f z f f x v h A K D _ _ D _ _ D Z Z Z D D D D D G G K K D D _ _ c f x x f k k k k j x j j G D D D D D D t.7.x z z z f j G _ G D D D D G K x g j x f f j z 4 g j g g A A c j A A A V j j j j j j V V V A D D D D A A x f z j r f j f 1 a f f f x A c A A N j j f r r r u r a f f f f f f f f f 1 ; d d r a f a 1 r f 1 g c c A A j g g g j h x h h h j j x j B A B j j j f f x k r r f f 1 f k r 1 x x x j x x x c x a r d r r f j x h f j j j c A h a k z d a d f f j j f x A G G A A A A A A A D D D A j j A V c c B B A A j f j k a r f f f j x f x A A A A A G G 5.,.j f k k k f x A A x B A A A G A h x m f f k k f k x k h A w.G G A A G w._ _ G G K G A G G K K K w.w.5.G A x j M x f j x k f x m j x 5.G G G D _ t._ A h f k z k k j A D D D D _ G A A g f x k d k z k f j j g A G V A D A G G A c c A A A A A K A A t.t.K K D D A h x ,.z k x m x f x ,.x A F.t.t.l.t.t.t.t.5.x l x z k j A G D K G G t.w.w.6.j x m j k z x x x ,.,.x s.F.l.l.t.t.t.t._ _ _ D D D _ _ _ G A G w.w.w.w.5.x f x k f j x f k M x j A 5.A v A 5.A A ,.j f f k k k x ,.5.A A c A 5.A M z k x z f k f a f f f f h A A A j j h j j j x h g f f h j j x B A x j j j f f j f f k k d f j j f j A c c x A A A ,.m f k k k f j c c A x x j h j j ",
"z M k d f f f k x x z A K D G _ W W _ D V V A D D D D D G K G D G G G G c f x j k k k k k x x l j A D D D D D t.t.x f f k k j h j A _ D D D G D G c f h j f f f f f g j g 4 j c j N N N c c j j N N j N j V V V A c A A A A x f f j a a f 1 1 f f f g c N j A B B x f r r r u r u r r 3 f f f 1 1 a f 1 1 r r r a d 1 1 f 1 1 f j j c j 4 4 g g g h j f r f j h j j j x x j j h k r k z r d r r r a k a 1 h f g x j h j j 1 1 u r 1 r 1 f z x x h h x x c h i k f d 1 r d f k j f j A A A c x A D D A A V A G A j j j j A c B N A A j f f f r d f f a k j f x G A A A A K 5.A h f k k k k f f x A G G D D D G A j x x k k k k f k x h f A w.D t.K G G G 7.D G G A K G A D _ G G w.w.K A A x j m x k k k k k x x j x G G D D A w.t.A f f k k f k k f x G G D D D D G A f f x k u k k k f k h 4 j A A A A A G A A A A A A A A A G 5.w.t.t.G D D G A h x m x k k z k z x m x A t.t.t.t.t.t.7.4.x k k k z x j j A w.K K G G _ t.A h j x f f k k k x ,.x x 5.s.t.t.t.t.w.G G D t.G G G D G G K D A A K K G G j f j k f k k k k x j h A A A A A A 5.,.z f f k f z x f f ,.<.B x x A A A j f z z k d d r f f f f j B j A A j 4 j j j h h 4 f g f f f f j x ,.x j j f f j f r k f a f f j f j A j c c x c ,.M f f k k k f f x A A x j f h j f ",
"j M k f k k k k x x z A w.D D D D D D D D D D G D D D D A A A G K K G t.A f v x f k k k k x m l j G G F D D t.G x h f k k k j h f j A _ G D G G G c g j z f f f f f g j g 4 j c A A A V A A j A V D V V V Z V V c j A G G G x f j x f f f a 1 f f f g x V V N j B h r 1 r u u u f d r r f z f 1 1 f x f 1 d d r d d r r f a 1 f h 4 j g g j h g g j j f , r j j j j j g j j j j k d z k r a r u d r k f 3 f g h x j j j f r u r u r r r r r j x x x j j A h f k k d r d d d k j f j A c c c j B A A G D V c A B j c A c A A A N N A j f j k d f k k f j x f j G A A w.w.G c h f k z z z z k f f x G D D D G D A j x m k k k k f k x h g A w.t.t.J.t.7.7.G t.t.A A w.G A D D t.G G G A w.5.x j ,.x k k k z z x v j x G G G G G G c h f f k f f z k j j x G K D D D _ A h f x k u d k k k k j g j A B N N B A A A A G G G A A A A 5.w.t.t.D D G G A j x m z k k k x x m m x v 7.7.t.t.t.t.5.x j x z k z z x j x A w.w.G G _ t.G j x x k f k k k x ,.x x 5.t.w.t.t.G A A t.t.t.G G D G D D D G G G A A A G x h x z k k k k k x x h A G A A G 5.A z d d k k z k l k f z x A x j c G 5.x k x x d d k d f z f g x G G K K A j j A c x x f f l f f f j j x ,.x j x j f j k d f d f f k x j x A A A A A x x k f k k k k k f k x A A j f h j j ",
"j M k u d k f f x x h v K G D D D D D D D D D D D D D D A A D D G D D G c f x j k k k k k j x f h G D D D D A h h k k f f z k f j f h A _ D A D G j f j j f f f f a g j g 4 j A c c A A V A A N N V V V V V A A j j c A G G x f f j a a f a r a f f g A V j A A j r 1 u u r u f f r r 1 f x f 3 1 f h f 1 a r r r r r 1 f f 1 a g g j j j j h h j h h h f f l j B j g g j h h f f f k d r r u r r k k r 1 f f h h h x f 1 r d r 1 r u f r 1 1 h A c h h x f 1 f f r r r u d f f f f x c c j j j j A A D A j j j A G G A A A A j j j h f j f r u k k f x x f z A A A 5.t.A z f k k k k k k k k f f x 7.t.D D G A j x x k k k k f f x f h A K G t._ t.D G G t.K A A A G G A G D D G G G 5.5.x j ,.x k k k k z x x h x 7.G G G 5.x g f k k k k k k z j j h x G G A D _ G h f x k r u d d d k k 4 h A N N j j B j A A G D G A B c c A G G A A G D G A h j m k k k n k k x m k x 7.D D t.t.s.m j x l k k k k z x j j A t.t.G A K G g j x k k k k k z ,.x j 6.w.K K K G G G 7.G G t.G A A G G G G G A A A A A x f x z k k k k k x j g x A c A w.6.z r d d d f k k k k k d f x A j j c A j k x k d d d r a k f 4 j D _ K A B B j j j x j h l f f f h j h h j x h h f f k f r u d r i k k f j 5.A A A ,.j f f k k k k k k f f f j x B x h h j ",
"z ,.z d k k k f x x h A G G D D D D D D D D _ D G D D _ A A G D D D _ t.A h x x f k k k k x x f h A D G G x f f f k f f z k z j j f f h c K D G G j 4 j x f f f a 3 f j g 4 j A A c A A V V A V V V V V V V D A A G A A G G x f l x f a f r r f f 4 g A A N A x f r d f u u u k f f u r r f f f f g h f 1 d r r r r r 1 f f 1 f j c c j x g h x j h h h x j h x B j g h j x x j f r f f r r d r r k k a f j x j h j j r r r r r r r u r 1 1 1 f x A c j x g 1 k k d u r r d f f f f x A G G A j c A A D A j j N A A A G G N x B j N l f j z u d k k f j x f h A A K w.A z f k z z k k k k z z k k h x t.D D G G j x x k k k k f f x h h A w._ _ K K G G D G A A A K G G G D D G G D D 7.5.x j ,.m k z z k k x M h x 5.t.t.7.x f h z z j j j x j x x j j h x G t.K t.5.h f m k u u d u d k z f x G G G G A B A A A G G A B c B c x A A A A G D D A h j m k k k z k k x m j x t._ _ l.w.x j x x x z k k z x x x z j A t.K G K G h x x k k k k k z ,.x j A s.t.G G G t.7.D G G D G G G G G D G A A A A A A x z x k f k k k k x x f x A A w.6.j d d d k d d f k k k k k k j v A c A A h f j k f d d d a k f f h A A A c B A j h B j g f f f f x h j c x c A v h f f j f r u d u r f k f j 5.5.e.5.j f k z k k f f z k k k f f f x B x x j ",
"z ,.x d d k k f m v z A G D D G D G W W W D Z Z D D G G G G G D _ _ D D c g x x k k k k f j x f h A D G x f f l j k f k f f z j j f f f f A t.G G j 4 h x f a f d 1 f h 4 4 B A A A N A c j j j A j j c V A D V A A D A A A j f h x f r f u u f f 3 g A A A x f a u d k d d f d f f d r < 1 a f B x x a 1 r r < e r r 1 f f 1 f j j j c j h g g g h g f f f f f h g h g j B x x f 1 f f r r r r r f f 1 f A j x A j u < e r r r r r r r r < r 1 f A 5.A j f 1 f f r r u r r f f f f B j c A G A c c A A A c j j A j j j j j x j j B h f j z u u k k f j x f h A G w.6.j f k k z z x k k k z z z z z j c G t.7.A h j x l f k k f f x h g A G G t.D G G G G D G A A A G G _ w.A c G 5.G 5.w.x h ,.M k k k k k x M h x 5.w.t.A k k j j j j j x x x x x x x x h c w.t.n.5.h f m z u u d u u k z f x A A G G G A A A G A A A j c B A A A A A j A D G A f k x k k k k k f x x f x t.D t.t.x j j x j x x j z j x x z k k j v w.K D A j h x k k k k f j ,.j f 5.s.7.7.7.K K G G D G D G G G G G G G A A A A G 5.j f x f u k k f f v x g j v 6.6.x d k k f d f f f f k k k k k f z c A A A h f j k a d d d f h g 4 h j j j N B j j j j j g h j 1 1 j h j c A A A A x f f j f r u r r a z j f f A 5.5.x f k z k k z j j j f f f k f a f j ,.,.j ",
"j 4.x f k k k z M x h A G D _ G G G D W W D Z Z A Z D G _ D G D _ _ G G A g x ,.k k k k f M ,.f h 6.G x f f f l j j k k f z z z k k f f f h c G K j g j x f a f d a g j g g B A A A j j j c A V j j j c V N A D D A D A A A x f j x k u d f u k z f g A c h f f f k k k k k f f f k d < e r a f x A x a 1 f d < e r r r k f 1 h x j j j g 4 f g f g f 4 f f f g f j h h h j B x f r f k u r u r r z j 3 g A A A x f r r r r r u d r r d r u u r f h A c x f 1 f k a r u r r j j f j A A G A A A A A A V A A c c A B j j h x x x B A j f x x d u k k k x ,.f j 5.w.6.x f k k x z x x z z z z x j z x j h B 7.t.A h j 6.x f k k f x ,.h g G t.G D D D D G A G G G A G G G K K A c G w.G 5.e.v j ,.,.k k z k z ,.,.h x t.w.A j j j j j x j j x x x x x x x x x x x 5.s.4.j z m z d u d u d z x f c A A A A G G A A A A t.D A A A A 5.G G G c c G G A f z m x k k k k z M M h c t.t.t.x j x j x x x x x x x x x z z j j h v t.t.A j x ,.j k k k f v 4.j j 4.s.t.t.t.G K t.K G D G D G G G G A A A 5.A A A 5.j k x f u k k k z 6.x f x ,.x z k k k k k f k k f k k k k k k k f z A G A h g x j a k f r f A j 4 j A j j A A B B j j j h x x f 1 f x c x x B A 5.G j k x j u u u r k M x f j ,.x j k k j z z k z x x j f f f k k f a f j x j ",
"h 4.,.f d k k x 4.x h A G G G G G D D D Z Z W _ D V D G G G G G K K D G v g B 5.j k k f f 6.5.f g A A f f f f f k k k k k f k f f f f f f f g x G c f j v h a f f 3 h x 4 4 B A V c N j c A A j g g j c V j V j V V A A A G x f j ,.z u u d f j j f g x h f f k f d u d k k f f f f u u u d a a z j j 3 1 f f < < e 1 r j f 1 h j j j h g f f f f a f f g f g f g f h h f f h f f 1 f x f r r r r j j 1 4 A v j a r u u r e r u r a u u d d r a f f f f x j 1 k f r r r r f m j 1 f A w.G A j j c c V A A j j x N A B h h h j A A A h 1 j v f r d d f ,.m f B 5.5.v z k x z z z z k k k k l z j x j j j h A w.A h x 4.x f k k f ,.5.h f A G G G G G 5.A A G G G w.G D D G G G A A G G 5.5.x j ,.4.j k k k x 4.,.f j e.A j k j x j j x j x x j x x x j x x x x j x 4.5.h f ,.m k u d u k v h g A A A A A A A A A x c G 7.G A A A A A A A A c x G A g f ,.M k k k f x 4.x f j t.t.v j j z k k x x j x x x x z z z z j j h A w.5.h j 5.x f f k f ,.4.j f ,.w.t.w.G G 5.5.G A G G A G G G G A A A A A A x x k f x z d k k f x 5.x f x M f f f k f f k f f f k k k f f k k k k f h A 6.h f x x f f f f j <.j g j B N N N A G B j j A j g x x f f v c x h x A A A B h x x f r u f j A x g h ,.j f k j k k k k f f j j f f k f f f r r f j j ",
"x e.s.x f f k ,.e.x f v t.G G G D D D D Z Z D D D D G G D D D _ K G D G A h B 7.A f a f x w.A g h A x f k k f k k k k k f f z f f f f f f f f h A c g h A j a a f g B A 4 4 A A j c N A c j j g j h h j A A A V V V A A A A x f j 4.x f r r z A x f h x f f k k f d u d k d f k f f f k k d d f f h x f 1 z x a < < r f x f 1 j c j j h h h f f f 3 f f h j h f h f j h j f g j k r z ,.x a r r j x j f f x f r r d k u d u d u d f f d f a d f f a r f x j a z x f < , 1 x ,.j f f j j j j j c A c N A A j j x N A A B x h j x x A j 1 j 5.j r u f j 4.,.f A t.A x k x x k z z k f f f z z z j x j j j f h 6.5.x x R.4.z f f x s.w.h h A 5.G G t.t.A A A B A 7.w.G D D D G w.t.K G K w.w.v z ,.s.v k k z 6.R.,.h x s.A x x x x j j x x x x j x x x x x x x x x x 6.4.x h 4.e.x d d d x 5.h g c G A A A A A A A c A A D D A A A A A A A A x j c A f z 4.,.x k k z 6.s.A f c w.x x x x x z k k z x x x x x x x z x x x j x 5.5.j j t.w.x f f x 4.4.j f ,.5.G G A G 7.5.w.w.5.G G G G A A G 5.A A 5.A j f f f ,.,.f f k z A 5.h f x M f d f k f f k f f f k k k f k k k k k f f v 4.x j 6.,.f r r f ,.G h g h A A A A 7.A j j x A B j B A x x x h h h x A G 5.B h c 5.x r r f <.A j g x A j x j j x z k f f k j f f f f f f f f d f j x ",
"j 4.s.5.j f x w.w.x g ,.7.D D D D D D D Z Z _ D G G G _ _ K G G G A G G v g j 7.t.x f h A t.A g h A j f f k f k k k k k d a f k k f f f f f f f A c f h A c f 3 4 h A j 4 4 j A N j B B c j g j j j j j c A G A A A A A B x f r j ,.,.x f f B A x f f x f f k k d f u u f f f f k f f k f d d f a f j g 1 f c h 1 1 f x h 4 1 z x x j h f f f f f f f g f g g j h h h j j h h j f r f A x f f f x j j 1 g x d r k u u k k k u r d f f f d d f f f f f f j j a f x x g 1 g c A h 1 f f g g h x j j c x j c c j j j B B A B j f f h A j 1 h 5.,.f r f A 5.x f A w.x z x z z z z z z k k k k z z z k z x j h h A 5.j j 9.s.x f f 6.s.A h f A G A A G G A A A A A A A G G G A G G G w.G A A 5.x j ,.F.t.x k x s.s.A h x s.x x m x x x x x m x x j x x v v x x x x x x ,.e.x h 5.s.,.k f h ,.A g f x x A A G 5.G c c c c A G A A A A A A A A A A j h j f f A 7.A k f x w.5.x g x 5.j x m x x x k k z x x x x x x x m m m x x x A 5.h j 5.t.A g h A 7.5.k f ,.5.A A G G G 7.7.7.G A G G A B A G G G A A A j j f f A 7.A h g j G A f a x x f d d d f f d d f d f k k k d d k k u r d j ,.h f A 5.x a f x 5.A g 4 h B B A A A j j j B x B N j j A A j j j j h x A 5.j f c 5.A f f j G G h 4 x A j j x z x x k k f f k f f f f f f a f f f j x ",
"h 5.t.7.A A G t.5.x f ,.G G D D D G G W A Z _ D D D G G _ G G A A A G G c g x 7.t.D A A t.t.A g j 5.x f f f f k k k k f f f f f k f f f f f f h A c f h A A x f g A A j 4 1 j V A A B B A x j A A V A N c c A A A A A B B j f 1 f ,.6.A x j A A x g j ,.k k k k f k k f f f f k f f r d k k f d a h c g 4 f B B f g j x h 4 1 f f g j x h g f f f f h 4 g g h j g g j x h f f f f f f c A A ,.j j j j 1 f v k k k d d k k f u f f f k f f k f k f k k f j x f f c A c j j x B h f j j g h c B x j j j j c A x j j A A B A B f f x ,.x r h A 5.<.j x 5.5.x f A 4.x x m x x z z k z z z z z m x z z z x z k z A 5.j x 7.s.5.x A w.n.G j h A G 7.7.7.G A A 5.G A A A G t.G G G t.t.K A A A 4.,.j A t.J.s.,.5.s.s.A h M R.A x m x x x x m m x x x x x x x v x x ,.M x ,.e.x h 5.t.t.5.c A w.x g f x x x A G A x x x x A A G A G A A B B A A A A B h f f f ,.t.t.<.x A w.G x f v 4.x x m x x m x x x j x x x x x m m m m m x x 6.5.j j K _ _ A A t.D 5.j j 6.5.G G 7.5.G 7.7.5.A G D A c A G A G G G A A A x k f j D t.A j A K A 4 a v v f d d d f f d k k f k f k k k d d r e e d x ,.h f x 7.A x x A A A g f j A j h h j j B B B N B j j A A N A A A j j h A A j h c w.5.A x c G A j g B 5.x j z j x z z x z k k k f f f f f f f u k j x ",
"h 5.t.t.t.t.t.t.w.x g v G G D D A D _ G D D G G G D D D K G A A A A D G c g j G K _ D D D D A g j w.x f f f f k k k k k k f f f f k f f f f f g c c f h x A A j j A A j 1 1 g j j c c A c j c c j j c c j j j V A A B j B A l r f A A A A A A A h f j m k f f f f f f f f f f f f f f k f f f f f h x h 1 g j j B j j g g 1 ; a 1 3 f h h f 1 a g g f g g g j j g f j x f a a f f 1 g x c A A j j j j 1 f x f d r r d d a d k f f f j z f a f f f f f f x j f h j h x A j j x g f j x j g h x c j j j j c c j j B B B B A A x x A A x 1 f A A A A A A A j g A 5.x z m m z k k k z x z z z z k z k k z z k z A ,.j j 7.t.t.t.t._ D G h h A 5.w.w.5.G D G 7.7.G A A G G G A A G t.G A A A 4.m j x F.t.s.t.w.w.t.A f M s.,.x m x x x v x x x x x x x x x x x x M M v A w.x g 5.w.K w.t.G A A h 4 j A j x c j j j j h x A G A A A A x c A A A A A v j f f A A t.t.G G G G x f M 4.x z x x m m m x x x x x x x x x m x x x x x A 5.h h G F _ _ _ D G A f k 4.5.5.G G G w.A A A A G 7.A c A A K A A A A A x x j f h G D D A A V c f f x x f d f d a d d d k k d d k k d d r < q e a j v f f j A G G G A B B g f j B j h g h x c j A B j j B B B j N A A G x j x x j h v A G A A A A A h g A 5.j j z z z k z z z z k k d d f f f f f d f x x ",
"h A t.D D t.t.t.t.c f v G G _ D A A D _ G D D _ _ G D _ K K G G G G G G A g j G K F D D D t.A f x w.x f f k j j k k k k k k k f f k k f f f f g c c f g x A A A A A V j 3 3 j j j j x A j g g j j j j A A V j A G A B B A 7.x f f A A A A A A c h f j m f f k f f f k f f f f f f f k z f f f f f f x j 4 g B A A j x h f a 1 a a a f f h 3 1 f f g g h g g h g g g j x j f f h f : f A A j x j j B j 1 f j f u r u r r d d k k k f z j z k k k z f f f x j r f x j j j j j c h f z h j g g x A x j j A A c c A B B A B A A A A A A j r f A B A G A A 6.x f 5.5.x k z k k k k z m x z z z z m z k k k z x x ,.5.j j G t._ t._ F D G h j 5.s.5.A A A G D G 7.G A G G A G A A G 7.5.A A 5.6.,.j x t.t.t.t.K t.s.c h M 4.,.x m m m v x x x x x x x m x x x x m x v c A w.x g w.t.K G _ G G G j g x A x x A c c A A j j x A A c x x A A A G A A A A x f f A 5.7.G D D G G x f ,.4.x z z m m m m x x x x x x x x x m x x x x x 6.5.x h K _ W F _ D G 6.f k 4.5.5.w.5.w.G A x A G G 7.5.A A A K G G G A 5.A x j f j D A A A V V A g f x v f a k k d f k k k d d d d d d d e < e u f k x h f j A G G G A A B g f j A j h x B B x j A B j N B j j j j A G G c j x A x h v G A A A A A G h g <.4.x x x k k j x z z j k f d d k k f f k d d k x ",
"h A D _ _ F t.t.t.x f v G D G D G G G G D D G G G G G D _ _ t.t.D G G D c g x G G D G G _ t.A g j 5.x f f k z j z k f f k k k k f f d d d d r f x x 4 f c c V A D V c j 3 3 x c h j j j j 6 g j j j j V A A A A A c j x A A x f f A A V V V V V h f j x f a f f f f f f f f f f f f f f k h f f f h x j 4 h j j B j j h h 3 ; d h f 1 f g 4 1 1 4 g h f g f g f f f h c x h f f f 1 f B x j h h j j f 1 f j f r d r r u d k f k z z k k z z k z z k f f x h r z x j h j j j x f f f f j j j g j A j j A A A c x A A A B x B A B c A z 1 f j B A A A A A x f ,.4.x k k k z k k z z x z k k z n k k k k z l j 5.6.j x G w._ D G G K G h f 5.5.A A A A A G G A A A A A A c A A A A w.G A 5.4.m z v w.w.w.w.K t.w.c f v 4.x x x x x x x x x x M x x x v x x x x x x x A w.x g w.K D D D D G A j g x A A x x A G A G A j j A A x j x A A A A G A x A A f g A G G G G A G A j f m 4.j k n n m x x x x x x x x x x x x x x x j x A 5.h h K _ _ D D A G ,.k k m A G G 7.w.G A x A G G 5.7.G A G A G G G A A A A l f j A A c c c c A j f x A f a d k k k f k k d r d k k d r r r r r a z x f f x A A G A A A A g 2 j A B A A A x x x j j N j B N h h j A A j j x A c j h v A A A A A G A j f x 5.j z k k z z z k k k k f d u d d f f d r r k x ",
"x w.D D _ _ _ t.t.c f A t.D D _ G G A A A D G G G G G _ _ G G t._ D G t.A g c K G G G D t.t.A g j 5.x f f z k k z k f f k k k k f r r r k f a f x x f j A c V V A A c c 4 3 j c c A j c c j j A A c V V A G G A A j j A A A x f h A A V V V V A j f x x f f f a f f f a f f f f f f f f f f f f f h B h 4 j A j N B j B A f 1 f x f f f g f f 4 4 4 f f f g f f h f g j j x x h h f j x j j h j x x j 1 f j f f k k d u d f k k k k k k z z z f f f f f A h a x A j x j j A v g a f h A A j j j j x A A A A A x A A A x j B A A x A j r k x A A G A A 5.x f x 4.j k k k l l x n x m z k z m n k k k k k k j 5.5.j x w.t.D D D G K G j k 6.w.A A A A A G G A A A A A A A A A A 6.G G A G s.A j ,.w.w.w.K K t.t.A z M e.x x x x x x x x x x x m m x x x x x x x x x A t.c j w.t.Z D A K G A x g c G A j x G G A G A A A 7.A A A B x A A G A c j c A h h A A A G A A G A j f B ,.j k z z n x x x x x x x x x x x x x x x j x A 5.j j t.t.D G D D 7.,.f f x 5.G G t.t.w.A A A A G G A G 7.G A 5.w.K A A A A j f x A c c c V c A j f c ,.k d u u f f k k d r r a d d r e r u r r d j x f f A A x A A A A G h 2 h A G A A A A x h j B A A A j j A x j j h j G A A j h A K A A A A G A j f j x z j z x z z k k k k k k k u d k k d u d a z x ",
"j w._ _ F F _ t.5.x g c D D t.7.G A G G D G D D D G G D G G G G G G _ D A g x G D G D _ _ w.x f j w.x f f k k k f k k k k k k f f r r r d d f f x x 4 h A V j j V A c j 4 1 j c c A A A V V N j c V V V A D D A c j A A A G x f j A c j c N j j f f j x f f f r r 1 r a f f f f f f f f f f f f f f x j 1 j A N j j N A A f 1 f j h f f f f f g 3 1 3 4 f 4 a a g f g h h g g j h r f j h g h h x x f 1 f j f d k z k u d f k k k k z k k z z f a f f h A h 3 j A A j j j j x g 1 f x A A A j j j j j j j j x c B B x h j B A A A B j f f x A A A A A ,.k f x ,.x f k k k z z x m z z k z n z k k k k k z j A A j j 5.7.D D G D K G h j A G A A A A A A A A A A c c A A A A A A A A G G 5.x f M w.G G G G w.e.x f x 4.x j x x x x x x x x x m m x x x x x x x x x A t.c j w.t.D G K D K A h f x A A A c A A G A A A A G G G A A x A G G A x x A x f f A A A B A A G ,.j f x x j k x z z z z x x x x x x x x x m x x x j x 6.5.h j w.t.D D D G G x f f x A G G G t.t._ G c A A A G G G G 7.7.G A A A A v j f j A j j c c c j 4 a c ,.k r u r r d f d u d r r r r r r r r u u d z x f f x x B x j A A A h 2 j A D D G A A c j j x A A B h j B B j h h A A A A j h A G A A A A G A j f j x z z x z k k z z k k k k f d k k k r r u d z x ",
"j G _ F F _ _ D A h f A D D G G A G G _ G G G G D D G G A A G D G K G D v h x G G G G _ t.A x f x 5.x f k k k f k l k k k k k f f f d f d a f f c c f g A c j V A A x g : 3 j A V V A A A A V V c V V A A D A A c A G G A G c g h x c A c c V j f f j x f f f r r 1 r f f f f f f f f f f f f k f h x f 1 h B A j j G A j r 1 j x h g f g f f g 4 4 g h g f f f h f g h h g g j f 1 1 h j j x x x h f r f j f a d d u f f k k k k k x z x z k f f z z h A x a f c A A j A c f f a f x A A A V N c A A j h 4 g h j x x x B B A A A A x f k x A G A A <.x f f x 4.x k k k k k k z z k m z z m z z z z k k k j A A j x A 7.D F G _ G A h h 5.G G G A A A A A G G G A c A A A G G A A A 5.7.5.x f x w.G G 5.K w.5.j z M 4.A j m x x x x x x x x m m x x x M x x x x x 5.I.A j A _ G K K K G x f f A A A A A A G G A A G G G G G G 5.A A A A A A A A x h f j A A A A A A x f f x ,.j k k z z z x x x x x x x m x x m x j x z x 6.4.x j A K G D D 7.A x k k ,.A w.G G G _ _ _ G A A G w.G A A A A A A A 6.A x x f j A A A c c c h 1 3 A 6.k d u u r u d d u u r r r r r d r r u d d k x f f f c A j j A D B g f B G A F A A G A A B j j j h j B j B j h c G A A 5.j f x A A A G K 5.x z j M ,.z z z k k x z k k z k k k k k f u u u d d x m ",
"j A A D _ _ _ A j j g c G G G A G D D D G G G G G A G G G G G G K K G K A g x A A A A G c x x f j 5.,.f k k f k k k k k k k k f d f f f f a r f x j f f g f h x c j g 1 1 3 j A c c x c A V A A c j c A A V A A A V A D D A j f f f j V V V j g 1 f j x f a f f a r f f f f f f f f f f f f k f f f j f 1 f g h c c x x a < 1 z h 4 f f g h f 1 f f g g f f 1 f x g 4 f h g g g f 1 1 a g x x j f 1 i 1 f j f r r r d a f f f f k k k z z k k d f f f j ,.j f f h x x x x h f f a f x A A V V V A A A c j g g f h x x j j A A A A ,.j f j j h A D A A j f f x 4.x k k k k k k k z x n n m x x z x x x k k j ,.A h j x h A _ _ D j j h h A G G A G G A A A G A G K A A G G G A A A K G 7.5.j f x x A 5.A A v x x j m 4.m x x x x x x x x x x x x x x x x x x x x x 6.s.A h c c G _ w.w.c f a f B G V A A A A A A G A w.A A A G G A A x c A G c c c g f j f x A A A h f f f x A j k k k k x m x x x m x x x x x x x z k k j 6.5.x h v x c G D G x j k f ,.5.G D G G G t.t.w.A A A A A A B j x A A 6.A A ,.j f f f x A B j f a 1 f A A k r u u u r r u u r r r r r r u r r r r r f f f r f f j A A c j f 1 4 B D A V A A A D G A A x g g h x x x j j A A A A A z f x x A w.K A j x j f M M z z k k z z z k k k k k k k k d r r d u r x x ",
"j A j c _ t.G j c c g c G G G G D _ D D _ D G D G A G G t.D G G K K K t.A h v x g A w.A g x M f j 5.B f k k k k k k k k k k f f f f f f f f r f x h a a 3 1 g x A h 4 f r 3 j A c c j A A A A A c j c A A c A D D A D A D A j 3 f h 4 j D A j 1 f f f x f a f f f f f f f f f f f f f f k k k f f h j g f f 4 f c A h f r r a f j g h h h 4 1 1 f f f f f 1 f g f 4 f h h g g f f 1 a 1 1 j x f 3 f k 2 f j f r r d f r f f f f f f k z z f f f k f f x 5.j f k f 4 x v x 4 f f f f x A A A V V V j j x A A x x c c A c c A G A A ,.x f j x g h G G x f x k x 4.x f k k k z k k x x x k x m m m x x x z k z ,.,.j x A g g G t.N j A x h A G A G G G G G G A G D G A B A G G A A K w.G w.5.x f x j j A 5.x f z M x M R.m x x m x x x x x x j j j x x x x x x x x j A s.B h x j j G s.5.x f j l B G A G G A A G G G G 5.c h j A G A c A A A 5.A A v f f j f h A G x f f j f x <.j k k k z x x x x x z x j j x x x x x x z j 6.w.x j A h j A G B h x x k ,.G G D D G K G G A A A A A A G G A A A 6.A A 6.,.k f f f f c A x f f f f c A k u u d u r u u u r e r u u r r r e e e u k l f f f 1 f A G j 4 f h g j D F D G G A A A G 5.G x f f h x x h A G A B A c h z x j x w.w.x h v x z v M z z z z z z z z k k k d d d k d u r u u f x x ",
"g A j g A w.j j 5.x g v G D G G K K G G G G G G G G K K G G G G G K K w.A f x A g x e.j g x m f j s.x f f k k k k k f f j x f a f d d d d d r a j j 3 f j 3 1 f x 4 f j 3 1 j A j A B N A A A j j j A A A A A A A A A A V A h 1 g x g g j h 4 g j f h x f f f f d d f a r f h h f f k k f f k f f f j f 1 j h f f j z f f 1 1 k x x j h f : : 1 f 1 r r < ; f g 4 f f g h g g h f 1 f f : 1 f 4 4 h h 1 1 j u r r u d d f f f f f f f f f d k f f f f z ,.j f z f 3 h x f 1 f f 1 g x j V A A j j g g j N B A A A A B A A B A c x x k r z M h g j x f j x f x 5.x f k k k k k k k k x m x x n z z z x z k z A ,.f j A B h h h h c G z f A G G G G G K A A A G G A c x B A D D G D D K t.5.j f x x f j 4.h f x M z M T.x z x x x x x x x l x ,.x z z x x x x x j z A 5.x f ,.x g x 6.x h x x g B G A A A A A A A G A A j x A B A A A A G A A G A x f f x j g j c g g x j f j A j k k k k z m x z k x ,.x z z x z k x x z x 6.5.x h 6.x g h A h f A j f x A G G G A K G A A c A A A A A G A A A A G A c x f d x j a h x f f x f f v A f r u u u u u r r u f f r r r r r r e > e f z r r f f 4 f h g g A x g j A V D A A A V D G G G A h f h h h j A A A c A A f f 6.,.h x M j x M x h M M f k z z k z k f f z j f r u k u d u r u d z k ",
"g G A j j j j G w.j h v G G G t.G K _ _ G G G G G G G G G G t.G G K K K A h v 5.v x x j x 5.x f x s.x f f k k k k k f f A 5.j a d f d d f d d a x x 1 f v x 3 1 f f x f 1 3 x A N A A A c j j A B B A A A A A A A A A A V D j f h ,.A g 1 4 f j j f h x f f f f f a a r f j 5.A f f k k k f k f f z x f 1 j ,.j f f f k x r 1 z j f h g 3 : 3 f f a f r = , f j g h j f h h g h f 1 f x h 3 1 f x x f 1 f j u r u u r f f a a f x A k f f k k k k k f z ,.x f x M j z f 3 f x k a h x j N A B j 4 g h x N j j j j c A A A A x x A x k r z M A h f f x ,.x f x 4.x f k k k k k z k x 4.s.,.k k n z z x k k z ,.,.j j <.7.5.g 4 c 5.A f f A G G G G _ K G A A G G A A G G A A D D D G K w.6.j f x 6.x z z f x 6.x z M 4.x z x x x x x x x x 5.s.5.x k z x x x j j z v 5.x f ,.5.j g z x ,.6.x g A G A A A A A A A A A B A G G B j A G A G G A G G x f f ,.,.h g g g B <.h f j A f k k k k k x z z x e.s.5.j k k k k x x z x 6.5.j h 6.5.j g h f A ,.f f x G G G G G K G A A A B j A G A A G A A A A A A x f f x ,.z f f h x M f r x A f u u u u u r r u k M j u e r r r u r e r k k 1 r z x h 4 1 g A A 5 4 h A D A c A A D G G G G A h x x h j A A A A A A A j k 6.4.M x x v e.M z z M M f z z z z z k f h A 5.j f d k k k u d d d k x ",
"h A G K j j G t.A x h c G G D t._ _ t.t.G G G G G G A G G G G t.K D D G x h x A 5.A x A 5.A x f x w.x f f k k k k f f B A G A h a d k f k f d f x x 3 a x c f 4 g x f 3 3 3 j A A A A A j j A D A A A G A V A A V A A A A A x 4 f ,.A j 4 g x h f f f x f f f f f r 1 a h A A A j f f k z k d f f h A f 3 h j x z a f j k 1 1 f f 4 f r f f g f g f f f r 1 f h h h j h f g g h f 1 f x j g 4 g x h f 1 f j r r r r u u r 1 f j B B B h r u f k k f f z ,.x f x ,.A j f x x ,.f 3 x c j N N B j g h x j h j x g h h c G A j x j x v z r z x x A x j ,.,.j f x 5.j r k k k k k k z ,.t.s.5.x k k z z k z k z ,.,.f j x v A A j A A x f f A K G G K K A A A A A c A D G G G A D D G 7.7.A ,.x f x M A x f m ,.x x h x 4.x z x x m x x j x 7.F.t.t.A j k z z z z z z v 5.h f x A A j x ,.5.x j f A A B A A A A A A x x B B B A A B A G G G A A G A j f f x x x j j j A B h f j x f f k k k k k k x e.t.t.w.,.k k k k z x z z ,.5.j h c A A A h x 5.x f f x A A A A A A G A A A A x c A G A A c A A A A A v f f j x x j f x A j a 1 x x f r r u u r e r k x x x f w < e r r r r r f x f r f j c j g j B B 5 4 x G G B j N G A A G G A j h x A x x A A A A c A A z k M 4.,.x x 6.6.x x h x M f k k x z k f j c A A A f a u k k k k k d z x ",
"h A c G G G t.A j x h c G D A D _ _ G G G D G G G G A G G G G G K K D K x h x x A w.6.5.v j x h x 4.m f k k f f f f B G D A G A h a f k k f d f c c 3 a f g g x c h 3 f f 3 h A A D G A c A A D G A A D D D D A A A A G G A x f f j h h c x j 4 f f h x f f f f d r f j A A N V A x f f k k k f f z A j f f f f x x x f r 1 1 f j f f f f h f f g f f z f f h j j g h f f g h j f r f f f h x j g 1 f f g j i r r r u r r 1 h A B N B B f i i k k k k x 4.x h x x x x 5.,.j k z f j A A A j j N x j j j j j j x x h j x x x x x v A j f x x h ,.e.,.x j j f x 7.j d k k k k k k x t.t.D t.5.j k z z z z z j 6.5.j x x f j G t.A j j f f A G G G G A c c A K A c A G G A A A G G G G A A v j z x x x 6.,.,.j z x h x 4.x j x x x x z x 5.F.t.D 7.t.A x k k z k z z v 5.j f j j c ,.s.,.f j j f ,.5.A A A A A A A x x A j j B A A A G D A A A G A z f f j g h A D B g f l f x ,.z f k k k k k x 4.s.t.t.t.9.,.k k k k k k z 6.5.h h x j A s.w.A x z z f x v G A G A A G G c c A j x A G A B B c A A G A A j f z f x ,.,.M j f a r x x f u r r r e r f x B h h x f e r r r r r r x x a r r a h A A x h x h 4 c G G A j N D A A G t.G A A A A c c A G A A A G A z k M m x 4.e.v j x x h x ,.z k k k k f j A A j j c x f f d k k k k k x x ",
"h A j h A 5.A g j x h c G A A G G G G G A A D G G D G G G G G G G K K G x h ,.x h ,.,.x f j x f x 4.x f f k f f f x G D D A A G A h a f k d a f v x f f a : f c x 1 : h f 3 j A V A A B c A D D A D A V A G D G A A A A D G h 3 f z 3 f A x f 1 f f f x f r f f r f h A A j V V A A B j f k k k f j A h 1 f a 1 f m z 1 r r 1 f j j f f f g g g g g g f g f 4 g h h f g g g h x f 1 f 1 1 f x j 1 1 f 1 g x f 1 u u r r r j B j j j j j j f i d k f f x 5.v f x z f x 4.j f k z r f j x c A A N j j j j j j x A G A A j h h x A c A x f x x f z 6.v a f x f x 9.j i u k k d k x e.w.D D K _ A j k k n k k j 5.4.j x m f f v A f f j f f A 5.G K G A B G G G G A A D G B h x G A A A A A M j z x z f m M z f j x f x 4.x z x m k f x 5.t._ _ D D G w.,.j k k k f h v 5.j f z f f ,.R.k a j x f x 5.G G G A A A j j j A A j N x B A G G A A G c x h a f j f f x ,.h 1 f j f x 5.z f k k k k x 5.t.w.D D 7.5.5.,.k k k k k j 6.5.h f x f f ,.5.h f z x f x A A G G A A G A A A A A A A A B j j x A A A A A z f z f f x ,.k r f d 1 x x u r r r e < f x x h j j j j k 1 e r r e e k z 1 r d 1 1 f x f f j h g j G G c j j c G G D _ G A G G G A A c c A G A A A z z M z z 6.4.x f x x f x ,.k k k d k z v A x j j j c v f a u d u u k x m ",
"j ,.z f h x j f x x h c K D G G G G G G A A G G D G G G G G G 7.G G K G j h v x h x x k f x x h j s.x f k k f f x G G D A A A A G c f a d f a h A c 4 f f ; 3 h f : 1 x f 4 j A c A G A A A D A D D A A A A G A A A A A A A h 3 f j 1 a j f 1 f z f f x f a f f f h A A A N j c A A G A z f k k k x A h 1 k f a d f r 1 f f 1 f j j f f f g g j h g f f g g 4 1 g h h h h f j x f 1 f f 1 r z f ; r f 1 f x f r r u r r j A A j j h j j x x f f f k z x 4.v f x x k j j f f x x a f h g h A A j j j c j h j c A A 7.G A j h x A A A x f x x f f x x f k x f x 4.x r u k d f x 5.w.G w.K K K n.5.j k z z k j 5.9.j x m z f z k r f x f f A w.K K G A A D G _ G D D D G G A A G G A A A A 4.x z m m d k k f f j x h x 4.,.z z x z j 5.t.t._ t.7.7.G D G A l f k k h v 5.h f x k f z m k k x x f x 5.G G A A A c c A G G G G A B A A A G G G A j j x f f x f r f k f r k x f x 5.j k k k k j 4.s.7.w.D A 7.5.5.4.m k k k k j 6.4.j f x k f j j f f x x f v w.G G A A G A A A G G A A A A A A j c 5.A A A v z f z k r k z f r z f r x x u r r e < r x 5.B j h j x x x f r r r u r k x r r k r 1 f f 1 f j j f j A A c A c c G D G A A j B B G G G A c A w.G G 6.z z M z k z x z z x x f x 4.j k k f k x ,.A A c x c x c v z d r u r d x x ",
"j ,.j f f f f f j x h c w.G G G G G G G G G D D D D G D A G t.t._ D A A j h x x f f z z f x x h j w.v f k f f x G G G A x j A A A A A f r d f f A c 3 f f 1 1 1 1 1 1 f g 4 j A A D G G A A V A D D G A A A A A A A A A c c h 3 f j a a f f r f j f f j f r f f h c A A A j f h x A A A A z f d k z x k 1 k k d r e r r f f 1 f j f g h f g g h g 4 f g f f f f g f z h h h h j f 1 f f 1 1 r 1 < r a 1 g j a r r 1 r j A A A j f 1 g x j j x j f a k x ,.x f z z k f k f f z j f z x f 4 g c j g g j x j g j A G A A A A c x h x A x g j x d d k f f k x f h A j r u r f x 5.G w.G x j A t._ t.G h f k k z A 5.j j m k k k k d f j f f A A G G G G G G D K D G D D A G G B c 6.5.G c A 6.x k m z d d d f f f x h x 4.,.z k k x 5.w.t.t.7.A j ,.7.G G G c f k k z x A h f x k d k k k k j x f x A A x x A A V A D G D D G D A A c c G t.A A j c x f k x k u k u d f k k f x 6.k k k k z ,.9.t.F.w.x l x 5.<.<.5.M f f k j ,.5.j f x k f k k f k x x f v G A A A A A A A A D D G A A v A A v A A G A A x k d k k r u r r f k f r x j r r r r f j A A B j u f x x j x k r < r d k f r r d u r r r 1 f j f f h c c A A A A A A c A A A x j c A A A c c A w.w.A j z m n k k k f k z j f x 6.z d d k x v A 5.,.z f z x c v v z u r r d j x ",
"j ,.j f f k f f j x h v w.K G G G G G G D G D D G G G A A D G _ _ D A A j j v x f k z k f x v h j w.x f f f x G G D A j a r j A A A G B f r r f A x f f f r e e 1 1 1 g f g A G D D D A j j A G D D D A A A A A A A A A c A x f f j f d a f d f k f h x f 1 f g A A A A c f 1 r z v A A G A z f f z x k a k k d r e r d k a 1 k f 1 g j h g g g g g h g g f h h f f f h j h h x f f z f r r r 1 1 r r 1 g h r r r 1 f A A A x f r r a j x x A c h f f x 4.x f z z k d k k f z j f z A j g g j j h g j h g j x A G A A B A x h f x 5.x f j z d d k k k k x f h A j 1 r f x G G G G x f a z 5.w._ t.A z k k j 5.5.j x m k k k k f f x f f A G G G A G G D D K D D A D G A G G A A A A A w.6.x z m z k d d k f k x z x 4.M k k x ,.s.t.7.9.B f r k A G G D G x f f z ,.,.h h M k k k k k k x v f x A x j c A A G D D D D D D G G A c A A G A c A 5.M f k m d u k k k k k k f x ,.k k k k ,.F.F.s.9.x k f k m <.<.5.5.x k f j ,.5.j f x k k k k k z x x f x c A G G A A A A D G G G A x x c A A A A A c B x k f k d r r u d d k k f x j r r u f x A B B x k r r f x j j x f r r f z j f r k d r r r r f j h f h A A A c A A A c A A A G A c A A 5.G A c c v K w.x z m z k k k k k k k f x M f d k m 4.v A 6.x r r r j v x c M z d r d x v ",
"j ,.z f k k f f z x h v 5.G D G D D D G G _ G D G _ D D G A A G D D A A x f v x f z k f f x M j j w.x f f j A G G G x a r r f j A A A A x a 1 f c c f f f < e e r 1 1 g 3 4 B G G G A A c A A A A G D D A A A A A A A A G A x g z x f u d f d f f f h x 3 1 g j A N A x f r r r r f A A A A x f f j x h f k f r e e r r f f r f f 1 1 h h g g g h g f f f 4 f f h f g f h h j A h a j f r r 1 < 1 r a 1 g h 1 1 1 f A A A x f r d r r u j A c A c f a k ,.x f x z k k k k k k l r z A A c j j j j j g h h j A A A A A j h j x j B A x k j k d d d k k k x f j 6.j 1 f B A A G G x f d k f z 6.t._ t.A f f j 5.5.h x x k k k k u k j f f A K A A A A G G G _ G A D D G G G _ A j x A G 5.5.x k m n d k k d d k j f x 4.x k x ,.w.t.t.9.,.f u f f h 5.5.G G A j f f M 5.j j v k d k k k k x m f j A x c c A G G D D G _ D D D D A G G A A A A A A ,.f f x d r d k u f k k f x ,.f f k ,.s.7.l.9.x f k k k k m 4.5.5.5.x f f ,.4.j z x k d k k k k m x f x c G G G G D A G G G A A A A c h h c G A j j c x k r k u r u u r u k k f x j r 1 f j x x B x f r e e w f x j l f r 1 r k j f a k d e e u d f j h 3 h A G A A B A c j A A A c A A A A A G A A c x A 5.x k m z d k k d k z k f j x a a x ,.A v ,.j u e r u u k x x x x k r r x x ",
"j A z f k k d f x x h v 5.G D G D D D G G _ G D D G _ _ G G G D G D A A v h x x f z k f f x v j x w.x f h A G G G x f u u d u f x G A A A h 1 1 x c f f d r r u r 1 1 f 1 3 j G G A G K G w.G A A G D D A A G G G A j x A 5.x g z x f u d d d f f g j x 4 4 j A c c c f r r u u r a x A A A ,.j f j A h f f f r e r r r f a < f j 1 1 h h g h h f 1 1 1 f f g g j j h h g j A A h f z f r r r 1 1 a f 3 g h 1 1 f A A A x f a d u r r r f x A A A x f f 4.M f m z k k k k k k k f j A G A A j x A j h x c c A A A c j h h x ,.A A A j f z k d k k k f k x f j 5.j g x A G G A x k k k k k k j A 7._ w.v f f 5.5.j x x k k d k k k x f f A G c A A A A G G G A D D D G G G G G A A A G w.e.x f m z u d d u d z x f x 4.j f M s.t.t.w.x k k k k k f j A G G G A f g v 5.x h v k d k k k k x m f z A A A c A G D _ G G D G _ _ A B A G G G A K A A A h f x k u d d u f k z f x A f f v s.l.l.7.x i k k k k k k ,.5.G 5.,.j f ,.5.j f x k f f k k k x x f v w.K G D D D A K G D A A G G A x h c 5.G A x x x f r k u r d u r r k k f x x a a j x B x A j u r r u r r k j j x k 1 r z x f a k u e r u d f j h 3 j G G A A A A c c A A A c B A A j A A A G 5.A A 6.x k x x k k k u k z k f x A f z ,.A A 6.x d r r r r u f j x x v x f a x v ",
"h ,.z f k k f f x x h v K G D G D D D D K D D D D D D G G G D G A A A G c h x x h k k f f x v h x 5.A j A G G G B f u k k u u r f x A A A A j g x x f f f < r r r 1 1 f 3 3 j A A A A A G A A A A G G G A A A G G A j j A A x f h j f r u d r f f f j v j j V c c c f r r u u u u u f x A A A A x h B h 1 f f 1 r e r r u r 1 f h g g f h j h f f 1 1 1 1 f g f j j h j x j x x g 1 f a r r r < < a f 1 g x f g x A A c h a d u r r r u r f x A A c x j ,.x f j z d d k k k k k f x G A A A A A c x h h x A A A A c x j B B A A A A h f z k k k k k f k z f h A x j A A D G x k k k k k k k f j G K G t.A j A G h j x k d d u u f j f g A D G A A G G G D D D D G A G G A G A G 5.G G w.4.x k m z d u d u d z x f x 4.x x 5.t.w.s.,.k k k k i k k f l B G A A A j A G j j x k k k k k k x x f j G G A A A G t._ G D A G G G A h h A G A G D G G v f f z d r u d d d k j f c A h c w.t.t.s.x f k k k k k k k k ,.5.G 5.A x A 5.h f x f u k k k f x j k 6.7.7.G G D D D G G A A A A A A c j x G 5.A B c x f r f u r u u u r k k a x x f f B B x A x u r r u u u r r k j j x j f f x f r f r e r r r d z f 4 c G A G 5.5.c x A A A A A B B j j x c A A G 5.A A x f x z k k k k f z j f x A x v A 6.6.x d r r r u u u u f j x x m x f j x ",
"h ,.x k k k k k ,.A j A K G G G D D D D D D D D D D D G D G G D A A A G A h x v f k z k k M ,.h x 5.G G _ _ D A f d k u k k k u u f j A A A A B c j f f k r r r r 1 f f f 4 j A A D A A A A A A G G G G A A A A G G A G G A x f j x f u u d u f k f g c c A A c j h r r r d k k d u f f x A A A A B B h 4 f f r r r r r r 1 1 f x x h h h g h f f f f f f f g f h j c x h f 4 g f f f a r r e e 1 f z a g x j x A A A h a d d r f k r r u r f j A A A x v x f x z k k k k k z z f v 5.A A A D A A A j g j A G G A A x B B A N B A A j f x z f k k k k x x f x A A A G G G x f k k u l x k k k k j A G G _ G A A h j ,.x k d u u z x f f G _ G D t.t.7.A D D G D A A G G A A G G G 7.w.K ,.j k m z d d k d k x x f x 4.5.e.w.t.5.A f k k u k m k f k f k A G A D G K G h j x k f k k k k x x f A t.t.5.A c A G G A A G G G G A x j c A G A G D G x f f m k u u u d f x x f x G G t.n.t.s.B f k k f k x k k k k k x 6.5.G A G 5.h f x k k k k k k x j h e.7.G G D D D A j c A A A A c c x j A A G A B x j f r k f u u k u r k k a j x x 6.A x x f r e r u k k r e e r f j j x f f x f a f r r e e u f x h f c G A A A c x x A A A A A A B x j x A A A 5.w.K A j k x z k k k k k x j f x A A 6.5.6.x d r u u k m k r r u f x x x A x j j ",
"j ,.x f k k f j 5.A j A K K D G G D D Z D D D D D D D D G D G A c c D A c h x v z k z k z 6.A h x w.w.K K w.A f d k u f x A f r f d f j A A A A A j 4 f j a e r r 1 f f 4 g A G A G G G A A A G G G A G G A A A A A G G G G x f j x k u u u f j j 4 g A c c A c f r r r r k ,.,.j a f f f x A A A A B g 4 h l r r r < 1 f f 1 f j j j j j h f f g h j f f f h h h h j j g 3 g h f 1 f f r r r < 3 h j f g j j j c c j 1 r r r f x j f r u u r a x A A A A x f x j f d k d f x x h c G D A A G A A A j g j A G A A x B B N N B B c A j f j x f d k k k m x f x G D D t.G j f f d d k A ,.j f k k f z A w.D G G A h j ,.x k k d f x A g g G _ G _ t.G A A D G G D D _ G A A A A A A G A A 4.x k m m k u u d k m x f j e.w.w.I.s.A f f k k f >.5.>.k f k k l A D D _ t.D j g x x f k k k k M x h 5.t.K t.G j j c A A A A G G G 5.A A c B A A A A A x f f m z u u d u z ,.x f x D D t.l.I.A k k k k f x 9.B k p k u f ,.5.G G 5.6.f f x z u d k d z M x j ,.5.A G G K K A j j c A A A c j x c c A A A j x x f r k k u r u u f x f r h A A 5.5.x i w r r r f x j u > q e < f j j h f h f 1 f f r r r r k M h f v w.G c h h j c c A G A c A c B B x c A G A A G A j h v m k d d u z M j f x A v 5.4.x f r r r f x A j f r u u d j x x h j h ",
"j 4.,.z f k f v w.A g A w.K G G D D V V D G D D A D G D D D G D A c A G v h x 5.x z k k x w.,.f x w.t._ K A h a k k k x G G B f i f i f j A A G A x f f x f r r 1 1 j x 4 f G A A G G A A A A G G G G A G A A A A A G G G w.v f j ,.j r u r f x j 4 g A c V A h r r r u k x A A A h f f 1 f x A A A A j 4 j x f r r 1 a x f 1 f x j j j j j h g j h g f f g f j h h j j f 4 j A h f h f 1 1 r 1 f x j f g c A j c x f r d 1 f j N j x f r r u u f x A A 5.x f v M f d k k k ,.,.h x G A A A G G G A A j j A G A x j j A B N A j j A x g x ,.x f d k j 6.x f x t.l.t.G j f f f d f A A A A j k k k k j G D D K A h x 5.,.k u i j 5.A g g A D D D D A V Z G G G G D G G A A G A G G A A G e.x k M 6.z d d d j 4.x a x I.w.w.s.,.f f k k k >.7.G 5.>.f i k f j A D D t.7.j g A ,.f k k k x 5.x h 5.K D t.G A A A A A K G K w.G A A A A A A A c A 6.,.f f 6.m f d d f x 7.B g x t.t.t.t.5.k k k p f x 7.D A x f k p i k >.7.5.w.6.f h ,.x d d d a j 4.x j ,.A c G t.K w.G x A A A A A A c A A A A c j h x x f r j x u e u u x ,.f r x w.5.5.,.k r r r u f j x j f w > e < r h x x x x f a j j a r r r x ,.h g A w.G A x x A A A G A A j h x A A c x G t.A A A A x z 6.4.k d f d x 5.j f x 5.6.4.x k r u r i x B j B x r u r r k x x j h j ",
"h G G x f a h 5.K c j A G D D G D Z V D D D D D V A _ G D D A G A A A A c f x 5.6.j f z 6.s.A f x w.t.t.A f f k f f A 5.A A D c f i f a a x A A G x 4 f x x a 1 1 f B j 1 f A G G G A A G G D A G D A A A G A B A A A A G A x f h ,.x f r r j A j 2 g A A A j a r r r f x A A V A x f r r r f x A A G j 4 j A j 1 ; 3 j x g 1 f h 4 g h j j h g j h 3 f f g g h h j h f g h j j f 4 f j r , ; 1 h j j 3 g x j x x f r u r a h B j j N x f 1 r u r f c 5.5.x f ,.5.x f r f x 4.A g A G A A A A G D A A A A A A c h j j j j N A A A A j f h 6.x f f k x 5.x f j t.F.5.x f f f r f x A A V G G x i k k f j G w.G A j j ,.5.x r f x w.A f f A G A A A A D D D W D A A A A A G G G G 5.A A A 4.x k m R.M f r f ,.5.x f x e.e.I.,.f f k k f x 7.G G G <.x f f k f j 5._ _ G h g A 5.A f f f A 5.x f A G A G G G t.G G G G 5.A A A A A A A A B c A c A v f f 6.4.z r d x 5.G c f v t.t.s.A j k k k k x G A A F D h u k k d f ,.5.G G h h 4.,.k d d f ,.4.j l <.A A A D D D G A A A A A c A A A A A c j h h x x f r j x f 1 1 f ,.,.f r x s.s.A f r r r r f x B g g f f r > e < r j A A x f f j x f < < f ,.,.h f v 5.A A A A c A G A A c j h h x A c A A K K G A A x h 5.4.x f i f A A h f x 4.4.x f r u r f x B N j x B j u r u u f x A A j ",
"j G t.7.x h A _ G j j A G D G D D D D D D D D D A D G G D D A G K A A A x g x w.s.6.j A s.s.6.h c e.t.5.j a f k f x G G D A A A x f r r r f x 5.G c g f A A h f g c B h 1 f A D G A A G G G G A D G A A G G A B A G A A A A x f h ,.,.x a f A A j f h A A x d r d r f x A A A A V c j r r r r f c A A j 4 h A B g 4 f c j 4 1 h x g g x j j j j x g 1 h j f g h j j h f g j j j f 2 h A j a a f j h z f g x j j f r u r r j B j N N N A j f r r r r f A 5.x f x 4.5.x f j 4.s.j g c G G A j j B A D G A A A A j h j c j N N A V A A x 4 g A A c h j A 5.x f j 5.G x f f f f f x A A A A D _ 5.l f k f f j G 5.A j x 5.9.,.j j 5.K A g f A D A A G G D D D _ G D A G A A G t.G G G G 5.5.,.x f m 4.5.x j A t.5.j f x e.e.,.f f k f k B 5.G D D G G 5.x f k f f j G t.G h g A G G x f x w.5.x f A G G G t.G t.w.G A A A c c c A G A A A A A A x x x f f ,.4.,.k j ,.G A A h v s.t.5.j k k k k m 7.G A D A D A j k k k i x 5.t.5.j h 5.s.A f f x 4.5.j j <.w.t.G G D D A A A A A x h x A A A x h j h x c x k r f A x f r j A x a 1 j ,.x f u r r r f x x j j j h j f < > > r f j x A f a j A j r r x 5.A f f x 5.A A 5.A h A A A A A A x h h x A G A A K A A A x h A t.5.j h B D A h f B 4.m f u u u r j A B j j j B B k r r r d k v v x ",
"j A D _ G D D _ K j g c G D D G D D F Z D D D D A D G G A A A G K G A A v h c w.t.t.G t.t.t.A f x e.6.j f k d k x A G A A D A A A x f r a a f ,.w.c f f A A x h x A x g 1 f A A A A A G G G D D A A A A G A B B A A A B B A x f f A 5.A x x G A h f j ,.j a r r 1 f x A V V A A j j x h r 1 r r j c A j 3 g j N j h x x g 3 1 f f g h x j x h h j g 4 g g g g h j g f f h j j j f 1 g B B B x h h h f : f x j f r r r r f B j j j N B N B j r 1 u r i j 9.x f x A 5.,.x 5.s.<.f 4 c G G A c j h c A A A A A A j j j A A A N j j h x x 3 4 c A A c x G G x f j ,.j f f f f f B G A A A D D D 7.A k a d d a j 5.A h j A 7.5.A A G G A g f B A A A A G G F W D D D D _ D A A G G A A 5.5.w.e.x f x 5.7.7.G G G 5.x f x e.M k k k k f x <.G A A G A A G 5.x d k f f x 5.G j g A G D A A A 5.A h f <.A A _ D G G G A D D A c c A G G A c x x A A c x j f f M 5.5.6.6.G G G x f m e.,.k k k k k m 9.7.G G G A D D A j i k p f x 4.5.h j G t.D j j G 7.A f h w.t.t.G G A A A A A A B j g j A B j h f h j j x B f 1 f x A x h x c x r 1 j j f u r r < f x x h h j h g g f a < > e r r f x f 1 f A B x x x x x f a x ,.c A A A x x A A A A A c x g g v G A c A A A x j f x 7.D G D A A A g 1 B ,.k u u r u j B x x x j j j j x k r r d u k z j ",
"g A G D F _ F F _ j g c G D V D D W F Z D D D D A D G G A A G G A A A A c g c w.G _ _ _ _ t.A g x 4.x f u u k x A A D D D V D D D G j i r f f x 6.x f f A G A A A A x g 1 f v c A A D D A A D D V j B A B N B A A A B B A 5.x f f A A A A A A A j f j m f r d r f x A A N A A V V N A A j r r r a j B g 1 4 j j N j j h h 3 < k j g g g h j g j x x j h j h f g h f 1 g x h g g f 1 f B j x x h g h f 1 f j f 1 r u d z c j N j j N B N B B j f u u i k >.j f x A A 5.5.7.G B f f v G A D A c A A A A A A A c j j j B A N j 7 j c j h 4 4 c Z A A A G G x f x A f i f f f j G G D A A A D D D 7.A f k d r f A v f j A G G D G G G A g f B A B A A A D F _ D G D G G G A A G G G 5.w.G w.4.x f x t.7.G D D G G h f m 4.j k k k k x G A A A A A A G G G 5.x f k f f A 6.j g A D G 7.t.D G A j f <.A A D D t.G A G _ _ G A G G G 5.5.c x x A A v x j f f v 5.w.5.G G A 7.x f m 4.x f k k k m 4.7.G G G A D D G 7.A k k k f j 4.5.h h G D _ D D D G 6.f h w.w.t.t.D A c G A A A B j x A B B x x j j h j x A f 1 g c c A c j x j a r k k u u u r r j x j h j g g h f h z u e < < < r k f 1 f j B B x j j x j a j A c c A 5.A A A A A A A A c j h x A x j x A A j z a h 5.G G D V V N f r x x u u u u f ,.B j x B x B x j x m k r u r r k x ",
"g A A G D D F D D j g A G D V V Z D Z Z D D G D G D A A D D D G A A A A c g c K G G D _ _ t.x f x ,.k u u f x 7.G D A D A A D D D G G j a f f h A x f h A A V V A A j g 1 f A A c A G G A A A A A B x B j N A A A x x A A A x f g A A A A A A B f f j x f d r f x A A N V V N V A A A A c z r r r f x f 1 f j j j j j h h 1 < f j h f h h 4 g j j j j j j g g g f 2 f h x j 4 f f 1 f j h g h h g h f 1 f k r e r r f A A c j j N j N V N B B x f r k k m j f j A A A A A B A g f c G D A V A G D _ D A V A c j j B V V N j j j A A h 3 g A A Z G G D G x f x M f a r a h A A V A D A V A D G G A x f d u a x x f h A 7.G G D D G x f f B A A A A V D G D W _ D G A A A x A A 5.5.5.5.A ,.x f ,.w.G G A D G A h f x ,.k k p k x 5.A A A A A A A A G A w.5.j f k f x A g g A D D D D G G A x f ,.A c G D D _ G D G D t.G G G K K G G A A 7.G x x x f f M 5.5.7.G G G 6.x f m 6.k p p k m 4.w.G K D G D A A A G 7.A k f k j ,.5.j h G G G D F F D A f l 5.7.D t.G c j x c A A A A A A A A A B j j j A A x f a h c A A j j j x f r z x u r e r f x j x j g 4 f h j h k z f > < r r f f 1 f h h h g g h x f r k x A A A A A A A 6.G A A A A c j x c j h j x x x f a j A G D N N N j f i x x i u u f x x j x j x B j x x x x x k r e d x x ",
"g A A D D Z Z D _ V 4 A _ D D Z V D Z F F D D D G A A A G _ D D A K D G c g c K G G D _ _ t.A f x 4.x d r j 5.G G D A A D F Z V D D t.G z f f z c A f h A A V V V V c h 4 f A G c N A G G A A A A B B j A A A A A x A G G A x f h c A A A A A A j f j j k u f j G A N V V V V V A A A j A c f 1 r f j f a h A j j j h x x 1 1 f j h j c x h f h j j j j j h h h f f h j x g 4 g f 1 1 f h h h h h j f 1 f k r r r f x x j j j j N N j j j j B A x d d z 6.x f x A G G A B A A h f x A A A V V V A D D A A A j j j A A V V A D A A A j 3 h A A Z D A G G v g x ,.f r r f c A V V V V V A A A D A A 6.j f a f x ,.j j A G G G D D A A f f B G F F D D G D D _ G D A A G A j j A A A A A A 4.x j ,.t.D G G D G A x f m 6.k k k x 6.G A A A N V G A A G G D 5.5.z f f x 6.j h K D D _ D G G A j f A A j D G G _ G G G G t.D G G K G G G G G G A j A 4.x f ,.5.G 7.G G 7.5.x f M ,.k i k m 4.5.5.5.G A D D D A A A D t.A k f f ,.9.x h G D D D D D D A f h A D D G D G A x c A A A A A A A A A B x A A A A x f f j x A j j j x v k r x m u e r k x c j j h g f j j f r a k k r = < f j f r f x j h h f x x f r k ,.5.A A A A A x x c A A A A A c A A x j x j x v f f x A A A V A A j h f x j d d k x A x B B x x A B j x x x ,.m k r k m x ",
"g A G G D Z Z W _ V g A D D D D Z Z Z F D D D D D A A D D K G A A G D A A g c K G G _ _ K w.,.f x 4.z r j ,.G G D A V A D D A A D D D G A g f j A c g h G V V V V V A j 4 f A G A j j A D D A A A c N A G G A A B B G D G G x g g A A V V V A A j f j x r r j A V N N j j N V N j j j A N x x 1 1 f x f 4 g B j h j j x x a 1 f j j j j j g g g x x j j h j j j h h g g h 4 f f i 1 1 f f g h h h x k 1 f k 1 r f x x j g g B A j N B j j j j B x f r z 4.M f A G G G A A A A j 3 h x N V V A j j A G A V A A h j c N j j V A V V c h 4 j A A A A A Z G x f x v f 1 f A A A A V c c A G A G A A A A A f 1 f B A j x G G G D G G G A f f c A A D _ D D D G G D D G D G G G A c A A A A 6.6.x k ,.t.G D G G G 5.x k m 6.f u x 5.G A A A B j B A A A A G G D w.,.f f ,.6.j g D D W F D D D 6.k f x A A c A G G A A G G G K A A A A A A A A j j x A ,.j f ,.w.5.G 5.G 5.w.x f ,.6.f f x 4.7.G G G G A G G G A V A D D 7.x f f ,.9.j h G _ F V V A t.A f f ,.G D G A G G G A A A A A A A A x j j v A G A x j f f x c j j j j x x f a j x r 1 f x x x x j g j h h j f 1 1 f j r = = f j f f j j h h f h x ,.f r x 5.A G G G A A B h h x v A A A A x c A x x c x x f f c A j A A A A A h f x j r f x ,.A c x c c x B A x x x x x v x u f m x ",
"g A G D D Z Z W _ V g A K D D F D V V D D D D D D D D D G A V A G G G A A g c w.G G _ _ K t.,.f x 5.j f A 5.G D D V V A Z Z D D A A A D G c g c 5.A g h G A V A A A A j 4 g A G D A V A A D G A A j A G G G A B A A G G G K x f j G G D V V A G j f j j r f A A V N j j N N V j j j j N A A A h 1 g B h 4 h A N j h j x j r r f h h j h j j f f h j h j j h h 4 g g h g f 4 g h f 1 i f g h j h h x k 1 f j f f x j j j g h B A A A B j j j N N A A j x 4.v f ,.7.G G A A A A h 3 h j A A A A V j A D A c V j g j j j j j j V A V j g 4 j A G A D D G A j f x A f f B 7.G A A A A D G G G G A A A A G c f f A A h j 5.t.D _ G t.t.A f f c A A D D G D D G D D G t.t.G t.K A A G G A G 7.6.x j ,.F.G 7.D G 5.5.x f x ,.f f ,.7.A A A A N B A A G A A A A G G 5.c x 5.5.j g A _ D D _ D G x f f x K G x x B B A G G K G w.A x x v A A A A x j c A A j f 6.w.w.G t.G 5.s.x f M ,.f k ,.5.G G G A A G G G A A V D D D t.5.j h 5.7.x j G D D V D D G x f f ,.A D G A A G A N V A V A A A c j j c A A A x h z f f x A j c x j x x f r j x k j x x x x B x B B j h x x f j x x k 1 1 k j f f x x h l h j x x f f M 5.A G G A A G 5.x x x c A c c c c c A A A A x j z h v A j G A N A A h f B x f j ,.B j j h A A c B x x x x j j x m f f x x ",
"g A A D D D _ D A c j A G D D D D Z V V V D D G D D D D A A A A D D G G c g x G D D D _ D A x g x G A G G G D D D A A A A A D V c A V D D A A A G A f h A A N V V A x h 4 f B G A A D A A G G A B x x A G G A A D D G G K G x f h A G D V A G B h f j x j A A N V N j j A j j j V N j N A A B x j j B j 4 g B A j j c j f a a h x j j x j h f f g j h h j h 4 1 4 f j g g g g j f 1 f j h h h j x j f 1 f j g h h x x g j j j j A A N j j j j x A G A A A x g x G G A A G A x f 3 h A A D D D A c V A A A j j j j j V N N N V A c c f 4 h A A D D G A j h f x A j A G G D D D A D G G A G G G c c A G A j j A A f h A D G D D 7.G x f f B D D A A A G G D G G G G D G G A A A A A G A G 5.x z ,.5.A 5.G 5.5.,.x h x ,.x A 5.A A A V A A N N A A A j B A A A G 7.G 5.5.h g A G F F F D A j h f ,.w.G A j j B A G G t.t.7.A x x x A A B B x A A A A h f ,.5.5.5.5.w.s.4.j f ,.<.x A 5.A G G A A A G G G G A A G D D D t.G B A 5.j h w.D A V D _ A h f f ,.G G G A A A B j j j A A A A x j j c A A x x x x f f j x c c j v x j a r j B B A B j j j x c B j N j j j j x B j j f h j h f 1 k x j h j x j l f d x 5.G A A A A 5.5.,.x x x A A c c A A B A G A j j j h v j j A V V A j f f x x x x c j g g j x c A B j B B c x j j x x j x x ",
"h A N A D D G j j A j A G D D D D D D A V D G _ W D D G G A A G D K D G c g x v A t.D G B j j g x K 7.D D A D G D D D D A D D V A A Z D D D A A G A f f j N A A A V g g f g B A c V G G A A B B B x x A G D A A D _ G _ D G x f h x j A G D c h f f h A A A A A V A B j j j j N V V N N V N B B A V A j 4 f j A c c c h f f a z x j B j j h j h f h j j j g 4 4 f x h j j j x j f 1 i l j j j x j f 1 1 f j h x c c h g j A j j B N A A A j j B A A G A 6.x f j c A G G G A h h f j G D D D D A D V A A V V c j j N A V B A A A A x f 3 x c A A G D c h j g B G A _ F D D D G G D D A A G G G c j c c A A A A B g f x c G D 7.A h h f f A G D D A A G D A G G G A t.G A c c A A A 5.G G 5.x k x x A 7.5.5.A j j z x 4.5.5.A A A A A A A N V A A A A A A A G G G G G 5.j g x j D D D G j x j f ,.G G G A A A A G G G t.5.A x x A A A A A A A A A A h f v A 5.5.5.G A x x f x 7.G 5.5.5.5.G G 5.G A A G D G G G G G D D D G A 5.h h A A A D G D B j f f ,.5.G G G A A A B j B B A G A A A c A G A x x ,.M k f j h A A A A h f f f j B B A B x j h h c c j j j j B x h g f g x x j j f 1 r f x x x f f f f d x 6.A A A A A A A A v v A A A A x A A A A A c x x f f j h x A A A j h k f j A A A x x x A A j c x B A A B A c h h x x x x x ",
"g A j j A _ A j c j j A G D D D D Z D D D D G G W W G G K K G G D G D A x f x x h G s.x g x A h j K G G D D D D D W D D Z D D A V A D D A D A A K A 4 g h g j G N 5 4 h 4 g B A j A A G A A j N A B B A A A A A D Z _ D A A x f j x g j w.A g f j f h A A N N N A A A j j j N A j N A V N N N N A A A h 1 f g h c j f f f g f f B A B j j h x j j j j j j h h h h j j j j h j c k 1 r f f x x h f 1 f r 1 j h A A j g h j j x j j j A A A c c c c c A A 5.x f j x j c w.A j x x g j A D D A D D D V V c c c V A c j V A A V V c c j f 3 h v g j K A j x x g B G D _ F D F D G G G G c j A G G A c j A A A A G j f z x h x s.5.f h x f f A G D A D D A A A A A G A A A A A A A A A A G 5.6.x k x x j 5.4.x k j x k x 5.G A A A c V D A A V V V D G G A G A D A A c A A h g x h j A A j j A j f x G A A G D D G G G K 5.5.A A A 5.A A A A A A A A A h f M x c w.w.c f j x f x 7.5.G A 6.5.G t.5.5.G G G t.D D G G G _ G G A A A g g x g j G t.B h j f k ,.5.A A A A A A A A B A A A G G A A A A A A x x x f f x h h A ,.f f f f f j B x x x B B j j j j x h h j x j g f g j j h h f 1 1 d r f x j a r k f r z A x v A A A c x x x v A A A G A A A A A x j x x f f f g h A c g 4 f f i j A A x j c A A A A B j x B A A A B x j x x v A j ",
"g A j g j A j j G j j A G D D V D D D D D D G G D W _ _ G _ _ G D D A A x f x A g g j f g <.<.h x K D D Z D D D D D D D Z D D D V V D D D D A D G c 4 h A g 4 j h 4 j B 4 g A A c A A A G A A A A B A A D D G D A A D D A A x f j A h f j g f x x 1 h A B A j j j j j j j j N j N N N N V A A j V A A g 1 f g 4 h g f f x f 1 h B j x h h x j j j h N B j j x j h h c c j j c A f r f f 1 f h 4 1 j x 1 1 j j h h g g h h j j h g j A N c A A A c x A G 5.x f x A g g j h g c x g j A D D A G G D V N V c c V V c j j V D A A A j g f 1 j c g 4 j j j G v g j G G D D D D D G D G G c A G D D G A A G A A D A c f x 5.x h x j j A <.f f B G D D D D A G G A A A A A A A G A A A A A G G A x k 6.,.z M 6.z f ,.,.f x 5.A A A c c A D V A A V A D G G G G D A A V c A A h g ,.x 4 g h j A A h f x G A A G A D G G G G A G A A A A G A x x A A A G v f h 4.x g A A h f ,.,.f x 7.G G A x c G t.G 5.G G G G D D G G G G A G G D A f g ,.j g x x g j 6.k f ,.A c j j A A A A A A A G G G A A A A c x c c x x f f x x 3 f z f f v k i j x j h x A A A x h h h h h h j j g f x j f f j f 1 r z f 1 f r r l >.f 1 k A A A A A x x x x x v A A A A G A G A c x j x x j f j f 2 h j 1 1 x k i j A A A A j j j j N B j x j A A A x x v x j x B j ",
"f A A N g j j G G x g A D D Z Z D D D D D D G K K K G _ _ _ G A A A D G x g x t.G j g h A A B h j G D G D D D G D D D D D D D A V V A A D D D D G B 4 h A B g 4 g j A j g g B A A A A A A A A A G G G G A G G A V A A A D A x f j 6.c h 3 f x v j a f A A A x h j j j g j j N A N j j N V A A A V V B g 1 j j g 3 f f x x g 1 f B j h h j j j j g g j A A j j h h h h j x j N x f 1 j x f 4 f 1 g x j 1 1 h j j g g f g g h j g j j A B B A A j j x A A w.x f x A A j 4 g j A x f h A A A D D D V N N N N V A V N j V V V D A A j j h 3 h c j 6 g j 7.7.x g B G G G A G G A A A D D A D D D D D D G G D D V A A h j 5.7.x f h A 5.,.f f A A A D D D D D G A A G G A A A G G A A G A A A 6.x k ,.4.M j z z M 4.x j x 5.A A A A c N A V V A V A A A A G G G A A A A A A h f A A x g h A t.x h f x A A A G G G A G A G A A A G A A A j j h h x A G A h f 4.4.j h j h A 4.x f x G G 5.G c x A G 5.G A A G D D G G G G D A D D D A f g 5.5.x g g j <.,.f h ,.A j x j B A A A A A G D G A B B j x A x x x A x f a x ,.j f f z ,.,.k f j x j j x x A A A x f g j j j j f f h j j j h f z a r x x f 1 r k x m f r z A c A A A c j x x x A A A c j c A A A A x h j B j f j x f f f f j B f f j A A A B j j j j j c c x x c x x x x A v j j j j ",
"h A G 7.B j G D A j h A _ D D F D D D W F Z K G G K D _ _ D A A A A G G x g j A G D <.5.A B x g h A G D _ D G G D G D D D D D D D A Z D D D D A G B 4 h B A j h x A x h g g A A A c B x A G G A G D G G G G A V V A A A D A x f f c A A j x A x f 3 f A B j x h j V j j h j N V N j j A A B A A N V A g 1 f B x f f v A h f 3 f B h h j x j j j h j x B x B j h f g g x A j j x f 1 j x h f 4 h x h f 1 1 h j j x x j g g j j j j j j A G A c j h A A A G x f j A 7.G j A 5.A h 4 j G V A A A A V A A N V A A A V A A V V D D c j A x f g c A c x 5.t.A h g A G c A A A G A A A G D G D D D D D D D G G Z V A A h j A 7.5.x <.4.,.x h f A A D D D D D D G G G G A A A A A G K G A A A A 5.x k x 4.6.x j ,.4.x x j x 5.A c A 5.A j V D A A A A A j c G G A A G G A A A h 4 x A A ,.5.5.v j j f x A A c c A A A A A A G A B A A A B j x j h c A A 6.h f 5.s.5.j x 5.s.A j f x 5.G G 5.w.A A A A A A A G D D D G G A A D D A D A f g A 7.D x x 7.5.j f l A A c c A x B A A A G 5.A A A x x j j x j j j x x f f x ,.4.x z M ,.j f f j j x B x x A A x x x j h j B x h h j j x c j j x f 1 k m j f l >.,.l r r x A c A A A A c c A x c A A x j j G A A A x h x A j f h v A f f x >.h f f j A A A B j j B A A A x c c x h h x A x x x f f k ",
"h A j B G G G A h x h A D D D _ D D D D D _ G x j A _ G D D A A D D A A x f c x h A t.5.j h x f h G G D D G G G D G D D Z D D A A D D F G G D D A x f f j g j A G h f f f g B A c j h j c A G D A c j A D A V V V G G A D G x f f h j c A A z f f a f A A N N j N j A B j j V N j j j B A j N N V V A g 4 f h h x v A j f g f f B j j h j j j j j B x f f j x x h f g h j j j A f 1 f f g f h j h i f i 2 j h j B A B j j j j j j j A A A A h j c c D A G x f x j c G 7.G x j f a j A A A N A A A A A A A j h A A V A V Z D A c c A x g h x j c 5.5.x g h g x G G A G G A K A A D _ _ G D D D D D D D A V A G A j j x x A G 5.,.x x f f A G D A c A A G D D 5.x j x G A A G G A A A A G 5.x x x x x A 5.4.x k x k j 5.A A A G A A A D D D V A A j j G G D D G G G G A h f x j h 5.s.x f j j f ,.A x x x B A A A A G 5.x f x 5.A B B A A A A G G v f f x x A A 5.w.A j j f x 7.G G G G 5.K A A A A A G G D D A A A D G G D D A g f A B G D 7.A j f k f A A A A A A A A A 5.A x f x A A h j j j x x x c x k f x x x ,.,.x k f k f j x x B B x x x j x x x j j x j j j j x h f h x x f 1 r f j x ,.>.j f i a z ,.A A c c c A A A A x j x A x j c A A x x x B B j f z x x A x x f f f f f A c j x A A A A A x j A A j h x x x x x x x x f ",
"h A g h A G x g h x h c D D D G D D D D G G x f h x 5.G D D D K K K K A x f x x f h A x f f x f h 5.D G D G G D D D A V A D G G D D _ _ G D D D A j 4 f h 4 g A x 4 1 f f g B A B c c c c c A G A g f x G A V A D D G D D G x f h g f j x f 1 r f a f x A A j j j j V A j j j j j j j j g j j A A V A g 4 f f g c A f f f f f j B j j j j j j j j B j 1 1 f x x x x j j j j c c f 1 f f f h x g i 1 f f f j j j j j j j j j x x j j A A A A c A A A A G G x z x j h A 5.B g f j f j G G A A A A D A A G x g f x A A A D A Z V c Z A x g h x f h ,.A f g j h j G G G _ K G G A A D G G A A D D D G G A c V D G A j x x f x A x f f x l f A D A D A A A G D D A z f j A G G G G A A A G w.5.x x m j h 6.e.v f f x z z ,.5.G G G G A D D _ A V A A A G G G D D G G G G A h f v j f x ,.k f j j f ,.A v B x B A A A A G v f f j A A B B N B A A c c x f k x f h A w.v f h x j x 7.G K G A 5.w.G A A G w.G t.t.D A A _ t._ D D D A g h A h j 7.G h f j j f A A A B A A A A A ,.x f f z v A x j x x A A A v A k f x k f M 4.z a k f f j x x x x x h h x x x j j j x x x x h f f f 4 g x f 1 r r k x j k r f k f z A A A c c A A A G A j f j A A x c c j h x A A v j f j f f A x f 1 f k f f j h h j A A A A A h j A A j c A c A ,.,.x A ,.x ",
"h M f f f x h f j x h c D D D D V D D D K c f k j j A w.G D D Z K G D D x g x j f f j z f j x f j A G G G G G G G A A A A A G G G G G G D D G G G j 4 f j a r f f 1 i f f f N N N A A A N A A A h 3 1 f x A V V D D D D D A h 4 h h 1 f f 1 1 f f 1 f j j j j j j j N j j N j j j j j j j j A c A A c g 1 f a 3 f f 1 a f f f j A j j j j j j j x h f f k f h x A j j j A A j h g a k f 1 f z f 1 1 f f 2 j j j g g g g j c A j g 4 j A A V A A A A A A G x f x k f j x f f j x f j D G A A G G G A A B f f f f x A A c V V A A Z A j f h z d f x x h h j g j D D D W D D D D D A D D V c A G G G A A j A G G x f x x f f j f 1 f x j j A A V D D D D A K A j f f f j A G D A A A G G w.e.x j m x f x M z f k x f z ,.A A G G A A G D G A V A G G G G A A A A G A A A f f x j f f z f f f j h A A A A A A G A A A x f f f f j <.A B j j j x j x x g z x z f x x j f z x f x 7.G A G G A G K A G K K t._ _ G D D _ l._ D V G ,.f h A f f j j f l j k f A 5.A A A A A A 5.m k f k f j x A B x v c A A A A k f z k a z x k f z k f j x x j x x j k z x x B h h x c x x h h f h f f j a 1 r r r f d r r k f f z A A A c A A A A 6.j f f f f x A c h h x A A A A z f x f r z z a a k f f j x j j j j B A A j h j A A A A A A ,.A x x x x x ",
"f v f a f f f f j x h c D D V D Z Z D A c f k z k k j ,.5.G G D G A D G x g x z k k k f f z x f h A G D G G G G G G A D A A G G _ D G A D G G G G j f f h f r r i r f l f f N A N A A A A A x f f f f a f c D A D D V V A G j 4 h z r r f i 1 f f 1 g h g g j A j j j N N N B g 4 j j j c A A c A A A f 1 f f 1 f f r f f f f j B j j j j h j x h f f f k f f j c j j j j j j x f f x f 1 1 f f 1 f l 2 1 h j j j j h g j A j j j g j x A A V V A G G A 5.x f x z f f k r f j x f x 7.A A A G G A A A f f k k f f x A A c A D A A G A g z z d d k x f z x g j D W D D D D D D D V D D D D A D D G A A G A A A v f j m f f k u r l x f h A D D D D D A A A x f k k f f x A G A A A 5.G 5.e.x j M m d k z k k x x f z ,.A A A G G A G A A V A A G A G G A A A G A A G A f f x f a f k k f f j h A K A A G G A A A j f f k k k f x A A j h g x A A x f z M j f f k k f j m h x w.5.A A K K G G A G G w.t._ D G _ _ G _ _ D D G A f f x k f f f f j x k f 6.G A A A A A 5.,.k f k k k f j x B h j c c A A c k f z k r r k f k z k a j B j j x A x x f f j x h g x c x h j B A A x j f 1 r f u r a r r f j f f j x j x A A A A A x f f k f a f x A j h v 5.A A A h f x k r d d r a f f f j A v A x j B A A j j A A B x j B x j h j x x x x ",
"z v f r f f f f j x j c D D A A D D A x f f k k k z k j v w.D A A D D G x g j x f k k k f k x f h G G G G G A A G G G G A A G G t.G A A D _ D D K j 4 f z a r r u r i f f 4 x A A A A A A A g f f f a f f g A D Z V N N V A x f f f 1 r r r r u f 3 f j j g h j j j j j V A x 4 4 j B N A A A V V V j g 1 f f r r f f r f f f f B j B j j x x h f f f f f k f f j A A h g g j j f f x x 1 1 r 1 1 a f f 1 f h j j j j N A j j j c A j j A A A j A A G G w.x f x k f f f u r k x h x 7.A A A A A 7.A l f k f k f f z x A A A G A A A x g j j f f k z f z x g j D F D D D D D D D D D D D G D D D A G _ G G A A A f j m f f k k d k m j j A A V D D D G G x f f k f k f f x G G A A A 5.G 5.x x M M d d d d k k x h h A A A A G G D A A A A A A G G G A A A A A A A A v g f x k r u k f f f h g A G A G A A A A x f d d k k k k f x A A j h x B A A f j v j f f f f k x ,.j x e.5.w.w.w.t.w.K w.5.G K G t.K K F F G K D G G G A h l x f f f k f k x l f A G A A A A G v k f k k k k k k k x x j x c c A x f f k f d k d d k k f f x x x B x B A A x f f j x f g j h g h h x x j f f 1 r d d r r r r a j j f j j h x x A A A x f f k k k f a f x c c A A A A v j f m z d f d d d f k f h A A A v A A A B j B A A j h x B j j j j j x A j ",
"h v f a f f f f j x h c D D A D G G x f k k k k z z k f z A G A A D D G B f x z f k k k d k x f g G G G A A A G G G G G G A G G D G G G D _ G D D j 4 f j r r u u r r f f f j B A A A A c g f f f f f f f f j A A V N N V A h f f f 1 r r r r u f a f x x x j h j B B j V A j 1 4 N j j A A V V j A c 4 1 f f 1 r a a 1 f f 1 f j N B j x x j f f f f f k k f f g h B j j j N j f f j j 1 a d r 1 3 f 4 1 g g j j c A D A j j N A A A c c c A G A V G G w.x f x k k k u u r k j g h A G A A A A 5.j k k k k k k f f f x A A G G D G x f j j f f k z f z x g j A D D W F D D D D W D D D G D A A D K _ D G G G v f j x k u p k d k M x j c A A D D A A v f f k k f k k f f x G G A G G A 5.v z M m d d d d d k z f h ,.A A G G 5.D D D G A A A A G D A A G G A A A A v g a x k r u k d f k j g c A A G A G A x f d d d d f k k k f x G A B B N A A f f x f a k f f f x ,.j x w.G w.G A A A t.t.w.A A G t.K _ D F K G A D G D 5.h l x k i f k f f l l f A 5.G A A A v z f k k k k k k k f h c c x x j x x f f k f k k d d d k k r f x B A B B A A ,.x z x x f f f h h h h j h g f f 1 e r d r r r r a j j f h h j x x A A A k f k k k k k d r f x A c A A A A j f m x k d d f f f f f j A A A A v x j j j A A j h x 5.A B A x x j x x x ",
"f x f a f f f f x x j A _ D D _ G j f k k k k z z k k z f z v G G D D G x f j z d k k d d k x f h G G D G A G G A A A G G G G G D D G D t.t.D G D j 4 f j a r u u r 1 f f 4 x A B A A A h 4 f f f f f f f f f g j A A N A B f f f f 1 r u r r d a 1 f c c A x j N A A A N A x f h j j N c j c c V A c 4 : f f 1 a a a a f f 1 g B j A A A h f f f f f f f f f f g 4 h j A N V A h f h f a a f r 1 f j 4 1 f h j j j A N j j N j j j A B j j A A D G t.G 5.x f x z f k u u d k j g j G G A A A B j k k k k k k k k f f f x A A A G A h f h j f f k z f h x g j A D D F _ W Z Z Z Z Z G A A A A A G K t.D _ D G v f j m k u k u r k m f f j V A A G 5.x k f k k k k f k k f f v e.w.G G 5.5.x j x x d d d d d k z k j ,.A w.w.e.A A A t.G A A A A G A A A A A G A A A c f a z k r u k k a j j g j A A A G w.v k d d k d d k k k k d f x A G V A A x g f x f f k k k f j m h x G G G G A A c A w.A A A K K K K _ _ _ G A D G D 5.h f x k k k k d f x j f ,.5.A A 5.A k k k k k k k k k k k k j v A j j c x f f k k d k k d d k f r f x x x A A A c x x x x x h f f h j j h h f g j k 1 e u r r r r r a x h 3 j v j j A A x j k k k k k k k k d r f x A A x A G x k M x d k d d d f f f x 6.A A v x h j c B A A h h A A A B x x x j x A x ",
"f x f d f f k k x M h A _ F D G j f k k k k k k k k k z z k z A w.G A A c f j j f k d d d z m f h G G D G G G G G A A G G G G G D t.t.G G G D G D N 4 h j a u u u r f f f 4 B A B A A j f f f f f f f f f f f f g j A A N A h 1 f r r r u r r u f 1 f A c A A x j j B j j A x j x j j V N j j A A V A j 1 f f 1 a a r a f g 4 h A N A A x f f j z f f f f j f f g f 4 g A A V A h f h j f f f d 1 f j f 4 x B j j g g g j j A j j c j j j A A A G K G A A j f x x f k u u k z x g j 7.G G 5.x f f k k k k z x k k k k k f j A A A A j f x x f k k k f h c j j F D Z D D Z Z W Z Z K A j A A A A A K G G D G A A j k x k k k u r k x u r x A A A A x k k k k k k k k k z k f z ,.e.w.t.w.5.x j x x d k d a d z j f j 5.w.w.w.6.c c A G G A j A A A A A j j A G A A G A g f x k u u d k f j x g B G A A 5.v f k k k k k k k k d k k f f x G D A A x f f x j f k k f f j x f x 5.A G w.s.t.G A c c A w.w.G G G _ _ D A D _ D G 5.h f x k k u k k k x j f ,.7.5.5.,.j k k k k k k k k k k z k f j x x j j x f f j f d d k d u k k f j x x A A v x j x x x j x f a z j j x h f f h x l 1 < r r r u r r d j f f x 5.A B 5.,.l f k k k k k k k k k f f f v ,.A A A x j v x d k k a f j j f j A A A A A x h x c A G j x A A B B h j x x x A j ",
"f ,.k d f f f z 6.M h A _ _ K x f f k k k z z k k z z k z k k j A w.G G A g j x k k k d f m ,.f h G G D G G G 7.G A A A G A A G D t._ G A G D D D B 4 h x f r u u r f j f f B A <.A j f f f f f f f i f f f f f f f j B A A f 1 f f r r u r r f f r f x x A A x j g h B B N B B x x j j N j A A D D A h 1 f f 1 1 a 1 1 h h 4 j G G G j g g h h j h f f j j j f f f f f g A D D g f j j a f f f f f x g g B A A A g g j j j j j j j j j j j B A A G A A A x f m x k k k d f x x g j 7.t.5.x f f k k k k k k z k k f k f f f x A A A j g x v z k k k f x c g A D D D D V V V D D Z Z D A A G G A A A G G A A G ,.z j m k u k u r k x u r x A A A x f d k k k k k k z x z k f f z ,.s.t.w.4.x j M x d k d d d x x f j 5.e.G A A A A A A G A A A A A G A N j B A A A A A h f x z a u k d f x h g A D w.w.v f d k k k k k k k f d k k f f f x A A A x g f M x f k z k f v x f x 5.G G K 5.w.w.K G G w.w.t.D G A G G G A A G G D A h f x k k k p k x ,.j f ,.s.s.,.j k z k k k k k k k k k k x k f f x c x x f f x k u d d r f z k f A 5.A A x j x x x x x j f f f j x x h f f f h j j 1 < u u r u f u f j g g x G G s.,.l f k k k k k k k k k k k f f z ,.5.A A x f x j d f f d f ,.x f h A A G G 5.A j j B G A B B B B B j h x B <.A j f ",
"j w.x a f k f x R.M f A w.K A f f k k k k z x k z z k k k k k k z ,.5.5.c g x ,.k f k k k ,.6.f h G G D G G G 7.G A A A A A G G D D D G G G A G t.B 4 h v f r u u r j x 4 f B A B j f f f f f f f f f f f f f f f r f j B B f f j x r r u r r k k 1 f x A c c h g h j A B N B B j j x h j B A A V A A j 4 j j 1 1 a r r x h f x D A h f f f h g h f f f j j j j j f f f g h G G h f x x f d k f f x x 4 g j j A A j h B A j j c A A A B j j B A G A A A 5.x f x M f u k k f ,.A g c s.5.x f f k k k f k k k k k k k k k f f f j B A x g j A x f k k h A A g A D D D A A Z Z Z A D Z Z Z K K K K A A G A A A 5.A z x ,.l u u u u x m d r x A A x d r k k k k k k z z z k k f k k j 6.5.w.4.x j 6.M f d k d k v M f z 6.5.A A G G A A G G G G A G G G G A A B A A A A A h f x m d r d f z 5.x g 5.F.5.x f k k k k k k k k k d k k k k k k k j x B A h h 6.x f k z f x 5.A f v G A K G G G w.K G w.t.K t.t.G A G G G A A A D t.5.h f ,.x u k k k m 4.j f 5.w.A j f z x z z z z k k k z k k k k k f h x A A f f M x u u u e k m k f A 6.c j j j x ,.x x x x f f x x j h f f f j l j j r r z k r k k r f x h g A 5.5.A j f k k k k k k k k k k k f f f f x ,.5.A j f x x f a f f h 4.m f j A x A G A c j j B A A B B B B B j h x B x f k f ",
"j s.6.f d d f 6.R.x f A w.c k k k k k k k k k x n z k k k k k k k f x 5.v g x 7.x f k k j 5.<.f h <.G D G G G D w.G A A A A G 5.D D G G G G A G D c 4 h A x f r r f x x g g A B f f f k f f f f f f f f f f f u u r r r f c j f h x f 1 < r f j j 1 f x A j h h j x x j B N j j x x h h j B A A c j A j 4 x x 4 3 a 1 f B h 4 x c g g h h f h h f f f j j j j j h f f f g g A A j f x 4.z a f f f c x 4 g j j N j j B A A A A j A A A G A j j c A A A A 7.A g x ,.z d d f x ,.c h A e.x f f k k k f d d k k k k k k f f f f a a h A x g j G x f f f x w.A g A G D V A A D D A A D D G G _ _ F _ K A A A A 5.A A j j 5.x d r u k m M d r x M k r r d d d k k k k z k k f f k k z k j ,.w.4.x h 6.e.x d k f x 5.x f j 6.v A A G 5.A A A G D D G G G A A A G A A A A A A h f x ,.z d d f x w.x h 5.4.z d d k k k k k z k k f k k d k k k z k f f x 6.h h 5.6.j f k z v e.A g x G G G K G K G G 5.G D _ _ D D G A G t.7.G G D G 7.h f 4.m k u k k ,.4.j f 4.6.h z j x x x z z x z z z z z z k k k k f z x A f f ,.v k r r d x x k f x v j f j x A A A c x x j h x x f f f z f f k j f 1 f x z u u u a j ,.h g A e.x z k d u d k k k k k u u f f f f k f f j x A j f x ,.h a f f c 5.x f j A x B B B j j j j A A B A A B x j j j x h h f f ",
"g 5.I.v f f x s.s.x f ,.6.h k k k k k k k k k k k k k k k k k k k d j 5.v g j 7.6.h f k 5.w.A f h A G D G G A A A G A A A A G 5.t.D G G 7.D G A G x 4 h A A h a f x A j 4 g A j f f f f f f f f k f f f f f f r r u u r f x x f f x x f < r j ,.j a f x c j h x A c x j B B j j x h f j x j A A j j B j 4 x A j 3 1 4 x B j 1 g h g f f f h h h j h j z j j x j f f f f h g j G x f x e.x f r f x A j 4 g c B j j j A A A D A j A A A G A j j j A A A x A A g x 5.v f a f A 5.x g x ,.j k k k k k f k d k k k d f d k d d a d a f c x f j G A h f h G n.A j j G D Z D D D D A A D D D D D _ _ D G G A A A G A A j j 5.4.z r r x 4.M d r j z e > r d d d k u k k k k f f k k k k k k j A 5.x h ,.I.6.j f h 5.7.x f z v x A 5.G A G A A A G A A G A A A A A A A B B A ,.h f x 5.A f r f 5.5.h f ,.x f k k k k k k k k k d f k d d k k k k k d f x 5.h h 5.w.v f f x e.w.v f x G G A D A A A G t.7.G _ _ G D t.5.A G t.D G A t.7.h f 5.4.x f f x 4.,.f f 4.v z z x x x x x x x z z z z z x k k x x z z x ,.j f x ,.x r r z M x a f v ,.x x j j x x v x x x j x c j f f f z f r f f f 1 f x m f , r k ,.A f f ,.5.j f d d r u k k k k d u k f f f f f f k f h A x g c 5.x f r j G G h f j A x j j B N B N j B A j j j A B B x j j x x j f ",
"g A t.w.x j 5.I.w.x f ,.,.z k k k k k k k k k k k k d k k n k k k d f ,.c g j G D A j A G G A g h A G t.7.A x x A A A G G G G G G D G G G _ D A G j 4 h G D A h j G G j 4 g A j f f f f f f f f f f f f f f i r r r u r f x j f f x x h f j x A j f g A x j x x A A A A j N x j f f f f j A B B N N A j 4 j A j g 4 j A B g 1 f x g f f f f l j j j j h h j j f f f f f j h j A x f x 5.A x j j G A x 3 f A B j j j A A D D G V N B G A j h j j x c v v A x g x G G c g j D G j g x ,.l k k k k k k k k k k d d d d d d d d d a 4 j x 4 j G K A c A _ _ A g x G Z Z F D A A A A A K Z A A _ D _ _ K G A A A A A h j 5.t.,.f f ,.5.x u u j f > e u r d d p k k k k k k k k k z k k k f x 5.v f A s.w.G A G t.5.j f f x v A G A A A A A A A A B B A A A A B A A B j x A j f c G G c h x 5.5.h f x x f f k k k k u d k k k k f k k d d k d d k f x 5.j g 5.t.w.x x G t.7.c f x A A G A A A c A G G K G G t.D t.7.B c G D D G 5.,.f h w.s.5.x v 7.7.,.f k 4.x j j x x x j x x x x x x x x j z x x x j z x ,.x f A 5.A z j x v x a a x A A x x j j x x x j j x A A h f z z h f a 1 f x f r x ,.j f f x 5.A f f M ,.j k k u u d k z z k k k k k k k d k f k d z M j f B t.5.x x A t.G h f j A x j x x B B B B A x j g j x B B j j j x x x f ",
"g A K t.t.G t.t.w.x f ,.6.k k k k k k k d d k k k k k k k k k k d d f A c g j G D D G 7.G G c g h 5.A G A B x v A A G G G G G G G G G G G D G D G j 4 g A D D G G D A j 4 g A j f f f f f f f f f f f f f f i f d r u u f x j f g h h j x A x x j 3 h 5.A A c x A A A N j B j g g x j 4 j A N B A j j g 4 j A V j j A V j g 1 x A g f f f f f f f f h j h j j x j f f z j h j A x f h A A G 5.A G A x 1 f x x B j j A A D D G V j B A N h h B j c c c v A x f j G D G D _ F D j g A 4.x k k f k f f f k k f u d f f u u d d d a 3 j x 4 j G Z Z K _ Z W A g B G V V A A A A A D Z K Z Z D K _ t.K A A A A A A v h j G t.5.A A A A x u r x j u r d a d d k k d d d d k k f k k k k k k x ,.c f c w.K t.F._ G A j f f x A 5.A A A A A A A j j B A A A A B A A B x x x x f f x G D G G A K A f f ,.,.f d k k u r r d d k k k k k k d d d d k k j x 5.j g A t.n.w.5.t.K t.c f j c A G G A G c x A G K G G G D t.G B c G G G G G x g j w.t.t.t.t._ t.A f j 4.x j m x x x x x x j z x x x j k k j z j z j x ,.j f x A A 5.6.v x x k r k v ,.x x x j x x x j f x x j h f j j h z f r f x a 1 f j x x B A c x f a m ,.j k z k k k k k k k k k k k f u u u k k f z x x g x G G 7.w.G D A h f j B c A x x B B B A x h h j h h B j j B x h j x k ",
"6 A Z K _ _ t.t.G j f ,.6.f f k k k k d d d k k k k k k k k d d d d f A c g j A D G D G G G x g h A G A c x x A c A G A A A G G G G A G G G G G _ B 4 h D D D F F D A N f f A x f f f f f f f f f f f f f i r d f r r r f x j 1 4 h g j B j x j f 3 f ,.A A A A A A j j B B j g j A B x B B B A A c j f 1 h A V V V V A B g 3 x A g f k f f f f f f j j h h j x x j x x x j x A v f h A G A A A G A j 1 f h j j c c c A D A A N j j N j j B A A G A c x A j 4 c A V D W W F G j g A 4.j f k k f d r u f d d d d k f d d f f d r 4 x x 4 h A D Z _ F Z D A 4 j G D A A A A A A A D _ _ Z K G K K A c A K K A A A h j G K D t.G A A j r a x j u u d d d d k k d u r u d k k k k k k k k x 5.x f x w.5.t.t.D G A x f j ,.5.7.A A A A G A A x h x A A A A A A A A x j j j f a x G A D G D G A h f ,.,.f u k d r r r k k f f f k k k k d u u k k j A 5.h g A w.t.t.t.K K G x 1 f A A G G G G A A A G D _ G G G G G G G 5.G G A A x g j 5.t._ _ _ _ D A g x 4.m j l x x x x x j j x x x x k k k k z z f h x ,.z f x 6.A 5.G c x x k r k j j x x x x x x j f f f h j j j f j j j x x j k r 1 f h h x A c x x f r m ,.k k z z k k k d r u k k f u u r r d f k k k x x f x A G G D G A A j f j A A A A A A A c j j j B B A A B j x B B B x j k ",
"h A Z Z W _ F 7.G j f ,.,.f f k k k k k d k k k k k d d k k d d k f f A c g j A G D D G G G x g h A G A A A c A v v A c c A A G G D A D D G D K t.B 4 h A D Z Z F D V N f f A h f i f f f f f f f r 1 f f i r r r r r r f j h : 4 j 5 j j j h f f 1 a j j j A A A c B j j j B B A j B A B B B B j j x g 4 h A j V V V A A g 4 x A h f k z z z z j j j j h j j j x x x x x h x G c f j 5.G D A A G A f 1 f x B B G A c c A A N j B j j j B x x A A A A x A j f x A D Z Z W F G x g B ,.j f f k f d a u u d d d d f f f f f a d r f c A 4 j A A Z _ F W K A 4 j G G D D A A A A A D _ _ A K K K H c c G G A w.w.A h x K G D D G G A j a f A j u u u r u d u k k d d k k d k k k k k k f x 5.x f x e.w.G G G G G x f x 5.A B B B B G A A G A h x A A A A A B A A j h j j f f x A A A A D A c h f ,.5.f u u d d u k k k k f f f k k k k u k k k j A A h g 5.w.t._ t.K _ G j f j 5.G A G G G G A A G D D G G A G G 7.5.w.5.5.A A A f h 5.t.D F _ _ D A f x T.,.j l x x x x j j j x j x x j k k k j z f h x ,.z a x G G A G A c A k u f f k ,.A x A j f f k j f h B x j f f j j v ,.x f 1 1 k h h x h j A x 1 a M ,.k k k k k k d d u d k f d u u u f d u k k k x j f j A G A D D G G j f j ,.x c G G A B c j j j B x B A A A A j x B x j f ",
"6 v Z W W _ Z G 5.j f >.,.k f k k u u k k k k k k k k k d k k k k f f A A g j G D D D G D G x f h A G G G G A c x c c x A A G G A A D D D D G D G B g h D D V D Z Z D N 4 h A h f f f f f f f f f f f a i f u r r r u r 1 j h : 4 j j j j j g h f 1 r j f g j A A j x x j j j x B j j j B A c j j x x f f f A V V j V V A g 4 x A j g f k j h h j j j j z z j j x x x x z h c G c f x G A A A A A A k r f A A G G A j j A N N j N j j N c x h g j A A A A x g x G D Z Z D D G j 4 x x f f f f f f f f f f f f f f f k k f r r r f c A g j D D D Z Z K _ A g j G D D G A A A A A A K K A A K w.A A G _ K K t.w.A h x K K G G G A A A f f x j u u r r r d d k k k k k k k k k k k k k f j ,.j f A w.K 5.G G w.G x f x 5.A B B B A A A G G A x B A A A A A A A x x j x j f f x A A A A A A A j f ,.,.f r k k f k k k f f f f k k k z k d k k k l x A h h 5.t.t.t.w.K t.w.x f x 5.G G A G A c A D G A A A A A A A 7.G t.G G K 5.<.h h G D D D _ D t.A h B R.,.j z z j x j j j j x x x x x j j j z j z z x 6.z f x G A A A A A ,.k r j x j x A A A h 1 d j x h A A x h f f f z x v ,.j 1 r z j h h h j B x h f x ,.j f k k k k f d d d u d f u u u u k k k k h x j f j A G D A A G A h f x A c x x x B A B B j j j j j j x B x x j j j j l ",
"6 A Z W _ D D K 5.j f >.,.f f p u u u k k k k k k k k k d k k k k f h A B g x A D D D D D 7.x f h A G D G A A x x x x c c A A A A A D D D D G D G B g h G F Z D V A D j f f A x f f f f f f k f f f f r u f i r r r u r f x z 1 3 h j j g g j x f 1 f ,.x h j j A x x x j g g j A j j B B A x x x A B f f h A A N A V V A h f x A g f f f f h h h h j j z z j x x x j j h j c G v f c K A A A A A A j a j A A A j j j A A j B j j B B j A A g g h A A B A j 4 c _ D D D D G 5.h 4 x x f f f f f k f f f f f k f f f f d r r r r f A A f j A D D K Z K t.c g j D A A A A A A A A G D A A A A G G t.t.K K K K G A j x w.t.G G G A G ,.f f x j u u d r r u k k k k k f k k k k k k k k f j 4.j f A t.G G G A G 5.x f x w.G t.G A A A A A G A A B A G A A B A x x x x x j f r x A V A A A A A f f B ,.f u k r r k k k k f f f k k k k k k k k k f x A h h w.t.D K G w.t.s.x g x 5.A D G B j j c A G G G A A A B A G G G G G K t.,.f h 5.G D _ G G w.,.k B I.A z k k k k k l l x x x x x x x j j j j z h v 4.j f x A A A A A G A f r v 5.x j x A v x f f j j x A x h j x f f z j x x j f 1 f x f f j j B ,.x f x A f f k k k d k k k k d f f u p u u k z k f f v j a j A A A A c A B h f x A c j h h B G A N j j j j h h j j x h f f h h j ",
"4 A Z Z F D D t.G h f m ,.f f f u u u u u k k k k k k k k k k k k f f A x f x G G A A G A A x f h G K K D A A c c j x x j j x A A G D D G D D G G A g h G D D Z D D A j 4 f A c j f f f f f j f f f f f f d u r r r r r r j j 1 1 h h j g j j j f 1 f A A A B j N B A x j j j B A B B B x j j B v A x k f k B j N N A A c f f x A g f f f f f f h h h j h f j x x j j j j j A 5.A h B G A V A A G A j f f A A A c h j x A A B j x h j x A A B j j B B A A j f x G D A A D D G h f x ,.f f a f f k f u u d k f f k f u r r r u r f A x f g A G D Z _ t.G c g j G A A A A G G G G G D G G A c A K _ G G A A A A A j x 5.w.7.A A A 5.x f f c j u d k d r d k k k k k k k d k k k k d d f j ,.j f M e.G 6.A G G A x f x 5.w.5.G A A A A A G G G A A A A B x j x x c A A x f a x B A A A A A x f 1 x ,.f r u u u u f k k f k k k k k k k k k k k f j A h h 5.t.G G G t.w.A x f x G G G A A j x B B A G A A A x x A G G A G t.D 5.5.z j 5.t.G G G G 5.,.f j s.,.j k k k k k k l x x j j j x j x x x z f j A 4.x f v G A A A A 5.A f f x 6.x x x x x c x j z j x h h h j x j f j x z z z f 1 f j h f h x A x f f B A f f k f f k k d k k k u u d d d d f f k f f x j i j A A V A A c j h f x ,.A B x j B G A V V j j j j h j j j h j j j h l ",
"4 c D G D Z D A j f f x ,.f a f k u u u u p f k k k k k k d k k k k k A x f h x A A A G A j f f x K K K K A A A A A x x j j j A A A D D A A A G G A f h A V D D D D B g f h A x z z k f k z f f f f f f u r r r r r r r f j j 1 1 f 4 g j j j g 4 1 f x B A A x j B A c B A A B B A A B x f h B A c x j a f h j A j B A x f 4 x A g f f f f f f h h j j h z j j j j j j x h A w.A h B A A A A A A x f a f A A G 7.G A h N A j h j h x j N A G A B B B B A x g j A A A A G G A j g x ,.f f d d d u f d d f k f f f f u u f a r r f B x f g x G D K K G x x h x G A A G G G t.D A A A K A A A G G _ G A A A A 5.v j x A c A A A A A j f f A j u d k d d u k k k k k k a a d d u d k k f j ,.x f j x A 5.A 5.A j x h x w.G A A A A G G G G G A A A B A A j h x A 6.c A A f f j j x A A A A f 1 f x ,.f u p k k u k f k k d f k k k k k k k k k k x ,.j f x A G A G w.G x h f j A G A A A A B B A A A A A B h x G G A A G D G G 4.z j <.5.G 5.5.w.5.x f j 4.6.x x x l k k k k l x j j x x x j j j k k j A 5.x f x v c A A 5.A h f f x A A A j j x c A x h h h h h x x j x j h f f j z a r r f j f f j j f 1 f x A f f k k k k k k u k k d u d d d u r a k k j x j f f c A c j A j f l h j A A G <.A A A A A V A A j x g h j j x A A x j k ",
"f c j j D D j g g f f x ,.f a f f f k k f f f k k k d d k k d d k k j 6.x g x j h A 5.A j h j f j K t._ D G G G A A A A c j A G A G A A A A G G G A f j c j A 7.G A h f g j A x f f k f k k k f k k k u u r r r r r r 1 f x j 1 1 f 1 g x g f f f 1 f x A A A j j j N A A A A A A A A B j f j B A A x j r f f h c c x j f 1 f x A h f j j f k f z j j f k j j j x x x x x j B 7.A h x h h A A c x f f f f A A A G G A c j g x j g j j j N V A A A A A j A x f j j x A G A x v x h A ,.j f f f f f u d d k f k k d d k f f f d r f x x f f h x A w.G j x x h B G G D D D D G A c A A K G G G G G K K G D G G 5.v k x v j x 5.e.A f f k f A x a u d d u u d k k k d u u d d d u d k k f j 5.x f k h h A 5.,.j j x f x e.5.A A A A A G G D A A A A A A A B j B G G A A A f f j h f c K v z a f f ,.,.f u k k k k k d d k f d k k k k k k k k k k x 5.j j x h A 5.w.A x j j f j G A c A A A A c A A A A x h j A G G D D A G G K 5.f z x j x 6.e.A x x f j s.4.x x m x z k k k k x k k x x x x k k z k z v 5.x f j j j A 5.A j j k k x A x h j x x x x x j f g x x x x v x j f f z k j f r d d k j x j f r 1 a x x f f k k k d k k k k u d d u u u u u u f f k v j f f j x A A x f f j f j A A B A A A A A A A A A B j h j x x B A B c x k ",
"f x g 4 A G j 4 x j f x ,.f r d u k k k f k f f f d k d k k d d k d j 6.A g x x 4 h 5.x f x ,.f h G t.G G G G G A A A A c A G A A G A A A K D A 7.A g x A g g A A g g j f j A j f f k k f f k k d u d u r r r u r r r r f x l , 1 f 1 4 f f 1 f f 1 f x A j j x j j j A A A G A A A A A j f x A c A A f r f j g f A x f f f f x A h f k f h k f f z f f f f j j j j x x j j A 7.x f j g g c A x g f j r f A A A G A A A x j j g g h j A V V A G A A A A A h f j f g x A h g A A f A 6.j i k f k k u d d d d d d d f k k f f f r f x x f f j g h A j g A A g B 5.D G G D G A A A G A A K K G K w.K G G _ t.G G x k j 6.x f >.,.j g x j f A x f u d u u u d d k d u r u d d u k d d k f x 5.j f x x f x 4.j f M M f z 5.5.G A A A A G D G A B A A A A A A A A A A A A B f f x j 3 g v h f x z a x ,.f u k u k k k d d d f f f k k k k k k k k k x 5.j j ,.h h A w.x h x x f j G A x x A A A A B A A A x j A A A G D D A G _ t.,.f z m f f x x f j ,.k j R.6.j j z j x k k z k k k k k x x x z z z k k x 5.j f j f 4 x ,.h f M x f x A x c x A x j v A j f x v j h A A x z k z k j x f r k r 1 f x f r a r r j x f f k k u d d d k u r u r u u u k f k k a k x j f j h f x ,.g 3 z j f j A B B B A A A B B A j x j j x B x A B B x x x k ",
"3 x x g g x g j 6.j f x A f a f f f k k k f f j f r d k k k k k k k f 5.v f j A h g j f j ,.x f h A G G G K A A A A A c B A A G G A A A G K G G G B g j 5.c g f h h x x f j A j f f k k k k k d r f f f r u u r r d u r f x f ; f j f f 1 1 1 f j 1 1 x x j j x x h j c D D A A A A A A j j ,.6.A A A j a f x x f f f f x j r x A h f f f f f f f f f h j f k j x x x x j j x 5.x g B B 4 f x f f j x r f A A A A A A A A j h h j j j N A A A A G G A A x f f x v h z f f j 4.M f x ,.f f f k k k d d d r f f i r k k k k f u r f x x f h A x g g h A t.A g B 7.D G G D G G G G w.K K K K K _ _ K G D _ _ t.w.A f x 5.,.j f j k x ,.h f c x f k d d k k k d u d k k u u d k k k k f f x 6.x f x 4.x h h f x 6.x f z 5.5.A K G A A G G A A A A A A A A G G A A G A A x f f x x f f f f x ,.f a x v f u u u k k k u d f x x f k k k k k k k k k ,.5.h f ,.,.j j x h x 5.A f h 5.A A c B A D G G G D G A A A A A G G G G G G t.,.f z ,.,.x k k h M 6.z x R.6.x z z z x z k k k x x x k k x x x z k k z x 5.j z x j f h j f x 6.x f x A A A 6.5.A A 6.6.j k x v A A v x j j j j j x x f r z k 1 1 f 1 f j f 3 j x f u u u r u d u r f j k r u u u k k k k f f x k f j x f f z h j x z f l A B A A B N B B B c j f g j B A A A B x x j j l ",
"3 x A A 4 4 j G v f f x A f f f f d k k d f j ,.x f d k k k k k k f j 5.v 4 h A A c f f ,.M k f h A A G G A c c A A c x B A A G G A A G A G G A A c g h A 5.x f f v 5.x f j ,.j f z k k k k d r f x A h r r r r d d u r f j f 1 f j x f 1 1 f j f 1 1 j h j N x j h j j V D A N A A A x x v A A A A A h a f ,.4.k r f x M f r x A g a k f f f f f f x 5.A j f f x j j x x f h A x f x A x h g f x A z 1 f A A A A A A c c x j h h j B j A A A A G G A A c f f x 5.6.z a j 6.,.x f x A k f f k k k k d r f x ,.f r r k u u u r r f x x f h 5.A j h x w.G x g A 7.D D G G G G t.G K K A A K K _ G A D _ G G w.t.A k j 5.9.,.j j ,.5.A f f c x f u k k u k k u r j ,.x u r k k k k f d f x 5.x f x 5.5.x g x ,.x j f z 5.A A K A A A G G A A A G A A G A A G A A A A A x f f x ,.A j f j 6.x f f x v a r d u u u u r f x 5.5.j f k k k k p k k f v 4.h f A w.5.h h x e.,.j f j A A G A j B A D 7.t.A A A A A A G G A A G G G 7.,.f f x 4.,.f f 4.4.x f x 4.6.j z x z x z k f j 5.7.A z k z k x m z k k x 4.x f A 4.x f f x ,.m f f x 6.A A A x A 5.v x f f f x c x x j j x j f x x j 1 < z x f 1 1 f z x f a j x f r d u u u u r f x 4.m f r r u u k d d f f x j r j 5.x f f x <.h f f h A B B A B N B B B c x f f f j B A B B x j h j h ",
"4 x x c x j A A x h g x 6.f f k f k p u a j A G G c f f k k k k k k j 5.x g j x B A A ,.x j k f h A G 5.A c c A A A A A A A A G A A A A A G A A G x f j v c A 5.A A v x f j A j f k k k f f f f j A A N h 1 r u u r r r 1 j f 1 f j x h f f j h f 1 1 z h x c x j j j j c A A j j B A A x A 5.G A A A j f k x x x j x ,.j f f x A f f f k k k f f x A D D G j f k k z z k f j A x g j x x x h x G x f 1 f A A A A A G A A x x h h c B A A V A A A A A A A j f j x 5.A j A x x x f x ,.j k k k k k d a f x A A x f 1 u u u u r r f x x f f x x A 5.A c j x g B 7.G G G A A A 7.t.w.G A A G t.K G G G A G K w.t.A z x ,.x ,.5.9.5.v x f f A x k k k k d d u f x ,.A A k u u k k d d d f x 5.x f j x c ,.4.,.j j j f z 5.G K w.G A A D D A A A G G A A A A G A A A A A A f f x x v A x x x f f r x ,.f u u u k u u f x 5.G G A j u u d u u k k f A 4.j f x A G A A t.w.x z k j A A A A A B B A A B j A A A A A G A A D G G G G x f z x x M x M 4.v x z x s.6.x x m x x k k j <.7.D 5.A j k k k n m z k x 5.x k x ,.,.x j ,.M k f f M 6.v x x x x x x j z z z z z x j j x x j j j z f r e d z j f f x x z a a x B f d k k k d r f x ,.A ,.x f r r u k u u d f x j i f 6.5.x x A j f j f f A A A A A A N N B A A x h j j B B B x x j x x l ",
"4 x g g A 5.x g j h g ,.A g f k u k u u j A D A V D x f d k k d d k j w.x g x x g x 5.A f f j z f A G A c j A A A c A A A A A A A A A A G A A A G x f z x h x 4.5.x h z f h A j f k k k f d f x A B V A B g 1 r r r r 1 1 x j 1 1 f g h j f 1 r f ; 1 x h x A x j j j j c A c j j j A A A A 5.5.A A x j f z f f x ,.v h f f f j ,.h f f k k k k x A G A F D A j f f k k k f x <.x f j h f c A A x h f f h A A A G A G G A h f f g x B A c c B A A A A A 5.j f x h h ,.5.,.f j x f x ,.j f k k k f r f x G D A A x f u u u u u r f v x f h h g c s.5.f f x f B t.D G 7.7.G A A A K G G A G G G G K A A 5.w.A G A z M m f j 4.6.h f x f f A A k k k k k d d j 4.A j A m k u u k k k d d x 5.h f j j h 5.s.j f j x f h G K w.t.t.A V A A A A G G G B x B A A A A A A 5.x f f x z h v 6.x f f f r m ,.f k u u u u k x 5.G D V G ,.j u u k k k f k x 5.j g x j j A W.5.j k x f j G A B A A A A A x j A G A A A A A A D G G G G G x f x x f j ,.5.x h x j j 4.6.x x m x x k j A t.D D 7.7.,.j k k x z z z x 5.x k x h x 5.6.x k f k f x v x x x A x x x A x x j h j x x x x x x x z f z k e r d f x x j f f 3 3 x x f f d d d r r j ,.c x c x j f r u u u u u f x l r f j x A <.h f f j f f A A A A B A B N N A B A x v B x B x x x x x x l ",
"f x f f h x f f j j g x 6.f d k u u u l A A A V V A A x f f d d d d j w.A f x x f f x z f f x f h A A c j x A G A A c A A 5.A c c A G G A A A A 5.x f j x f f m x f f j f j ,.j f k k k f f x G A A B B A B f 1 r r e < f x k 1 1 r 1 f x f ; r f < 1 x j j x j j j j c A A B B B B c A A x x x A A x f f k f a k x j f k z f j 6.h f k k f z x 5.G A G D D 7.A h f k k z f x 7.B f j h 4 j 6.v h h j f h 5.G G G G G A c h f h h h j B A A A c A A A A 6.x z x k f x ,.x f j x z x ,.j f k k k f k A G G D V A A x k u u d u u f ,.x f j j a f ,.x f f x f j 7.t.t.t.t.D G A c A w.G A A G G G w.w.w.5.G G 7.A j M ,.f k m l i f x k f A A k d k d u d j ,.A A A B A x z u u k k k f x 6.x f x z f x x f f j x f h 5.5.D D D A A A V D G G G G B j x A A A A v ,.5.,.f f x f a j ,.x f f k f x ,.f k u u u f x 5.5.G G D G A ,.x f k k k k f A 5.x f v j f x M j f x x f z A G A A A A ,.v x x A 7.D D A D G D G G G G A 5.,.z x x f a z x f k x j j 4.4.x x m x z j <.7.t._ D G 7.9.x f k k k k z B ,.j f x f f m ,.z f k k d x x h x A A B B x B B x x j j j x A B B x x f f x k r u r r k k a r f f f x ,.f f d u r u z A A c A B x v j f r r u d u f x k r f f f x x f f f x f f A B B A A B A A A A B B B B B B B A ,.m x l l k ",
"f x f a f f f f j j g v 5.g a u u u k A G A A D D A A A x a u d s r z e.A f x j d f k f f x x f h A A j j c A A G c c A A A 5.A x x A G A G A A G x f j x f a k k f f x f f ,.j f k k u f v w.G G A A B N B x f < 1 e < f j f 1 1 r 1 1 f 1 < u d ; 1 x j g f j j h j A G A N A A A c A A x j h c A x f a k f r f k f a z z f x 6.h d k f f x 5.G G G G A A A G A j f k k k x 7.B g j j f f x z f h x f g A G G G K G A x x x x x h j B A A A A A x c c v x f x z f k x k f x x z x ,.j f k k a f ,.7.D D D A A A A x f r u r r f ,.x f j j a a k f a k x f x 5.7.D G G D t.5.G G G G A A K G G G K G A A K 7.v j M ,.k f k k i l x k f A A k d k u u z <.G A B A B B A A k d k k k f x 6.j f x z a f f a a x v f j 5.G G G G D D G D D D D G G A A G G G A x x x ,.,.j f z f r f j f f f k f x 6.f d k u d j 5.5.A A A A G A <.5.j f f k k k ,.5.j h M x f k k k k x m f j A A A A A A ,.x x A A A A A A G D A A A A G A 5.,.z j x k u d f f z x z j 5.4.z k k k j <.s.t.7.t.G G G 5.5.x f f k k k ,.5.j k x k r k k k f x k r x m j j A B B A B B B x x x j j x x ,.,.x f f f x d r k r r u r r d z z f j A f r d r r f A A x x x x A x x x f r u k u f x f r f f r k k f f k j f f B x j B A A A A B j j B A A B B x x x x x j l x ",
"f x f f f f r a z j f A 5.f a r u f A A A D A c x A A A A x f d d d z w.A g x j f k k k d z x f h A A c x c A A A A c A A G 5.G A A A A 5.A A A A j f j x f f k f f f j f h A j f f u k x 5.7.t.7.B j x B N B j f 1 1 1 f j f 1 r f r e r r r u f 1 a x h g h x j x A A A j j B A A A A A A x x c c x f r k f a d d r d x j f x 6.h d d f j ,.G G D 5.B j A G A G A j k k k x 5.x f j j f k f a f k x g g x A G G G G A A j B B B A A A A A G G A j j c A x f x z k k k k f j m j x 6.j f k f f A 7.7._ K j h x B A A x f r u u f A x g j x u u k f f k x j j 5.5.A G G G K w.t.K G G A A A 5.G 5.A c c A K s.A x M ,.l k k k k f x j f A A k d u u k ,.A A A x h x A A A A z d u k f x 6.j f m z d f f d f j v h j 5.G A G t.t.t.D G G D t.D G G D G G A A x j j A ,.j f j k u f f f f l j f x 6.f f u a z ,.5.G 7.,.j h A G A 5.,.j f k k k A 5.j h M j k k k k k z m z j 6.c j v A A B A A 6.A A x A A G G A j x A G G G ,.z x x f u d d d k x j j 4.,.k k k j B 7.7.7.7.,.x B <.G G A j f k k f x 5.j z x k u d k k k m z f x ,.A B A A x x x A A x x v x x j x ,.A x f f f j f r k d r r r r r z j f x v f r r r f x A A B j f k x v x x k u r r u f j f r f f u f f r r f j f f B x x B A A A A x j j B A A A A x j j x x j x x ",
"f x f a f r r f f f g x 5.g a r f A A A A G x g f j A A A A x f u d z w.A f x z d k k k d k x f f A G A A c A A A A c c A A A G A B x A A A A A A j g k x f f k k f f k f h A j f f d j 5.5.7.7.<.f 2 f B B j x h 1 < < 1 h f 1 r d e e r r r r d 1 f x h g x x x c A A j j j j A A A A A 5.5.A c x x k r k f r d d r d x z f x 6.f r a h ,.G A A G B f f x 5.G G A x f f k j A x g j j f f d d d f j g g c B A A A G A A x x B B A A A A A G G A j j c ,.j f x z k k k k k x m l x 6.h f f f x 7.G 7.G x f 2 f x A A A j r r r f A x f j z u u u k u f x f j 5.A A A G K K w.w.G G A A A A c A A G w.c c A w.,.j ,.,.k k k k u f x j f A v f u r k <.7.A A B f 1 f x A A 5.,.k r u f x 6.x f x z a f k d d z x h j A A G w.w.t.G A G G t.t.G G G A A A A A A x j A A z f x k d f f f f k j f x 6.f f d k ,.5.G G 5.j f f j <.<.A 5.,.l f k k x 5.h h m z d d d k k z x f z x x c A A 5.<.A A 6.G x x 5.A A G A A A A A G G v h j z d u u r u k x j z 4.,.k f k x 7.D 7.5.x f f f B 7.G G A f u f f x ,.j z x k u d u u k k k f x ,.<.A ,.A x f j x B x x x x h f j x x x x f f z k r d k r r u r r k f f x x 3 1 r f v A c A x k r r k M ,.x x k r e r f j k 1 f k r r u r r f j f h ,.B x x B A A x j x x x B A A <.B x x x j x x x ",
"f x f f f f u a k z f x A f a f B A A A A x f a u f x G A A A x f a j 4.A f z x f k k k d k x f f A 7.G G G G G G A c v A A G 5.A x j A A A A A 5.x f j x f d k k f f f f h A j f f j A G 5.e.,.f r r r f j x h j h f 1 1 h f 1 f d < w r r r r r 1 f v j j j A A c j j c x j j j B A A G G A A A x x k a k f r d d r r k z f x A f r k v A A G 5.j f u f f x G G A A x k f h A x g j j a d d d d f j g g A A A A G A A A A A B A j A A A G G A c c c c v j f x k d k k k k z m f x ,.j f f x 5.7.7.5.x f r f f f x A A v z r 1 f ,.x f j k u u k d u k z f f ,.5.5.G G t.t.5.G G K G A A A A A A K w.G A A w.,.j M m k k k k d k x k f A v f r f A G G G x f r r r f x A A 5.,.k r f x 6.j f z z r u k d a z x f j A G t._ t.G G G G G D D 7.D A A A A A G A A c c x k f x k d u f f f k z f ,.6.f f j ,.w.7.7.,.j p k k f k ,.A A 5.A k f f M 6.j h m z d d d k k z z f j x v G 5.5.5.w.G G G 6.v x A G A A D K 5.A G G 5.A f z z u u u r r k z k j 6.,.f k ,.5.7.7.5.x f u k k k A G G G x k r f x 5.x h x k u k k u u k k f m 4.,.5.5.A x j j x ,.B j z k f f z j x x x h f x k r d d r r u r u k f f x x 1 1 f x 5.A A x k u r r u z m m x x k r r f x l r f f r r u r r f k f j 5.A A B B B j N B B B B B A A A ,.A ,.>.>.,.,.x ",
"f x f r d f r f z z f x A g g x G A A A h f f f k f f A A A A A j f h 6.A f j x f u k d d k z r f 5.G G G t.G G G A v v c A A A c x x 5.6.A x c 6.x f j x f d k k u f h f h A h g x 6.5.G G ,.f r u u r 1 f j h j j h 1 1 j j 1 a f 1 r r r r r r ; f x h j c A c j j j A A c j j B A A D A c j h A A f a k f r d d r r k z f x v f h A G A A 5.x f u u k u f x G A A A j a f A x g j j a f k d d f h f h A A A A A A A A B A N j c A A A G A j j A A c v h f z k f k k k k x x k x ,.f f x 7.G G 5.x f u u k k d f x A c c h 3 g ,.x f j z u u d d u d z f f 5.w.A G 7.G G A A K w.A A G A A c A G K w.G A s.A z x m k k k d u k x f f c c f f x G G G A f r r r r r f x A A 5.v f f x 6.j f z f r d d a d x x f x 5.G D _ G G G t.G G G t.t.G A A G G G A A A c x x f f j k d u k d d k f f x A g j ,.7.A G ,.k f p k u k u x ,.A A 5.x f f v 6.j h x k d k d d k z z f x s.w.G 5.5.5.w.5.G G 6.A x c A A A A A K 5.G G w.A f k x u u u r r u z z f 6.,.j B 9.5.G 5.x f u u k k f j ,.G A 5.v f f x 5.x f z k u k k k u k k k m ,.<.A <.A A ,.x x A j f f k x k f j j j h j j k r e d u r r e r r d f f h x a f x A A A 6.z u r u r r u x ,.x x x k f f x h r i i 1 r r 1 r f k f j A A A B B B B B A A B B x x A A A ,.x >.6.x j f ",
"f x f u k k d f j j f x v g x A A G A j f f d f k f f k v G A G G j h 5.A g x m k d k u d n m r f 5.G G 7.G t.5.G A A A A A A A c c G G G G x x A x f l x k d k k d f j f h B j x 5.G G G x f r r r r r r 1 f x h j j j 4 h h 1 a f r r r r r r r 1 f h c c A c j j j x c c A c x B A A G G c x x A A j f k k r d d u r k k f x c j A A A G 6.x d d k k r r f f x v A A A h h A j g j j d d k k f f j f h 5.A A c x v A A A x j j c B B A B j j A A A A A j f z k f k k d f x x k x x j B 7.7.5.5.x f u k u u i f f k x c c A h h A x f z j d u d d u k x f j 7.5.5.t.7.A A G G w.t.A A A K G A A G 5.G G A t.A z x m k k k k k k x k f A c f j A G G A f r u u r r r r f x A A v x g j A h a z k r u d d f x x f v 7.G G G G G G D G G G _ w.G A A t.G G A A A A A x f f j k r u p u u z z f x A x ,.5.G 5.,.z f p u p k k k k z ,.A G G x g c G j f x k d k b k k x x f x s.w.w.5.A w.w.6.A 5.w.G A A c c A A A A e.e.G 5.x f k x u u u r r d z k f ,.A A 5.5.5.5.m k u p p p k f f z v A A A A j B 5.j f j k u k k k k k k f x 5.<.B B A A 6.A A x f h j x x j j j j h h f k k r r d d r r r r r f f a h x h x A c A ,.x k d u u u r r d x x j j B j g f f 1 f f r u r r r k j f j A A A x A B B A A A A x x x x A A A x >.>.x k f ",
"f x f r k u f f x j f x A c G G A A j f f f f j j f k f z A G G G A c G A g x ,.k u d d d x m f f A G G G G G G A A A v A A A A A A A A G A A c A j f k x f d k k f k x f h A A G 5.G G v f r i r i f r r 1 r f j h j j j h f 1 f f r r r r r a k 1 3 x A A A j j j j c j c c c c A G A A A c A A x A j f k j f r k u f x z f j A A A A G A x r r d f f k f k k f j A A A A x A j g j x k d k f f z j f h A A A x h j x A c j j x x j g g h j N A A A A A j f x z d d k d d x M h j x x 5.7.G 5.x f f p f k k f f f a f c c A c B A x f j x f u u d u x m f x G A G G G A G w.K w.w.A A K w.K A A A 5.G G G 5.A z x M z k k k d k m j f c A x A G G A j r u u k k d r u r f A A c c h j c h a z z a r d d f x x j A 7.A G G t.t.t.t.t.D D _ w.A A A G G G A A A A A x f f x k r u u u d x f f x A A 5.5.5.A z f d u i x x k k k k x A A G G c A G h h M z k k k k k m x f x A A w.G A 5.A c 6.5.A A v c c c x A G G 5.5.G A x f k m u r u r r k x k f M ,.G w.5.5.M k u k k k l k f f a h v A A A A G A j f x j u k k u k m k f ,.4.A x x A v A A A c j x ,.,.x v x j h j h f f x f u k d e e r e r k f a h x j x x x A x k k k k k k r r e r k j j j g g h f 1 k f r r r r r l k f j A A x x A B B A c A x j h h x x x x x >.x x x j ",
"h ,.j a u u d l ,.h 4 x G D D G A h f f f f h A 6.z f k f z A G G D D G A g x 4.m d d d d M M f j A A A A A A A G G A j x x A A A G G G A G A A 6.x a j ,.j d f f f x x f h G G A G 7.A f r u r 4 j B f , r r r f j j j g h f 1 f z d r r r r k x 3 3 v A c j j j c j j c A x j N A A G A A v A A v A h f j x f d k k z ,.x f c G A A G G x f r u d f x <.f d k f f x A G D G G x f x x k d k k f x j f h 5.A c c x x j j j x x j c h 4 g j B A A A A A A x g x x f u k k k m A h x G G D 7.5.x k k k f f >.<.j f a i i f c A A A A x f j v k u d d k ,.,.f j A G A A A G G G G K K A A G w.w.G A A A G A K t.A z x 4.x k k k k x ,.j f A A A A G A j a u u u j ,.j f u d r f A A c j x A g f x m f r d d z ,.B j 5.7.A G G D 7.t.t.t.G G _ t.D G G A G A A A A A A ,.k f x x f u k u k m z f A G A 5.5.,.z f k u f j A A x k k k k j ,.G K F G G h h ,.x k k k k z 6.M f x A c A 5.5.A A A A A c A B A A A B A G G A A A 5.,.k l m k r r r u x m j f ,.5.5.w.w.M k u u f f x <.x f f f f z v A G G G G h h A v k k k k x 6.z f x 5.B B c A B B A A A c c A A A A x j h j x x j j f f x k e e r r d x k a h x h h x v x k u u k k x j f r e e e f j j g g x f 1 f l r r r r f x f f x A x c B B A B A A x x j h j x x j j j x x ,.>.x ",
"g A ,.f r d f x ,.j f c D V D G j f f f f j A G A ,.f f f d j 6.G D D G A 4 x s.m k a d z 4.m f j ,.A A c x A A A A A j x A A A K G G G A G A A 5.x 3 j 5.x f d a f ,.x f j 5.G G G A f r a r 1 j A A B f , r r 1 f x h g h g 1 f x f r r r r z j 1 1 x j h h c c j j j x j h x B B A D A A c c A A v f f j A j a d k m ,.x f A w.A G 5.x f r f f f B 7.G A k r f f f x 5.G G G x g j ,.x a f f j ,.j f f A c x A A A c j c B j j j j j x j j A A A A c A x g x ,.f d k f z ,.x h A s.G G 5.B k k k k f B 5.5.A f r u a r h A A A A x g j ,.x d u k x 4.x f h A A A A A G G G G _ A A A A K G A A A A A K w.5.A h x 4.,.k k k z ,.4.z h A w.A A 5.x a u d d f v A A x f r u r f A G A A A j 1 x ,.z r 1 1 x w.x h A 7.A G G G G G G G G G _ t.t.G A A A A A A 6.A A ,.f f x M k d d f x M f f A w.A 5.,.j f k k u j A A A A x k p k f x A K _ B.K j g ,.,.x u k k m T.x f x 5.x A A A A A w.G G A A A 5.A A 7.A A A A A A 5.,.k l 6.k r u u k x m z j 4.t.5.5.6.k u k f f x 5.A 5.x f a f f h A w.G A 5.j f A 6.x f d k ,.6.k d x ,.A A A x A x x B c A x j x B v x j x v x x j f r r x x u > e r z x f a z v j j x x f r u r k B j j x k > > e w f x j g j f 1 f x i 1 1 1 k x f f j B j B B B B A A B x h j x x j x l f f x ,.>.x j ",
"g A A j r r f >.,.j f B G K G j f f f f f B G D A A A f u k f j A t.D D A g x s.5.x f z 6.4.x r f 6.A x B B A A G G G c A A G G G G G A A A c A G c f h w.G j a f x 6.x f j G D 5.A f r u r r g B A N A x f r r r r f x j j h 1 f x j f < 1 f x f 1 1 j h f h c c c A A j g h c A A x x A A A x j B A h f j 5.x f d x 4.A x h A 7.G 5.x f f d f f A D D G G x f r f f f x w.D A x f j 4.,.f f k A A x a f j x A A A A A A A A c j j N A A N j A D A V V A j g x 6.x f r f ,.A x f A t.7.5.x k k k f f A A A A A A f r d r a z ,.A A A f x 5.A f d z ,.5.j a h B A G G D D D D D D G G A G G A G A A A A A A 6.A z x s.4.x f f M 5.,.z z 6.G G ,.x d k d r k ,.A A A ,.j f r u a z A G A A h 4 x 5.v f 3 h 5.7.x f j A G 5.G t.G A A D G G _ t.t.G A A A A A A A A A x f f x 6.x f a j ,.M f f ,.e.s.6.j k k u u k x A A A A >.l r u p f j G D l.w.j h 6.4.x k f x 4.R.x f x 5.A A A G G A K t.n.t.5.A 5.t.7.A A A G A A A ,.,.f j 4.m f r u x ,.m f j 4.t.w.,.j k k f f A A A A G A z a f f f x 5.w.D w.x h A w.A h f x e.6.k d x ,.A A A B A B x x x A c x h h j j x A A x h h k a r k m k < r k x v f a z x x x j i w r r k x B j h j j f < > e r k x x x f 1 h c f 1 1 f B x f 1 f j x A B B B B B B B j j B x x B h f f x x j l j ",
"4 A G A f f x A A h f x G G x f r d i f x G D D A A G A f k k a j 5.D G A g x w.t.A x ,.w.5.x 1 f v x h j B B A G G G G A A G G A G t.G A c A A A x 3 h K w.c h j ,.A j f f A G A j f f r 1 f c V N N j A x i r u r r f x x h 1 f x x h r 1 g x f ; a x f g h x c c c V j g j A A c j j j c c j j A A h f j A A x x ,.,.,.j f x G A ,.f r d f f A t.D V D A A x f r f f g j A A j f j ,.5.x j x 5.A j 1 r x A A A A A A A c A A j j A A A A j j V A N N A h f x A A j f x 5.A x f x 5.7.x k k k k f j A A A A A A x f r d d a j A 5.x g j G A j j v 5.A j a f B B A G D D D D D G D G G A G G A A A A A c A 5.v f x 5.s.6.j x 5.5.c f f v 6.A x k u k d k x A A A A c ,.x r r a r z A A A h 4 j A A x x A w.A j f j <.A G 5.t.t.A A D G D G G A A A A A B A A A G A j r f x v c x j x ,.,.f f ,.4.6.x f u u u k >.A B A A A <.B k r u u f x G D A g h 6.5.4.x j ,.s.5.x f j 5.G A A A G A 5.K w.K A x v A A B B A 5.A A A A ,.f j ,.4.x f k B ,.x f f ,.5.5.j k k k f x A A A G A G A z r f f f x w.t.5.x g A G G A x v 5.,.k a x 6.A A A A B B B B x x x x j j f j j B A h f h z r r f x x z x x x j f 1 f j j j a r u u u x A j h h g j j u > e e 1 f j j f 1 g x h 4 f x A h f 1 f h h x A B j B j A B j j j x A j j k f k k f l j ",
"4 A A A j j A G 6.h f x A x f r d r f j 6.G G G K G A 6.m k k k f x 6.w.A g x t.D 7.5.5.K G x 1 f x x j x A A G G G G G G G G G D D G G A c A A A c a f G K G G A A A j 1 f A A h f d r r f B A V N A A A B j f r r r a f x z 1 3 x j j h j j h f ; a x j h h x j j j j x h x A A j B B x j j j A G G j f x A c G 5.5.A A h a x 5.B f u d a f v w.D F F D A D G x f d k f g B A j f j ,.7.G A A A A j 1 r x A A A G A A A A A A j x D A A V j j N V A V A h f x G A A A G G A x g x <.>.k k k k k x A A A A A A A A x f d d r r x 5.x g j A G A G A A A j r j A A A A D A V Z D _ _ G A A K K G G G A A c 5.e.A f x 4.s.t.w.w.w.G A f f A 5.x f k u u k A G A A A c x A v h a r r a h A A h r h A A A K K K G j f z A A G t.t.t.K G G t.w.G A A A G G A A A A A A x f r a x c A A A A A m k f ,.4.j k k u u f x A A A A A A A <.m f r u d f x K A g f ,.G 5.4.5.5.7.5.x f x 5.G 5.A A A 5.w.G A A A A c x x x c A A A A A ,.,.f z 6.6.6.A A A A v f f ,.,.x k k k k x A A A G G A G 5.A z d f f f v w.5.j g A K G w.5.A A ,.k f x 5.A A A A A A A B x x j x c x j j j x x j h x x f r f j x A x x j k 1 , f j k f u r u f j B B j g g h h f f w > > e > f j f 1 g B N N j j N j f 1 f x h j A N j j B B B x j j x j j j k f f f f j j ",
"4 j A A A A A A G h 4 x ,.f r u d r z A G A A G G G A A 5.x f k d f x 6.x g x w._ D G G K 5.x 1 f x B A B B A G G G A A G A A G G D A A N A A A A c r g A G G K 5.A A x f f v j f f d r f A A A V V A A N j B j u r u r f x k , 1 x j j j j j g a ; a x h h g x j j j j j h h j B A A x c j j A G G A j f h x x A G A c x f f x ,.f u u d f v G G G D F D A A A G h a d f a h G x a j A A A A A A A j 1 f >.A B A A x j c A A A c c G G V V c j j j A j x h f c A A G G A G G j f x 5.j f k k f x w.A B A A A A A A A x f d u r f A x 4 j G D A G G A A j 1 j s.G A j A A Z D D G G A A G G A A K G A A 5.s.5.v z j 5.5.t.t.t.5.A A k f A <.k u k k f v G A A A x x A x c v f < r r a v A g 1 f c V A G A G G j f x A A A D t.t.K A G G K G G G A G A G G G 5.6.x j j f r x A A A A A B x f f ,.,.f u k u f ,.5.A A A G A G A A A x i u u a h A A g f A G G G 7.G 5.5.h f x A A A A A A A A G A G 5.5.6.6.c c A c x B A A ,.m f k v A A A A A A v f k 4.x k k k k x 7.G A A A A G G G 5.M f f f f h A w.h g A K G G A A A A f a x G A A A A A A j g h j h j A x x j j x j x x x x f r d z h x x x z k 1 , f j i r u u u j B j j h g h j h i f u > > w > r k f 1 g j j j j j j x f 1 f A j j j j j j B j j h h j h f h h j z f j x j k ",
"4 c A A A A A A A h 4 B x f u u a h A G A G G A G G G A G ,.j k d d h ,.M g x 5.t.G G G G G v f f A A A A A A G A A G A A A A A G G A A B A A A A x f g A D D D G A A x f j ,.h f f u f B A B N A A x x j j j x j a r r a x j , 1 x j j j g g g a ; a x h g h c A c c A h g g h A A A A x x j A G D A h 4 h x c x x A x x h f v v f u r f v 5.A G D D D V A G D G A j r d f g A x f j A A A A A A A j 1 f A A A A A j h j A A A c A G D V V A A V c V V A j g c A A A A A G G x f ,.,.j k k k ,.7.G A A A A A A G A A 5.x a u f f x x f j G D D G A A G j f x 7.D A A N A D D A A A A A D G G G A A G D t.w.5.A k j 5.w.w.t.t.5.G A j k A >.k k p k x A A A A c c c A x c v x f r a a h v h 1 h A A A D Z D G x f x <.A A G _ _ G A G G G G G G G G G t.G G 5.A x x m f r x A A A A A A x f f ,.x f k u f x 7.7.D G A A G G A A A <.x u u f f A 5.g f A G G G 7.G 5.A j f x G G G A A A c A A A A G G G G x B A c x j v 5.,.,.f f ,.A A c A A 5.A f l 6.m k k k B 7.G G A A A A G G G t.5.v f f f h A 5.x g A _ G D A A A A k f x A A A A G G B g f j B N N B B x j j j x x x x v f 1 f x j j j j j z f 1 k x i r u i k x j h h h j B j h h f k d e e r r f f 1 j N j 5 5 j j j f r j A x j g j j B B B x j x j h h j x x f h j x j k ",
"4 A A A D A A G A h 4 x x f r i h A G D A D A A G A D G G G 6.k u f h 6.,.f x w.D D D D G 5.x f f A G A G A A G A A G A c c A A A D A A A A A A A x f h A V A A G A A x f z A j f r r j A A N N N j j j j j j B x f r a a z j 1 a x j h g f g j f = 1 z h j g h c A A h h h x A c c A A j j j A D D A f f j c j c c x c A h f x v f r f v w.G A G A D A A D A A G D A f r f h A x g x x B A A A A A j 1 f B A A A A A A j j A A j A G A A c A G G V V V A j 4 c G A A A G A G j f A A j k k x s.D A A A A A G A A A A A A f u d z v x f j G D D G A A G j f x G D F A B N V A A A c A A A G G A c c G 5.G G w.A k j 5.w.w.w.5.5.7.A k k A A k i k v G A A c j j A A j x c c 6.x d e r f x h f x A A A V Z A A j f j 5.A A A D D w.G A G G G G G G A A G G G A A x ,.,.f f x B A A A B B x z f m ,.k d f j 5.G G G G A A x x A B A A 5.j r r f A 5.g f 5.A A G G w.w.6.x f x G G 7.7.A A A A G G A A G G A c j x c x x ,.A x x f k ,.v x A A A A A f j 6.m k f x 9.7.G A A A A G G A G A G G j f f h A G j g A G G D A A A A f f x x A A G G A A x j B A N B A x j f f j x A x j x f r k x z j j f j j a 1 l x r 1 r f x j h h g g j B j h h f k k r < < r f f 1 g j j j j j j g f 1 j B j c j g j j B B B j h h j j j h f f f j j x k ",
"4 c G A A A A D A h 4 x x i 2 j G D D G G A A A G G G G G 5.e.M f r z 5.5.h x w.K G G K G 5.x f f A A G G A G G G G A A x c c A D A D G G A D A G B f h G A A A A A A x f j A j 1 1 j A A N N N j j N j j j j B A A f 1 f j j f f A j g g g h j f ; 1 z j x h g h c c h f j c c c A A A x j j A G A A h f j A A x A A A ,.h f x x 4 f A G G G G D A A V Z F D D G D G A f 1 j G A h c 5.A A A A G A j r f A A A A A G G A c c j h j A G A A A A A D D V A j g c A A A A G A G j g A >.f r x 4.A A A A A A A G A A A A A A M k r h ,.x f j G D A G A A A j f j G D F D A N N D D A c A A A A A j j c A A A A 5.x f x 5.w.t.G G 5.5.A j k <.B f f A A A A D V j j A A A c j A A 6.x 1 1 k v j f A A c c A D G A j f j 5.A G A A D G A A A G G G G G A A G t.G A B c A ,.x f B A A A B B A ,.j f ,.,.f a x 5.G G G A A A A B x x A A A A ,.k r f 5.5.h h 5.G A A G w.t.5.j f x G G 7.t.w.G G A A 5.A A A 5.5.A c c c A A A A ,.m k j 5.A B A A A 5.,.f j 4.x i k 4.5.G G G A A A A G A A G A G A j f g A G j h A G G G A A c v f f x x x c G G A G A A x B B A x j f f h x x x c x x f r z x h z j h j x r < l x 1 1 f x x x x x h f f j x f f f j j k w = 1 j f 2 g N j j j j j h 2 1 j B j j j g g j A B h j g f j j h f f f h x j j f ",
"4 c A A c A A G A f f x x 2 f A D Z Z D A A A G G G G D G K K 5.x f h w.6.g j 5.t.K G K w.A j f h A A G G A A A G G A c c c x c A A A G D A A A G x f f A G A D A A A j f j A f f j <.A V V j j V A N j N j N N A A x f 4 j j 1 f x x j g g h f r ; 1 j j j x g 3 h h f f j x c A A A c x x c A A A x f r f A A c A A x x h f x x j B G G A D A A D D V Z D D A D D F G c g j G A f x A A A A A A A f a h v A A A A A A A c x h g j A A A c j N A A A V A j g j c A A A G G G h g A ,.f f ,.5.A A G A A G A A A x A A c A ,.x f f A x g j A G A A A A c f f h A D Z A A A A D D A A c A K A x j x A A A A A c x f j 5.w.G G w.5.A A j k ,.B f j G A V A D V V j j A A j x A A 6.5.h 1 j 6.j f v G c c A A G A h f j A A G D D A A A A A G G G A A A G 7.7.G A A A A 4.j f j B A B A A <.x f f ,.v f x 4.w.G A G A A G G A A A A B A A G ,.f g A A h f ,.G A A 7.5.s.,.j f x G w.G 5.K G A G A A G A A A A 6.A c A 5.5.A A A x f z 6.A A c A G 5.x f j 4.x f A 5.A A G G G 7.A A A A A G A A G A j h c 5.j g A G A A A j A x i i x c j c A A A A A A B x B B j f f h x A x x A ,.x r 1 k x x f z j j k 1 , k j 2 2 j x h x h h x f f f l f f f f j x r , f j h 2 4 N N j j j j h 1 1 h B j j j j g h x x g g f f f h j j f j x h h f f ",
"f c A A A A D A x h f x B h A A D D F D A A G G G G G G K w._ w.5.A A 5.A g j A 5.w.D t.5.x j f h A G G G G A A A A A c A A c c A A D D A A A D A x f f A A A G G A x h f h A j x G 7.G D V A A A A A A B j j x A A A j h x j 1 r f g j j h h f 1 ; f x j j c h g h h h h h j A A A A A A A A D D c x f a f x A A A v j h f f j G G G A A A A A A G D A D D _ D A D D D D V N A c f x x A 5.A A ,.x f a z A A A B A A x A A x j g x A j j j A A A A D D A j g x x c A A A G A h g 5.6.v A 5.A A G G G K G A B B c A A A A <.5.A x A A f h A G G A G A h f f j G G D D D D D G G K A A A G A A A A A G A A c x j f j ,.5.G G w.w.A x k f A A x A G A A A V D G A A A A A c A A A 5.A c A 5.j f j c c D A D A j h f x 5.G G D D D G D A A A K G A A A G w.t.7.A A A 5.4.j f x j x A A A x z f k ,.,.c w.s.G K G A A G G A A A A A A A A A A A j A A h f ,.A A G 7.w.6.x j k x e.w.w.5.A A G G 5.7.6.A A A 6.A A A 5.G G 5.A x m k k M A A A G 5.A x f j 5.A A 5.7.D _ G D 7.D G A A A G G G G D w.A c A 6.j f x A G A B A x z r f x A A A A A A A A A A j x x j f j v A A 6.6.A ,.x r e k x x j j j f r 1 , f j g h x x j j h j x j f f f j f f f j j j f h B h 2 f h j j N j h f r 1 f x B A A A j h j h h f f f f f h j j j j j j f f ",
"g x h j A A G j h j f x A A A Z Z Z D D A A D G G D G _ K K D D K K G G A g j x j G t.5.h h m f h 6.A A G G G G c A A A c c A A V A D A A A D A A h r f h h c 7.7.x h h f f A A A G A A A j N A N j A A j j j j j j B A c x f 1 r f 1 g x h 1 a r , f x j j j j h h x j h h h j A c A A A A G G A j j f r a f x A x h a f f f x G D A V B A A A A A A D D D _ V V A D D D A A G x g j j x 6.A A x f k f f A A A A c c x j x x h h j x j j A G A V V V A A j 4 x h g x G A j h h g A 5.w.G A A A G A A A A A B B A A A A A B A 5.A A A f h x h B 7.A f f f f h A G D G D G G A G G A A A A A G G A A A A A A ,.j f z j x A K e.A h x j f A G G G A A A V A A A A A c A A c c A B A G 5.G A f f f f 6 A K A j g h f j 7.G G D D D G D A A A G G A A A G t.7.A A A A 5.,.f f x f f A A x f f f f A 5.5.7.5.A G A c A G A A A A A A A A A A A A A A A g f x j c w.w.5.j j x f x w.5.5.A A A A A 5.A A c A A A x A 5.G G A A x x m k k z f c 5.5.B x x f j ,.5.7.G G t._ G t.7.G G A A G A A G G A G K G A v k 1 f h c A A B j f r f x A G A A A A A A A A B c x h j v 5.A A G G A x j r e r f x x j f r r < < f x x x h h g g x j h j f f h h f f 2 f j x x B j f 1 1 2 4 h B g 2 2 r 1 f j x j j N j g f f h h j f f f f g h h h f f j k ",
"f v f f A G j g j j f x G D D D Z Z D D G A c c A A G K K K G G A G G t.A g x A h x A x h v ,.f h 5.G G A G 5.G G A A A A c A A A D D D D D A G A j a f v h f ,.A h j x f j 5.G B B A A N j j N A A j j j j j j j j V A A A f 1 f j f f f f 1 f f 1 f A A c x x x h h j h j h h j j B A A A G A A j j h a f f j v h 3 f x j f x G V A D A A G A A V A A G G _ D j c G K G G D G x f x x h x 5.v h k x f h A A G D G A B A A B j B j j j A D D D D A V V A j g x j 3 h c g 3 x x h 6.5.G A A G D G G A A A B A B A A A x x x A A A 5.A f j x f j ,.j f x x f h A A G K D G G A c A K G A A A G G A G G G A A A x k j x f c s.,.k h x k f 5.K A D A V V A D D A j c A A c c j c A A A A A A h f z h 3 j A h 4 x B f j 5.7.t.t.D G G G G G G G A G A G 5.5.A A A A 6.5.,.f f m j f x ,.k f j z f ,.5.5.G A A A A A A G A A A A A A A A A A A A A G v g f x x j A e.x f x ,.z x w.G A A A A A A B B x A A A c c A G w.G A x x x m f k z f x 5.A h x ,.z j ,.w.5.G G G w.t.t.K G A A A G G G A A A A G 5.G <.j f j h g x x h f f f f x A A A A A A G A A A A A c x B A A A A A x x x x f r k f k m j r r f r < k B B x j h h h j x x B x h h h j j f f x x x h h f 1 i f 1 f j g 1 f f 1 i j g g h j g f 4 f g j x j f f f f h f h f f f d ",
"f A z f h x g h ,.j f v D V D D Z Z V D D A A A A A A A G A A A A G G w.A g c e.A h f j A 5.x f j A G A A A A 5.t.G A A A A N A A V D D D A A A A x f z e.c f f h x A x f f A A B A B N A B N j N j j j N A A N A A V V A x f , f ,.x f 1 ; a f f ; f j h j j c j g 4 h h j j h g j j j A A A A j j x f r z x f f a f x x f f j A V V A A c A G D D A V D D G _ A A D D D D D A x f x 4.x f j h j m m f f G G A G A B B A N j B A B j j V V V A V c c c A h 4 h x g 4 3 4 j A h g A G G G A G A G G A A G A A A c G G B x B A c A 5.x f j 5.x f f f x ,.z f j A A A A A A A A c A A A K G A A A A A A A c A A v f j 6.j f x k f A ,.f f 5.K A A A V V V V A j j A A c c c c A c j j B x A j a j A g 4 g 4 h A x f h A A G G A A G G G G D G G G A A A c c A A A A 5.,.f i ,.,.h f z f m M f f A 5.A A A A A G A c G G A A A c A A A A A A A A A v g f 5.5.h f x j ,.,.x f v 5.A A A A G A A A A x A A B c c A A G A j j x x x a f m k f h h j ,.M f j 5.5.G G A A A t.G A K A B A G G G A A A G A G 7.5.f f x A f f f j j j f a c A x x B A G A A A A A G G A A A A A x h j c A x f f M x f f f 1 f x f , f A j x j h j h g j x j h g h h f f f f h x h g f f 1 f x f 1 1 1 f f f 1 f j g j B j h h j f 4 h j h f f f f f f i f f r r ",
"g c x j 4 f h A A f f x G A A D D D G D D D G G G G G G A A A A G G D _ A g c 5.5.6.v 5.A c v f x G G G A A A A K K G A A c A A A D A A A A A A A x f z A v j g h A A j f f A A B A B B V A N N j j j c B A A A A A B N A A j r f x A j 1 1 f k f 1 r f 4 4 j c x g g h j h h h j j j A A D A N N A A j a j x j f f x x x f f x A V A V V j j c D D A A D D G G D G G G w.A D G x f x 4.5.x f z ,.x x f h G A A j j N A A A A A A A A A V A V N c V V A A j 4 j c c j 4 h x x j g A G G G A A G G A G G G A A A A G A A A A A A A 5.x f x 5.,.f f j 5.6.x f x 5.A B v v A A A A A A A A A c c A c j j x x A 6.A h x 4.5.j f j ,.5.,.k f A G G A A A A G A A c x c A c A D A j j h j x A A j f j ,.c h g j A A j f j 5.A A A A A G G G G A A G G A A A c A A 5.A A 5.,.k f x A A h f A s.x k f ,.G A A G A G G A A G G A A A A A A A G 7.A A c A A h h ,.4.A f h 5.s.,.x f x A A A G G G A A G A A A G A A A A A c c j j A A x f k M ,.f 1 f ,.x x z j 5.w.5.A A A A G 5.G G A A A G G G A A A G A G G A j f j v x f g c ,.x f f x A B B x A A A A A A A v v A A A A B x x c x A M k k x x j f r f x ,.f 1 f B x j h j B j j x x g i f h h g f f f a h j h j k r f x j i 1 f j g f 1 f j h j j N j h h h j h g f f f f f f f i i 1 r r ",
"g x x c h h A A h f f x G D A A V D D D D D G G D G G G A K K w.G D G _ A f v v x 6.s.e.j x v f x w.K G G A A A A A A A h h A G V V N N V A A A A x f x v x A <.A j h h f g x j x A A A N N N B N j j c j j N B j j N N A A j r f f h j x j f a r < r f g h j j x j h f x h f f h j j A A A A A A B B j r f j B x x A h f a 1 j A V A j V D A A D D D D D D G G D D G G A A A G x f x ,.x ,.v v x z z f f A A A j j j B A A A B h j A A V V V V V A D A A j 4 j j j A A x g j j g c 7.A A c B A A A G G G A A G G A A A D A A A A A x f x ,.,.x M ,.x x k f j 5.A B x v A A A A A G c h x A c c c A x c A A A A z j A <.,.B ,.>.j x k f A A A A c j j A A A A A j c A A V V j j c v j c c h f z h x 5.6.A x j j f f A A A A A G G G G G 5.c j A G A A A A G G A A 5.,.f f x j A A 5.A x j z f A G A A A A A A A G K A A A A G A A G A A B j j A x h f x x ,.v v t.A x x j j A A A A A A G A A 5.5.x x A A A A A c j j A c v m f f x ,.,.x ,.,.j x z f ,.5.G 7.G G G A G G G A A A A G A A D A A G G A A h f j h h A ,.x j j f f j A A A B x c c c c A x g g c A v v A B x c x x M j f k f l x x x j f 1 1 f x j j j h h x x j h f f f f f h f f f f h h x h f r f f j j f f h f f 2 f j j j j j g h h h j f 1 1 f f i f f i f 1 a f a ",
"f v g h x A A h f j f x G A A A A A A A A A D D G G G G G K w.t.K G D t.A h A x z x e.6.j x M h x w.t.7.G A A G A 5.5.x f f x G D A A A V D D D A c f x x f c s.A g g j f g x x h x A A A N A A A N j B j x j h h h x A A A x f f f 1 f A x f r r r f j x j j j j j h x x f r r f h h j j j B A A B A j 1 f f f c A j f f f 1 j D D G A A A G G A G D G D D G G G G A A A A G G x f x m f x 4.A z z x f h A A A A A B x A A x f 1 f j A A V V V V V Z A D j g x j 4 A t.x f h x f v G A A j x c A G G A G A A A G G G A A A A A A G x f x A j h ,.,.h f k f x <.A A A A G G G G K A j f h A A A G G A A G A A A z j M f x 4.,.k f x k f x A x x x h g j c A A c A A c j j j j c A A A x j h f x j f 6.e.j f j x f j A A A A A G D D 7.5.A f f x 5.K D G G G t.t.G w.,.f f x h h A s.A g f j f A A G A G G K A A G G A A x A B A G G A B j j B A B f j v h j ,.w.A h j ,.j B 7.G A A A A A w.5.4.x f f x 5.G A A A A A A G G ,.k j x j ,.4.5.j j x j k ,.5.G G 5.t.7.G G t.G c c A A A G G G G G A A A A z f x h f ,.4.j f f f f x A A G A A c x c A A h f f j A A A B A A A A c x j f k f a x 6.j 1 1 1 r k x h x x h g f g f f h h g g f h j j j x x x h j k r k f f j x h 4 4 f f h x x j j j h h j x j r < r f f f 1 1 f f f i f f ",
"f x f 4 h A x 4 h x f x G A G G G G A A A A K G G G G G _ K G G G K _ t.A f v x f j ,.x f x x z x w.t.G D t.t.D w.t.x f f f f x G G A A A A D A G A g j x 4 f x x f f j f f c A h j A A A A A A A A B j j j h g g h x B A A j f f k r r x j r r f 1 3 x c j j x j h j j f 1 r r 1 f j h j j j j A A x g 1 f f 1 j x f 1 f f 1 z A A A A V V G A A A A D G D G G G G A A A G G A x f x x a k ,.x f z x g f A A A A A A x A A f r u i f j A A N N V j V V D j 4 x j 4 g c g 4 j h g x A A A A A x c G A A A c x A G A A j B G A B A G x f j x f a j x a f j f h A A A G A A G A A A h k f h x A w.G A G G A G 5.c h x v f f x j f f x k f x A x c A A c h j c c c A c j g j j j j j A A h h f f m j 3 z x f a j j f h A A A A G G G D 7.,.h f f f c w.D G G A D D G 5.,.f f x f a j ,.j r h j f A G A A G A A A A A G A A x c A A A A A A B A A A x g h v h f j <.x f j ,.l B 7.G G A A A A 5.4.m k k k f x G 7.A G G A A G t.A f j x f f x x f f m z f ,.5.G A G G G t.t.G G A x c A A G A A A A B B A 6.j f z k f j x f r z f f x 5.A A G A A c A A j f k z j x A A x x c c c A x f r k f 1 f z f r f k r f B j B j j x h g f f g g f f g h h x x x x j f h k u k f ; f j f 1 f f f h x j j j j h h j j r # % q e a f 1 1 2 f i r f f ",
"f x f a f j f f j x f x G A D G K K K G A A A G G G G t.K G A G K n.t.7.A j m x k z m z z x m z x w.t._ K w._ t.t.A j k k k f f j G D D V V A D G A g j x f a f f f g j f f v A j x x A G A A A A B B B c j j h j B B B A A j f k l u u d d 1 d f f f x x j x x j x j f 1 r u u r r f x B N B B A A x f 1 f f a f f f r f f 1 j j j j j A A A A A A G G G G D D G A G G G G G 7.x f x x f f x f f j x h h G A A A A A A 5.j f u u f f f h A A V V N N V A j f x x f f g f g x x f x A A G t.7.A A A G A A B x c A B j j c A A A A A z f j k k d k f a k j f x G A A A G G G G v h f k z z h x G K G G G A A 6.v z x ,.k f k f f k m x k x A A A G K G A j j j A A j j h j j g j j A x j j z k m x a f f d f j x g j A A A A G D t.t.,.j f f k k j A 7.G D D G G G G ,.f f x k f f x f f j j g A A A A A A c c A G G A A G A A G A A A A A A G G A f f ,.j f f x f f x x j x K G A G G G 5.7.>.k k k k k f A 7.7.G G G G A G A f x x f f f f f k ,.j f A 5.G G G A A G G G G A c j x A A A A A A A A A 6.x f x z f k k d f z f f A 7.G A A A A A A z f f f z j j x x B x j j c A x f r k f 1 1 r u u k k f z B j B A N B N j h f f f h h x B j h h h h j j x k u k k r k k f 1 f f f j B j j j j h j j r > % 9 q < 1 k k f f h h f h f ",
"g x f f r f d f j j f x G V A G K G t.t.5.A A A A K G G G D G w.w.w.t.7.x f x z k n k n z x m h j G D _ K G w.w.A j k l k k k f f h G D V V V V A A g j x f d d a f f h f f x A A B h c A A A A j B A B j h j B B A B B c x j f k l u r r r < a f a f x j j j j x j f 1 r f u u u r r h A B j j j j x g r f k a f r r f f f 1 z h 4 j A A N A A B A G A A j V D A A G G A A G G x f x z f f f f f f x h g A A A A c A A x f u u u d k f f h c N j j N j c j 3 j z f f f f h j x f x A c A A A A A A A A B j j j j j B B x x A A c A j a z k d u a d d k x f j G A A A G G G v h f f k z j j j x A 5.G G G A 6.x f x ,.k k k k d k x k k x A A A A A A A c j j x j h h c j j j j j j g h x j f x z d d d d d f x h j A A A A G 7.t.A j f k f k j f h A G G G A A G 5.,.k f x k f f f f f f z f x c c A A A A A A A G A G G G A A A A A A A A A A A f f x k f f f k k k x f j A A A K G G 9.,.k k k k k k f k x 5.5.G A G A G A f j m k f f f i f x f f ,.6.A A A A A A A G t.A A A A A A G A c c A A A v j k x k u u u u u k j f x 5.A A A A v c z f a f f f k k f j x B j j x x x f 1 f f 1 r r 1 r k u r j x g j A j j j B x j g f g j x h g g h x j h h j k r k k r d k r r f k f f x j j j h j x f < q 9 q q r e r k j f f l h h f ",
"z x f f f f d f j x f x G D G D K G G G A A A A A A A K G A G t.t.t.t.t.x f x k k n n n z m m z j K K K K K w.A x j x z k k k f f f h D D Z V V A A g x x a a d d a f f f 4 A A j j N B A c j c c c B j j j j A A B A A x x j f l l u u r r r d k a f x x j j A x z r r d f k u u u f f h c B h g j x f r f f a d d d d f f a h h j A A A A A B A A B B j j B G G G D A G G G A x f x z f k k f f f j h g x N A A A A j f f k u d d k f f f j c V j j N A g a j z a f f f f j x f h A A A A A B x A A B B B A x c c A A A A A x v ,.j f x k d u d d d k x f j A A A G 7.A v j z z f k z x x x j x 6.w.G A G 5.,.z x m k k k k k k m k f x A A G D A c c c c x j j j j B A A A A A c j j x x f x z d k k d d k x h x A A G G 5.5.x j k z k k k x z k k x G G A G G 5.<.j k m k d f f f f h j f h c A A G 7.7.7.G A A G A G G A x j B A A A G A A A g f m f k k k k k j x f j A D G K w.s.,.f k k k k k k k f f x 5.5.A G A G ,.k x m k f f d u f z k f ,.5.G A v A A A G t.t.G D A G G G G A A A A A A v j f z k u u u r r k j f x A B A A A x f f f k k f k k k k z x A A B B x x f a f f a d r e u k d r f j j j A A B B N B x h f g h h f f f x x v x h j x d k k u k d u r k k a f h x x x x x f u r q 9 q e r e q e f f f 1 f f f ",
"f x f u f u d k z x f x G A G G A A G A A A A A A A A A A A 7.t.t.t.D 5.x f x m k n n n z m M z j t._ Z _ t.A j j x z k f f f f f f 4 j D D V V A j f z x f a d d r a f 4 f A A j A B B A j j c c j j j j j j x A A A B x A x f k l r r r r r r k a f x x j x x j a r r u d d d u d k f f h x B h h x f a f f u r u d r k f 1 f j A A N A G N j B A B A A G G A A G A A A A A c j f x z f k k f f f j f g A A A A A x f f k k u u k f f f 4 4 j V N j j x j r k h a f k f a z x f h c x j A A B x x A B x B A A A A A A A j j x A ,.j f x k u u d d u x x f j A A A 7.5.v j x j z k z x x j x x x v 5.5.7.G A A z x x k k k k p k x k d x A c A G A c c c c j j B j h j A A A G A j j x j z f k k r k k a d z x h x G A A G 5.x f k x z k k k z k k k k x G 7.5.G A <.j f m k d f k a f z j g x G A A G A A A A c c A A G A j j B A B B A A G G A f f x k f k k f f j x f j G D A G s.,.k k k k k k k k k k f h x 6.7.7.A G ,.f j x k u f f r d z k f A 5.A A v c x A G G G D G A A A G G A A A A x A A k u k k u u u r u k f f x B j B A x h f k j k f f k k z x x j x <.A B B c g a f f r d a r e f d 1 a h j j N B j j j j h f f g f g g f j j j x x j x k u k k u u r u u f f r f x x j x x f r r u q % e e e e q > e k k r 1 f f ",
"h x f d d k k k x x k x G G G G G A A A A D G K G A A A G w.D t.t.t.w.5.A k m m k n n n z m 6.j x t.l.l.n.G x j j x x k k d k f f f f 4 j D F D D j f z x f d k d a f z f h A A A G A A B A c c A j g j x c x c A A B j x A x f j x u r r r r u k f f x c A A h f f f u u u u u f k k k f f j A A j x h f f f r r u r a z f a j A A A A G A j B A A A G G G G G G G A A x x B A v f x j f k k k f f j f h G G G G x f k k k k f f f f f f f f g j G V j c j f z k f f k f f j j f h A B x x A A A A 6.x h h j c A A G A x h x x A ,.x f x z d d k d f x x f x 5.7.s.7.x j x x x j j x x x x m m x x x 7.F.9.4.A z z x k k k k k k x k f x A c A A A A A A A c j j A j j c c j j x c c c A j f k k u d d d k x v h x 5.G w.5.x f k x x x k k k k k z j f h c 4.s.7.5.,.j k x k f k k d f j j h A G A G G A c A A A c B A A B x x A A A N j A G G A f f x k k k k k f x x k x t.G K w.,.z k k k k k k k k x x j z j x 7.t.G K 6.j z x k k d d d k x z f ,.5.G A A A c G 7.A c A G t.G A B x A A A c c A A j d k k u u u r u x f f x A A 5.x f f j j j j z k k x x x j j j x A G G A f 1 f f r u u r u k f 1 f h h j A x g g h j h f f g f f f x x h f g j x x j u k k r r r r u k z f f B x x x f r r d u e > e e e e r r e r k k f f f ",
"f x f u d k k k x x f x G G A G G D A G G K K K K G A K K K G D D D w.w.,.j M m k k n k z ,.6.j x s.B.n.G x x x x z x z f u f k f f f 4 4 c t.G A j f z x f u d k r f x f g A G A A A j j A j j A j 4 h c j c x c A A B A c x f f x u r r e r k x f f x A c j f f k k f d u u d f k f f z z k j G A c g 4 h f 1 r r r a h f f x A j A D A j j A A j A G A A A G D A A j j x 5.5.x f x x d k k f f f x g h A G D A f k k k f k f f f f f f f f f f c A c c g 4 z z a d k f f f z f h A A A x B A A A A h f h c j A G A A x x A x c A x f x m k u d k f x x f x 9.s.9.,.x j j x x x x x x x x x m x x x x 4.s.s.,.f z x k k k k d k m f f x A A c x A A c j x c j j A c j j x g 4 j c j A 5.x f k x u d k k k x M f j 5.w.w.x f k x x x x k k k z j z k j z j x 5.F.7.5.j k ,.x k k k d f x j h <.A A G A A A A G A A B B B B A 5.A B A N B A A A A g f x k f k k k f x x g x t.D w.,.z k k k k k z k k k x x x j j j B 5.w.w.A f z m k d d k d k m f f A 5.G 5.G A A G A A A A G G G A j h c A A A A A A j f k k u u k r f x k r j <.5.B k f k j x j j j f f k f f k l j f x 5.5.A f f f f r r r r d k f 1 f j g h c x g g h j g f 4 g f g h x h h 4 f z j j j d d k r r r r d k k f j B x x f r r u u r e q q r r e u e e e u k k i r ",
"f ,.k u d k k z ,.,.h A D D t.t.G G D G A A _ _ K G D _ _ _ t.D G G D 7.6.j v 4.m k k k x 4.4.j x J.I.G x x x x x j x x k f d k k f f a a 4 x G G j f j M k a d d d x c f g A G A x j j j j j j A j 4 j A c c c x A G G A A j f j x f r r r r k m f f ,.,.j f f k f f k f k k k k k j j j j k z x A A g f x j a r u r f x h g A A V A A A A A A A A B A G A A A A A A B x c G s.,.k v x f k k k f j x g h G G A j l l l x k k k f f f f f f f f f g j A A j 4 j x f d k d a j x f x 5.G A A A x A c A x h c A A A A G A A A A A A 6.x k ,.6.z k d d k M x f x 7.9.B j j x x x x x j x x x x x x m m m x x ,.4.,.h x ,.x k k k k x ,.k z ,.A A A A A A j j j x h j A B j x A j g h v A A 5.x f j m k u k k k M x f j s.e.M z z x x x x m x k k x x j x x j j j x ,.I.4.x j 4.m k k k f f A j h 5.D G G G A A A G 5.G A A G G G G G A B A A A A A A f j 6.j k k k f k ,.x f x t.t.A x k k k k k n z k k k x j j x x j j A 5.t.5.j x 6.z d k k f x 6.j f ,.s.5.A A A 5.G A A 5.A A G A A B x x A A A A A A j f x x d u d u k x k a x 4.m k k k l j j x x j k f f k k k z x k k x <.,.h f j f 1 r r r k x z r f x h h j j j x x h h j h h g h j j j h f j j h j j f k k e e e r f z k f j ,.x f r r r r u r r e u r r u u r u w e u k k k ",
"f 5.x f u k d x 4.,.f x D D G G A A D D A A G _ G A D t.t._ D D G K G 7.5.j v R.m k k k j 6.5.h x s.5.x x x x x x x j z k f d d k f a d a 1 f x A x f j ,.z d s u f c j f f A A A j j j j j j j A j g g c c c c x x A G G A j f f x k r r r r x M f f m j f f k z f f f f f k k f f j j f j z k f x B h f x x f r r r f x h g A A V N A A A A N A A j A A A B B A A A A A x A 5.x f A ,.z f k f f x x f g G A h f f k k k l k f f f k f k f f f f f g j A j 4 x A g r f a a x x f x 5.A A A A x j j A x h A A A A A A G A A A A A A x f x 4.x f d d f ,.x f x <.x k l z j x j z z j x x x x x x m m m x x x ,.,.j x 4.x k k d k ,.<.k z 6.A B A A A x h j c j h j N A j j A c h g v 6.A ,.j f j ,.z r d k x 6.x f j 4.x j k x x z x x m x k z x j x x j j j k k x 4.T.x j 4.6.k k k a z 5.h g A 7.G G A A A A A G A A G A G A A G A x A A A G A c f j 4.M k k k f x 5.x g x 7.c f k l k k k k k k k k j j j x x x x j x v 5.9.j x R.m f f d f m ,.f f ,.A x x B A G G A A 6.A v A c x ,.x x c A B A A A j f M ,.f u u d x x f r j >.k f k k l j j x x j z k k z k k k k x k f x ,.f f j j r r r r k m h r f x j f g g j x h j c x h f 4 j j j h h j x k g j f r d k e > e r f x f r f ,.k u r u u r u u e w u u r r r r q w q # e d k ",
"g 5.5.x f k z ,.s.A h v w.G A A A G D D A A D G A A G t.t.t.D D t.w.G 7.4.j v R.4.z k k A s.5.h x s.5.x x x x x x j j z k f k k f f f f f a r f A c g x 6.v f r f x A j f f <.A A c B A c j j j B j h j j j c A A c B B A A x f g ,.x f r r k ,.v f z v j f z h h f f f f f f f f z k k j j x k f j A j 4 x 5.j a u f j A h g A A N A A A G A A A B x c A A A A A A G A A c A A x f A s.M f f f x 7.A g j <.x f f j l f k k k f f j x z f f k k h g g g A j 4 c 5.j f 3 f h G A g x <.A A 5.G x j x A B x x A G G A j A G A A A A 5.v f x 4.6.k d k v ,.x f x 5.x k x l z x x j z x x x x x x x m m m m z j 6.e.x x e.e.z u k m 4.<.j f A 5.5.A c c x x B A c j j A A B A A A x c A x x A x f x 4.x f u f x 5.j f j ,.j z m x x j x x x z x j j j j x x j j l j j ,.4.x j 4.e.x f d f x A j g A K K A A A G G G A A A G A A G D G A B A w.G A A c h j 4.T.x k k f ,.5.j g A A h z x x k k k k x z k z x j x x m x x x x x 4.4.x v E.e.z f f x 4.,.f f m j h j A G A A A 5.5.<.A x x A A A A G G A A A ,.h f A 5.j r r k ,.,.f r x >.k k k k z j x x x x x j x x x x x x x k f x ,.j f x x f r r f x v f a j x j h g f g h x x j g f 4 4 g h x h h j x j h j k d f m d e e r x x f r j m k u u d k u d r r r u u r r r r u w 9 % > u k ",
"4 A 7.A z f x 4.5.x g c G A A B A G D D D A D D G G A K t.t.D G G K t.t.,.f x s.s.v f x s.t.A f x e.,.x x x x j j j x j k f k f f f k f f d a f A x f h 6.A h f j A A j a 1 x A N c j j c A j j j j j j h j j x A x j j h x x 4 g A x f r r j ,.x a j v z z j f f h f f f f f k k k k k j z z k f h A h 4 j A x f r h v x g f j B D A A G A A A j B A j j A A A A A A B A A x c j f x s.5.x f j 7.7.x f h A h f l l f f f f f k j z h f f f k f h g f g c c 4 j G A j 4 h G G h f f B A x x x c A j B A h g B A G x j x A G A A A 5.x f j 5.6.x j m ,.A x a x 5.x k k k k z j x x x j j x x x x x x m x z x 6.6.x x 5.s.m k l 4.4.B f f A A A x h x A B j A A j j c B A A A x A 5.A h h x j f j ,.,.x f x ,.A h a j T.x k n x l x z z z z z k j j j l l j j k l j B 4.x f 5.s.v f f x 5.A j f x A A A G A G A A A A A G G A G G A A A G 5.A B A A f h 6.e.,.k k ,.4.A j f x x j j x z z x z x x x x j x x x x x x x x x x 5.4.x x I.I.A f j 5.5.x f f m >.,.,.5.5.B B A A A <.B x ,.A A A G G G A A A x f 3 x 5.A j j ,.A x a a ,.4.k k k k k j j j x x x x j j x x x l x j z x A h f j A j r 1 j M j a 1 j x h h h f f g g h 4 f f h f 4 g h h h g j j h h k d d x m k u k x j r 1 f m k r r r r k u u r r u r r r r r r q q 9 > u f ",
"g A G D A v G t.5.x g c 5.A A A G G D D G G G G G G D _ t.K A A A G w.w.x f x s.t.5.5.7.l.t.A f c I.,.x x x x j j j x j k f f f f f f f f f a h A c f h G A A A A A A h 1 1 h A A A j j j x j 5 4 j A A N c x c A c B x x c x f g A A B j j A A j f x 6.j z j h f k f f f f f j z f k j j z j k f z x j 4 h A A x h x A c f 1 h x A G G A A A A c A A c x x A A G A j A A A c c x f x 5.7.G A G t.7.x f j x z z j f f z k k j j j h f f f h h f h h g g j j 4 j D A A A D G A h 1 f x x x x c A A j A A h h j x A x h x A G 5.G 5.5.x f j 5.5.5.5.5.5.A j f x 4.x k l k j j x x x x x x x x m m m x x x j x 6.5.j x w.s.4.<.<.9.5.A f j A j h h h A A c A A A B A A A c A A G G G A x x x j d z ,.5.<.<.6.5.,.h a x R.x z z x x k k k k z j k k x x l l j j x j j A 4.j f ,.t.K A A A G A x g x A A G G G G G G D G G G G G A G A G G 5.A c A A A h j 5.w.5.A A 7.G A j g B A j x m x x x x x x x x x x x x x x x x x j x ,.4.j x s.I.t.5.5.w.5.x f f ,.5.5.5.A A B A 5.5.5.,.A ,.,.A A A G A A x c A A f r x 7.7.7.G G G c f f 4.4.j k k k x j j x x j x x x x k z l x x x j x ,.j f h A B l j x x j r < k x f h x j h f h h g f x x j h j h j x j j f h x z r d x m x x x x j f r j M k e r e r r u u r r r r r r r u e y w q e d k ",
"4 A G D G 7.D t.5.h g A G G G A A A G G G G G _ G D G _ K A A A G G A A x f v e.w.t.t.t.t.t.A f c s.,.j j j x j j x j j k f f f f f f f f f f f x x 4 g A A A A A c B h 1 a x c j j j j j j j 4 j B j j j j A c x c B B A c j 3 4 A A G A A A j j f x M j z h z k f k f f f g f z z z k j j k k f z x x a f j A A c A c j f 1 f h j A A A A c j A c A A c j c A A x x A G A A A x f j G G D 7.D D G j a j x z z k f z k z k j k z z f f h f f f h h f f j h 4 j A V V V V N x f 1 f j j x A A x j j A B h f f x x x x h x A 5.G 5.,.j f z A 5.G w.G A A j a x 5.x j l l j j x x x x x x x x x m x j x x j x ,.5.x j 5.G 9.9.7.5.A x f f A j j j A A x c A A j B G A j j j c A G A j c A x f r k ,.A <.<.A A ,.k a m 4.x x z k z k k k z k x x z k k k k k j x k j x 4.j f A _ G K K A A A h f x G A A G G G G G A G G N N G G A G G A A A A A G v h h 5.G w.7.7.G G A g f B B j x x x x j x x x x x x x x x x x x x x x j 6.6.f h w.w.D K t.G A x f f ,.A A 5.<.B B 5.5.5.A B B v v A G A A A x c A A x f 1 x D G D G A A A f f 5.4.x k k k j j j j j x x x x x k k l x x j j x A j f f x j B B x j f 1 , a j j g g h f f h h h h g h j f f h g f j h h h k d > r j j h j h j x k r x m d e w w r r r e e r r r e r r e e u y e e u f ",
"4 A G _ _ t.t.7.G x f A G G G G G A A A A G _ t._ G G G K K G G K w.K G v f x w.t.t.7.7.7.w.A f A I.6.x j j x x x x j j z f f f f f a a f k f f v c f f A A N V A A c h f f A B j j j j j j j j V N g 4 j j B A A A A G G A x f g A A A G A A c j f x ,.h f h h h j j k f f f f h x j j x j z j f j A x f h B A A c c c x f r k h j j A A A A c c c A A A A A A A A A G G A G 5.x f x 5.D D t.t._ G x f x ,.j k f j j j j z h j j z h z h z j z z f a f j j 4 h A V N j N A B f 1 k j j x x x h j A A x j h h h x x x x x A 5.A x x x f l ,.G G G G A A x f x 5.x x x x l x x x x x x x x x x j k z x x z x 5.5.j x A G 7.t.7.G G v f j A A B B A A A A A j j j c j j c c x c A A x A 5.,.z f x 5.A A A A A x j f m 4.x z z z k k k x x x j x x z z j j z x j k z x ,.x f x G D D D A A A g g A w.A G G G G t.G A A A V N G G G G G G 5.G 5.G G A h z ,.K K w.t.7.G B j f B A j x x x x x x m m x x x x x x x x x x x j j 4.4.k h w.n.t.G G G A x f f x A G 7.A A ,.,.,.x x x x B A 5.5.G G G A A A A v f f B G A A G A G A k j 4.5.j j x x j x j j j x x x x x x z x m m x x M 6.j i h x A x x j j j 1 ; f j j h h h j h j j x j h f g f j f 1 1 f j j f f e $ r x j k f f j x k d x m u u y y u r e q w e u r e e r r e e e e r f f ",
"4 A G D _ _ D 7.A j g A D A A G G A A A B A G G D D G G G A G G G G K 5.x f x w.w.7.G 5.G w.A f A s.,.h x x j x x x x j z z f f f a r f f f f f x x f h A V V V c c A j 4 f A B j x j j j j j c N 7 4 j h g j A c A A A A A j f g A A A A A j c x 3 k x h f f f h f f f f f j j j j x j f f k k f h A j f j A j c c j x x a a x x h j j c A c h h c c G A A A x h c A A A G A A x f x G G D K K D G A f j A j f f j j j z z j j z h z f f h j f f 3 3 f x g 1 h V N j j A j x f r f j B B x x A G A x h h h j h j x h c A x x j x x m f j ,.A G G A A A j a x 5.j j x x x j j x x j x x x x j k k z x x z x 5.A h x 5.5.G 7.G A G v f j A N A B A A A A x j h h h j A A j c A c x A c A ,.z f x ,.A A B B c x h a x 4.x z z z k k x x x x x j j x x j l k k f f f x ,.j a x A V D A V c c g f ,.G A G G G G G G G G G 7.G A G t.G G 5.5.5.5.A A A f h 5.G G w.G G G A j f B A j x z x x x x x x x x x x x j j k l x k l j 6.4.j h w.w.G G G G G x f f x A G 5.B x A x x x x x A A 5.G A G G A A x x A x f f x A A A A G G A f f ,.,.k k x x x j j x j j j j x x x x x k x x z x ,.k i j A A x h h x x f 1 k x h h j j j j g x x x x f f f f k f 1 f j f f f e = a k j j f f j z d r k m r w u y r e q q w e r r e e w e q q q q r k f ",
"g A G G _ G G t.5.x g A G A G G G G G G G 5.G G G G A A A A G G G G 5.5.v f x 5.7.7.7.w.G w.A h A F.A h j x j x x x j j j z z k f f f f f f f f x x f h G V N N N A A x 4 4 x A A N N N j N j j j j j j j j j A A A G A B B x h h A G A A V c A x a f x f f h h h f 1 f f f f j j j k k f f k k k j A j g c G V c c c A v f r x A j j c A j g f h A x x c A A h g j A A G A A A x f A G A D D D D 7.,.j x ,.j k z k z k h f j j z z k k f f f f r a a f x g 4 j B j j j A j c j f k x B A A A 6.A x j x x j c v x j h x x h f h x ,.x f j A A A A A A 5.x f x ,.x j x x x x x x x x x x x x x x x x x x j x 5.6.h x s.t.5.5.G A 5.A f f B A A A A A A A A B x j h x c G A A A c x A v A ,.j f x 5.<.<.A x x M x f x 6.j z z z z k j l x x x k k x z k f f f k f f x 4.j f ,.D A A D c A x f f ,.5.A A A G G A A A K G t.D D G G K t.D t.t.w.7.G A h j 4.G G G G G D 5.j g B A j x x x x v v x x x x x x x x j k l x x z j 4.4.j x s.t.G G G G 7.A f f m <.5.A x x x B B A G 5.5.6.A A A A G G x j j x x f f c A c A A A A 6.j f ,.,.z k j x j k x x j j k j x x x x x x m z k j ,.j f x A j j j j x x f r k x x j h h h g f f f h f f f f k k f r f k f f k d r f z f j k z j x k u x m e q u y w e e e e e u u r w q % > > q > 1 k l ",
"f c G G G D D t.5.h f x G D G G G G G G G G G A A A A A A A A A G 5.G 5.x f x ,.7.7.G 5.5.5.x f A s.A h j x x j x j j x j z k k f f f f f f r f x x 4 g A A j j V A B g 1 f x B j j j N V N j j j j j j j j j j A A A j j B x f f A G V N j c A j 1 f x f f h h f f i f f f f f k j f f f k k f k j A j f j A A j j A x j r r x x j c j c h g x A x h g h x A x h h j c A A A A x f x 5.A G G G G G x f x v k f k k k k f f f k h f f f f f f r r a f f h g 1 f j j j j c A x f f x x x B A x h h x B x A x c c j f h j j f h j A x j f f ,.A B A A A A k r j ,.x h x j j x x j x x x x x x x x m x x x j x 5.6.f j 5.t.5.A A A 5.x i r j B j A A j j A A j j j x x x A A A A x x c v ,.A z f x 5.<.B B x ,.m j f j x k f k k k k k z k k k k k k f k f k k k f f x <.j f A 7.D V V A A h f a x 5.A A G G D G j A K G A G G G G G w.D G K K t.G A h f ,.7.G A A G G A g 4 B A j j x x x x x x x x x x x j x l l k l x k j 4.4.f j s.t.G A A G G B i f x A A A A A G 7.<.G G A A A A A A A A A j g j j x f 1 j A j c A A A x f f A ,.z k j j j k k l j f f j x x x m m x z k k x M h f x A j j j j x j 1 ; f x x h 4 g j j g f f f f f r r r r r f a f f f i u < r z f f f j j k u r k k q 9 w y e e w q e r u r w q > q e > > = , f k ",
"g A A G G G D t.A h f B G A A G D G A G G A c A A A G G G A A G G 5.G 5.x f x ,.5.w.5.w.6.v x f B 7.,.h j j j j j j x x j j k f f f f f f a r f x A g g j V V A D D j g f f x j j j V V A N j g j j j N B B A A A A c c A A x f f x A V N A A h f a f x f f j f f f f f f f f f f f k k k k k k k x 5.x f z c A A A A x f r r x A j j c c j A A A x h h x B A A c j j x A A A A x f x A G G G G G A j f x A j f k k k f f h k f z k f f f f f f r a a f j h 3 f h j j j A x f r i x x A A B h g h x c c A A x h g h x x B j j B c v x f f j B A A A A x f f j 4.x j x x x x x j x x x x x x m m x x x x j x 5.,.j j ,.s.5.A 6.5.v j u f x x j A V A j j j j j N A A A A A A A B A c x A v j f x A A ,.A A m x z f z x z k k k k k z z k k k z k k k k k l x k f f x 4.x f B A G D A A x f r f x G G D D D _ D A A G D G G A G 7.A B A 7.t.t.7.7.A j z ,.A A D G G A x f g B A j x m m x x x m x x x x x x x x x x z l k j ,.4.j j 5.7.G G 7.G A x f f ,.A A A G 7.7.5.A A A x c A A A G G G A x x c A A k 1 f j B A A A x k f f ,.,.j z j j j j k k l l z x x x x n z z z k k x M x f j c x x x x j f < 1 k x h f f g f j j h f f f f r r r r f f f f f f f u < r k k f j j k d r r k k w q q q r r w e e u u e q q e r r e > % < f k ",
"f x h j G G G A h f f x G D A A A G G A A A c A A A 7.G G G 5.G A A G G x g x x j 5.s.5.h h x f x 9.x h k j j j j j x x j z k k f f f f f a r f x c f g j 6 j A A j g f f f B B j j j N V j j j j j g j j A G N j j c A A A j f f h j N A N h 4 f f f x h f f f f f f f f f f f f f f z k f k k f j ,.j a f f h A A x g f a 1 j c j j c c j A N j x x c A B B B A x j x A A A A x f j j j G A G A f f f j v h f k f f f f f f f f f f f f f f a r r 3 f x f 1 r 1 f x c x 4 f r 1 f x A B A A B x h h A A A x f j A A x x x x B x v x f r f h x A A h j f r x 5.x z j x x z x x x x x x x x x x x x x x j j 5.,.j j x x ,.,.A x f f f f h c j j A G G j j j N j B A B x x A B B A c x A v f f j z j ,.,.x f d f r k ,.j f k k k k k k k k k k k k f k k k k f f f x 4.j f j h h A A x f f f f x 7.G A D D D G t.D D G G A A A G A B B G t.t.G 7.,.f z M j c G A A j g f g x A j j x x x x x x x x j k x j k x x x k k k j ,.,.f f x x B A A B h f f f x A A A A A A A A A c c x x A A A G A j x A G A x k r 1 f h A A x f f f f ,.,.z k j j k k k k k k k z x m z z k m k k z x M x r f f x x j j f r = 1 f l g g x h f g j j h j a a f f f f j f f a 1 a r < < < 1 k x z r 1 r e e k z r q q q w w w u r e r e q e r r r r e = < f f ",
"f x f f A 5.c g j j f x 7.G G A B A G G A A G A A A 7.G G G G G G G G G j f x x h v 4.x f x v g B s.x h j j j x j j j j k f k k k k f f f f f f A A g g j 4 g A A g f j f f A A V A N N N j j j c j 4 h x x x x j A A A A A j f f f g j A h 4 f z f f x h f f f f f f f f f f f f k f f k k k z j j ,.x f h f f x h h f j f a j c j j c c j j j j h x A A A A B A A A A c A G 6.x f x j g v w.A h f z f j A j f f f f f f f l f f f f f f f f d d a 1 f x f 1 f f a f x f 1 z k r f x A A A A A A j j x A A B x x x A A A A A A A 6.x f f l f f x j f x x f x 4.x z z x z z x x x x z z x x x x x x x x j x w.5.j x m k x 4.m k f x k f x A B j A G 7.A j A A A A A A A A x j A A c A A A j f x x f x ,.z a k k f z ,.x k k k k k k k k k k k f k k k k k k k f f x 4.x f x f 3 x 4.j f j x f c t.G G G G G D D G D G G A G A G G G G G G t.t.G x z j ,.z x A G x g j x f B 5.x j x x x x x x x x z k l j j k k k z l k j ,.,.f k x g f x x f f j f f x c A A A A G A A A G A A v A G G G A B A A G A A z f f f f x x f f j f f ,.,.k k x l l k k k k k k k z z z z x m m x x m ,.j f f f z x x j f r r r f h h j B B h g h x x j h f r f x j j f f f r f r r < r r f k k < r d r r k k r r e q q e u u r e r r q e r r r r r w 1 k f ",
"f v x g h x h x ,.j f B A A G A A A A G G A A A c j B A A A G G G G G A j f x ,.x x f j ,.5.x g x 5.x f k j k j l j k f j j f f f f f k f f f f A A 4 g A h 2 g g h j j f f x A A A N j j N j j j g f j h f g x c A A A A A f 1 f x h 4 g 4 f j f 1 f x f f f f f r r f d f f f f a f f f z k f f j A h a j M j f f f z x r r j c j j j j c j j j g j c j c c j j N N A G A A 5.j f x ,.f f c j f x M a f A z f f f f f f f f f l f f a f f r r r d 1 1 z 4 1 z v f 3 1 3 f x f 1 f x j x j j x c x j h x A B B x j j A A A A c A 6.x i l ,.x f a f j ,.j f x 5.x f k k z z z x x z x x z z z x x x x x j x 5.A h j 6.x j z k f x 4.k r x A B B j j B j j j A A 5.A B A A j h x A c A A A j f m 4.x f r a x M k 1 k x j f d k k k k k k d k x f r f k k k k f f f x 4.j f x M g f h f j v z f c G A G A G D G G D D G A A D 7.G G t.G G G t.5.A v f k 6.,.h j x g h 6.x f B A j j j j x x x x x z h j l f f k k k k k k j ,.M f k M j f f f f x j f a j A G A A A x B A A A A A v x A A A A B A A x A x f f m x f f f f x ,.f f ,.,.f k k x k k k k k z x x f k k z x z k x k x x h f x j a f f f f l i < f j x j j B B h g j h h g f f j j j f f a i f f 1 > < k k r r < e n z r > k k r r e q q e y e e r k p q q e r e e r < r f f ",
"f x ,.A f f x 7.,.l f x G G A G D G G D G G A B j j A A A A A G A K G A x f x 4.4.A f B 9.,.x f x 5.A h z j j j j j h h 5.7.x f a k k k k k f f A A f g A A h f f M x z f f A A A A N j j j j j j g g x j g h A A A A A A A j r f A A 4 : f x j f 1 f x f f f f f f d f f f x x f a f f k k k f f j ,.j f j ,.6.x f x x z a r z x B B B B j j A x h h x x j j x x j j A A A A A z f x v x f f f A A x f f A f f f f f d d d f l ,.x f r a d u u r r 1 1 j f 1 f x x f 1 f x j f 1 k x x h x x x x c x j x x A B c c x x A A 5.A A 6.x r k M ,.j f f ,.,.j f x 6.x k k z z z z z j x e.s.v f z x x x x x j x 5.5.j x ,.4.M f f x 5.,.f r j A A A B j B A h h x A c x j x x x x x c A A A A x f x 4.,.x f k ,.m k f j ,.j f d k k k k k f f x 5.x f r f k k k k f f x ,.j f x ,.x h f j ,.x h f v w.A A A G G t._ G G A A A G A 7.D G t.t.D D A A M k j 6.4.A f f j 5.,.j h B A j h j x x x x x z j <.s.B h f f k k k k k h ,.,.f f M ,.j a f x 6.x f f x A A G 7.A A B A A G A c h h j A A A A A A c A x f a x ,.x f f x ,.x k f ,.,.f f k k k k k k k x 4.A j f k m z x n z k z M j f m ,.j r r f m >.i < f x B N V N B B x h h f g h h h h j h f f f f f u > > d k d e < d m k r e k z r e r r e e e q e d x k r > e e r r u r 1 j j ",
"f x x A j j A x j l f x G G A D G G D G B B A A A A A A A A A G A G G A j f x x x 5.6.<.B j x f x 5.v h z z j k k f j A 7.5.5.j f f f f f f a f A A f f c c x x v x f f f f x B A A N N j j j j h g f h j j x c x A G G A c j 3 4 x A j f h j f f r f j f r f f f f d a f x B B x f a f f f k k f j 5.x f k j ,.v x M x d a 1 f x j A B j j j j c h g h j j x c c j j c A A c x z f x h j ,.x x ,.h f f f x f f f f u d d r f x x j j f ; 1 u r r < ; 3 z f : f f j x x x f f f 1 f x j x h j x x j A x x x x x A c c x x A A A A x k r k x x x ,.A x z f f x 5.x k z k k z z k j 5.w.t.5.x k k x x j x z x 5.5.j x x x ,.x j x B j i r j A A A j c A G x h h A c x A A c A A A A A A 5.6.z f x ,.M ,.,.m x k f r f x z d d k k k k d f c A A A x f d k f k k f f x A f f x x ,.5.,.A x z h f x w.A A A A A G D G A A A B A A A G G G D G G G 5.x k j M j x x A <.x z j g B A h f j j x x x k j 5.s.7.7.B f f l f k k f f ,.x f f x x ,.z j m j j f f x c A A A A x j A A A A A c c x x A c B A A A x j f 1 j x x x v v f f k f x ,.f k k k k k f f x A A A x k k z z z k k f x 4.x f f B x k k j x l 1 1 k j j A V N N x j h g g g h h h x x g a f f 1 r f > # e u r d u r r r r r k k r r u r u e q e f k f f f r < e r e r r 1 j j ",
"f x j j B A A f f j f j A G G G G G G A x x A G A A A A A G G G G G G A j f M x f x 4.,.h j x f x w.x f f z z k f j <.7.G A A A j f d k k f f f A A f h x h x 4.4.j f z f f x A B A A A B j x x x h h h j j j c A A A A A A j f g j h x c x g f f a f j f r f f f f f f j A j j N x f i f k k k k j 5.x k j z j 6.4.m f k f r k x j c j x j j c A c x j x x c A A A c c A A A v z f x f f v 4.v h f z f f x f f f d d d r f j x j g j l f r r u r r 1 a x f 3 f f 4 h M j 1 f f f f j A A c x x x A A A v h j A A A A A A x A x x x k f x z f j ,.,.f a k f x 4.x k z k k k k j 6.w.G G w.w.x k z x x x j x w.5.x x x h x 5.,.j h j f a x A x x x A A G A x x c A c c A A A c A A A A A v j f x x z m 4.m f d k d f x j f d k k k f f x A A V A A x f u f k k f f x 5.j f x x j 5.s.x f f h f c 5.G G G A A A A A A G G A A A A A 5.7.D G G A A x k x ,.k j 5.s.x f j x f A <.j k j x x x z j ,.t.t.7.t.5.j f k k k k k f ,.m f f x j x ,.,.x f j j f x A A A A A A x x A G A B A A A A c j N A A A c j f f k z z ,.4.x f j j f ,.,.k k k k k d f k A A A A <.x k k z k k k k x R.v f f j j m m x f f r r j c j j j j j x j j g g h j j x x x f f f f a a u $ # e e e k k r q e d u k k r r u u u e r k x h g h h f r r r r w e 1 j x ",
"f x f f f x x f f j f j A A G G A G A A x A A A c j A A G G G G G G A A j f x x f f ,.x f z x h x w.x j f z k f j 4.7.G D A A A A j f f f f f f A A g z x f f M M f f j f f x A N A B A A N x j j h g g j j j c A A A A A A j f f f 1 g B f 1 1 f 3 f x f r r r u r f x c j j j j j j f r d k u f x ,.x k j f f j M k d k f r f x j h j x j j j j c x c A x x x G G A c c A A c f f x f a z x h f f x f f x f f f f d 1 a x j g h h g j j f r r r r < 1 x f 1 f f 1 f z a 1 f z a f x c A x h x A A A A x f h A A A A 6.A ,.A x x ,.x f j k 1 f x x f f z f j 5.x k k k k f z 6.t.D 7.D t.w.5.x k k j k z x 5.5.j x x f f m x f f j f 1 j c x j c A B A A x x x c x h x A A A A A A x h x z a z z r k m k r k z a f x z d d k k d f v A V V D V A A j f u f d a f x ,.j f x h 1 z ,.f r z h f x 7.G G G A A A c A G G G G G A A A A A A G G A A x f x m k k v ,.j f x x f x A h j j x x k k ,.s.7.t.D D D A j f k k k f f ,.x f k x f f x A k f x j f x A c c B A A x h j A B j h x A A A A A B c A A x a r f f f j x f f x k f x ,.k f d d u u k ,.A A A A A <.m z k k k k k x 4.x f k f f k k f u k a 1 h j j j N j j j j h g f j j h j x j h f 1 a a r < # > u e > u d q % y u e f k u r u u e e k x j g g h h f k r < e e < r z x ",
"f x z f f k k f k z f j A A A A D G G G G G A A A c A A G D G G A A B B j f x x k k x z f x M j x s.v f k k f j <.s.7.7.D A A A A A j f f k f k 5.5.h j x f a k f f h x h f B A A A A A N j j j j j j j j N j j A A A A G A h a f h r 1 f f 1 a f f f x f r r r r f j A A c c j j j B j f d d d f x 5.x f z z f z x k k k k f j A j j A A x A B x x c c A A c x A A c c A A A A j f x f f f f f a z x f f x f f d a 1 r j x j j j j x x x l r < e r e a x f 1 f a 1 a d r 1 f k f j x x j h j x A A G G c h B A <.A <.A A A 5.,.,.,.x k z k d f k z f k z f j 6.x f k k f z ,.s.F.t.7.7.s.7.t.5.x k k j j x 7.7.x x x k k x k r f x k r j x j A A A A G A A x A A A x x x A 5.A A x j x v j f m z a a d a a k x f z M z k d k d f x 6.G D D G G G A A j f r d k f x 5.j f x f a f z f f j f f x 7.7.D D G A G G G G G G G G 7.5.A A G G A G A A A f j m z z z z k k m x f x A j j j z k k x 4.7.t.7.7.D G 7.B l f k k k f ,.,.f f m k f z x f f m x f x c c A A A A A B j B A B j x A G G A A A A A A c f f k k f f z f f x j f x ,.k f d d d k x A 5.G G A A A 5.m k k n k k ,.e.x f x z k k u u d k a r j j j j A A A A A j h j j f g h j x x f f r 1 u r % q d e % y y q q u u r k z u r u e r k m x h h j j j j j f r e e e r j x ",
"f x k d k u u f k k f j A A A A A D G G G A G G A c B A D D G G A c B A x f x x k k k k f z v j x t.v f f f f A 7.t.t.7.B j A A A A v h a f f f ,.6.f j j f d d d f f j h g A A A A A B j N j j j j B B B B j j j B A A A B h 3 f f r 1 r r 1 1 f a f x a r u r r j x j c A f f h x j x f r r u d j 5.x f x k f f k u f k f r j x x c x x A B j j j x x c A x j x x j x A A A A z f j f f d a r d f z f f x f r r < 1 j x h j h g g j x f h f 1 < < e a z f 1 r a r r 1 r r d f r f x j f j x x j A A A A A A A A B B x A A <.,.x x f f z k u d k k f k z f j 6.x f k f f ,.s.t.t.t.A x <.s.t.7.5.x l j j j 7.7.j j x k k k u u f x f r h x B A A A A A v x x A A A v v c A A A A x x x x j f z z r r r r a d z j h x z d d d d x 6.A G G c j x A A A x f r r d f x 5.j f j f a d d u a k f f x 5.G D G G A G G G G G G G G G G G A A G A A A A x f j m k k k d k k z x f x A h k k k f x 5.5.7.7.<.B A G D 7.A f f k k f A ,.f f x k f k f f k x j f x x x A A A A G A A A A G A A A A A A A A A A c j f f f f f k f f k j j f x x k f u r k x A A 5.5.A B <.<.<.6.m k k k k x 6.j f x k u u r r d k r 1 h h j j j A G D V j h j f f k j f j j f f f r d r % q u e # 8 9 9 q q r r k k r e w e d m x k z f r r z j f f f r e < r x x ",
"h x k d k d d d k k f x A A A G D G G G G D G G G G G A D G G G A c A 5.x f x x k k k k f z v h c s.v f f f x 7.t.t.7.x f f j A G G G c f f f k A A h j x f d d d f f j f g A G A A A A A A A A A B N N A A A j j x B B A B j f f f r 1 r r 1 r f r f x a 1 r r f x x x x f 1 r k x j c c k d u d j ,.x f x k k k d u f k f r k A A A A j j j j x x x x A c x x c c c A A A A A h f j f d d r r d f z f h v f 1 1 a j x x x j f 1 , f x h h j f r < r d j f 1 d d r r r r r d k r f x x j B c c A A 5.A A G G A A x x x A ,.<.,.x j f f x z d d k f f k z f h 6.x f f f A w.s.F.s.M k k x ,.s.t.t.G x f z x 7.7.x x x z k k d u k x k f j A A A G G A c x c x x A G 5.A A A A 6.A A A A x z f k k r e u u r d z j j ,.j d r u k A G G 5.A g 1 f A G A A x f r d f x A h f x k r d d r r f f f x <.A A G t.G G G G t.A A A G D G G G A G G 5.G 5.x f x m k k k k k k z x f x ,.z k k k x ,.5.5.9.,.l f l <.<.G G x f f d f M ,.f k x k k k k d k m z a j c A A A G G A A G G A A A G A A A A A G A c x x f f j f k k f f k z x f x x k r u k x A A A B l f f x 6.,.5.6.x k k f x ,.j f m k u u u u d k d r z A B j j j j j j x f f r f k j j j f z j k f k u q q d e % 9 9 9 q e r u k m u r r k m x x x k r > < d k j x x k d r f x x ",
"z x f u u d d u k k f x A A A A G D G G A D A A A G G A A D K G A A c A x f x x k k k k k z x j x w.v f f x 7.7.t.7.x f f k f j A G G A x f 1 f x ,.f j x f d k d a f j f g A A A A B A A A A c j j V A B B A A h g x j j A j f f f 1 r r r r r r r f x r < 1 f j h j x f < < r r f x j j x k r a j A h f j z d d d u r k f r k c x A j h j j x c x x A v x x v c x A c A A A c h f x f r d d r r f x f f x f 1 1 x A x j x j 1 < , < f x g h j f 1 < r j f 1 d r r < r r r d d < r j x B j j A A A B B A A A G A c x x B ,.,.,.,.A x f z k u u d d u f z f h 6.z f f x t.t.7.s.,.k k n k j 4.t.t.t.A j f j G G h x x k k k k d f x f r x A A A G A v x c A A x x A A c A A A A A A x c A j a k d r u u e e d k f z A h r r k x A A 5.,.f r f f h ,.A A A x f r f j x g a z f r r u r r f f f j A A A A G G G A G G G A A G 7.G A A A A K 5.A A x f j m k k k k d k z x f x v f f k m 4.A G 5.4.k i i f j <.A A 5.x f r f M >.f z x k u d k d k x f r x A A x A G G G G B B B B B A A A A N A A c j B A f f j f f f k d d k k f x j a r f m A B A A k 1 r u f x ,.A A A j f f h x j k x k r r u u u k d r j A A A h g 4 j j j f r r k k f f j j j f x x k r > q d e # 9 9 # 9 e e < k z r e k M x z x k u > q e e k x j j x z r r j j ",
"h x k k d k d u k k f B A G G A A A A G G G G A c A K A A G A A A G A A x f x x k k k k k m M x c w.x f x 5.7.7.7.x k k k k k f x G G G A x g f v 6.f z j f d k k d f j g g x A j j x A A G A j j N A A A A A A j h h j B A j f f f 1 r r r r r f a h x a 1 f j j j j f 1 e r r u f j x j c x f f j A j f x x d d d a d k k a x c j x x c A B A A A A A v x A 6.A c A A 5.A A A h f x f a d d r d k k f f x r a x c x B x j f 1 1 w < 1 f j j h j f 1 r j z r d r e e e e r d k 1 1 k x B B A A A x x x A A A A A A A B A <.<.<.A 4.m f k k u d d d u k x f j 6.f g x 7.t.t.s.M k k n n k k x w.t.t.l.A h h G K x x x k k k k k k x f f c G K A A A A A A A G A c c A A A v v v A A A c x j f k k r u u u r d z f z x f 1 f x A A A A j f k k k f j A A A v j f f x v f a z d r r u u r f f f x A c G G G G 7.G A A A A A A 5.G A A A G G A A v x f x M z k k k k k x x f x M f f x 4.5.5.5.<.j f f k k f x 5.G 5.A x f g ,.,.f z x k u u k k k l f f ,.5.G A A A G D A j j B A A A G A A A A B j j A A j f x f d d d u d z k f x x f f x A A A A j i r u p u k v A A A x j f f ,.x z x k u u u u d k d r j c A K A j j A A j f a f x k f f f x j z z k k d r e r e 9 9 q 8 q e r e u k r k m x x x z u e e r r r d z x x x x f f j x ",
"j ,.k d d k k d k l f x G G A A c c A A A G G A c A A A A A A A A A 5.A x f j m k k k k k m ,.h x 5.j j <.7.D 5.x f k k k f k d f x A A A G c h v v f z x f d d k d f f f g A A x x x x A A A j j A A N A G A A B j h j B B j f f f 1 r r r < r f 1 g x f f x h h x f < r r e r u r a x c j v c g h A h f j z a d s a d k f f x A B c A A j B B x x A x x c A A A j j A G G G A h f j f 1 d d u d f k f f j 3 g c j j B x f 1 r r < < < , f j h h h f f x h 1 f r < e w e r r k u f j j x A A B x x c x j B A A A A A 5.A A <.A A 5.x f k k u u u d u k x f j G x x G G D G ,.z k k k k k k k M t.t.t.t.A j G G h j M k k k k k k x f f A A A A B B A A c A 5.c x x c c A A x x x A A x x j a k k e y u u u d z f f j a f x <.A A A f f f d u f f a z v x j x h 4 j v f 1 f f r r u u 1 f f f x G A A G G G A G A A A A c A G A G A A A A j c 6.v h z ,.k k k k k f x x f x x f h ,.5.5.5.<.j f f k k k k f x 5.A A A x j ,.,.f f x k u u u k k x f f ,.A A A A A G A N h j A A N A A A A A B j j B B x h f x f r d d r d z k f ,.A f j A A B A j i u u u u u u f m B x A x f f v x z x k u u u u d k f r f c A A A B j A c f 1 f f f j k f f f j k f r d d u r r r 9 q q 9 % e r e r f u k x j x x u > e r e < e < r k j j j k f f j ",
"j 6.x k k k k k m j f B G G A A A A G G G G G A A A A G A A A A A G A A B g x ,.x k n k z M 6.j x 5.A A 7.7.7.B f f k k k k d f f f j A G G G A A c f j x k d k k f z x g h A G G D A A D G A j j A A A A D A A N N N B A A j f g j d r u r r i f 1 f j g g j j h f r r r e a f a d d f c A A A c c A j 4 j j f u d u d j z f x G A A A A c j j j j A A x x A A A A x j A K G A j f x f r d k u r k x f f j g x A A A B f r r u f r < , , , f h h j j B A j f k f r e e e r k k f f B j x A A B j A A c x x x A A A B x B A A A 5.5.x f j j f u k k f x m f x w.G G 7.7.w.A k k k k x x k k k k x t.l.l.t.D D G j x ,.z k k k k l m f f A G A c c A A A G G A B x x A A A A x j x x x x A x f x z u u u u u k x f k x h x <.5.A x f a f f f f f f f f f x x x c h j v g 3 j k r r u r d j k f A 5.A A A G A A B A G G A A G G G G G A A x x c 5.,.j x 5.x k k k k k x x f m A j A 5.G 7.,.j f f f x x k k k f x A G A A A G A f h x k u u u u k m j f A 5.A A B A G c j j A G G A A B A A A j j j B A A f g x h d d d d k x z h A 5.B B B A x j i u u k k f k k d z m A A G A A A x h x z u d u u k k f 1 f x A A x B B j g f f h j j j j h f f f f r r d k k u d u w q q q q d d u k x k z x x x r q q e r k u r r r r f j x x j x h ",
"j 4.m f k d u k >.l i x A A A A A A A A G G G A c A A A A A x x A A A A x f x e.x k k k z 4.,.h x 5.7.G G G B f f f f k ,.M f f f f 4 x G D D G G x f x M f d f d d x x f g A G G D A A G A N B j j A A A A N N j j j j j x h 1 g x f r r r 1 f f 1 1 j g 4 g j f = < r e 1 z j f < r r f A A V V V c g 4 h x f r u r d x h f x A A A c A c j j x c A B h A A A A A B j j c c A f f x k a r d r 1 j x a g x j A V A B g 1 r 1 1 f x f , = , , f j h j B A h 3 j j r > e e r k f 1 f x B j x A A A N c j j j B A A A x h h x A A A ,.j f x m k u d d f m m f x w.t.G 5.5.x f k k k k ,.6.x f k k h A t.t.l.l.t.A h x <.x k d k f x ,.f f A A j x A A B B A A A B A c x v A A A x j j x x v j f x x d r u r d x x a j 5.A A A A x f r d r f x ,.j a r r 1 f x x j c A x f 1 j j f r r r k ,.h 4 c G A G G A A A A G G A A A G D G D D G A h h j B ,.h h 5.,.k k k f j 4.x f x 5.A G G G ,.k i f f f ,.4.x k k f f x 5.A A A G A f h M k r u u u z m f g c A A B B j j j c A D A A A j B B A A B B j j c x f f x j d d k d k m j f A G B B A A f r r u u k x x f u u r k ,.A A G D A h h x x d u u r k x f 1 f x j j h j j j g g h j j j j h h h j l k f d f d d u u u e q 9 % r k u r l x k k x z r > 9 e < a x k r e e < r k x j x A j ",
"j 4.5.z k k k m 4.j f x A A G D D A A G G G A A A A A A G G x x c c A 5.x f A R.4.z k z M e.6.h x s.t.t.7.B f f k k f x 6.5.m f f f f g c w.D G 5.c f x 4.x f f d f A A g h G A c x x c A A V N B A A A A N j j N V V N j h h f f A j 1 r r f k f 1 f x j j h f < > e e r z x c j 1 < r f f v A A V V 6 4 x c f u r d z 6.x f x c j B B j j j A A A A B x c A A A A A c c j j A z f x x k r d r f x x f g G A A A N g 1 1 1 1 h B B x f < < = 1 l x x x A j 4 x M f r r r d m j 1 a x x x j x A G c j g j j A G D A A j j x A B c A x f x ,.x d d d k ,.M f c I.t.s.s.,.z f k k k M e.F.e.x k k k z ,.F.t._ t.G j v e.,.z f k k ,.4.j h A A A A A A c c A G A B A A A 5.A A 6.A x A 5.G 5.x f m ,.f u r u x 6.x f x 5.A A A x d r r u f x A 5.A j r r r 1 f c A A A A g 3 x v h r r r x 4.j f A 5.A G A A A D G D _ _ G A A G 5.G G D A j j B B x h h 4.4.j k k f x s.A f A t.D D 7.A j r d i f x 5.5.6.x k f f f x 5.G A G A f j 4.x u r u f m ,.f f x A B A G j j x A G G G A j j x A A A G A A A A x f f x A f d d d x 4.j f A w.G 7.<.l u r u u k v 5.,.x f d u r k ,.5.A G w.x j ,.v f u u u k ,.j a z ,.x g j N B x j j x j h j j h j B j j l j x k f e > k k e % % e k x k r k z x m z r q > e < f j B x k u r e r f j x x A j ",
"h 5.w.x k f l 6.6.j f x A A A A D A A G G A A A B A A A A A c x x A A A c f x s.e.x k x 4.w.A h x 5.5.7.A f d k d f x 4.A A 5.x f f f 3 g A w.A 5.v f x 4.,.k a f M 5.x f f A x j j j j N N N A j j A A V N j j j j A N j x f 1 f A v f 1 a f j f 1 f j j c k < % > > < h c h j c j 1 < r 1 f c A c c j 4 x A x f 1 k M A h 1 f x j j x A c x j A A A A x j A A A c c c A A c x z r j ,.j f 1 a j B j f g A N A B g 1 r 1 1 f B N j j j f < < < r j x x c g 3 j v j r , r x m f , a j j x h g j A c j j j G G N A A A x x j h h x c j f j 5.M f 1 f x ,.x f x s.s.s.4.j f f k k v w.t.D t.e.j f k f z ,.t.t.t.A j x 5.4.M f f x e.6.f f A A B B x c x c G G A B c c v A A c A v x A G A A x f x ,.j d r k M ,.x f h A c A x r e r r r j A B B A A f r r r 1 z A c c A g 3 x c x f 1 f ,.A f 4 A 5.A A G D A D D D D _ A A A A A G D A N B A B x j f f A s.A f f B 7.5.x f v t.D G G j r f d i j A A A 6.>.f u f r f x 5.A G A f h ,.,.k r u x ,.x f f x A A A A A j j A A A G A x x h j B B A A A A x j f f x A x f r f ,.4.j f v w.7.9.x r e r r f v 5.A A ,.x d u u r k x x A G x h A 6.x d r f m ,.f 1 k x h f g j B j j j h h h g g h h j g f l j k k k > $ u k u < e u k f d < u k x z d q q e < r f x j j x f r e r r f x x j j ",
"h 5.s.5.x j A 5.5.h g A A A B A A A G G A A A A A A G 5.A A c A A G A G v g x s.s.w.5.w.t.t.,.h x w.5.A f f k d f x 6.A A A A 6.x f a a a h A G w.v h v w.5.x h j 5.5.c f f x j c A A c j c A A j j A A A A N N j j A j N A z 1 f ,.5.h r f x x f 1 f A A h r e e < r f x c A c c c j a r d r g c V A j g j A A j h v 5.A f 1 k c j x j A A A c A A A A c A A A A c A A A G A x j a j 5.A h f j A A j 1 f x A B f r r 1 1 h B N N N N j f r < < r f j x A h f j A x h f h A x f 1 f j A A B h j A A j j A D D A A A A A A x h g x A x f j 5.6.x f x 6.6.x f x W.E.5.j k k k k m w.7.t.t._ t.<.j k k f j A t.s.5.j x 5.w.5.c x 6.s.5.h f x x j j c A B A 7.G A A A c x j x v A A 6.A x c 6.x f x 5.6.x k x ,.,.x f z 5.A x f r r < r j x N B B A A c f r e r a x c A c f 4 x A A j h x G A h 4 A G D A D G G D G D G D A G G A A A G A N A G A c j f f A t.t.A A G D G B g x w.t.G h d d u f j A A G G G A x f d d u f x 5.w.A h h A 5.x f k ,.5.x f 4 x A G G G G A V A A A A A A B x x j j x x A c c x f f x G A c j x w.s.j f A I.5.j u r r r f x 4.5.A c A A x u r r r k x A 5.x h ,.w.4.x f j 4.,.f 1 k j f f f f h B B j j g f g h j j j f f k x k x k e > k m x k k f k f u < f x m k r e e r f j j j B B x j i r e r i j j j j ",
"h 6.7.t.5.G 5.K G h g A A A A A j c A A A A A A c A A G A x c A A G A A c f j w.t.t.t.t.K w.A f j 5.,.f d k f f v 5.A A c A c A A x a a a 3 g A w.c f j 5.5.,.A A A A x 1 a x A j c A c j j A A j j j A N j N j j j j j N j j 3 f c A c x x x h f 1 a x h 1 > e < > r x h j j j j h x f 1 r r a h c A h 4 j A A A A A A A f 1 j A j x j c A c j j A A j A A A x x A A c c A c v z 1 f x A B B B A x j 1 1 x x g f r r 1 h B B N j N j g g f r < < 1 f x A j a h x j A c A x x f ; f A G G G A j j N j N A V A A A A A A A c c c A x h f h A A A A ,.,.6.x f x R.4.x k k k k x 4.t.D D D G G 7.x f d f f z ,.e.A f j 5.G G G A G w.A f a x c B x x x A G G G A A A c x x x v v A A v j x ,.x f j A A A A x x A j r f v v k r u r 1 j A j j j B j j A v f < e r 1 h c h 4 1 j A N c c B A A f 3 A A A A A G G D D G G D A A A G A A A B B N A A x j f f x t.D 7.t.G G 7.B 4 j A A x f f d r f A A V A A A A A z r d d r k v A A g g v A A x ,.A A x f f A A A A V V D D V A A A A B x x B c A x x j j x j f f x G G G A 5.G 6.k f c 5.x u e r e u m 5.6.A A x j c ,.z r r u r z m A h f v A A <.<.A A x 1 , f f f f f f f h j j h f 1 f h h h f i f f f f f k d d x j j j l f f f r < k x k r e r e r x x h j x B j j k r e r r i k j z ",
"j w.5.t.t.t.D G D j g A G D G G A A A A G D A A A A A A A c A 5.G K G A c f x t.w.K w.w.w.w.A g x ,.x f f k f x 5.G A A A A A A A A h a r r f c A c f j 5.G A 5.G A A j 3 f A A A A A j 6 j A A c j j c A V A j j g j B A B x f f c A G G A c h h r f z r < r r r f j j j j j h j j x x f r r r f x A j 4 x A A A A A A v f 1 x A c c j x A A j j j c c c x x x c G G A j j j v x 1 f x A B A B j x j a f v j f f r 2 h B B N N N N j g h x k r 1 1 r z A x a h j j V A A A x f 1 f A G D t.7.B c c V V V A A j j A A c x x A A A ,.j f h ,.A A 5.<.<.5.x f x 4.x f k k k x 4.s.7.t.D G G G t.e.x f u f f x 4.6.f j 5.t.5.5.G G K A f f B 5.5.A B B B A G G G A A G G A A A A 5.A v x A 4.x f x 6.A A A B B A x a f v j d d r r j A A A j j j A A A A x f r r r a x j f 2 j A A N B B A x f f ,.A A A A G K G G A G D D A D G A A A A A N N j x x h f A t.G t.t.D G 5.x f x 5.c f f d d f A D A A A A A A A ,.x f k d d z A ,.g g A A A A A A A x f f B A A A N j A D D V A G G j j j A A A A B x x j x f f A G A G G A A 5.k f A ,.k r r u u m 4.5.A A c x c c x x k u u d f x ,.f f A v c A A A A x 1 < k j f j x h 2 2 g x x f 4 f f f f 1 f l f f a k k k k z j x x j f j j f r x m k e r r k x A c x x x j j j k k u < r r f j j ",
"j w.G D D _ t.G G j g A G A A A G G A D A G G A c A A A A A A A A A G A x g x w.w.K K w.G G A f x ,.x f f k x 5.G G G A A A A A A A A h 1 f f h A x f z A G A G G A c x 3 f A c c c A A j j V V j j j j N j j N j j j j N A x f g x A A G A x x f 1 f k 1 e r 1 f j h g h h g g h j h x j a 1 r 1 f j 4 4 j A A A A A A c 4 3 x x c A j j x D A A j x x j j h x A A A N j j c x j a f x x N B x j j j 1 h ,.f 1 f 1 f B B N N N j j g h j h x j 1 < r f x j f h c j j V N A c 4 1 f x G G A G B j j N N V N j j j j x c j j x A c A x f f ,.5.A 5.5.<.,.j f x 6.z k k k x 4.s.5.G 7.G G G G G t.w.j r d f z 6.,.f k 5.w.A A G G G A f f A G A A A B j B G G A A A A A G A A A A c v A ,.v j f x ,.c A A A B x j 1 k m k k u r j A A j A c j h B A c c A v f r r a z x 1 1 x j N A j x A x f 1 A G A A A A A D D A F A D D D A A A A j j A N B A j f f x G D G G G D A x f x A h f f a f x A A V A V c A A c A A j f d d f v v f g A B A A A A A j f f B A A N j j N N A A A V A x x j j N A A A A A v x f f c A G G A A G A f f A ,.f r r r z 4.5.A A c j A A x x x x k r d k k m f f x A j h x x x j 1 < k j j j x x h g h j h f f f 2 1 1 r f h f r r k f u k j j x f k j j f a r x m r e r r x A x x x h j x j f j x f r e r r f j ",
"j 6.K t.K D D t.7.x g c A A A A A G D G D G G G A A G A 5.G G G A A G A x g x w.w.K K w.K 5.A f x 5.x f f x 5._ G G G G A G A A G A A A f f f h A v f x 5.A A G G A 5.c f f G D V j j A A V N j c j j j j j j N A A N N c x x f f A A A A c c A x f f z d 1 a j x j j j j j j j j j j A A x f r a f j h f j A A A A A A A f g A A A c c j j D D G G A x x h x A G A c x x x A A x f j A B B x x B c j f j 6.k 1 1 f j B N N N N B j x j j x A v x a r f v x f j A A N j N A B f 1 f h A G A A j h j A A A c j x B N A A x j x A G 5.x f j ,.5.5.7.G 5.5.x f m 6.z d k x 4.7.7.7.7.G G G G D t.t.t.5.j r a z ,.5.j j 5.t.w.G G G 7.5.z f A w.A G D G A A A G A x A A A A A A A x c A 5.A v z k ,.,.A A A v A ,.x f k M z d d h A A A c A c j j A A A A A 6.x f r a x 6.f 4 x A A A A A A ,.f f A G G G G G A c A G G D G G G A A G c j x A A A A x f f ,.7.D G D G K 5.x f x <.h f r f x A G D D A A A A A A c A A x d d f x v h h A A A A A A A A h g A G A N N N V V D D D A V A A N A A A A B A A ,.,.k f A G G G A A G 6.k f ,.,.k r u z 4.4.5.A A x x A G A x x A x f u u k M j f x M v j j j x x f 1 k B j x x B B B B j j j h h f r r f k j f r f k k k k x j k f k x j j f d x z r e d z x x x x x x x x x x x m x z u r r f x ",
"j 5.G G G G D D 5.h f x A A B A A A A D G D A G A A A A A c A A A G A A x 4 x 5.K K K K w.w.c f x 5.x 1 f 5.D G K A A A A A A A c A N A A h 4 f A x f j 5.A A A A A 5.x f f A D V j j j A N N N j j c j j j j j N N j j j c x f f A A j j j j x x a f k r ; f c j j j j j j j g h x B j A A x a 1 f x g 3 x A c c c A B A f f A A c c c c j A D G G A A A A A B A A c j A c x A j a j A x x x j B x k r h x f 1 1 h N j N N j j j j j g j j x c ,.h 1 f x j 4 j A c N j j A x i 1 1 h j A A j j j j j N A j j j B j j A c x c A A A x f j 5.A 5.7.G 5.5.x k x ,.k d x 4.s.G A G G G G A G G G G G t.5.h r f A 6.h x w.w.G G G A G 5.k f A A G G A G G A A A h h x A A A A A v x c G A A A h f M 5.A A B j A ,.x f z x f 1 f x c j A c j j j j j x x A v A ,.x a a x M f 4 A A N j A B A A f 4 x A G G K w.A c c A G G A A G A A A c h c A A B B x f f ,.G G D D A G w.x f x ,.f 1 f j A V A D V c c A A c c c x A v f a a x v f h G A A A A A A A g g A A V A D D A V V A V A A A A A A A c B A B B A A f f x G A A A A A A f f ,.m k r k 4.6.v v x x x j x A A x h j x j r r k M h f x v x j h h h x u , f l h x x j j B j B x h j x x f f f f f i a a f j f r k k f f f f j j r d x k e e k z j f f f j B x j j j x j x x f < 1 f k ",
"x 5.t.D D t._ D G h f x G G A A A A A A D G G G G K A c c c c A G G A G v g B t.D D K K t.7.B g c t.c j A D G D G A B B A A A A A A B B A A g g A A f j 5.G A A A G ,.x f f A G D D j j j j A A c c V V N j j N c c j j c A x f f x A j j A c x h f j j 1 1 j c c j j h j c j h h j B A A c x f 3 h A h 3 j A c B A c A ,.h f A A c c A A c A G A A A A A A A A A A B A A A c A j f j A A A B B A x j f j x f f j j j j j j B j j j j j j j c A G v h g A x f x G V N j j A x f 1 r h B A A j j A A j A G A N j j B A A A A G A G 5.x f x 4.6.G 5.w.7.4.m k x ,.z x e.7.G G G G A G G G D G G G G D t.G f f A 5.x x s.w.G w.5.5.w.5.z f A G 7.G A c x A A A j j x c c A A A A A A 5.G G 6.x k ,.4.A A x x x ,.x f x x a f x c j j j j x x h h j j x A A A 6.6.x f j ,.h f x B B x A A A ,.f f A A A A A A K A A D G A A A A A A B j A G G A A A x f f 6.G G D D G 5.w.x f ,.,.g f x A A A A V j h j j c A c A A c A v f 3 v A g h G A A A A G A x g h A D D D D G D D A A G D D A A A A A c A A A A 5.A k f x ,.A A A A 5.,.k k ,.m a f M 4.6.A c x x x j j B x h x x x A f 1 k 6.j f m ,.j j j j j l u r f f h j j x x x x j j j j j x x k f j f f f f z x u e k j k j j h j j f d x f e d z f f f f j x x A x j h j x x x j a f x x ",
"j A G t.G G D D A h g A G G G A A A G A V D G A A A A c A A v A G A D G j f j G G D A w.G A x g x G G G G D D A A A A A A c A A A A A j j A x h A A f f c c c A A G A j f f A G A D A j j j j V c j j A N j N N j j h j x x x f a z h x x x x h f f j j f x x j j j h g j h g g g g j N j j x x f h c g 1 f h j B j c A x f f x c c c c A A A N j A A B A A A A c c B A A A c x j f j x B A B A B j f r f x f j B j j j j j N j j j j x x j j j c A x j A j 3 h x A j j j N h f 1 1 h x B A A N B B A A A B B j j A A A G G G 7.5.v j f k A A A A G 7.,.x f x 5.6.5.G G G G G G G G A G G A A A A A G 7.A c 5.5.z z ,.A G G 5.5.A A h f v G A G G x h x v A A x x x j A G c j c A A A 5.6.j f x A x x x x j j k a x M h x c j j h j x x h h x x j c x x c c A v x x x h 1 f x j j j c A j f f x A c c A A G G G V A G A x j B B B B A G G V A j x f f x A D G G G w.A h f x A B B G A V V V V V c c j c A A j j j j A c j v A g g c G A j A G B f g h B A D A V A D V j j A D D D N j j x j B A A A B x f f j j B A A A ,.x f f m M f x 5.G A A A A v x j j x B x x h j A A j j v z d k x x z l j f i r < i j f f g f j j h h j j h h j j f f f f f f f x z e < r f x x x B h f u r z x z z k k x x x j j j x x h f f j j z j f h x j ",
"x ,.A G t.t.t.G c j f A t._ D A A A D A A A G G A A A A G G A A A D D G x f h c G G D w.A j x h x G G G G G D A A A A G G A G G G A A c B A A A G A f f j j A A G A x h f h G D G D A B c A c c A j j N A A A A j j j j j c x f a f f x B B x j f f j x v v A B N j j j h h j g g j j B j j A A c c A h 1 r f x c j A x h 3 a x A A c A A D A x c A A A A A A A A x c A A A c A x k x x B 7.7.A x z k f h A c j j j j j j N A j j j j A A A A A A A G G A x f f h j N N A j f f i 1 j x j A G A A A A j j j N B j j B A A G 7.5.6.,.x f k x ,.A 5.5.5.,.x f x 4.G G G A G G A G G G A A A A A A B A A A G G 7.A z k x v G w.5.A x x j f v 5.G G w.G c x x A ,.x B A A A v j j A 5.A A G 5.x f j z x 6.x k f k f a x 5.A A c x j j j A A j c x c A A c A A c A G A A A f 1 f j x A A x z f f f x v c A A G K G G D D G G A A c A A A A A A A A A x z f x A w.7.7.5.6.j f g x G D D A A A V Z A V A G A A G G A A x x A A G G A h f x B A G 7.v f h f h A G G D D D D A j j j B B j j j j j A A A c x A A j f j h x A A 5.,.k i k ,.5.A A w.K G G G G A c j x A A A A x x x A A A v z u k j x x x x f u r r k x f f 2 f j j h x x x j j j g f x j f f f k x k u u f f x m ,.f f f f r z M x x x x x x v x j j x x z f k j j j x x v ,.j ",
"j 6.x x G t.A h h x g c t.G D V A V G G c A G G A A A A A A A A A D A B h f x j j A G c g j A g x t.D G A A A D A A A A G G G G G A A A B j B A G x r f x g h A A j g j f f A G A A B x x x A A j j j j A A B j j j h j j c j r f f f f B B l j j f h x x j j B B j j j h g g j x A A j j c j N A c j f 1 f f f x c x f f f f j c A A c A A A j j j A A A A B B c j h x A A A A j f x x h 5.7.x g h x a f c A A j j j j j N N N j j A N A c j j j j A A A h 1 g g 4 j j j 4 1 f r 1 f x j j A G A A B j j j N N j B B B B A 5.A x A j f j z z ,.4.,.j x x f x 5.A A A A A A G A G G A A A G A B B A A A G G 7.v f j M x v w.5.j h >.j f v A A G G A A A A A c x B A A c j x v c A G G A ,.j f x f f v x r r z f 1 z 5.A A c B j c A x A c j h x c A A A j c A A A A x f 1 j j f c A h f z k f x 6.c A A A G G A A A A A A A A A A A c j j A A A v f f v h c s.s.A h x x f j G A A N j V D V V V V N A A A A A A x j c A A G A g f x h h A A h f j f g A A A D A V V A N j g j j j N j j j c B j j x A A k f j f h A 5.,.k f f f x A G G A G K G A A G c h j A A A A h g h x A B x f r u f k x x u 1 k u < f j f g j h g x x x j j j h j h h j f f k f r f k u f x f f f k 1 r k d < f x x x j x x j x x x j j h z j j f f z j j x x f ",
"x 5.x f x e.x g x x f c G G D D D D G D G G A G G A A A G A A A G G V N j f A x g j x g g A ,.h x w.G G A A A A G G G A A G G G A A A A x c B A A j r j A f f x x h j A j h A A c j A A x h h j j j j j A B j h h j j h j x j d k x f f x k i h x f h x x j h h h j x x j j j c A A A A A N B B c c c g 1 j j f x x h f ,.x g j A A A A A A c c j x x c A A A j j h h x G G G A j f M v g j x f g A x f f c B A G A A N N N V N j V A A A j h h x c A j A h 1 j x g f f f 1 f x f 1 h A j j c A G A V A j j B j N A N B A A A x v ,.m z x x f x 4.x f x m f x 6.A A A A A G 7.G D D A A 7.7.G G A A G A A G G A f x 4.x j x j k v R.x f A G A G A A A K G A A B h A A A A A G A A G A A v z f ,.x f j j 1 f m x 1 h A A A A A A A G A A c c c A A A A A A A A A A A A g f x x f f j f j ,.x f ,.5.A A A G G G A A A A A A A A B j x j j j c A A v f f ,.f g x x g h 5.A g j G D D V j V V A A A A j c A A A A A A A A A A G A f z v j f f j f j x g g A G D A A V V F A N j j N j N j j j h h j j A 5.,.j f x k f v ,.h f x k f A G G G G G G 7.A A v x j j B A c h f f j x B A x f u k f d k k r u m k 1 f j h B A B B B B A B x j x A c j g f f x f f k z f k x x f r k a f m k r f x j x x x x x x x x x x j h j j h j j f f h f f ",
"h 6.5.x f v x x ,.h g x A A D D D G D G G G G G A A A A A A G G A A j A j f x A x g 4 h A A x f j G D G A A A A G A A A c A G A A A B j x x c c A j 1 f ,.x f f f x B x f f A B j c c x x j h j j j j j j g g f j j h h h j f r f m x f 1 1 i j j f f x h j x g 4 g h h j j j j j j A V j j x B j j c f 1 z x j f a f x A g g x c j A A A c c A A j j x A A x x x j x x A A x x j f x 6.v h f f c c j f f A x A N N N V N N N N j j V D A j j x c x j j j g 1 f x x f 1 i f j j f f j x c j j j A V A N A j j A V j N B A A x x A ,.x f j 4.j f k f x ,.x f x A A A A A A G G 7.7.G A A A G 5.G A A G A N A 7.x f j 4.6.j a k ,.4.4.z f A A x A A A A G G A A A A A B A 5.5.A A A c x v A j f x 4.j f r a j x h 1 f c c A x j B A G D A V c c A x j x A c A A A j c x g f x A h a r f x x f f A 6.A A A A G A c c x B x A A B A A c c A j j A A c f g ,.,.h f g g A ,.j f j A A V A V j N A A V A j j c A A N N c A A A A A x f h v x j i f j B x g h A A V j N A A A A A N j N A j j j h g h x B B A A f f x x f f f f x m k f A A A A G A A j c x x x j h x B h g g f j h j j j f d z x d r < r k l r 1 f f h x j B x j j x x j j B A x h f h j h h f f z f r j x f r 1 r j j k r f j h j x h f z x x j h h f h f f h j f f f f f f ",
"h 6.5.5.x h j w.5.j f x G A D D D G G G G G A A A A A A A A G G A j B A x f j x A A j A G A x f j G G G G A A A A A A B A A A A A x j j B A c c A x f j A A h g A 5.A x h h A B x A A A A c c c j x x x h g g x j h j h f h f r f x ,.x f f j j k a f x x x x h g g j x c h g h j c A j h h x x j x A h 1 f x x f a x A x h f v A c c c c c A A A A A x c A A A A A A c c j j c M z x 6.6.A x A G v z f j A B j j 4 j j N A A A A c A D A A A x c x j c c j f f j j j h j j h j f f A A A A A j c A A A A A B B A A A A A A A A A ,.x f z 4.,.h f x 4.,.x f x 5.G A A A A A G G G G A A G A A G w.G A x A G 5.A f z ,.6.,.x ,.5.,.,.j f A 5.c A A A A A G G 5.A ,.,.A B A <.A A A x x c A j f x ,.x f f j A x z f j v j c A A x j A A A A B A x j j j A A x j j j A c g 4 x A A x j x ,.j f f 5.5.A A x c A A A A A 6.c x A G A A G A A x A A A c g g ,.7.G h h G t.A j f x G A A G A B c G A A A x j A A A B A A G A A A A A f h v A ,.l j 4.,.j h h A A j j j A A A A N A A j j B B j j x A A c A A A f f x ,.A x j 4.4.x k f A A A A A A x h j j v x j j x x h h j h h f j x x f d m m k i f k k k r 1 f h h B j j j h x x j j k x x j f f z x x x h z m k f k x j f f j x f k d k x x x x h f f j x x x x h x j j j j f j l f k k ",
"h x h c A x v 5.x j f x A A V D D A G A A A 6.j h c A A A A A A x B B B x f x h h 5.J.t.B j x f j G A A A A A A A N B A A B x A x h j c A A x c 6.x f h j h x A 7.A j j f f A A x c A A c c j x x j f x x j h j x x h g f z f 1 a k z x ,.,.j f f r f x j h h x x h h h j g g j j j x g h j x x j j x f 1 f f j v ,.A h h h g j c j x j j c A c c 6.x j h ,.<.A A A A A x j c A x f x c h A G G c h h g g A A A B j j j j j A A c c V A A N x j h j j j c j f x f 4 j 5.,.g 4 h h g c x h x j j c x N A A h f f c A x B x x v x x A x a f x A 5.4.,.x x x f j A A A A c B A c c A G G A A A A A A A x x A A A B f k x f x R.T.x h x f f A A A A A A A A A 5.5.x f x ,.B x A B B A B x x x j f j j g x A j g z f f x c j x A A j j j B A j B c j h h j j j j h h j A x f 3 j x j A 4.,.j f f f ,.A A A A c c c c c A A h f A A A j A B j x x c A x g f x B B c A A c h f f j G A A A A A A c A A j j j A c A A B j A 5.A c A x f z x j x 6.s.5.h h f g x c j j j j N A N j B h 4 g B B j g j j j x j j x f f j x ,.R.R.4.x z f f B A x x c v x h g j A x h h j z g f j j h j x j x f r k k x ,.,.j f f r < f f g h h f j h h j x f 1 r z h f f f h j j h j j l f f f f j x j f f k r k x h j x x f a f j j x h g j j f f j x j f z h f ",
"z x f f v 4.,.j h x h c G G A A A A G G A 6.x f f x 5.A A A A B c A c c j f x j f x 5.A h j x f j G G G A D G A A N B G G A A A A A A A G G A A A j f j h g h 5.5.g g x f f A G A c A A A c c x z r r k A c j A A A x h h x f r f z r j ,.x f r f f f x j j j j B x j h h h h x x x x h h x x j j x x j a k f f ,.4.j f h j g x A c c j j c A A A ,.x k z j <.G A A A A A A A G A h v x f x w.A h g j g g A A A G G A N c A A A c c A A A A j h j c c x A x h x j 4 j A j f f j h h c j j h j j c x A A x 3 r f j v A x j x A x x A x f k x x v R.,.f k x f x A A A B B x c A A G G G A A G G A A A B A G A <.x f z x f k 6.6.k h x f f A 5.A A A A A A G w.m f r k x ,.,.A A A A A A A x j f x f a x 5.g 3 h z f x A A A A c c j j c A A A A A B B A x j j h x A A x g a x z f j 4.m f j j j ,.5.A A G A A A A A A z d f j v A A A x j c A A A A g f M f f A s.x f f x f j G G D A B A x j B A N j j A A A B j h c A A A A x f x x f f x ,.j f j j g x A A B B j B B B B j f 1 a j A B h h h h j x A A h f x z f M ,.j f z k f B A x x B A A A c A A A j f f j j x B B A A A x x f f k f k m x f f k f r k f g h h x B j h x x u > r k x j z f f f j x x x x f k f f x 6.h r f k a j x x x A ,.x h j x x j g f x f r r x x j j x x f ",
"f x f f f x j f z x f j G G A A A D c A A x f f k f x G A c B B c x A v j f j j f f j f f j x f j 5.A A A A A G N N B A A A A B A A A A A A A B A h a h j f f j j 4 f x f g A A A A x x j j x j d r r r f c c B x x h x j x l f f k r d f f 1 f f 1 f j j h j j j j j x f f h j x B h h j h j j x x x j r k f r f j a f h g 4 x A A c x x j j c A x k k k f x A A A A A A A A G v h x x f f x j f f j f g A B N A A V c j j A N j j A A c A j h j j x A A x f x j f f f f f f h g g x j g j j j j c A h 1 1 d d f x x h h f j x x x k a z v f f x j r k z f j A A A A A A A G 5.t.G A A A A A A c c A A A A 5.x f z x k k x k u f j f f x G A A G A A A 5.A k k k f f x ,.c A x c A B A ,.h f j f 1 f x 3 1 f f 3 h A A c x x x A A j x A c B j j A j j j j x c x x j f f x k 1 r k k f j k f A 5.A G A A A c c v x a r d d f v A c x c j j A A A f f x f 1 j x f 1 f j f j G A V V A A c A j j B j j B A A j x x c x A A A A f j x k f f f f f j f f x x j B x j x x B j a 1 r r f j c j h g f h h c c f f x f 1 k x f f z k f B A x B x B B A A A A A h h f h B x j x B A x x h f d k u r k u 1 f f r r f j h g h x j j x j u r r r r k x z f f f j x x x k f k f r k j a r k k r f j x A c c A x x x x g 1 g j h f r f k j f f j f ",
"h v k f f f f f j x f x G D A G A A A A x f k k k k k A 5.G A A A A A A j f z z k f f k k x x f j 5.7.G G A A G A B A A A A A A A A A A A A x x A h 1 k x f a f f f f j g g A A c x x A x x x f r u u r f x v x j j j B B x j f j k a a f a u k f a f j j c j j j j j x j g h x x j j j j h j x x j x j 1 f f f f f f f j h f x A A A A c j x A v j k k k k j x 7.G A A A A A 5.A h v M z k f f f f j f g A A G D A c j j c B j j x A A A A N A A x c A A j f z z f f f f f z x h g c c j x A j x x f r r u k u f z x B x j B A A x j f x M k d k k d k z f j A A A G G D G G G G t.G A A A A A A A G G G A A x k z m z k k k d k x k f x A c A G G A 5.A j k z z k f f x A A A c A B A A j f z z a f f r r k f a h x x j A A A A A A B A G N j A A B j x A A A A A x f f x k r u k k f x j f A 6.c c A A A A A x f r d k d d z v 6.A G A G A A A f f x f f k k r r k z f j A D V A G D G D A B j B A D A A B A G G A c c A A f x v k f f k f f x j h B h g h j x A A x f r u d u f f x ,.c x x x x c x z f x z u k k k f z f g B A x c x c x j h j x A A x j x x x x x j j h h j f d k d d k r r u k f 1 f x c x c B j x x f r u k d u k z x j j x x j A x k f z k d d d d f f f f f j j A A x x x j h h f f x x x x k f f j k k j k ",
"h v f f f f f f k x f h A A A A A A ,.v f f f k k k f k c A A A G A A c j f z k f f k k f k x f f A A A G A j A A B B A A c B A A A B B B x x x c f 1 k z d d d d d f z g g x x j x c x c x f r d u u f f f j x j j j h j x f f z f r d r r r r f a f x j j j h j j j j j g g x j h j j j j j j j j j f r f a r r d f f h h f h A V A c A c A x j k k k k k f h A G A A A A A A x f x m k d d d f a k f g x A A A V j j A c j j j c A A A N j N A A A j c h 1 k f f a f k a f x g g c j c j j x x f r r u u u d d a j A A B <.A c x x f z x d r d d d k k a j A A A A G G D G G G G A c A G G A G G A A A c A x k z m k k k k u d z k r h c c A A G G v h f z z z z k f k x A B x c x x x z f k k d r r r u f f a f x x A A c A j A G j j A j j j c B j j c A A A j x f f x k u u k u k k k f x A c c A x c A x f d d d d k d d z ,.A A G D G A x f f k d d d r u k k k f j A A A D A G D A G A j A A A B j B A A A A x j A x f j x k f k k f k k f h j g g g f x A x f r r r u k k d k x x x x x c x x f f z d r a k d d k f f x B h x c x h f f f g j j x x j j x x x j f g f j f d d d d u r < r f r 1 k x j j j j x x d u k u u k k u r j x x x x x x x f r k k r r r u d a f f f j h h j x h f h j h h j h h h j j f j x k j k k ",
"h v k f k f k f z x f h A D A A G 6.x f k k k k k k k k f c G A A A A A x k x k d k k k k z m f h A A A A x h B A A A B A A A A A A B x B A B x A f 1 z z a a d d d f z g g A G A A 5.,.x f d d k k f f k f f j B B j h j x k a f a d d u a r a f a h A c c c j x j h x x g f h x x j j A B x h g h j f r k d r a d a f j j f h A V A A A A v z k z k k k k k k j c A j j c A A A h x x k k f f f a h g g A A B A A B A G A B j A G A A A A A B G A B B x h f j f a d f f f z x g h A A B B A x f a f k u u k k d f f z m x x h h x x k k k d a d d u k k d j A G A A G G G 5.G G G A c A A A A A G G A c c A x z n m k k k k d k z f a j A A A G G ,.j f x x x z z z k k z x 6.A x x x A j f z k f u r r d f f f z v c A A G A c A G B j j j x B B A A B B c c x x x f f x k u d k k k z k f x 6.A A A c A A z f d k k k k k f f j A 7.G A B c x f f x d u d u u k k k f j B A A G G G A A A A A B j x B A A A A A B c x A B f j m f f k f f k x f f x B h h x A x k r r u u u k k k f f x M j j h x x f f z f r d d d d k k f x A x B B j j j j h f f f j j f f x B B x x f z x f d k k r r r e r p r 1 k x x j x x x k r d k d u d k k d f k M ,.x x c c f f z k r e e r d f z f z x x h j x x h x x j j h g g f h f f f k f r i k ",
"h x f d d k f f z x f g A A B A A x f d k k k k k k k z k z x A x x c A j f j k k d k k f z x f f A A c A A x j j A B B B A A A A A x j B A x x A f 1 f z a r d d a f h f g A A A 5.,.v f u d d u u f f f f f f j B x x j h k 1 1 r r u u r r f a 1 f x c c j j x g g j j h f h j h B B B B h j j j x f r f d 1 a a d a h h f h A j A A A x f f k k k k k k k k k j x x A x A G c h x x d k k d a f h 3 4 j B j j j A A A G B j A G D A A A A A B B j j A h 3 z f r d a a f h x g g B A j c B f r d k u r r r d k k k f f x x j x j z k k k d r a d r d k a j 6.A A A B A A G G A A G A B B c A G G A c c c A x f k x k k k d d k z f a j A A A 5.A j k x k k z k k z x k f k x A B x x x z f k k r d u r r f k a f ,.A B A A A A A A D c j j A B B c c j x j j x x j f a k k r r d u k z f f x w.A A A A x f f f k u d f f k k k f j ,.A A j x j f f k u r u u r u k k r f A B c A D V c A x A c j j j j B A B B B B A A A A f j x f u u d d f x f f j x h x A j r r u r r u k d d k d d f k z f h h j f a z d r d d r u k r r j A A A j h h x A x x j j x j f f j x j x x f f z f r d u e e r e e u u 1 f x x h x x f e r r r u u r u f d r f j A c j c j f f z f e e e e r k j f f x h x x h h j j f j h f f h j h f f r f k r r u ",
"h x f u f k f f z x f j A A G A x f f k k k k k k k k x x z z x A A A A x f j z k k k k f j M f h A A A A A A A c A A A A A A A A A x j B A B B ,.j 1 f k d r d d d f j j f x v 6.4.m k f d k k u f k k d d f f f j A A N x j a d d r u u r u f f a f h h j j c A h g f j j j x x j B x j h h x x x x f f z f a d d d d z h f j A c A A x f f k z k k k k k k k z k z v A c A G A j x x f k k k f f j f g B N N c A A A D G B B A A G A A A A j h x A A A j 4 j h a d d d f j j f g j A A x f r f k k k d r r a d k k k k k x ,.4.,.j f z k d d d d r d k k j A c c c A G A G G G D A G G A A A G _ G G A A A v f z z k k k d d k x l f A G A A ,.j k z x z k k x x j z k k k z x G A B j j k k f a k d r r f j f f x A A A A c c A A A A A A A A A A A x x j x B A x f a x k r u u k k x f f A s.5.G A x f f f f f f f d k k k z z k x ,.A B B x f f k u u d d u u k k r k ,.A A A B B A A A A A x B A B B x c A A A G A G ,.f h x k k d d d f x j f x B A ,.x d r d k d d u u k k k k k f f k m x j j f f z k a d d r r k u u x x h h h x B B B B x j x A x j j j x j x x f f j f r d r e r r r r k k r f x x x x k e e u e q w r d k f k k f f c 5.A A x h f j f r r r e r k j f f j j A A B x x x j x j f f x x j l k f f j k k i ",
"g A f r d d f f x x f j A A A j f a f k k k k k k k k k x k k k x c B A x g j x f k k k f x ,.f f A G A B A A A A A A G 5.A c A A A A A v B B B A f 1 f z r e r d d f j f f j v v x k k k k u u f f u u r r u d r f l B A x f r d k u r r r r f f 1 f j j h j j j j f f h h h j B j j h j x j h h j j f r k f a d d d a h h f j c A v z f f d f k k k f k k k k k k f z ,.5.A A x f x x f k k d a f j f g B j j A c A G A A A N A A B B A c j j h h c j B j 3 f z a a d a a h j g g j A A f r d k k u k k k k d k k k k k d k x 4.4.x f z z d r d s r d k d z c x c A A G G A A G D A A A A A A A G G A A A A x f k x k d k d u k m k f c G A A j f k k z z z z k z z k k z k f h c G A A j f x z r d d a a j j f f h x A A A c A A B B c A B j A G A j x x x x x B x f r x k r r u r u x f f x 5.G 6.x f a f f d f k d d k k k k k k k k A A B x f a k r u u u u r k f r x B A A A A A B A A B x A A A A x B x x A A A A A A f f x k u k u r k j f f j B ,.x u r u u k k d u u u k d u d u u f x ,.,.x a a z f r r d r e d u r f x h g j x x h j x j h h j x x h f h j j f a f k r r u r q r e e r k u 1 f j j j f e > q e e q q r d r u f d f a h A G A x f f z f < e e 1 1 k f 1 f j h h B B j h x x j j f f j f l l f f f f f f r ",
"g A j f d f a f x x g x w.A j a i f f f k k k k k k k k k z z k f z v A c g x 6.z k k k k ,.4.f h 5.G A A A A 5.A A A A A x x v A A A G A A B B A x f j x k e r d d j M k f A ,.x z k z z k f f k d r r u d u u u d r k B B j r f x f r u r u k k r f j A A x j x h h f f h x h x x B x x A x h j j x k f x j a a d d f x j 4 x 6.v z a d f f f f k k k k k k k u k u f j ,.7.G x f x x k d k f f j x g j A A A A c B A G G G A A N c x A c j x x x j j c j 4 j x f a f a f x A f j A x f d f k k k k k k k k k k k k k k k k k m 4.x f x x k s d d k m m d j v c A G G D D A A A A G A A A A A A A G G G A A A z x 6.z d k d d x 6.x f A 5.A j k k z k k j x z k f k z x j z x z j A 5.<.x f x M f a f f f A x f f j j x v A c A A A A c A c c c A A B B B A x j x m f f m x u e u r f m k f x 5.5.x f d f k k f f k f d d k k k k k k f k x <.A f f x k u u u u k m x f x A A A A A A B A 5.B x A 5.A A B B B A A A A A A A f f m k u k d a j v g f x ,.j u u d d u k k k k k k k d r r d k d f x 4.x r a x z r r u r d n d u z x x j x v c x j h x x k f j j j x j j z f f j x f u k u e r u e u k k r k ,.j f u r e r r r e e u d k d u d k k f j A 5.A h f j j r r r r a j f 1 f j j j j f h j j x x j j j j h j j j j f f a r f ",
"g A A f a a r h A x g x A h f u r f f f f k k k k k k k k k k k d d h A A g j 5.m k d k j 4.,.g h 6.G A A A A A x x A A x h j v A A A A A A B A A x f z M x d e r k x v f j v j f f k k f f k f u r r u u u u u u u r r f j l r f j k r r r k k f 1 f x x x j h h x j f f h h h h h x B x x x c j h x f a x x f a d d z v h 3 x A z a d f k f f f k k k k k k k k k k f f f A A j f j ,.j a r r f A x 4 j G G A j j j N A G A A A j c A c c x j B j j j c h 3 j x f r 1 a h c x f j A f r d k k d u k k k f f k k k k k k k d d k m x f j M z a d d z 4.m d j v c A A G G G A B A c A A A c A A A A A A A A A c f z 6.x f d d k M ,.k f A 5.j f f k k k k z z z k k z z j x x x j h j A 5.j f x ,.x f 1 f x A h a f x g h x A A x A A c j j A c j j N B B B x x x x x f r x ,.f e r d z m k r x ,.j f a f f f k f f f d d d k k k k f k k a f A x f f m k r u r r x >.h r j A A A A A A A A A x x A B A A B x B A A A A A A B f f M x d u a k v x f f m x a u k d u u u d d k k k u r r a d d d r f x j 1 3 x x d r r u k n d r z x g h x j x x f f j j f 1 k j j f f f f f f j j f r m z e e r e u x f 1 k x f r u k s r e r r r e u d u r u k k d f z ,.A j f h x f < < 1 g j f , f j h h f j x h j j j x j f h j f f f j k f f r k ",
"g A t.B f 3 g A G x g x v f r d r f f f f f f k f k k k k k k k k f g A ,.f j e.4.j d k 6.e.,.f h 6.G A A A B x j j A A x x c A B A A A A A A A A x f j 6.A z a f x 5.x g j x f f k k k k k k d u r r u u f k u u u u r r k x f f x x f < r l m k r f A x h h j x B x x j h h x j j x x x x c A x x v z a z M x d r f M 6.g 3 x x f d k k f k f f f x l k f k k k k z k k f j A x f j 5.x f r f x A x 4 g A c j j A A A A A G G A A A A A A A B A c j c A j 4 x A c f 1 f A 5.x g x ,.f d k k k k k d d d d k k z z k k d d k d f M m f j 6.m f d k x e.M f x A A A D G G G B A A A x c A A A A A A A A A A A A k z e.4.z d f x 4.6.k f x x k k z z k k z z k j j j j x z x x z j z z x 6.v h x 5.A j f h 5.A j f z A h h x A A c A A c j j A A A A c A A A c c A A x f a v 6.x d r f ,.,.f r x M f u d f f f k k k d a d k d k k k k k k f f j ,.f f 6.m f u u k >.6.f r j A A A G G G A G A B A 5.A G A A A A A A A B A <.A h j 4.,.h a f A A x f f m x a d k k f k u r d d d k k r r d k d d d a f j a f c A h a r f x m k r k z f j x x x j j x x j r r k x j z k f f j j j x k f m ,.f r r r z m f r z x r r u d d k u r r r r u r r d k k k k k f z v x f j A j 3 1 f c c f r f j x h j x x x x j j j j x j j f f f j j j f f f ",
"4 c D D x g B G G j f x v f d d r d f f k f f k f f k k k k k k k f g A v f h 6.e.A x ,.w.w.A f h A A A A A x j j c x x x x x x A A A A x A A A A x 3 f A A c x x c A h 1 f x f f k k k k d u d d u r r u k f u u u r r r f z a 4 x x h f f x x f 1 f j h g j j B j j h j j h h x x h h h x x x x x x k 1 f v x z f x 6.v f 1 j x f f k k d k k f k k k k k k k z z k k z f k x x f h c 6.c h x A B h 1 f j j j G V A A A A A A A A A A A A B B x A c j x h 1 f A A j g h A A h f x ,.j k k f k k k u u d k k k k z k u u d k u f M x f h ,.M f f j 6.6.x a j 6.A A D D A A A A B A A x c A c A c c A A A A A x f f ,.4.x f z ,.<.x f d x x k k z z k k k x x z j j j x x x x z j z z x 6.x f j A G v x x A A h 3 f x j j h j A A c A x j j j A A A j x A c A c x x j r 1 x A A z f x 5.A f 1 x ,.f r k f d k f f k k k d d k k u u k k k k f j ,.f f x 5.j r f x ,.x f 1 j A A x A A A A A A A A A G A c A A x x x B B B B A h g c ,.x f x A A x f f m f a f u r d u u r u d k u u u u u u d d r r f x a 3 x A A j f j x x u r k j h f j x j j j j x f 1 r k j j j f r k x f j x f r k ,.j r e k m z 1 1 k l r r r r u k d u u u r r r u d k u d k k d f x z a f c x h f h B x f < r f f j h f j x x j f f f j k f f f f f f h f j f ",
"g c A F F D D D G x f x 5.j f u f f f f k f f k k k k k k k k k k f h A x g j 5.G G 5.w.w.5.v f h v A G G G A B A A A A B j j x x x x c A A A A A x 3 f A A A A A A A j f j x f k z k k d d d d k k u u u u r r u d u r a x x f f x j B B B B j f < f j h g h x B j j j x j f f h h g h x A v x x x x f r z x x c v A A x g 1 x x f f k k k k f f z j k k z k k k k x k k k j ,.x f f A A A A A A A j 1 f x B j c A D D G G A A A G G A x j B A A A A x c h 1 f A A A j A A c f f v ,.j k k k k d d u u k z z k z k k d d d k k f 6.m f h v A v x A 6.6.x a j 5.A A A A A D D G A G A A A A A A c A G A A A A v k k A 5.,.,.,.5.6.x f f m x k k k k k k z j x j x x x z j x x x x j x A 6.x f x G A A A A A A h 1 f x x x j x x c A c c A c B A x x j x c A A A x j k u r x A G A c A A A f 1 ,.4.j k k f f f f f k k k k k k k d d k k k k f x ,.h f x 5.A x x A A x f 1 j A A A A v 5.A A A A A A A A x c j h f h B A B A ,.f f x A A x A c x x f h ,.k f k k k f u u r u k f k d u d d a d d r r j ,.f 4 j A A A B A A x d r j x j h j x x x j h j f a f k j x f r f x x k x x d 1 f x x f k x x k 1 1 k x f r u r r u u u u u u u k k u k k k d d d k x x 1 a x x j h j B h f < d f f j j x x j f f f f f f k f f f f f k x j f u ",
"4 c V D Z Z Z D G j f x A h f d a f f f f f f f k k k d k k k k k f h A x f h 5.G G 7.7.G G x a h v A A G A B B A A A B j B x j h j h h j A A A c h 1 f A A N A A V N j 4 j x f f k k k d r d k u u u u u u u u u r u u f j x g f j j j A B j h r , i j j j j h j N j j j g f h h h h h x x A A x j x f a f x j A c A A x f 1 x x f f u f k k k k k x z k k z k k k k k k f x ,.x f f v A A A A A A h 1 f c j B A A A A G A A G A A G x f g x A c x c A c f 1 f B N A A N A c f f x A j f k k k d d u u k k k z k k d u d d d k z ,.x a f c A A 5.A c A z 1 z A A A A A D D G G G A A A A c A A A c A G A j x x f k x A 6.5.5.A A j f f x x k k k k k k f z j j j j x j x j j x x j j x 5.x f x A A A A V A A g 1 f x j x j h x A c c c j j j B x x x j j A A x j j x d 1 z A V A A A B x f 1 ,.,.f f k k f f f k f f k f f k k d u u k k f f j ,.h f x A A A A x x x f 1 j c c A x h h x v B A A A c j j x c x h h B B x x j r 1 j x A A B c A h 1 h x f a d k k d r r r d f f f r r u d d r r r d j x f 1 j c j N B j A x r u j x x x h z k j j f f h f a f j x f 1 f z k f f k r < d f h j j x f f r r k x r u d r r r u u u u u u u u u u k d d r d k x k 1 1 x j j j j j h 1 < d a 1 f j j j f f k l f r r r u d r a f f f f r r ",
"g c D D V D D D G j f A A h f f f f k k k k k k k k k k k k k k k f z M M f j 6.5.5.G 7.5.5.x a j 6.5.A A A B A A A j x B A A A A A x h h j x x c j f h A A V A A A A x f j B k f k k p a d k k k k f p d d d k d u d u f j x g f c x j j j j j f 1 f v x j j j j j j j j g h x x x B x B B A A x x x f d z x x x B x A x f f x x f d u d d f f k k z k z z k k k k k k k k j A x f x v A A A A A A j 4 f x B G G j j j A A A A A G A j f x A A A A A A A j a f A A A A A A A x g v ,.z f k k k k k d k k k k k z k k k k k d k k m x f f v A A G A A A x f x A A G G G G G G G G A A A A A A A A x c A B B A x k z A A 6.5.6.6.A A k k ,.x k k k k x x z z x x x j j x x x m m x x j v e.v j v 5.A A A A c x h f j A A A A j B A A A A A A j x j A A x j c x h j ,.M k r j c A A A A B x f f ,.,.f f f k f f f f f f f f k k k k k d d u f f j ,.j f x 5.A B B A A B f 1 x A A A A h f h x c A 5.A B x x x A A A x x B A x j r f x A B B c c A x g j ,.x f d u r r u u u f k k k d d f d d d u u d j x f 1 h A A N j x A x f k x m B x f r r f j h f x j z j j j f j x x k f k k r r d z h k j j j x f u x m u r r r e r u k k k u u u u k k d d d k d f m x 1 f x B j h h j f r r k f a f f j f f f l j f f u r r r r r f r 1 r r d ",
"g A A V V V V G A g 3 x A g f f f f f k f d d k k k k k k d k k k d f M x f j 4.5.A A A G 5.x a h v A c B A B A A B j x B N A A A j j h h j h x x j f f A c j A V N A j 4 f B k f f p k f f f u k k u p d d u u d d r r f x j f f x x j j j j h a 1 f x x j j j j j j j g j h h x A x j B B x j x x x f u z x h j x x j x f r z x f r d d r a k k f k k z k k k k k d d k f f A j f x v c A A A A A h 1 4 x A A A j x A j j B j A c x j A A c x A B B A A h f j A A A N A A A j f x ,.f d k k k k k k d d k f f k k k k u k d r r x x f f c A A A A A A x f z ,.A j c A A A A B j A A A A A A A x j j x A B x x f z 6.A v A A v A x f f m x f k z k k x z j j x x j z x x x m x j j j v 6.x z v 5.A A A c c c j f x v c A A A j j c B A A A j j j x x j h h h j x x x f r x B j A A N B A f r x ,.f a f f f f f f k k f f f k k k k d u r f f x A f f x A A B B x A A f 1 j G A A j j h h h x A A A A x h x A B c j x B x x k r f B B A B x j A x f j M z r r r < r u u u u f u u f f d r d d r < r j x 1 1 h x B j g h c x f r x ,.x h f f a f f h f f x x f f j x x x f f f x k < < d z f f f f j x a < k z r e r e e e r u k f f u u d d u r r u u r f x f 1 f j j j h g h f u < d x f r f h f f k f f f f i r = < r r r i r 1 r r ",
"g A A A V Z A G A h 4 x A f f k k k f k k k k k k k k k k k d k d d f ,.M f j 6.5.G A A G w.x f z v c c A G G G G B B B B A A B j j j B j j j B A x f h A c c A A A A x f l B f f k k k k k k k k d u u k k d u u u u u f x x f h x B j j j j h f 1 j x h c x j j j j j j B x h j f f x A x j j x x x f r z x h j x j j x f 1 k x f u k f a d f k f k k z z z z k k k k k f h A x f x A A A A A A A x f f A A B x c A B c c A A c h h x A A A x x B x A 6.h f x A A A A A G w.x g v ,.f f k k k z k k k k k d d f k k k d u r r f ,.m f j A A A v c A x x f j >.x g j A A j j B A A A A A A A A j B A A A A A x f j 4.6.A v A A ,.x f f x j f k x x z z k x x j z x x x x x z k k z x ,.4.M j ,.G A A c x c c x a h x j j x x j c A A x x j h j x A j h f j B B x x x f r x <.B B B B A ,.f i ,.,.f k k k k f f f f k k f f k k d u u u u f f x ,.h f ,.<.B A A A A ,.f 1 x A A B B A A B B A A A G G c x c c c B B B x h x x f j ,.B A x x A 5.x f j ,.k a k k f f k k k f d r u k f k k u r r e r f j 1 ; f x B j h j x x d u k x x h j x k f f f j j x k f f f k f a f z j x k r u z z f f z z j z f r k k r e r r r r r u k d u k u u r r r r u u r f x f 1 f x j j g g h l u < u k f f f f f k l f f f k k f 1 r l f f k i r u u ",
"f x A A V V A A x f 1 x A g r f k k z k k k k k k k k k k k d d u u f ,.x f f v 5.A A G A A j a h v c A A A A G A A B j j B B B B A B N A A x j x x f f h j j j j A A l r f x j f k k k u r u u u u u d d d d r r r r r f x x f 1 j j j j j h g a 1 f j j j j j j g j B x j j x h 1 1 h x h j x x j j a < d h h j h j j k 1 < k z a r k f d r d k k k k k k z z k u u k f f h v x f x A B B B A A x j 4 f x B A c x B j x x B A c j h c A x B B x B A A A h 4 h x A B B A A A x f x M f d k k k k k k k k f d d d d k k k d k u f x x r f A A B x x A x f r f >.A j x A A c j B A A B A x c c c B A A A c c A x f z ,.,.A x x A x j r f j j f f k z k f k k k k z z z z z k k k k k j x 4.x f x A A x x c c h f 1 f A c x x c x j j x j j h x x j A A x x x x B x x x f 1 k x x B j B A x f f m ,.f f z k f f k f f k f f f f k u r u u u d f j ,.j f x A A x A A A j r < f x j j B j A A B x A A A A x x x x x j j B x h j j i f x A x j x x ,.j 1 f m f a f k k f f u f f r r r r f f r r e < e r f x r = 1 j j j g j x f u r f j j j x x x f a f j j f 1 r u f r r r f k k k k u r k k f f k z f f 1 < k k r e q r u u u u r u u u r u u u r r r r 1 r j f ; f x j 5 g h l i r > r f k f f i f k k f i 1 f f 1 r f f r f f i r 1 r ",
"a h v A A D A c h f f x ,.g r d d k z k k k k k k k k k k k k k d d j 5.,.f f x 5.G A 5.A h j f h A G G A x B A G G A B x x x A A G A A A A B B A x f f h h c A x v x a 1 k x j f u u u u u u u u u k k k d d u r u r r f x x r 1 f x B c c h f a a f c j j j A x h x A B B B A A h h x B x x B x x x f < 1 f x x h x j r < < k x f d d d u u d k k k k z k k k k d k k k k j ,.x f j j x A A A x h f f f x A A G G G A A c c A A A A A A c c x A 6.A A ,.j f f j B A A 7.A x z f v ,.k k k k k d k k k k k k k k k k k k k k d f m x f f x A B v A M k r u f ,.A A c x A A A A G A A A A A c x A G A A A A c x k k x x ,.A A v j f r f x x f u d d f k z k k z x k k m x x l x x j j x 6.x k k x c x c v x f r a f A A A A A A j x B x x x c A A A A A A A B B B m m k r k j x A B A A l f f ,.4.f f k k f k k k k f k k k k f d d f k p p f x ,.k r k x A A A A x f r r f h A A A A G A j x c A A x x x x A A A A B B x x j k f j x x x A A x f 1 f m x r r u u d k k f k k u r u i u u u r r r r j <.f , 1 f j B x x x f r r k x j j j x x f f j j k f r r f f f k k f f j x k r # u k l k k k f a u r k m u r e e e e r r r r u u u p u u f f r r r r z k 1 3 h h h h h f 1 = = r k j k f f f f j f f 1 r r r i l i , 1 f k f u r ",
"a z h j A A j f f h f x A f r u d d k k k k k k k k k k k k k k k f h 5.x f z j h A 5.A f j x f g A A A A A j A G A A B h g j x B A A A A A B j x h r f f 4 j A x h a r 1 f m k r r u u u u u u d d u u d d u u u r r u f x x r 1 f g j x h f f f 1 f x j c c j j j j B A A B B A B x j j x x j x x j r < 1 a h x j j f u e e k x d r u r r u r d k k k k k k d d d k u k k k ,.x f j f f m A x f a k 1 f c c j A D G A c j x x A A A c A A c x x A A A v h f h g h A A x h x z f x M k k k k r r u k k k k k k d k k k k k d d f x x a f j j x A A z a f r f A A A c j B j B A G G A B A A x x A A A A A A v j f k k f x 6.v h f f f a x x f f f u f k k z k k k k k k x x x x x x j j ,.x k x f f A x h f f f 1 f x x A A c A x h x B h h j x B B A A A A B h j x m k u k j f j A B f f f i x ,.f i p f f f k k f f k f k f d d k u u p i f j ,.f r f f x A A x g f u < f j j A A G G j j h x x A x h x A A B A A A A x x j r f f f j x x x f f r f x k 1 u u u f k d f f k u r r u r u u u e < r f j f 1 1 1 g x x j f k u r k j f f j x j r r k k f r f f r a z j f f f k k u < # w r p k r r r f r r z m u r r > # e r r r r e u u r r u r d f r < r k f 1 1 1 f h h f 1 1 r = 1 k f k f i f f j f r 1 , = 1 r f f r , r i r k r ",
"f v j h j v j g A x 4 x A f d u d f f k k k k k k k k k k k k k k k j 5.x f x x f x x j f A ,.f h 5.G G G A A A A A c h f h x B j N A A G A j j x h r k x h g x x f f j f z x j d u k k f k f k d u u u k d d k k k k k f x x f f f g h x g f f j a f x x c A c x x x B B A A B B A B j j x x h x ,.x u r k f f x x k r f k r k x r r u u u d r u d d d k k d d k k k d d d k ,.x f x j f j M h g x j a f c A A c A G A c A c x A A A A A A A v A A A G 6.j h M h g B x f f A x g x ,.x k k d d d d d k k k d k k k k k k k d d k ,.m a f k f h A A f f j f h A A A A A x x A A G A A G A A x B A A G A c A A x f z m f f x j f h ,.f f x x f f k k k k k k k k k k k k k m m x x j k x ,.x f M x f z j f a j x r f A A A A A A A x x B x j j j x c A A A A x h l j x k u x x f f >.x k x m f m 6.f r u k k k k k k k d k k k k k f k u u u u z ,.f f x x h x v h h j f 1 f j j A G A N h h A A B A B B A A A A A A B A A x x f k j f k x x k f x f f m x a u k f k k f f k u u r u d u u u u r w r f j i i f f f j j h j x k u k x j j j j j f u k k f k x k f f f k j x z f r d r w u u u u r r k k f u x x u u u r r u u d r r r r r u u u i u r r r a k f 1 h g 1 1 f 1 1 f k 1 r j j f f f f f f f a r r 1 r f l h f i f i f f r ",
"a x 6.v f h f c A h f x A f f k k k k k k f f z z d d k k k k k k f j <.j g A 5.x g f f x <.x f g A A A B A A A c A x h j A A j N j j A G A B j h f 1 a M x 4 g f f j j r f x f u u p u f k k u u f f u r d d u d k k d f x j r f x j 4 4 f f j j r f x x h j c h g h B x x A B N j B x h h j x x x z r r z j k f f k k x f r k z d e r u u u d u r f x m k u d k d k k d u f M x f x 4.x f f h v x f a 3 x A A j g h x A c x x x A A A A A A A A j A A A j a x x j f f f v A j g x 6.z k k d d k d k k f f f f k k k k k d k d f M x 1 f M j f h h h x j f f A A c A A A A A A A G G A c j B B A A A A A v x j d z M m f r f j A x a a x h r r k k k k k f d k x k d k k m x x z k f x 6.x f m 4.h f r f j j f r f v v x c A B c x j x x h h j h x B A A x h f f k k i r x >.j f f k x m z f m ,.f u k k k k f k f f j x f u k u u k u u u u j ,.f f M 6.j f f h A j r r f x j j c A B x A B A G G A G G A A A x h j x A A j 1 f m m f r f f j x f f ,.x r < u d d f k a a f f r r u d u r u u r 1 f j 1 1 h j f a a z x z k r f x j h h h h j f r i f k f z f r f j j x h r f k e r n u > > r r i k r 1 k l r < r u r u k r e u x k < e u r r r r r 1 r j r ; f x f 1 1 : f f r , 1 j f f j f f f f i a f k < , f f 2 f f f f 1 1 < ",
"f x x v j f h G A h f x 5.h f k z k k k k f j A A h f k k k k k k f j ,.x f A 6.A c h x A c x g h A G A A A A A A A x x A A A A B A B A A A B B x h 1 a x A j 4 g c x f f z x f u u d d d k k f f x ,.j a d d d k f d r f x x f f x x g 1 h A x f 1 f ,.j g f j j f f j A x B A B x A B j j x x x k k u r d x x f r k x j f r k x f e u d d d d d r x 4.4.x k k k k k k k f f 6.M f j 5.5.j g x 5.c j f f v 5.A A h h c 5.A ,.x x A A A G A A A A A A A 4.x f x M ,.j f j 5.,.x f v 6.f d d k k k k k d f x x z f k k k k k k k k M j r f ,.,.f a f A A j f h A A A A A G A A A A A A A x c A A A A A A A A M x f x ,.,.x f h x A x a 3 j h r u k k k k k d f M R.,.k f k x z z k k k x 6.x f x ,.x k f j v x j f k ,.A A A A c A A x x h x x x x B B A v x h j j j k k u z ,.,.k f j ,.x k f x ,.k u k k k k f f f j ,.,.z d u d k p p u u f x ,.l f x ,.x f f x ,.j f r h A A j c c A A A B A G A A G G G A x j k j x x x x r f m ,.j r r j v j f f ,.x r r u r k k k r r x ,.x d r u u u u d u r f x f 1 h x h f f x x f f r k x k h x j j x z f f f j x x k f k x x j f f k k u u n k < < d k d u r r k x r r u r r u d r r x 6.m u e r r r r u r < r x f = f j j f 1 1 j j r , f j f f f f k f i f f k k f r i f f f f f 1 , 1 u ",
"f x f g v v x h j h f c 5.g f f f k k k d h A A A x f u k k k k k f f ,.j g x h h A 7.A h g x f g A A A B j j A A c h x A c B A N N B B A A j j c h 1 1 f h x x A x h f f f j k u r u d u u r f x 5.,.x f r r d f a r r a j x f f f h B h x x f a 1 f A B B j j x j f f j x x x B A B x j h j j f j x u < d f f x k x f f f r k x f r r r d d r u k ,.A A A k u d k d d k f j 6.x f j j x x x A x f j f 1 x c A x A A A A A v j j x c A A A A A 6.A A A 6.x f z j x 4.,.x x x j g x M f k d k k k f f f x G 5.A h d k k k k k u f x x 1 f x x x j x A B j f h B A A A A A A A c c c x x c c x A <.A A A v ,.,.z d z j f j ,.,.j f f a 1 j h 1 r u u k d u d m e.e.4.x f f k z k k k k x ,.x f k j j m ,.v h f z f k ,.x A A x j c A A x h j j x B x x A x h j x x j j f r k k k x x x x f k f j ,.f u u k d k f a f A A A A k r u d u u d u i j 6.f f f f x B ,.x f f f a j A A x h h x A B j B A A G A A A x h h x x x x x k r d k k x k k x x k a f m k r r r r k k r r j A ,.A j r r r u r r u u f j f 1 f g f x x x f f f r f j j f h j j j x j f f x x k k k k x j f j k f k r q r u d k k u < r r < k l r w w e r r r r k m x x k r > e r w e r 1 r k f < 1 1 f f f f f f 1 = 1 z f f f f f f f 1 r f f f 1 1 f f f 1 r i r r r ",
"f x a a x 5.x g h h g c 5.h f f k k f f z v G D A A x f d k k k k f j 5.x f x j f x 5.B f g m j h G A A B j x A A A B B c A A A A G A A A A A j c h r r d a f v x f a j k f ,.x f u k k d d f x <.A B A x f r d d a d a f x x f f 3 f x A x f 1 f f f ,.G G A x A x h j x x j j x B A B j j j j h x x f d f r a x ,.z r f k r k x k d u u u u r f x <.A A A x k d u u k k k x 4.M j x j f x 4.,.f f x f f j x j A G G A 5.A j f j x x A A A A A A A 5.5.6.x f x k f ,.4.x z x x h v 4.x k k k k k f z A G G A A c h f k k k k k f v x f h x f j 4.,.j j x f h A A A A A A A A A A x j x 5.c x x v A G A A x x k k m x a f ,.M f a z f a x h r d d a u r r x 4.5.A 5.<.j f d k k z z k x 4.x k z k f x 5.x f f k f j 5.A A A x j c A A A B B A A c c x c x j A 5.x A x f d z f d z M x f f z f x ,.f u k k k f f f x 5.A A A x k d u u k k f f x 4.h f z f k >.9.j f f j f j A A A x h h x A A B B A D G A A x j x A ,.c A ,.z u f f f k x x k f f f f x x r u k k k f f j <.<.B B B j r r u u r u f l j f f f : 1 x ,.j f f k a k x x j j x j j x x j j f f f f j k f f j x j k k r q e e d m k r < u u 1 k x r r r r r r r k m x x B x k r < e e < r r r x p r r r < i j j f , < > = r 1 f f j j j f f f k f i f f f f f r r f f f r ",
"a j d 1 f x f f z j f x A g f f k d a f A A A A A G 6.x f d d d d d k 5.x f x j f f x h f f x f h A A B B B x j j c B B x c A x N A A B j x x j g f 1 d d r r k k r f j f j 6.x k p u k u f x ,.B x B B A x f 1 r a r 1 f x j f f r 1 f j f 1 f f 1 f A B B c x x x x x x x x h g B B x j h j h x j j f 1 d r 1 k x d r k f r k x f r r u e r d j x v A A c A x f u u u k k x R.x h x x d f x k f f x f f x j c A A A G 6.A A x x j h h v A A A v A 5.5.,.z r z k f k x f f j x f v 4.x k k k f f j ,.G G G A A A x k d d d d d f ,.x f h x f f x j 1 f j f h A G A A A A A c A A A A B x c j h x c c A v x f k f x x d r k k r a f d a h h a r a r r r z ,.x A A A B A x d u k k k k x M z k m z 1 f x f r f z a f A 5.A x h j x A A A A 5.A A A j x x x c x A 5.v j f r z k r k x k 1 f k f x ,.f u u k d r f ,.<.B A A A B x f r u k u d f x A f f x f r k j f a f f i f A A A x f g x A G A B A A A A A h h x v c A c x x u f k r r f k r r k f f m k r u k k u f x <.B B A j x x j u r r r r r l x r 1 f 1 1 f x f a z f 1 l x j x j j j j h x j k f f f f f f f f f f j k u e w u e q d r e r p r 1 f k r < r e e e k m x x x j j x k w > > e < < r k u < f r = < f f , = e $ O < < f f f f f f f f r 1 f f i f i f 1 r r 1 f u ",
"f j a d d f a f z z f x 5.f f f d f f A K G A A G G G 5.x d d d d k j 5.B f x x f f k f f k x h h A A A A A A A A G A A A c c c A c x c x x j g g f r k d r a d k d f x k j ,.,.k k k k f j ,.A A A A A A A x f r d a r f x j f f f 1 a a 1 r f f f f A B j j x c x B A A A A h h x A A x j x <.A j j r r k d u k k u a z k u k m k u u r r r j x c c c A A A 5.B f f d k k x 4.x z m m k f z k f k m f f 6.A A G A G 5.A A 5.5.,.x j h c G G A A A 6.A ,.j f x x k k f d f x x h v 4.x k k k d z ,.e.G G A A A A ,.x k d k k f j 4.,.f j x f f x f 1 f z f f ,.A c c A A A A c c A G G 5.G c x A A A A x x x x k x m k u d u r f k f f j j d r u r r k 6.,.x A A A A 5.5.x k d k z k x 6.j k m x f f k f f z x f f x A x x j j A A A G A A A B x x B A A A c A A A x f a z k d k k f r k z f x ,.f u u i f f x G G A A A A A 5.A k f k k f f m ,.g f x k k k f f f k f f j A A x j f j A 7.7.A A A A A 5.A x j x x x ,.A v x f k z d r r k u f k f f m x r u u u f x 9.9.5.4.,.B B A B f r r u u a j j 1 1 h f r d k d d z f 1 h x x A x j h j j x m j z z x x x j j j j j x x k w u u u q e e r u k u r k x u r u e e d x x x x k z x x x k r < e < < d x f 1 k f < < 1 1 = w r $ $ r r f k h j f f f f r 1 f f 4 f f 1 f k i f f r ",
"f z r r r r r f f k f x ,.g f f a f A G G G A c x A G A A j d u d d j 4.x f x j f f k k f f x f g c A A A A G G A c x A c c j x A j h x x j h h x f 1 f k r r a u d k z f h ,.x d u d d j ,.A A A x x B A A A x f r r r a x j f f a 1 r r r r a f f f j h g j A x j j B A A x x j x B B B B B B x h z d r u d r u u r r k d r z x f d r e d j x x x x j j A A A 5.,.k d d k j M x h m m k k k k f k x f f A A A A A A A A A A A A 5.,.A A A A A A x h x ,.l d x z k f d k f x x h x 5.x f d d j ,.5.5.5.A h h B A B ,.x k u d k j 6.A g h x k d d d r d z f f j x c A A A A c A A c A A G G G A A A A c x A ,.x k z n d u u u r u k f f x h r u e r z M x A A j f x A A A 5.x d d k k x ,.j k m x f d d k f f x f a j B A A x A x A B j j A B x x x j B A c A x j v x f r z k u d d d r d k a x >.f u u r f B A A G B h h B A A A ,.k u u f f x ,.f f x k u u u k f f f r k c A x f h A A A A G A j A A A x j l f z x j x v x r k k d r e r u k k f f x k u r e r j 9.5.5.5.x j x B x x x f 1 r u r f f 1 1 k f r r r r r k d 1 f j j h j x j x j j x j f z j j x x k j x x j k k r e u u y q t r r u u 1 k z u u r e u j j x j k r r x x j x f < > e e r k u < k u < > < < < < r > < k f f f h j f f i r < 1 1 f h f f f f f f r 1 1 ",
"a z r r u r r a k j f x ,.f f f f c G G G G j a f x A A G A z d k f j 9.B h x j f d k k f f x g g A A G A G A A j j x A G A A D G j h x c j j c A j r f k d r a a d k z f h ,.x k d d k A 7.G A x f r j A A A ,.j a 1 r f x j f f f 1 r r r r f f f f j x j j A A B B B x x x B A A A A A A A j h j j f r d d r r r r r d k d x x f r e d j ,.A A x k r r j <.A 5.5.m f d d j 6.M h x x k d k k k k x f h 6.A A A c x c v A A x x A A 5.G G A A x h j x ,.j f m z d k k k f x x h v R.j f f k <.7.7.5.,.j r a x A A A ,.x f d k x 5.A f j x k d d d d k x f a j x A A A A A A A A A A A c A 5.A B B x A A ,.4.M k z z k u u d r d z k f c j u r r z ,.A A 6.x r 1 k M A A A ,.z k k k x 4.x k m z d d k k f z x k f x A A 5.A A A c j h x A A B A B x x B A A A x A ,.k a k k u a d d d k k f ,.,.f u u i x <.G A A k 1 r f ,.G G 5.A f u d f x 6.h k m k u u d u d k k f j ,.x h h A 7.D G G A c x A A B j j j j j j x v A x f k k u r r r u k x k f ,.x r r r j 9.9.9.9.x u r f x x x B j f r r r k h r a j f r e e r r d d r f k f 1 f x A x x x x j f z k f f f f x x j f f k u r u u y q e r u k k r k x r e r k x j j x j r = > f x x j x k < < e f z u r k u = > < e e r r < d j k f f f f f f k r r r 1 f h f f i 1 i r 1 f i ",
"a k r e r r r r k j f x A f 1 f c A A A A h r r a f x A G A A j f a j <.x g x j k k k k d f x f g A A A A A A A c A A B A A A A A j h j j c N j v h 1 f k r e r a r k z f f x j d r f x A A A x f 1 1 a l ,.A A A h 1 1 f x j f f a 1 r r 1 1 f f r f B B j j j A A B j h h j x B A A A A j x x h j x f 1 k r e r r r e d k a z x r < r k x x A A k r r r u j ,.A A A x u r z 6.x z x j u d k d d k x r f v A A A c x x v A A x j x A A A A A A A x x x A j f x k d k k d f x x h v 4.f f z ,.5.G 7.4.j f f k k x ,.A A x j f r h 6.x f z j f r d a r f z a f x A x A A A A A x h x A A A A A A A x x x x A ,.x f f z d u u r r d k f f x j r < r x v c A x d < r r f x A A ,.m k d f x ,.x k x k r k k d d k j f k ,.x x A A A A A j h B B B B B A B j x B A A 6.,.x f a k k r r d u d k k f ,.,.f r u l B A A A f r r r r l <.G G A x f 1 f x ,.h k x u r u u r u k k r f x x h c A A G G A B x A A B j j B ,.x x j x x x j f k k r r r r r f x k f x j 1 1 k 6.7.<.9.,.f r r r f j x j j k r < 1 f j 1 1 k u e e e e e d d 1 f j f f f z x x j x x f f x k r d f f f j j f f d r r u u q q q > r k k r k z r $ e k j h x x r < < < < r j j f k u < < u k r < p w # > e > > > > < i f f f f r r f f r r 1 1 r 1 1 r 1 1 f f 1 r i r ",
"a z r r r r r a z j f x A 4 g x G A A A h r r k k f f x A A G A j f h 5.B g x j f d k k d z x g h A G G A A A A A G A A x j A A A A j j x A A A A f 1 k z d r d a r d k f z 6.x a f x 5.A A x f r r u r a x ,.A A A h 4 4 x x 4 f f 1 r r r r f f a f ,.G A B B A A x h h j A A B x A A A B x x x x x f r d d r d a r e d k f x j 1 1 k ,.,.,.,.x d r r u e u j A A 5.,.j f j 5.A j x z d d k d d k x f f A A A A A A A A A 6.c j x A v A A A G G A A A A j f l f f k k f k x v h v 6.h j ,.7.7.w.5.x k k k k f k x ,.B A x j f j 6.x g j x d r d a a f z a j 5.A A A A G A x h x A G A A A A G G A A A A A ,.x f z x k u u r r u k f f x j r r j A A c x f e e e r u k v A A 5.m k f x 4.x f z k d k k d a k x f j ,.x v A A A A A A B A A A A A A A x x j x A 6.5.v f f z k u d d u d z z f ,.A g r f A A A A j a u k f r f x <.G G 5.x f f v 5.h j m k u u u u u k k i k j j A t.G G G G B B A A x j x A A A 5.A x x x x x f k k r r r u r d z f f ,.j r f ,.5.9.9.,.k u k k r a f j x x x f 1 1 f x f f f r e r e e r d d a j x x x x x j x x A x j k x k r f k k f k k j x k r r d u q q q q r k f r k x r < f j j j h f r r r r , < f j f j k r 1 r x f r r < # > e > = > r 1 f l f j f f f f k 1 , 1 i f 1 1 1 1 f f f f j f r ",
"1 z r r r u r r z z f j c g j A A A v f r r r r r f a f x G A A A h j A x g x j f d k k d z x f g A G A A A c A A A A x j j x A A A c j j j B B c h 1 f j d e u d r d h a f v j 4 j A A v x f < r r r 1 r a j A A A A j 4 x x 4 4 f 1 r r r 1 f f 1 1 j A A N N A j h x B B x x B x j N A A B j j h h f 1 d d r a a e e d f a j x f k x x A ,.z r r r e w e e r x A A A ,.x x 5.v h x x d u k d d k x f f x B B A A B A A A A x x x x c c A A A A A A B A h i j k d d k d f x v h x A x <.s.7.7.5.x k k k k k k f f j B B B B x c A x f h j d r d d a f z a h A A A c c A j x x A A A A A c A A A 5.6.A A A v x f z x k r u u e r k f 1 z j f j x x v x f 1 r e < r d r h v A A ,.,.f x ,.j d k k d u d d u k x f z m x x x x A A A A B B B A A c c A A x x x x v x x f f x k r a d d d x k f x A h x B A A B j r r u u i r f f j G D D 7.B h v ,.f f x k r u u r r k k r j j x A G 5.G A B B B v x j j x A B B c c x h h x j r f k r r r r r d k a f j f f x ,.<.5.,.f r u r r r r r f j j x m j f f j f a f r e e r e e f f r j x j x ,.x x x x x x j f f k r r f f k f r f j k r e r e 9 9 q 9 > u r < f k f f k f j l r , , < , < 1 < , r f f f j f f j u < r < # > e > # < r r i f f f f f j k r 1 r f f r r , , 1 i 1 f h f f 1 ",
"f x f r u u r f x f f x A N A G A A h r r r r f f a f f f x A G G A N G B g B A f d d d f x ,.f h G G G A A A A A A A x j x c A A A A A x j x x A j f h x f r r a r f z a f x j j A A c x a r r r a f r r r f x A A A A B A x f g h 1 r d r r k z 1 1 f j j B A A j j N A A A A A j j B A A B j j j x f a k f r d d e r z z f j A A ,.,.A x z d r u d d r e e e f x ,.A A A A w.,.j x m k d k d f x m f f ,.A B A A A c A A A A v A A c c A G A G G A A A x f j j f d k d f v x h c w.t.t.s.s.9.x k k k k x m k f f f j x A A <.G 5.x g x x f r d d a x x f h A B A A c A A B B A A A A A A 6.A 6.6.,.,.,.v ,.x z j x k r u u r f j f r j x j ,.A A x f r e r r a r r a a h v A A A A A 5.j f x x d d k k k x x j x ,.x x x B A A A A B x v B B B A A A A G A j h j x z f m z a d d d k m z f x A B G A A B z d r r u k x f f k f x 5.7.7.7.A A ,.f j ,.k u u u u k m l f x A c x x x B B B A A j f j A A x x A B x x x x j k r f z d r r r r f k f f j x x A 5.6.m k r u d f f f u r r f z v v A x x x f f h f r u d r a x k f x x x x x x x x j x x z f k x f d k k k k r r k x d e e e 9 q t e e u r 1 f j f l j l l i , < < , r 1 , < > , r f f f l x x a 1 k u > q e e < f k 1 f f f f f f f r r r f f f f f r 1 i i i f f 1 1 r ",
"f x j r r r 1 f x f 1 j A V A G A h a u r 1 j A x f 1 r a f x G G A G D j g x ,.j d s a k ,.v f h A G G A c x c A A A x j j c A c c c x j g g h B h 1 f x z r e e r k z 1 3 j j j B B j a 1 r e 1 f j f 1 1 r f x G G G A A x 4 g h f 1 r r r k f 1 a j x j j j A j g j j B A A A B A B A B x B x h j h 3 f f 1 r d r d m f 1 x 5.A A ,.x f d r r r f m x d r r r f ,.A A A A A ,.h x 6.z d k u f M m f f >.B B x c x c A c A c x A A c A c A G A N A A A j f j x f u k d k M x f c t.B.t.s.9.x f k k f k ,.6.l d f f f j A A A G G x g j v f 1 a a f x x f h A B j c A A x B A c A A A c c v A v v ,.A v v v x f j M k r r r r k j r 1 h x x x A A k r e e u x x a r r r 1 h v 5.A B B A j f m m k u d d k m x f x ,.x h x A B B A x c A v j j B A x A A A A x j x x k f x z a a d d x ,.k f x A A A A B j r e r r f ,.5.x f f k f j 5.7.G A A c g f ,.x u u p u k 6.k r j A A x j h h B A B B x h x v x h h h j x h x j f f < u x f r r e r k z a 1 ,.,.x B <.x f r r r r z v z r e e e d j c c A A x f f z k r r r r f x k f x x j k z j j f j x j z f f k f r u k f f f r r f r e r e 9 9 9 > r k 1 , f l i f j k u w < = & 1 g 1 = O $ O $ r z f f f j a < f f > > < < r k f 1 r f f f k a 1 1 r f r i f f f r r 1 i f i 1 1 i r ",
"g ,.x f r d a j A f 1 x G A G A j a u r 1 f A A A x f 1 f f f x G D F _ B g x 5.M k u d x 4.v f x e.G A c j j A A A A A A A A A c c A c j j h h x j f h A x a e r a x x 1 f c G A A x f r r r r g j A j f r r d f x 5.D G 7.c f g c h a 1 1 f x j 3 f A A j j A G B j j j j B A A A 5.A x x x A A j A j f z x r e a d z ,.z f x 5.A A ,.j d r d u d x A A x k r u r k ,.5.A G A ,.j A s.,.k d d x 4.M f f j j x A A x A A A 7.A c c A A A c A A j j B A A x f m ,.z d k k z 4.v f v J.J.I.s.x f k f k k >.<.<.>.z d f k f x A G G G c h x A x 1 r d j 5.,.f h A c x A A A A j A A A A A x A A x x x A A A ,.v x f j ,.x r r u f A x f r j v c v ,.x u r r d j A A x f e e r a z 6.5.A A A x f m 6.k d k k x 4.x f x x h x c A A c A A A A c j x B A A A G A A A A A x z z M M k r k k m 4.j f ,.7.D G ,.j d e e r f x G G G j f f k f x 5.7.G 7.A f j 4.,.k u u p m T.j r x ,.,.<.A B B A G G G G A A A B B j h j x j x x x l r f m k r r e d x M f f ,.5.5.,.m k u r u r f x G x f r r e r f j A 5.,.,.j f x x d r r r x M f f m x f d f z j k j x x x x j x k r d k f f k k f k r r k k e q q r k m u 1 f j f k z f r e < , 1 g g g 1 = O $ $ > f j j f j k r f k r < e r k x d e d k k j j j f f f f f r r r f f r r f f i 1 1 f r ",
"4 A A h 1 1 f x A f 1 j A A G j a d r < f B B N N B j f r f f f j G D G x f h A 6.x f x 6.,.x f h A A j j A c j B A 5.A A A A x j j x j j c j h h f 3 f v x f 1 r f x f : 3 x G A x f r r r r f B A j N j r r d d f x 5.G G A f g c c f 1 1 x c j 1 f x B j j j A j j x j j N B A A A B j h x x A A A f 1 f x f r r k x x f f x A A ,.z d d d r d j A A A A k u r r r k 5.5.A w.A f x s.4.x f j ,.,.x 1 1 z j x c j c x c G 5.G A c A c c c A j j j A B A j f x M x f r k M 6.x f v s.t.s.x f k k f f >.5.A B <.x f f k f f x 5.A A x g j G A f r f v A j 1 g j j c B A A A A A c A A x j c x j j x A A 5.x x j f f v ,.f 1 f m A j a a x x v A z d r r r x A j j A x r < e e a j 5.A A A j f x 4.x k r k ,.,.x f z x x A x j c A A A A j j x x j B A A B A c x x A x f a M M z d d j ,.,.j f ,.G A 4.x u e e r d x G G A G A j a k f f x 5.G G ,.f h 6.5.x i u x 6.,.f 1 x x x B A A A B B G G G A B N A A x x j h h f l j x a a x x d < u m M x f f ,.,.,.,.k r u r r f x x j x x r e e r 1 f x A ,.x f f x x z r < r x x r a x x k k f f f k f j j x x x x j f 1 r f a f f k d r r k z k > > k z k r 1 k f f z d e e < = 1 f 4 2 4 f , o O # O e z j z k k r f j d < < u z k r > r a f h h j f f f f f r , 1 r 1 r r r r 1 r r 1 1 ",
"f A A x f g x A x f 1 j A v j a r r < 1 x B B A A A A h f a a a f c G D x f j A 6.A x A 5.A x f f x j j A G A c x x <.A G 5.<.x j j A A c A c x x f 3 f c v x f f j j g : 4 A A j f r r r r k A A N N N B j a r d f f M w.w.A g g A A x g h A A h f h B j A j j c j j j x j j x A A A g g j x x A A x f 1 z A x f f x x x f r x ,.x x k d d d u f A A A A A m k r u u u x 5.5.5.x f x s.w.G A A 5.,.x r f x x B c c c c A A G A A A A A G c j j j A A B A x f x 5.<.j h A w.5.x f ,.s.s.,.f k k k l ,.2.A A A <.,.x f k k k k x A A x g j A G A x x A A j 1 f x x j A A B A A B A A x j x 5.A x j j A 5.,.x j x k k x 5.x f x 5.A h r f x v x z d r u r k m A A A A v j a < r a d j A G 5.j f x 6.,.x z x 5.5.x f j A A G A j A A A A x j j A B j c A A A A A A x x x f f x 6.A j j v 5.,.j f ,.e.5.x k e e r k x 5.A G A A A >.f d f f k ,.5.5.,.z f 5.7.5.B B <.6.>.f 1 x x x A A B A A A A A x x B B j A A A x j j f i k m k f x ,.z f k m m z r a M 4.,.z d r u d f x A x x x x j f r e a d z m x x f f x A x f f z x k r d x j j x z f f h j j x j k j x x j f f j f f f u u u u k x k u u k k d r r k k k p e e w e w f h 5 4 g g i = O # % > d z j x k r a j k f r f j z r > u f f f f f f g g f h f 1 1 1 f f r r 1 i i f r 1 ",
"3 x x x j j B B x f 1 j x h r r r < 1 f B j j A B N B c f 1 r a a f c A j 4 h A A A A A A A j r f x j x A A G A j h x B A A A j j B j j j j x c x h 3 a x c j x x h j 4 ; a x x a < r r r k A A N N j j j x j f u d f z ,.5.x f f j A A A A A N f 1 f B x h j j j j j j j j j j A A j h h j j h x x h f r f x x x j x j z f 1 k x j d r d d d k x x j j c x A x f r u r r x ,.A j a h 5.G A 5.G A A k 1 f x A B x c j j c x B A A A G G A x j c A c A A A j f x <.A A A G G A x f x e.6.f k k k k ,.7.A B A A A A ,.j a d k f k B B h f h c G G G A A A f 1 f A x j j c A B B A A A x h x A 5.6.,.x A A x h x v f f x c A A A v j f 1 u j x z r r r r k x x x j B j c ,.z 1 < e r 1 h A A f f j A A A A A A A j f j A A A A B j c A A j j x B B j j j B x x j x x j j f a j A A v A A ,.,.z f ,.4.x d e y e u x A A A A A A A <.,.f r f d f A A v f g A A G 5.5.A B B f 1 x A v j x A A A A j x A B x x j B j j c x k f 1 r k r r k x x x x j j f 1 r x ,.j r r r r f x x j h f g h x z r e r a d k x x f a x x x A x j x f 1 r z j k k x x f f j x j f f f l l j j j x j f r d u r r f k k k k k k r r r u k r e e e > > r f f 4 4 2 2 f r O O # % = d j k d < r f f f k f f k r = u r 1 f f 1 4 4 g g f f 1 1 a r r r 1 ; i i 1 r 1 ",
"1 x x j j B B B B g 1 j x f r r e 1 j B j j N B B A A A A f a d r a h A j 4 h A A A A A A A j f j A B A A A G G A c x A A A B j x A B N x x x x c x f f x c c A A j x g : f v h r r r u k A A A B j j j N j A j f f k f x 4.,.f f c c c A A A A j f h A c j j x A A B j j j N A A B B A B x x h x c x f 1 h x x c x x j z r r z m k r u d r k ,.A x j c A A G G x f d u r f A 5.x f j 6.G A G A A A z r j ,.A B x j c A A x c A A A A x x x A A A A A A A j f x A A D G 7.A 5.c f x 4.j k k k k A 5.7.G A A A A G 5.,.j f k k f x A x f h A G G G A A G j 1 j 5.A j x A G A A A A c x x v x A 5.A A A x h x A A f f A A x A G A x j f a x M z u d u r j A x x j c A A A A z a r r r f v v h a x A A A A A A A j f j A A G G B B A G A B A A c A c x x x x x j j j x x f a x A A A A A 6.,.k f ,.,.f r e r d x 5.G G A A A A A 5.5.x f f d f j 6.M h f v 5.G <.<.A A <.f r x ,.A A A A A A A B B A A x x x x x x x h f f r r r r 1 f x m x x j j k 1 f ,.M f r u r a j A x x h g h x x x z a r a d k v 6.z a x v x A A x x f r u z x j j x x f a k x x j f f j x l j x k f f k m k r r k z z k k k u r u r u k r q e e # # = 1 2 2 f 4 2 f f d < # % % e f k d < u k f f f f j j u e k i 1 f f f f 3 f g f f 1 f f 1 f r < 1 i i 1 1 r ",
"1 x j x j j N B x f : j x f r r r j x j j j N N N A A B A x f r r 1 f x j 1 h A A N j B A A j f h A A A j N N A A A x x A B h h h x B j h x x x c x f f h j x j j j j g : f j f r r r f A A N N N j j V N j B B j f d k f M ,.f f j c N j j N A j 1 f B x j j j A x j B A A A N B j B A A x h x x j x h 1 f B x j x j j j 1 1 x x f u u a k x A c j j j j A A A G x a r r r x 5.x f j A A A A A A c z 1 l A A A B x A A B j x x A A x g h j x B B A A x x j a j <.A A A A G A j f x M k k k k 6.5.A G 7.A c x A A A A ,.k u d d f v x f h A A A B B A A f 1 l A A x j x A G A B j x c x x x x x B A v x x A c x f f A B h c A B x j r f x x k d u u j x x j x h j A A x c c k e r r a j v f r j A A A A A G A h f j B A A A B B c c A A c x A A x x x x v x j x v M m f a x x x A A 5.6.x f f M x a r r r x ,.A A G A A x A G A A 6.x i d d f ,.6.f f 6.A A 5.A G <.B f 1 x A A A c x A A B j x x c A c j h x h g f f k f f u < 1 k k j j j x j k r f x z 1 r e 1 j B x j x j f h x h j x z a e a k v M z a h x x x x x j k r 1 k j f f f f a r f f j x j x j f f f f f f x x z z k < u k f k f d u u e < r u < q 9 > e e = 1 f 1 1 1 1 1 f f r > $ > $ 1 k u = r k f f i f f f u > f f f 1 f f a 3 4 f g 1 1 1 4 f f 1 < , 1 1 1 1 < ",
"a x x x x j B A x h 4 j v f 1 r j A j j N N j A A A A A A A x f r r f x x f j A A B c c x A x f j A A A c A A c x j x j x x h h h j j h j x x x x x f f x j j j j j x h 1 f j f r r f x A A A j j j N V A N j A A x k k k M ,.h h A A A N A A A x f f A B j j j B A A A j j j j B B x x A A x c x x ,.x a h B B x x x x x f f x m k u u f M v j x A x j c A A A A A j d u d j 5.M f x A A A c A A A x f h A A G A A x j h h v x A A B j j j h x A A B B x f f x A A A B A G A x f m 6.k f k ,.5.5.G 7.G A A A A 5.A 5.w.x k d f z 6.A f B A A A x B A ,.j 1 l A A A B B A A B B B A A A A A c A w.w.A c v A x j f l A A x A A B A x f f x x f d f j v A B B B j x A A A A A x k a r a z M z f x A A A A A G A x f x A A B B c A A j j c A A A A c c v A A A x A ,.,.m k a x A x A A 6.,.M k f ,.M f u k x 6.6.A A G G A B A 5.<.G 5.,.x f f f 6.6.h h 5.G G G A G 5.<.j r j A A G A x c 5.A x A A A B B x A j f f f h j h f k r 1 x x k j j j x x f f M k < < r f x v x B x j x x v x x v v z a r k M M z a x x j j j x j j r r k f f f f f k k f f k k k l z f a f h j x >.x m m d r k z z k k k u u r q r u e q > < k u 1 i f i 1 1 1 1 1 f f u < < > 1 k k 1 a f k f f k j j k r f z f r r 1 1 f f f f 2 1 i f f f 1 r r 1 r f a < ",
"1 x x j j j j j A f 1 j x f 1 f B A j j j j j B A B B B x A A j 1 1 f x x f j B B B j x x A j 2 h A j B j c A x j h j x x j j j f h f h j j x x x j 1 f j j g j j j x f 1 3 j f 1 1 j A j c B j j N N j N N j j A A f f k x x f f A A B A N j B j 1 f x x A B j g j j j j j j N B j x B B x x h c A A j r h x j x h j x v f r x x f r f x x j h j j x c c j x c j x A j r r f ,.x f j 5.A c x c A A x r f c A A A A x f f h h v A x B x x h x j A j c x j f r x A B B B A A <.x f m ,.f f M 4.A A A 5.A A A A A B A A A v j f r h A x g x G A j x x A ,.f 1 f B A B B x h j B B A A B A A G 5.G A c j j c x x j f f A A x A c x x x f f x x a a j v x c A B B x j j c c x x v z r ; 1 h v z a x A B B A B A A j f x A B j j A A c j h j x A A A A A x A x x x x A ,.x d f x x x x A A ,.,.f a m m f f x 4.5.A A A A B B x A A A A A A A f r f v ,.h f 5.7.G A G A 6.<.j r z A A A A c j x A A A A x h h B x f f f f j j h h f r 1 k j k f f f x x r f x f = , k x x h j h h h x v v x x j x M z 1 r x M f 1 z j f f f j x j r 1 f f f f f j k k z f f f f f f f r f j B h j x m k < e k k k f k u r u r > r u > % > r u r r = , 1 1 1 1 1 ; 1 1 a 1 = = 1 d u 1 f x f f f f j x d < r f f f r < 1 1 f f f f i 1 1 1 1 1 r 1 1 f f r , ",
"r x x B B B j j A h i x x 4 g c j j j j j j B B j h x x A A A A h 1 f A A g h c A A N A j h f a f A c A c c A c x x x x x x A A j h h x x x c A x h 1 f x x h j h h x f : a j 1 1 j c c c c B B c c N A j j B A G G x f f x ,.h h A A A A A B B j 1 f x B A G A h h j j x j j B B j j B A A A c A B x f r z x j x j x x x f r x j 1 f x A j c c v x A A c x A c c c A A j 1 f ,.v f j 5.A B A A A A x r f A A A 5.A B x x h h c A c x x x A A A A A x x x f u z A A B B A A 5.x k ,.M z v 4.5.A A G A A G A v j h c A A 5.,.j f h ,.x g x A B N B B A x f 1 f x A A A A x x A <.A A A A A A A x h j j c A x x j f f A 5.A A A A c j f k v h 3 f A A A A A A x x h j h x c A A v z r ; h 6.x f x 5.A B A A A A x h x v c A A G G G G x x A A A A A x h h j c A A ,.,.z r f x x x A A B ,.,.k f M x a x 5.5.A A c c A x x B A A A A G A A v g 4 A 5.h h 5.7.G G G G 5.,.z r j A A A 5.5.B c A 5.A h f f f j j h g h x j j j x k r r x l f f j k x k r f x f 1 f j x x j j k f j x x j h j j c ,.M f 1 k x f 1 k x j h j j x k r r f j f f f j x x x z f f f k f r i k x x x x j k u < e k z k j x k r r e > a d $ $ r k a f r = = 1 1 1 f 1 1 1 4 g f r , ; k k r f z f f j j j f < > d f f j f f 1 1 f f f f f 2 f 1 , 1 1 1 i r 1 1 , ",
"r j j x j j j B j f 2 j x 4 h j j j j j x B j N x x h c A c B A A j j A x f h h j N N B h f f 1 f x A c x j x A x x x x x A B B c x j j x A c x x f 1 f j x j h h c h a 1 1 h h x A x j c c j j j j j A B N B A G G A j h ,.,.f h x B A N B B j f 1 f x A N B A A h h B j h x x B B j j A w.A x x x j f r f f x j f x x z 1 r z x h x A A c x c x x j j x x x x c c j A M z g x x f k x c c x x A x k r f x A A A A A x x j f j A x h h x A A A A x j x x f r x j B B B <.A B x f M 6.6.4.A A A A A A A A A x j x x A A A A ,.j h A x f h x x B j B x f a 1 f x x j c c B x j A A A c x x A A x c c c c x A A j f f x A A B A A h f r f x x x c x j c A c x x h j h h x j c c A A h f j x h f x A B B x A B x j f h x x A A A G G G G A A A A A x j j x j x x x A j k r a x j x x x A A x f f m x j 5.5.A A A x A x x B j A A A A A B A 5.c j A A h f ,.A 5.G A 5.6.j f f j A A A A A A A A A j h j j f f f g h h x x x j j k r r f l x k k j f u 1 f x f f j j h h j k k j k f h j j x j x x x x f f j f 1 f f f h f x k r e r f z j k f f j x j f f k f f f f f j j j x j f k u > < u x x j x k r < < > r d < e f f 1 1 1 < = = 1 1 1 1 a 1 1 1 f f , ; z k < 1 r f f f j f 1 % $ r f f f j k f a f h f f f f 1 1 1 1 1 < r r < 1 r ",
"f j f f c x j h f f 1 j j j A j j N j j A B j A B j c c x A A A A A A A j 4 f g 4 j A j 4 f j f f A B A x j x A A A x x A A B B A c x x A A B h h f r f f h c c x z r 1 1 3 x A A c x c A A A A A A B j j c x j j A A A A 5.,.f f h j A A B x f i 2 h B A j j A A j g h x B N N A B B N A A x x x x x f f f f f x x j j f 1 f x A A A x j g h x c v A c A A c c v v A A 5.,.x A x f f k h c c c x f f f f c A A A A A A A x h j A c h h h A 5.A c x x A ,.k d x j j 5.5.A j j j j M 5.5.5.A A A A A 5.A A B B A A A A A A A G A B A j f f h j A A A x f f f h A c x B A A B h h x A ,.x x A A A A A c x x x ,.x f j x x c 5.,.j f f f f x A A v c x x x x x j h x x x x A A v c c A c x x j f j j j A A B j g f f h v A G G G G G G A A A A c x c A A A B A c c x j k u u k f x A A ,.x j k f ,.6.A 5.A A A A A A A A A x A A A c c A A A A A A A h f x x A 5.5.A j f j f x 4.5.5.5.A A x x x j x <.A x j f h x j j x x z k k r r f k x x j k f d r f x j f j j j j j f j x k f f z x A x x x A A x j x f r f f j x j f r 1 r u k x j j f f f f f f k x j f l j k f f x x x z f d e e r k x m x k r r u < u k f k f r f 1 a f < < r f 1 1 1 r 1 1 f f f f x f = < 1 r f k f r d r = r f f f j j j f f f f f f f i 2 i i r 1 r 1 1 u u ",
"a j 1 1 h A j 4 f f 1 f j j N j j j B A N B A j j B B x x c j j x A A A h : f h 4 g j 4 1 f j 1 f c B j j j B B A A x x j x B B j h j x x x h g h f 1 f h 1 f x h 1 1 f 1 : j c j j j j j A 7.G G A j j h j j j j N B B A 7.x f h h g h c x f f l f f x j j j j B j g h x j N N N j j j x x j x x x x f 1 k f 1 j x f f f f f x c j A x h h j h h v A A A c v v c v x x x A A ,.j r f j f h ,.j 4 f j a f A A A A c B A A j f h j j h f x x x h j x A B x k r x x f x A f f j x f x 4.A A A c x A G A A A B A x B A G A A A A A A B h f j x f f A x f f k r h A c j B B A A j f h x A x c x A A A x j j x j x x f k x f f ,.x f f x f 1 x A j x c x j x c x x x x j x A A A v x A A A B x f 1 f g 4 x 5.j f j j a f x A G G 7.G A A B A A c A c x A c c B x x x j x k 1 r x f f A 5.j f j k f ,.5.A A A A A A A A A A A A A A A A A B B B A A A A g f m j f ,.4.x f x x f j 4.5.5.A A A A A x A B x B B h h h h j j k f f f r < u k 1 1 f f 1 a k r r x j f f f j x j j h j j f f j x x x x x B x v x j r 1 f f 1 l l 1 1 f r r j j f f j j l j f f f f j j h h h j k f x j f a f e r d r r d f r r k u < r d r r f r 1 1 r r 1 < < f r ; 1 1 1 1 1 f f f k r e d a ; r f r r f r $ 1 f f j j f f f f f f i i 2 2 1 i 1 r r < < r r r ",
"3 x f 1 f h f 1 j j 2 g c c c j g g j A A A j j c A A A x x j j A A A A j 3 h A j 4 1 4 h x h 1 f x B j x A A B B B B B j B B j h h j c x h h j x h 3 h v f : 1 r 1 f f 1 1 j j j B j j x x A G A V N B j B A A A B B B A 5.x f j x g f f f r f ,.j f x v A A A A A j x B B x x x x x x x x x A A x A f 1 j j f f f f f x k f j B B A A j j x j c c x h j x A v 6.A v j j v A A x f j M f f x f 4 x M f f A c A A A A A A A c x x x x j x j x j x ,.A A ,.j f x ,.g f f f z 6.v f x 9.A G A x x A 5.G A A A B B B x A A A A A A A B j f j ,.f f k f f x j i l <.B j A A B A B B A A A A A A A A A x j x x x x x f z ,.h a f k r j 6.f a x A c c A c x A A c B B x x x A x j x x A A A A x f r x A g h x g h 5.x f z x x A G G A c x B B x A A A A A B B B B x x B A x a r x j f j m f f M k f ,.A c A c A A <.5.A A A A A A A A A A A A A A A G A f f 6.,.f j x f j 6.B f j 5.G G A A A A A A A A c B B x x x h f f f f f r u r u k r r r r r j m f r x j k f f f j x x j x x f k x x B A x x x x c B x r r x k 1 r r 1 j x i r z x z h x x B B m x f f j j f f j x h h f f f f x d f z d , < r u k x d < r k r d f r < r d r r r r 1 1 , 1 1 1 1 1 f k f f r r x x 1 < r u k f r = r k f f f 1 1 r f h f f f i 1 r f r r i r 1 i f r ",
": x x h g 3 1 g x f 1 g j j j j g g g j j j h h j c A B x h h A c x A A h 3 h j j h f x j j f 1 f x h x j j A B j j j j j j h h h j h h j j h g x h ; a x h 1 1 1 f j f 1 1 h x j j N B h g g j j A N N j j A A A x j B A A x f f A B x f 1 f x x f k A v x A A B B A j B A j h x x j x j j x x A A x f 1 f x x f 1 f j x f 1 j B j x j j j h j c h f f h j j x v x j z x v x v x a f M v z f f A A j f f c c A A A A A A B x A ,.x j j j j h f x A A A ,.k f x ,.x f 1 j A 6.x f x A A A A A x x x G A B j B B j h B B A A A A B x x a f ,.x f a f x x f i l A B B B B x x A A A G A B A B A A x j h h h x x h r f ,.,.z r 1 k x x f f x A x j j x c A c A B B j x x x j j x x j A A B x f 1 j ,.A f 3 h ,.A j f h x j x A A B A A B B x x x c x x A B j x B B j B x 1 1 j B j f f j ,.x f f x A x x j x A A A A A A x j c A A N A 7.G A B N A x f r x 4.,.f f x <.j j f j A A A A A A A c A x x x j j j x h f 3 f f f f z k < w k k k r a x x k r r k f j j f 1 f j x x x j h f j B x x j j x j h j h 1 1 k j f 1 1 k x k r i f h f h j j B x j j f f f f f f h h h h f f l j k f r k x f < e d k k r = r f r u < = = < r r 1 1 < < 1 1 , 1 f 1 r f f 1 f r < f k f = = r k u < < d f f r 1 1 r f f i f k l r , 1 r r r r r < 1 f 1 ",
"3 x h h j g g B j 1 1 f c j j h j x h j j c j h j c j c j j A A B B A A x f h j g x A A g 4 f 3 g x x j g h B B j B j x j f f h x B j j c A j h x h 1 1 h h h f f B j f 1 1 x A x x B A x h f f j A A c c c x j h h x A A A x f f x A <.B x x x j f h 5.A x x j x x A A A A f f x A x j x B A x A A A f r f j m x f j x k r r j x j x h j x h x c h g h x x x x x x h h v v x A x f z x x A v A w.x k f f v A A A x x A A A A A x f j B x j h h x x v A ,.j f x x A x j x x j j f x 5.A A A <.A x B A A x x c x j c A B G A A x j c x f f ,.,.x j m e.v f f j <.A B j j x c A B A 5.x x A A B x j j j h h j x j f f x ,.,.f f ,.A j f f v A c x h h x v v A A B j A A j h h x c j A A A ,.h f x A A c x A x h j z x v x j x A A A A A 5.A j z x A c j j h j B B B A x f 1 z x A B x A ,.j f f x ,.c x x x x A A A A A x h B A A A A A A v c A A x f f x ,.4.x x e.,.j j f z A A A 5.G A v c v x B x j x x h g f f j j f j x k r r k k j k f k 1 r r r j j x x x h f f f j x x j j x j j f z x x j h j l 1 1 f j k h f x x f i f z j f h x x x x j j j k f r k j h h x l h j h j x f r d x x k u k f u r < u k f u < = < < 1 u r r 1 r f a 1 a r 1 1 a 1 1 f d < r k f u d u r < < u f f f f f i f k f f f f u u i r f i i f i 1 1 f 1 ",
"3 j 3 1 h x x g 1 1 1 f j j j h h x j j j j j j h h j j j c B B B A x x h f j g 1 g A h 1 f j 1 g x x h g g g B B x x B f 1 i j x j j j j x j g g f ; 1 f g f h x h f f 1 : h x j j B x x j f h B B A j j c x x j x A B B A x f f h g j <.A h f f f f c c j h h h x x B A j f f h x j h j x x x j j B f 1 a f f j j j f a 1 ; f j g h x h g h h j g x x z z x x j h x x x c A A x f z z a j ,.A j f k a f v A A x j x x x c A x f 1 f B j h j j j c x x A k f x z f x ,.A f f j f j 5.A A A A A A B A A x j x x x x c A A B x j j x j f f j j j x ,.x f f f j ,.A j x j x x j B A B f f x A B x B x x x j h x j f f f f j x x j f f f f j A j h j h h x v A B x j x B h h h g x A c j A ,.h f j j g A 5.x g f x z j v c j h x A A A A 5.x f f k x A x j g g h x B B j f a j h x ,.<.j f f f f x ,.c A c x x x A c A A j j j B B A A A j x A x c ,.k k x k j x s.,.h f j f f A A A A A A A x x A ,.j r f x j f j j j f j f f z u r f r a x x r , f u r l x x x x x j k f j j j j j x f f a f j x j h f k 1 1 k f r j j f f f r u x x j j x x h h j f f j u = r k h h h j h f h j x f e r r f x k r < r r = u l f r r < < r d r r 1 1 f f f f 1 , < r r 1 r f u r r r 1 d x k > $ r r f j k f f f i 1 f j f < > r k r f f 2 i r r 1 r r ",
"a z r 1 f x h a 1 f f f j j j j j j j j j j j A j h h h j A B A A B j x z f j f 1 f h g 1 f j 1 g x B j j g j B B x B j r 1 f j x j j j h g g 4 f f < 1 f f f x x 1 1 f a 1 h B j j x x x j h j A A N j N A A A A x x A A A x f h f 1 f ,.x f f f h h B A A B x B x B B x f f k f j x j x B A A B j x f 1 f a f k j k r r r 1 f j f j B x h j j f h j j j j x x x x x x A A A x x f x k d z ,.x f f j f f 6.A A A c v x A A ,.k r r f x x x B B x A A A ,.x k x f f j 6.M f f x f j 5.A B A A A A A G G x h c A c x A G A N j B A c j f f j f a x m f d z f j A A j j A A B j B A x f k x x <.A A A A A A N A x f j f 1 f x j f r f f f x G B c A x x c A A B x x x A c j h h c A A A A ,.h f j z f M M h f j m x x A A x x x c A A 6.,.j f k k j A A B N j j A B x j f f x j f x ,.f f z z f x A A A A A c c A A G A G c A A A A A x x x A c A ,.f f x k f j ,.k f k x f j 5.G G G A A A A A ,.z r r u k x x x B B x x h f x u r k r d m x r < k f r l j f j k j x x ,.A j h x x j f f f j z j x j j j a r k r 1 f x a 1 d r r k j j x j j j x j j x k e # < f h g g j f f k j j a r u r r k k r < u u > u k f f f f f f f r < ; 1 f j f r 1 = r f r r f f r r f u r u z r < r u 1 f k f 1 r f i f l x u > e w u f f i 1 u f i f f f ",
"a f r r r f f 1 f k 1 f x j j j j j j j j j j j j j g h h j B A B h h x h r f f 1 1 1 1 1 f z 1 g j j j j j j j x B f 1 1 f u f h x j h g f 4 g h f ; < f r 1 f f 1 1 f 1 1 f j x B x A j g h x c j j j N B B A v x x c A A x f f z a a z f 1 f j f f A B B A A B x B B k u f k f f x x j B A A A A x f 1 f f r a f r r f f 1 a f g h j x x h h h f f j j x x x c x x x A A x x j f k k d k k f a k x f h v A A A A c x A ,.x r r r r f x c x B A A A A ,.j f x k d f x f a j x f h A A A A A A A A G A x x x c A A G A j h B B j c j r f z d r d z k d z f f x x x A A A A A c x k k k f f x A A A B B A A A x f f z r r k d 1 f j f f x A B c A A A x x A A x g h c c A j h j x A A A ,.h f j f f k k f f x x h c A A A c j x A 5.,.j d k k k k j A A A A A x j x x f f x z a f k u r k z f x A A B A A A A A A G G A A A c A A A A x j j c v x f a k k f f k f k k j f h A G G A A A A A ,.x r < r r r j v x j j x x j j f r r d r r d r r r k u r k f f k j j h x x x h h j x x j j j z x x j f x j 1 1 f r < r d r r k r < r k f f j x x j j x m u # # > , f h f 4 g f f j k r r u d r r < = e u e = r i f f f f f f a 1 , 1 f f f f f r , 1 d r r f k r < u u r r r r r r r < i f 1 1 1 r i f x f < e e q < u k i 1 r f r a k i ",
"a k d u r r r d k j f f x j h h j h j x j j h h A A B B j j x c j g h c z a k f a r r r 1 f z 1 4 j j j x x j j x h 1 1 d f u r a h x h g h h h h f 1 r f 1 , 1 r < 1 f a 1 f h j c x j f h x A B j j A A j A A A A A B A A x f f z f d f a a j j i f 5.A A A A A A >.k u u k k f f j A G G A c A x x f 1 f f r a r < < f k r f j h h h x x h x x f z f j j j A A A ,.x x x x A j f x x k k k f d k x j x A A A A A A 6.A x k u u u i f x A A A A A A A 5.x k m z k k k f f x x f j A A G A A B A A G A c A x x A G G A j B A B B A x f f k d r d z k k m f k A A c G G A A A x f k k k d f k x A A B N j B A x f j x f u d u r k x k f c G A A A A A A A A A c h j A v h h x j x A A A x h f x z f f f f f x M x x 5.A A A c A 6.,.x d f k k k k f j ,.A B j g h x x f f j z a r d u d z j f x 5.A A A A A A 6.A A A B A G G G A A A A x x v A x f f x k f d u f k f j j j A A A G 5.G A 5.v f < r r r r f j c B j h j j x j r r d r e e e e u k u u x j j x A x f f f j j j j j x ,.A x x x x x x x x r 1 f f e r u r d z k 1 f x j l j B <.B x ,.k e q q q e i f h g g f f f z d r d d r e > > r u r = r f f h f f f f f d f j x j g f z f r r r f d f k e e k r < e > e r w u r u i 1 i f 2 f k f r e r r w e r k f i r f r i k i ",
"1 k u e e < r r f f f f h g g h g g h h x h h x B A A A x x x h f h j x z 3 k f r u r r 1 f f 1 g x x j h h x x f f r 1 r r r r a f f j h h h g h g ; 1 a ; > e e < 1 a r 1 f h f h j f f h x x j j j j A G j j x c A A A A j r f k d r r r a k j f f x x j j B A <.j i u k k f k f f x G A j j h j x g 1 f f a r < < < d f 1 f j h h x x h h h j x h f f j h j A v x x j x c x j f x z d k d u d f j j h G A x x c A 5.A k k k u d k f f j A A B B A A A x k z k k k f d d k x f h A A A A A A A A A A A x c x x A A B x B A A A x j f f k d r r d d k x f f B x j A A A A x f f k k u k k f f j A B j j j x j f k z f r r u u f x k f j G K A B x A A c A A c h h v x g h x j j j j B x j f j z a k d d f k x z j A G G A A 5.6.j d d k k k k k u a j B x h g g x j f f k f r r s r r k z f j A A G A B A v v A A B A A A G A A A A A x x j x x f d z k u u u u f f j f h A A c A A A 5.A f r u r r u k f f x B j f f f j j r r a r e t e q r k r r j x x x ,.x z j x x x f f x x x x B x j x x x j f r 1 d u e r r r u k k d k x x B x x x ,.,.k r w q 9 q e r r f h f f f f k a r r u u e e < < u u = r k 1 f j f r 1 1 k x j h j h f f f r < f f r d r > > u < > e q e e < r r 1 f f i i f k r < < w w e w r e r u f f i f i f u ",
"a z d e e < r r f k f f h g h x h j g g g j j A B j j B A x x h h x x A z r f f r r r e e d k 3 f A B B B B x f f f f r = % e u k f f j j h j j h f 1 1 r < < e e < < a r 1 j x f h x x j x j j x j h h j x c x x A ,.A x j f a k k a r r r a f j f f j x B B A ,.j f k k k k f k k f h x A A j j j x f a f f a r e e r k f r f j j x A B j j x A v x f f z j x x x x j x x A x j f x k d d d d f f j j j A c A A v A x j z l k f f k l z h j v A A A A A x k m n k k k d d k x f z A A G 7.5.A A A c A G A A x j c A B A x B B x x j f f k d a u d d d z f j ,.x j j A A j f f k k k d d k k k k j B B j j x j f x x f u u u u f x f f A 5.c j x x A A A c x x x x A x x A B x x v x x A j f x z a d d k f k x j j 5.G K G 5.,.j f d k k k k k f f f f f x x x j j x g f x f r a d r r k z f v A x B B 5.<.,.A x A A A c A A A A A A A A A x A x f k x k u d d d f k x f j A N c A A ,.x h f f k d r d k f f x x x h f h j x a r d r e y e q e k u r j x ,.x j j x ,.,.x j f f z x x x x x j j z k f f r r f r e r r e a k k f j x j j j x ,.,.k r r r q % q r r r i f f f f j j f r u u r e r r e p u 1 k x f f f k f 1 ; f z j h j f f f k r e u k u d r % q r > 9 w q > q e d r r f f f f f d e > e u e r w r r w u f f f i r k d ",
"r k d < e e r < f f 1 f x j j x x j g h 4 g h j x j g h h h j x j h j A f 1 f k r r r r < d k r f x A A A c f f a f d r > $ e r a d f f f j j g h f 1 1 r < < e e < = a r 1 x x j x x x x j h h h x c h g h x x x x x x h f a 1 f f e r r e r f k 1 f x x x A A x f k k k k k k f f k f f j B A N j x f r f r r r < e r f f 1 k x A B B A A A c x h x x j f z x x h h j x x x ,.x f k f u d d d u f z f g c x x x A x j j x l k f f k j j h f f B A A c A j f z k d k k u d k j f f x j B 5.A A c x A A A A A A j j B A x j h f h x x f f z a r u d d d z f f A j j x j h f f k k k d d d d k k k f j B x j x j f k z d u u r r f j f f x A h h c A c A c j x h g j x x A A h j x A x x A j a k f r d d d d k x f h A A A w.5.x d d k d d k k d f k f a f z B A B B x g a k d u r d a e f k f x A h x B B A ,.c x x A A c x x c c A 5.A x A A A x f f k u u r d f f k x g h A j j x x x f f k k d u u u f z f f f x x j h f j r r d e e y e e r k r 1 k j j j f j x x j z f d d f j x x j j j f f a f k r < f r > e r e r k k r f j f f f x x f r r r r q q t e r e < 1 f f f f k f 1 u r e e e e r u u < f x f 1 f f k f 1 < 1 f f f f f f k r > r u r r e # q q # % 9 q q # e u < 1 k f 1 f f < = e w e r e e e e r w r f i i r u f ",
"f z d e r d r d j j f j A B A A A j h g h g g j x h h h h h j j x A A x f 1 h z r r u e r k x f f x A A x f f a f a u u r r r u r a d a f x x h x f 1 r a e < e e < < a 1 a x x x x x A A x h f j A A A v j x A A B B x x x f r f k r a a r d k l 1 f ,.,.A ,.j f k k k k k k k k k k k k f j ,.7.A B f a f f r a r r d z z f j <.A A A A A A h f f x ,.v j j j j x x j x x x ,.x f k k d k k f f h x h j A A G A v j j x x x k f f l j z j j k j A G A A x f z z k k d d d z j f x x h j x A A B A G c c A A G A x A B x x j f j A x f z z d a d d d k z f f A A A x h f f f k f k d r d k z z z z l j A A c j f z x f d d u r f x k f x c h j A A B A A x A h g j j A A x h h B A A A x j a k k d k k k f j x f h A G 5.5.x f k k k k k k k k k k k k f f z A 5.5.x f f z k u r d d d k f a x x x A A A 5.5.A x j v A c A x A A G A x j v A A x f f k d r d k f f x x g j A V c x f f f k k k k d r d k z z f f f x A h j j f a k r e y u r u k r r x k f f j x x x j f a f f z x x x x j f f f f x x a 1 f r e r a r d z k f j j h h j x f r r k r r r r u d u r 1 1 f j h f j f r u u r e e e r k f r f j f f h j z x f f f f h f k l f u e r u r e r r q w e # q q 9 q % e r > r k f f k p < < r e e e e r r r u r 1 r f i r r f ",
"1 j f < e r r u x f f j x x B c j j j x h g g h h g f f f g j j c A A j f 1 f z d e r e r z x 1 f B B x f f r r r r r r d u r r r r r r a f j j j f ; a d < > < > % r f 1 r x x h x x A v j f f j j A c x j x x A A B A A x j r f z d e r r r k k f j 6.A A x f f k k k k k k k k k k k k f f h B A B g f f f r a r r f x h f x B B A A c x j j j h x A v x j z x x j h j j x x k f k k f k d d f x x g g A G 5.A h f j z k x k f f f j z z x j h j A A A j f x x d d d u d x j f x ,.A j j B B B B A x j c A A A c N A c h h x A A x f z x d r s d k z x a f A A x h f k f h f f k d r u k z k x j k f j A A h f f x f u d u r f x f f x x h x x x A B x c A x j g j A x j h j j B 5.5.A f 1 f k d d f d f x j f h 6.5.5.x f k k k k k k k f k k k k k f a a j ,.<.x f f x k r r r r d x f 1 h x B B <.A A A B A A x x A A A B A A x h x v x A x a a x k r u d d f x j f h A A j h f d f k k k k d u k k k k f f f f x x x j r a z u > e u r k x r r x f a j x j j j f f f k x j j j x x f f f j j j j f 1 f a < e r r k x k r k j x ,.x f r u d u u r e r d r u u r < 1 f j j k r 1 u k r e q > u l f 1 r j l h f j j j j j f f f f f f f r < r d r < r r > q r # @ 0 # # % q e = r i f k u e e e e > q e e e e r u r < < i k r u u ",
"1 x k r e r r k ,.j f j x x h j h h j A j x j g g h j h f f j j j h h h h r h x k r u e u m x 1 f x j f f f f r r f u u d d u r r e r d a a a f x h 1 d k r < e % % f k r r x x x x ,.A x j l j j j A A A x x x B B B A A A x f f x k r r r r x x k x 9.,.x k k f z z k k k k j k k k k k k f f f j A h 4 x x a a a r z M j f x B B B x A j B A x x x c A x x x B x A B x j x c j f x ,.k d k a g A A g j 5.5.x h f f j z k x k f k k z j j x x x j x c A x f x x k d k u f m x h v ,.A A A A A A B B A c A A A B B A A x j x A 5.5.v f x M k a d d k M m f j ,.c h f k z h f f k k k k k k k x x k k f h h x x f j ,.j d d k f x ,.f a x A x x A A A B j c B x j g h c j j x x h x A c x h 1 k x d a d d k m x f j 5.x k k k k k k k k f f f f k k k k k d a f h A A f f x x d r a r k m f 1 j A A A A G A A B A A c A A A c A G A x x A c x A v f f m z d r d a h A x f h A A j f u k z f k k k d f k k k k f f k f k x A m f f x d e r d r k m k u k k k x x j j j f f x x x j j j j f f j x j l x x f r k k < e u u x M k r j ,.m x k u u u u d d e e r u u r r r u r r l x j r r k k r e > < k m k 1 f j x x h j j h x x x j f k k f f r r u f d w r e e r p e # 8 % # e e e > u f r e < > e e e > q w r e r r r e e e r k k f r ",
"1 j x f r r r x B l f x x j f f f h h j j j j h g h x f f f f h g g g h f 1 f x j d e r z m k 1 f x f f f f f a r r u u r r d r r e r r d d 1 r f h < a z a < < % < f f 1 r j x x A ,.B h h f f x j f j A j f x x x B B A A h 3 f x j a r r k ,.x f l ,.x f k k f f z k f f f j j z f f k k k f f h x h 4 j c f 1 r a x A h f x x x x x x j B x c x x x j j x x x A A A x h x A z a j 4.x a r a x A c g h c h g f f k f k z k f k f k x j j j x x f f h A x f x ,.k d u f j ,.x f x A A A c A G A B A B A G A j B A B B x x x x A 5.v f x 4.x s a d z M x a j ,.x f f z z z k k k k k k k k k k k f f k f a f x f j ,.A k u i x 4.,.f f j x j x c x j x j j j h h x j h h j j x x j j h x f 1 k x f r a a j x j a z ,.f r f k k k k d u f f d k f k f r d d r r a j A f f x v f r r d x x f 1 j x x B A A B B A B A A A c c x A A c x x x c c c x f f m M k r r f x A j f h A h a a d k k z k k d k k f f f k k f f d f f j x r f x z r r u u k m i u f f k k j j x f a f f >.x j j j h f f j j j j x x r 1 j z r < e k x x f 1 h j k r r u u u r r u u r r u u r r r r r r r f l r e k m k > > u x x f 1 f x j c x j j x j j j j f f k i < 1 d r 1 d u r e q e u r # # % # e u < = u k e # % > > > q e w e e r r r e e w > > w u u r ",
"1 x x j r ; f ,.,.f f x x j j f h h g j x x h h g j j f g x h h h f h x f 3 f x x j r f M x f 1 f j h f r f f f d r r r d d r u u u r d d d r 1 f h 1 a z h 1 % ; f z f 1 f x x x A ,.x x x j j x j a f x j h x B B B x c A z a f v M f 1 r x 4.j i f x k k k k z k k k f f j k k f f f k k k f f j A h 4 x G x 3 1 z ,.A h f x A x x B A A B x x x A A z f x A x j x j j x A x x a j 4.,.f 1 f A A x g h x f f f k k k k z k l x k k k j x x x z f f f A v f x ,.x k r f x 5.j f l B A A c x x c A A A A A j x A c A B A A c c A 5.v f x 4.6.d r k M 4.z a j A x z j k k z k k k k x k f k f d d k k k f a j ,.j j 5.w.x f f <.7.x f f h x x A x g h x A N j j c A B x j j j B x j h j x f 1 f v x f 1 f x A f 1 f x f u d u u u d d d k k f f f k k d d d d r 1 j ,.h f x ,.x d r z ,.x f f x B B B B A x x A x A G A x x x c x A B A x c A A x f f m 4.x a r x A A h 4 x x f r d f k f f f f k k k k f f f k k k f a a j m f r x x d r r f m x < , f f j k j x x j f f j x x j x B h f f x j j j j x f 1 j m k r r x A x f 1 f z r r r d u u u r d k d d u u u d u r d d r r k d r k m k > < k x j f r k x j j j j x x x x x j z l f r = 1 f a r f f u u e > r r q > % > r k r > p k e % e r e > e e r r u u r e r r r q q > > e r ",
"1 h x x f f x A x f f x x j h j f g h j j f g f g g f r f x x j g h g f h 1 f x x x j x x x f 1 f x f 1 r r f d d r r u d u u u d u d d r u r 1 f f < 1 z z a 1 f h f f 1 r x x h h x A x x x x j f f f j j j l x B B x x x f 1 f x A x f j ,.B f 1 f x f f k f k k k f f f f f f f k k k k k k k h x j 4 h G A h h c A x f f j x x B j j c B j h x A x f r f x j h h g x j h x f 1 f ,.5.c x x A A h 1 f x f f k f f k f f k k l l k j j j x k k k k f x x f x A A x f j A A h 1 f B B A A j h x A B x B j x j j A j j A A A A A 6.x f x 6.4.x f x 6.,.z 1 j x f f k z k k k f k k f f f f k f d d d k f f j ,.h h <.t.<.x A A A x f r j x x c x f f j A N B A c h j x j j B N h j c x x f 1 f x c x h x A x f 1 f ,.k u r u u d d f f d k f f f d u u d u u u f j x f f x A v f k m ,.j f a x <.B j B x A x x v A A j c v x x c c A B x x x A x a a x ,.,.x x A A A g 1 z j f r u r d f d f f k f k k k k f f k f u d f j x r 1 j x z a f j x k = r l f f f f h h f f f z h h j x j j f r j x j h j x f 1 k ,.x j x x x j r 1 j j r r u r u u a d d u f d f u r r f d d u r f k r r f x l i i j j k r < d j j j h j j j x x f f k k i < , 1 r r r r 1 f d e # < u e & # > u f 1 < r r > q e e e e e > w u u r e r r e w q > e e r u ",
"f j j x x B B B j f 1 j x x j j g f f f g 4 g j h f f k f h x j h h g f f 1 f j h x A A B h f 1 f v h a a a a r d d d d u k p u d u d d u u r r k z 1 1 z j h x j f g f 1 a x ,.h g j A A B B x k f j x x A x j j x B x j x z r f x A A A A A B f f j ,.f a k f f f f f k k j k f k j j k k k k k j x j 4 h A A A A G A A f f j B B x x B A h h x A A j f r f k x h h x B N x x f a j v A A 6.A A x h a j ,.j f f f k k f j j j j k j x j j x x z k z z c x f x A A A B A A A j f j A c A A x x B B A A A j B B A A x x A A 5.5.5.A x f x M 6.M M 4.5.A f 1 j x f a k k k k k k k f k k f k k k k d d k f f v ,.h h A G G A D D A c f f x x j c x h h j j A x j g f h x x x j h h x A A x f 1 k A B B A A B x f r z 4.j u d d d k k f k f f k k k f u f k f d r f j A h 3 j A A A x A x j f f ,.5.A B A A v x x c A A x A A j x B j j A x h j A x a d m A A A A c c c g 1 j x f f k u u i i k k k k k k k k k k k k u u f x x f r z x x x x x x k 1 k m j f j j h j j k z h h j j j f k f a f j z j x x d 1 k x B A ,.x x x i r >.x d u k d u u f k f f f f k k u u u u u f f j x f 1 f j j j l l h k i 1 f j x x h j x x x j r 1 r f i r u r r f f f f f k e # r k r > = w f f r r k u w e w q q q q q e e r r r u u r r e e q r p k ",
"1 x h j j A x j j f 1 f h h j j h f f f f g g g h f f j f f g h g g g g r 1 f h h j j x h j f 1 f x z r a a r r r d r u k k k f u u u r u r < 1 k f < 1 f h h x h g g f 1 1 x x j f g h x x j f f f f j x j x x h f j B x x z r f v x x A B B B h 2 j x f r u d f f f f f k f f k k f f k k k f f z A h 4 h A A G A G A v g f j x j j x B j h g x A j g f a 1 f j j h h A A j h f 1 z A A A A c x j h 1 f x j f f f k k k k l l k j j j j j k k z k f z c j f x A x A A N B A h f f x B A x x x x j A A B j B j A A x j x A 5.5.A x z f x ,.A A ,.,.A A k 1 j x f r d k k f f f f f k f f k k k k r a d d f x A f h A A A G A A G x a a j x j j x x h g j j j j g f h j x h g g h c j B x f 1 j A B B A N j x f 1 k ,.k u r d k d k f f f f f d r r k u d d f r 1 j x f : h c B B A B j f f r x A A G A A x x x c A A c x x B B j j x B x j h j f r d M ,.A A A c c h 4 : j x f u u k u r f f k k k k k f f k k k u u k f x >.f 1 x j x x A x j f 1 f x j j j j j x k j j j j j j f 1 f z 1 1 z j f j z a < f x j B ,.B x j i f x j d r u k k k f f f f f f k u u r r r r r f f x k 1 f l j j h f h f 1 , f j g h x x x x j j k f 1 1 r u r a f r f j f f f < $ r f p r < r l f , < k k e e q q % q q q > e r e r w r r e q q > e r p ",
"f x B N j j h h j f 1 k l l l j f f 1 f l h g g x g f j j g 4 j j g g g f 1 f j j j j x h x j 1 f v j 1 a f f f d f u u k k k u u u u r r r e r f f < 1 h h h h j h h f 1 r x x h h h x x x j f f f j x B B c c j h h x A x k r f x x x x x x B j f j x f f f k f f f f j f f f k k f f f z k f f x ,.j f h A A A A A A A j f j x c B A A x h h c A h g h f f f h x j j j j j x z a j A A A A c N A x r f x f f k k k k x z f f f j j j x x x k k z k z x h f x c A A A j j B h f z x x x j x x c j j c c A A x c c j x A A x z x ,.x f x ,.A c A A ,.,.k a x A j f d k k k k k k l f f f k k k k d d d f f x A h h A G A A A A G A f f j x j j B A j j j j c c h g x j h h g g x A j B x f r j A B A N N j x h r k M k d d k k d k k k u k k u u u f u u u u r r z x f 1 z c c B A x j l f i x A A A A B B j j A A A A x x A B j j A B x A B x z a f x A A A c j A x f 1 j x f r d k k f k f k k k k k k k k k u r u k f j x f f x A B j x j x k r f j x x f f f j j k h x x j f f f j x f f j j f f f u e f j x x B B j k r f x x f r u k k k f d k f u u d k d r r u r d f f j f r k j h l h h j k r 1 k j g f j j h f j B <.x f r r r < r a r f x j f f e < f f f f r r f f < > u r # # q 9 q w w q r u u r r w r r q % 9 % e u u ",
"4 j N j j j g h j r 1 k j f f f f 1 f g g h h h g g f g j g 4 j j g f f f 1 f h j j h h h x f 1 f x f 1 r d k k f u u u u k k k u u r < < r e e f f , 1 h g f f h g j f 1 1 j j g h h j j x h g f f x x x B B x h h f f x x f 1 f x B j h h x x f 1 f x a r u u f f f f f f f f f k f k f f k k k j <.j 2 h A A A A B B A j j x x A A A c j x h x x h h h h g f h j j j g g j x f r f A A A c j N x x f f x f r d k k k f f f f f f k k j x z k k k k h x j a x A A N j j j x f f z x h h j x j c j h h j h j x c j x x c A j f j v j f j v A A A A A m f f x A j f k k k k k k k f k f f f k f r d k f a f x x f h A G A B B B A x f k A j h j j j j h j j c x g f h j h g f j B j j j j f 1 h B B N j j j j f 1 f m f r r k k k f f d u k k u r r r u u r r r r f j f 1 z x j B j j x f r r x A h j x A A A B B B A x j x x x j B A B A A A v x a f M v A A x h x A f r j x f u r r k k k f f f k k k f f k k u u d f f j j r f x B j j l f x f < i x j h f 1 1 z j f f j j f f j f f x j f k x f f k r < f x j j j f z f r 1 x j r r r u u u f k k u r u d d u r r r r r r f f r 1 f j f f h h f k f 1 k f 1 f h f g g j B B A j r r f a r 1 f f f f f f e > f f i i i i i r = # e e > # % q e e e q e r r u r r e > 9 9 9 # > u r ",
"4 j j j j g g j x f r k k f f f f f g j h x x j h j f f j j j j f 4 g j f 1 f h h h j j j x f 1 f x f 1 r u u k k u u d d d k k u r < < r r r r k f r r h g g h h h x f ; 1 j x j x B x x j j B x x B B x j x j x B j g f f f 1 f j x j h j x j f 1 h x f 1 r r r a k k f f f f f f k z k f k k k x <.j 4 j G A A A A A x f f x A A A x j c c B x j h j j g h g h j j j h h j j f f j A A B j B A x x a f z a r r u k k k k k k k f k x k k k k k k f h v x f x A A B N A B j f f f j h h h c j c c g f j h h x c c A c A A x x x x j f z v A v A B B ,.x f j A j f k k k d u k k k k k k k f d r f k f a f x x f z A G B B A A A j i f j f g x j j j j j j c h f g j j h g g j A A B j x f 1 f A B x j j x x f r f x f r u u u u u r u k k k k u r r u u u u r r f x f 1 j x j B N B A j f d x x B x B A G G A x x A x x x x j B 5.A B A c x x z d f ,.A A A j j A A j 1 z j f r r r u d k k k k k k k k k k k k k k f f x x f f M B h x j j m k 1 f x j j f r f x B f f k k f z x h h x j f k x x l x f < f x x j k k z k < < j j r u u r r r u k k i a f f d f f r r f r i k k 1 < k l f f l f f l f r f f f f j x x j h x B x f f f f f f f z f r r k k r > f k f f f i i 1 > e u u > 9 w r e q e e e e r u r e e e q e q % e k u ",
"1 g j j 4 g g h l 1 r f f f f j j g g j x h g h j h f h h j j g f f h j f 1 f z h j j x h h f , 4 x f r r e r r r u u u d d d u u e < e r r r d k f 1 r j j g g h x x f ; 1 f j x B x h h j j j x x j j B x j j j j j f f f a 1 a f h j h j j f 1 1 h x f 1 r r < 1 d k k f k k f k j j z k k k x x ,.j f h A A N x B x z a f x c A x x x h x A x j j h N j h g g j j j j h g x f 1 k x c j x j x x z 1 r x f r r r u u f k k k f k k k k f k k k k f f x x f j j j j j A B f f a f j j h h j A A c j h h j x x c A x x A A <.<.A x z d k x x v B j B >.x f h x j f f k d u u u u f k f d d u r f f f f f f j j f f x B B B A B h f r 1 f h x c c j j j j h h g 4 j j j j h g g B A A j x f 1 f j h j h j x j f 1 f x f r r r u r r r u u k k u u u r r r u r r r f x f 1 k B B j N B A x f r x <.A x B B A G A A x x x x h f j B A A A x x j x f a f x c A j h j c x f : z j f u d u r u u u k k k k k k u k k k k k f f k x f f x j j k j x m k e u x x j l f x ,.j f f f f f f j x x h f f f f j x x k r r k x j k k k d = = f k u e e < < 1 r r i f f d i f d f k f u u i f k r < u f f f f f f f 1 < a f j j l j j j h h x h 1 f h g f j f z j d < d k r > u f f f f f r w > > u r # % w u e e e r w q e e r e e e e 9 q q e d u ",
"a f g j g g g h i = < i f j j j x h j j g 4 f f h h h h h x h g g h g h f r f f g x x j f 1 r r g x k d r r r r r a r r d d d d u r r u u u r r f j r r f f f h j x h 1 < r f x j f g g j B j h f h j x j x x B B j x h f j f r f f f x j j j r 1 1 h x f r r f u r u d k k f k k k z f k k k k l x 5.x f f A A B B x j f a f x A x A A c j j A A c N j j N j j j j j j A j x x f r f j x A x h x x a ; f m k f d r r u k k k f k k k k d k k k k k k f v v k z f h B A A x g f f f x A x h h c A A A j x c A B A A A v x x A A ,.M z r f j x ,.A x >.,.f r x A j f f k u k k u r d k f d d u i k k f f f h x x f k f f x <.A x f f r r f A G A c c h x j h g f g x A A A j j h B A B B x f r f f f x v x f 1 f r f m z d d k u u u u u r k k u d d u u r r r r r k j f 1 f x A B A A x j a f x 7.A A A B A A A G A B x h h h j B A A A x x A ,.j a f j x A c c j x h f 1 j j f k k k k k k u k k k n k u k k k k k k k f k m k u d k j j x x k d e i x j f f x ,.<.x x k f f f f f j f f f j z f x x x k r u k k m x k k r O > k k w > > q e r e < r r r u k u r r u u u f f f x d = < u k f f f f i < 1 f j x j f f f f f j B j f f j f f f f f z f r r u e # > u k f k i u r r r u u e q t y e r u e w q q e w e e e e q q q r k k ",
"3 f 1 4 j j j 4 1 = = i j j h j h h x h 4 1 f f f f h g h h g f f g g j f 1 d 1 1 j x f 1 f f r f x k r r u r r r r r r r r u d r r r r u u 1 1 k j r 1 1 1 f x x f a f r 1 j x f f f f j j j f g g h h g g j x x x x x h f f 1 f f 1 z x h 3 1 f 1 f j 1 1 r r u u u u u u d d k f k k k k k k k x 6.x r f h j A x j f f f f x c c c A A c j j A c j N j j j j j j j j j A A f r r f f f 5.A j h a f r f x f r r u u u u f k k d u k k k k k f f k k f x x f k f f x A j g f j r f B A x x j j A B x A A A B B c A c x j j A A A M k r k x z j x B x f r r j ,.j f f u u u d u r r u f f d u r u f k f r f x j f f f 1 k ,.x f f x r 1 h c N A j j j x j h f 3 f c A A A N B x x j h x x f 1 f f 1 g A z 1 1 f r f M k u d k u u u r r r u r u r r u u r r r r r f x f 1 f g j A A B f 3 a f A A A <.A B A A A B A A x j j j j B B A B B A c A x a f x f j 6.A h f g f 1 h x f r u k k k k k u k k k u u k k k k k k f f k m f 1 r r k m m k u r < r j j f h x B B x f f f f f f k f f f k z j j k j k 1 r k d r l x k r r > > f f > # % q e e r e < < e r u r < < e r r r f k k r > < 1 r k f f 1 r 1 1 f j h h f a f f f j j h f f f f f f f f f k f r r e # e r r f p < w r r < r p q q 8 q w w w q # q q q q e e q e q q > r f u ",
"3 h 4 3 g x h f f < = u j j j x h j A h f f f k f f h j x B j B h j j j a < k k 1 f f i f x j 1 f A k r r r u d u u u r e r r r r u u r r r 1 r j j r r f 1 1 k z f g x f r j h h x x x j j j f f j f k f f f j A A x j h f a 1 f z 1 r k f 3 f j 1 f h 1 r r r u u d d u r d f f k k k k z z k k x ,.z f f f g v x f f ,.j f j x A A A G A x x A A x c x g g j x h h j j x h f 1 r z f f j ,.j r r z f f x k r r u d u d d k f d u u k k k k k k k k k x j f j f 3 f j f g x h 1 f A A A A A A A A A G 5.c B A G A A v x c A A A A k r k ,.k f x A j f k f j x j d r u d u u u u r u u u r r r u f d d d a j j f h B f f k f f x ,.f f x x j j h j c c j x f 1 f B A A A A A B x h f h j f 1 f x f f j f r j z 1 z ,.k r r r r d u r r r r r r r u d u r 1 u f f f j f f z 3 h A x f f f f f ,.<.A A A A A A A A A A A x x j x c c c A A A c A M f f M f f v ,.h f x x 4 h x f r u d d k k k k k k u r r k k k k k f f f j m u r k d f k k r u f < 1 f x x x x B x k f f z f f k j k j x x j j j j x k r r x l r f k r r k u , d f e > % e e e r r e > e r r e e w e r u r u f k u r r < r k r 1 1 k f 1 j x j j h f j z f f f f f f f k f f k z k k k k f e r k k r r > # $ u r > u k % % 9 q q 9 w q > e u > q e r q q e e > r f d ",
": g h 4 : : 1 f k 1 = f l h j x j j j f f f f f f f f x B B j j x j f h a < f j j f 1 f k k k 1 f x f 1 r r r u u u r r d k u e e r r r r r r r j j 1 1 j f 1 1 1 f j h f 3 j j j B B x x h h j h f j j z f f f j j h g g f r , 1 j j f 1 1 f j j 1 1 h 1 < r r r u u u 1 f j f a d k k k k k k f x x f a j x h f f g h x f a j x x A c A G A j x c x x f 4 f h j h h g j A f f 1 1 f x f f f f f f j r f x u r r r r u k d u d j x f r k k k k k f f f x f r x x f 3 1 f j j f 1 g A A A x A G G A G A x j x A 5.5.A x c c A A A x k r k 6.x f f j j f x f f x k r u u r r r r r r u u r < > e r r u u r a j f 1 f A B f 1 r z x x f 3 h c c j j h x c c v h < ; g x B j x B j h h f f h f 1 f x j f r f j j f 1 f m f r r r u u r r e r k k r 1 r r r r a u f f j j f a x z 4 f f f j x z f x A B x A A A B B A A A A x x x B x x x x c A A A j a f ,.v f f h 4 f A h 1 j x r r r u d d k k d d k z d r u k k u k k f r k x r r m k r , r f k k < ; j B j x x j j k k k f f f f f j j k z x j f j x f < e k m x i r r f k u , r f < e q q e e e > e u k k r > > e e r u u r r f 1 1 k f r 1 < , f x i 1 l x j g j h j j f 1 1 f f f f f f k f f k k f k f e e k k u r > # > e e = < r % q q 9 % 9 q # < u i < > q e e e r r < < r r ",
": g h h 3 : f j f r 1 k j h h h j j f f f z f f f f f x c h f f f j f z f 1 k j h h f j f f f f f x f 1 1 u r r u r w u x m k r > e r r r u r r j j 1 1 f j f 1 f j x f f f j x j j h g h h h x x j j j j h f f f f f f f j f ; r j x j f f z j h 1 g x a < r u r r u r 3 j A j a r f k k k k z k j m h f j 5.A f : h A x f f x c j A A G G A h h c A j g g h h x j j j x x x j f 1 f x j h f f M j k f f j d r r d u u k d u f x ,.z r d k k k k f d f x z f j A x g f x x h f f h A G A j j c G G A x h j x x A A x v 6.A ,.,.A x j r k m x f f j j j x f f j f r u u r u u r r f x m k r < r u u d u r d x j a f >.B j f j x j j f r j x c j h h x A A x a < 1 f h j j j x h g j j j j f 1 f j j j f x x f f a f m f u u d d r r r r f x x h r 1 r r u k f a a j x f 1 x j f g f h x x j f x A B B B A A A A A A ,.x j x A A x c B B x c A x j a f ,.4.j f f g x A g 1 x j a r u d k d k d d a x ,.j r r f f f k k k r k z r a x x f 1 f x x k r i j j x x x x j j x j j k f f f j j f f f f l j x f < r k x x f f l k r 1 < f f e e e q q e q > r k m x k e e e r r e e < f l r 1 x x f 1 1 f j l f r k j g h x x j x f f f f f h f f j j f r f j j l x u > u r r k u r u r e $ < r > q r e q e e > r k f r > > e e t q q > < d d ",
": 4 4 g f f j f 1 1 r k j h g g f f f h f f j j f f h x x h g f f f j j f r k f 3 f x j 1 1 f f f x f 1 r r r r r e r x x x l i < < r r r u r a j j 1 1 f f f f j h g f r 1 j x B j h h g j h h h j h f f j j j f g f f g h f 1 a f 1 f x j f f g f j x f r r u d r r a h N N j h a f k k k k f k z x j f f h x j h x j f r r j A A A A A A B j h j B h g h x j h j j j h h j j f 1 a f f j x x j a f f f j r < r r d d u r f j x j x k f d k k f f f f x j f h h h h x x g g f a h A A A x f h c A x x v A x x j j v v v A 5.B x x j r f j j j x x k f k f f x f r u u u r r e r x x j x x d e r u r u r r z j f f f f j x ,.f f f i r h x j c j h h h h 4 f j j h g h h h h g j B j x x f 1 f f f j x z a r f 1 f m f r u u u u r 1 f x B j j f 1 r u u u f r 1 h x 3 1 f f f x x f f x f f x B B x A A A A B x B A x h j A B A x B j x x j x x a d x x z j x j x j f 1 j j r r d u d k d r u x A B B j r r k f d u u r k k u d f f f k x k i f r r x B A ,.x j j j x x j x k f f f f f f f k j l k f < e u i f f x k r r r 1 f f e > 9 q q > > e u f f j z u e e r e q q r f x r 1 u k k f f f f f r 1 f h h h h x j h h j f f j h f f j j f f l j l j k r > w < < r k k r e e O > r e > e w w > > r f f f i r q e q q 9 % % < d u ",
"1 f 3 a f x z 1 1 r u j x f f h j h j x h j B j f f x B j x B j h h h x f r k f 1 f x j 1 1 f f f x k r r r r r e r k x j l x j k r r u u u f f j f 1 a f 1 f x x f 1 f f 1 f j B A A B j j h g f f g g j x B x j h l l f z k a f a , d m j r 1 f g h x f d d u u r r f B N j B B h f k k k k d f x ,.j f z f j A v j f f f r j A G A A A B B A x x A h f h j h j x B x x j j h f f f f a x 6.x f 1 a f f x f u d r d d u d j x j h j x z f k k k d f f x j f f f f j x h 1 f h a j 5.A A x x j x v A A w.A A A c c A A A 5.5.j h A x f k k f j 6.m f a k f f x k r r r u r u u k x j l j x k u u r r r e r x j f k r 1 f m x r r k r 1 h x j c c j f 1 f h x B A x h h h g g h A x j A ,.f 1 f f ; f x f 1 a k 1 f m f r u u u r r r j B j j j x j f u u d d r f j x f 1 f f f A ,.f f x j f j A B B A <.A B x j B 5.A x x A A A c j x A v x v x f d k d k m 6.j f f f 1 j x f f k u d k d d x >.A B B x f i f f u r r u k x k d k d f x m f 1 k r r v ,.x x x x B x x x x j k f k k f k j x x x f k k e r d r r x M f < d k r f k e % q q q > < k k u r k m k r e e q q e r f j f 1 r r k x x f 1 u u 1 r j x j h j h h A B j j h j j j h j j j x j l x k r e r r e r u e $ > r > w u e e w w e e r k j f i i u u e q q q q q e d f ",
"3 h a 1 a f a < r d r j j j j x x h h h j j x h f j j x j j j j j f f j f 1 k f < 1 k r ; r f r f x k 1 r u r e r k j j l l l x x k u r r u r r f f 1 d k 1 1 f k 1 1 k f 1 f h h j N B x j j j h g g j B j j B j g f f j x f 1 r u < r k f 1 r f 4 h A f r d u r 1 f x N j N N A c j f f f d d f z ,.j f z f f x x f a k f r k x c A A x B B B A c j f f h h h j h x A A x h f f r k f 1 k x k r r f r f j d d k k d u k m x j f h j x x j f f k d d f x h f z f 1 f f 1 1 a f r h A A x A A x x j x A A A A x c A A A A 5.x f h A x f k k u f x k r u z f f m f r r r r r r k x h f h l k k u e > e e q r k f r f f r r k u < r f 1 1 h x j c c x h j x A B B j B x f f h j x j A A A x f 1 f f ; r k r < f f 1 f x f r r u r r r j x h g h h x x x d r u r r r j x f r z f a k z r a j j f j x B A A A A x j B 5.A A A c A 6.A x x x c A A v k r d k r r z x f r f f 1 j x f d d k u u k x ,.B B x x x x l i u r e e r k x f k k r r f f r r u r r x x x j f j B j j x j f f f k k j j j x x j j k f < r d e 1 k m a < d d 1 f k e # q q % e f k k k i f k l k e > q q > r f k 1 r r e r k k r 1 u r < f j j x x j j j x B x f f j x x j f h j j x j k f r > u r > e e O # e e = r u < e u q % < f k f f f r u u u e w w q % < d f ",
"f j a 1 1 d a r d k r l x x x j h g g h x h j h f x x j j j j h g h j x f 1 f f r r r 1 < a f 1 f x z r r r < e k x x l j j B B x m x r r u u r j j r d k r ; u d 1 r k f r j f g x N N B x B B x h h B N j x j j f f f k f f 1 r f e e d r 1 f f f h v a r d r 1 f x A c c A A A A A j a d k k f x 5.j g x k f k f d f k f f k j h j x x A c x c x f g h x x j j h h h h j 4 f j f x k e r u d u u k d f j k u d k u f m ,.x j j j x j A A j f d d a f x j f z k a a f 1 1 f f f f B B c v ,.x h h x A A A A x x x A 6.5.A A x x ,.x f j x u r k k r k k a f M k < r e r r f x x h x j j f k d > % e q e r k f r k k r r u r e d f 1 1 f j x j j x A A x x x x B A A x j x x j x c A A x f 1 k k < < r 1 1 k k 1 f x k r r r e r z v x j h j x j x x x r r u d a j x f r z z a a d u d x z i f j j A A A v B A A A A A A A A A c x A A x A v x k r d z d e r a r d z f 1 j x f d d d u d x ,.,.x x x x x x B k u e r r r x m f k k r r u u r u k r r x x j h h j x x x x f 1 r k x x x x j x x j x x k w r d r < d k r r k d r k z < # 9 q e u x j l B x l f k k u e e q e u k f 1 r k r r u r r u f u 1 k j f h j x B A B A x f f j x h j h j j j x j f d r e u r > w t # % w e > k k e e q q = u k f f k k u d u d r w q t q < d u ",
"f h r = e e e r r d r j v j j f f g h h h j j h g j x h h x x x j h j j f 1 f a r r r r < r k 1 4 x f 1 e > < f x x x x f f j B x x x u < e u 1 f k r u f r < r r r r d f a j x h h x j j j j j x h g h j N j f f f f f f f a 1 1 u e e r 1 r r f f g j a r r 1 f x j j c j h j A c A x f d k d f A A j g j k d d d u r k f r z x j j j N j x c c c v x A A A G A x j h g f g f j j k u e e e e r r d f r k f r r r k x x x M x f f j B B B x f r r f f x j f k k a r r r r r k f f x B A x x x j j ,.A A A A v x x x A A v ,.A x A x f k k d r u u u k k a f x d < e e < f x j l j x x f f f k d < % e e r k f r f f r r e r r r f r < f j h j x x B B c x h j x B B A B x j x x x x x x f 1 f f < < e < e u k r f x f r r e r z x x c x f f j A x x ,.k r r d f k j a 1 k k a r r r d k k r f x f h B c x A <.A A A A x A A c x A A x x x x j k r r k d e e e e a f f 1 f j f r r e u z M x A x k f k x x x j d < < e r x x a d f r r e e r u k r f x x x j j j j x x x f f k x x j x x x k j x x l f 1 r d r < r r u u d d r f k e % 9 > r f f f f f f i k u u k p e > e u f f 1 r k d e e e e r k d , f j f 4 f j j B B x h f j h h f f j h j x j f f f u e r r % q % % 9 q e e f k e q # > u k f f k r e e d f u e q % q q < k r ",
"f k r < e e e r r a 1 h h j B h h j x j j x h g f j x j g f f h x x j j f 1 f a r r r r < a k r f x f 1 < r f m x x x k r < i x x x x k 1 < r r k f r f k r e e r a u d d a j ,.B j h f f j x B B g g h j j j f f k l f f j f r u r e e e r r r f f g x f r r a x c j B x f r f j A x A A f f f f x A j f k f u r a r r k k r j <.A B B B B B A A A A A A A G t.G A A B j f h h j k k r e r r r r e d d r z r e r u x x v v m f 1 r f x x j B x f r f j ,.x f l k a r u d r d k f f A A <.x x c A A 5.G G G A c x x x x A A x x x A x f k k u r u u d k k f f x f > e < r l x j j f r 1 f f f h j f < e r r z f r d d r e e r r r d e < j h f g j x A A x h f h x A x h f h h B A x j x x f i k f < < e e < r d r k m d r e r z B x x j f 1 1 a x B B >.x f < r r k x f f k k r e u a d f f r j ,.j h x x A A A A A x A A v x x A A A x x j x A z d d n d e u e e a u d r k x r r r r k m A A x z r e u z x x x x f < r k M z r d d r r e q e d k a k ,.A A A B j j x x x x x x x x x x x j f f j f r r r d d r e e r d r u d r f k q # $ < f k f j k < > r k f a k z f e q r d f r r k r r e e e e k d 1 f j h f g f f j x h h j x j j j j j j x x k r f k u e r r q q > q q > e r k k e q e u x k k k r % # % r k u r e > w q > p u ",
"f f r e e e e e r a 1 g h j j x j j j A c j h g g h x h f f f f g h j j f 1 f d e r r 1 < a f 1 f x f < < f x x x x f 1 < < 1 f j x j x j r , 1 j h r a d e q e r r r d r 1 j A B f f f h h j j x h f f h f f f f l j j j j f r u r > e e r r r a 3 g x f 1 f x x j x j f r r u f j c x A x f a a f B h f f d r a r e e u d r j A B A B B B A A c x B B A A G A A A B h h f h x x f k u e r r r e e r r f z r < u z x x v x f r u u 1 a j j B B j f f j ,.j f l f r r u d r f k f h <.A A A v x A A A A A A A x x x c c c c x j x A f r f k r r r d r f k 1 f x u < < r h h h h f 1 = = 1 1 f f f j f ; = 1 f f r d r < e e r e r r > ; f h g 4 g x c x x h f f h c x g g f x x x x j j j f r k d < e < > < r d 1 f j 1 < r k x x x j f < 1 r 1 f x A x x x r < 1 f j f a z f e e s r r k r 1 j ,.A B A x v B A A v x x x x x x v A 5.x j B x x x r d z d e y u e e d u 1 k z r e r k x x x ,.z r r r r r j x x x x d r k x k < d d e e e e q r k f f A A x B x x j j j j x x j j j j f f f f f f f r u < r d e > e e e r d r < k k $ O < a f f j f r e e r r d f f j l u = = r f r r d e e e e e e d r 1 f j h x j f f g h h h j x x j j j j j j j f f k k u e u r q q > > q e e e k k > e k x k k k r % # 8 # # r k p r > > > < u u ",
"f k r r r r e e u f r j A j j B B j j x j j x h g h j j x x h f f h x B f 1 f a r r r r < d k 1 f x f 1 r x x x x k r < r r 1 1 j x j j B j f 1 h j r f d e q e r r d k d a j j k f f j j x x j B x f f f f r f j k f f j j f r u r > e e e r r f f h x 3 4 x A j j j f r r u u u f x x x A x f 3 h A h f f f r d r r r d k d j <.B A A B x x x x A x x B A G G A B h g f x x A j a k k r u u r e e d a f x f a k x x x x k u u d u r r f x B A A x f j A h f z f r d r d d f j f x 5.A A 6.A x c A A x x h x x ,.A B A A A A B A A z a k k u r r d r k z r a x r , i g j h h f < > e > = 1 f f f h z 1 $ < j h r r r e e e e r r d 1 1 f x h g j x B B j j j h h A A j j B A A B <.j f f f r f d < e e > e d f 1 f x r 1 z x x h x f e < r r r r f j x j x z r 1 f x f 4 z d e e s r r k d f x x A A A B B A A B B x x x x A x c 5.5.A x A A A x f f m k r u u e e d d 1 z j 1 r k m x x m m u r u k u r f x x v ,.x f f x k r d d e q e e e r k k f x x x x ,.x f f k x x j j k f f f f f f k k f f f r r d e % e e e e a r < k f = , f j f k z d r r u e e u k f f j k 1 = u k r r u e e e e e e k f 1 h j h x A x h f f h x j h x j k j x j j k f j x k u r k u e e r > e k u r k f r k x x k k u % % 9 9 # # q u k k r e > < u f ",
"f j a 1 r r e e d f f j x j B j N j j h g j x h g h h j h x A x h h j x f 1 f a 1 e r r e f k 1 f x f 1 f z j x z r r r r < < 1 1 f j j j x h f h j r u d e > e r r r k f a j j f f j x x x B B x j h f f r r f f f f f h j f 1 r r < e e e e r f f h h 4 j c c j j f r r u r r r d f x x x A h 4 h c g f f f r a a r r k k a z c A A B x j h h j x x x x B A G A j g h x c x x z r k k r r u r e u k f f x f f k k x j k r u u r r u r 1 f x B A A x h c h f f f r r r u d f j f x <.5.6.c x x x x x x x h j x A A A A x x <.5.A A j r k k u r r d r f k 1 i k f f l h g h f 1 < > < r r < r a f f f g 1 , f f 1 r u e q e q q r k r r h h j x x x x j j j h h h c A j j A A c A B g g f f 1 r r , q e < e f f 1 f v f h x x x x f r e r r r r r 1 f j j j j x f j x g f z d e e s r r k f r x B x B B B B A A B B x j x v x x c A A B A A B A x f f m n r r u r r k k r k f f k x j x x z r u u r u d u r f m M v M j f k f < a a e q q e e u k f f x j j x >.x f r f j j j f f f f f f a f x j r r k r 1 d e % 9 e e < a u < a a 1 h h g f f r r e e e r e q u k f l j f 1 r f 1 1 f r > e e < r k r 1 l j h j h j x f f h h x x j f f f j h k j j x x x u r k d e e u r u d u r a f f z k k k r q 9 9 9 w q # # e u k k u < > u f ",
"f x d r a r r a k f r j x x x x h g g g h j h j j j j x h h B B x x j B j 1 f f r e r r r z k 1 f x f f k j j k f r r r r r 1 1 1 1 f h j j j h x h 1 f z d e q e r a z f f x x j x x j j x x x j x j f f f r a f f j j h f f 1 r k r > r r < f z f g j 6 c V j j f r e r u k k r u d f x A A A c j c h 3 j k r r d u d x k a j x B A x x j j j x x B j x A A A A B j A A j j A j f z x d r r e r k k f f h f j j j x k u u u r a f w w r r f x A G A j c j f j j f r d f d j x f x 5.A A x j x A x B A 5.A A A A A A A x x x v c A x f j j f u r d u k k 1 f j h j j h h r < > < , 1 f k r < r f g h A h g h f 1 f k r q t e q f x d a j h h c c x h h x x h f g c A j h x A A A B h j A h 1 f f 1 > e < 1 k f r z x x A A x x k r e r r r k r r e < r f j x x j x x g f x z r e u u u x z a x B j j B A A B B B A j j x v x x x x x B A A A A ,.f f M m u y u r d m k r j x x A x x x k u y u r r k u r r r k m ,.,.x j x z r r d r > e e e d m f f x x x x B x j j l j j f f f k j j f a f f f a f x a 1 f d > q e e r k k 1 f f h j h f r < e r e e d k e q e u k x x B j f f < r k d < e e < u k i 1 j j j j h h h h h h h x x h j f r f h k x x h j x f r k k r q e e d k f 1 a j x x k k r q 9 q % q k r q q q q r u d u , r u ",
"f x f r e r e k x f 1 j x h j h g g h j j j h h h x A j f g 4 j B j j B j 1 f z u e r r k z f 1 f j 4 f j x f r r u r f x x f , 1 < 1 h x j h h x f 1 k x f e e e r z j f f j j x x j f j x h g h x j f f f f f f j h h f f a , r k d < e r r k f 1 f j c c A x l r e e r f x x f r d f f x A A c c c 4 3 h j a r r r f x h r j x j j x j j B j x A A B j h A A B j B B B j B A j a f m k r e e r k k r f h h j x x k r r r r i x j r < r r r f c A G A A x f x x f r d d f x x f x 5.A x x A c c A A A A A A A A A B x x h h j x c j f j x k r r r a x k 1 f x j g h h 1 = = = < u f f f f < = 1 f h j B B j f 1 f x d q q q e z z r 1 f h h j x h f g j j j g 4 j B x h f x x x x j j A j 1 f j 1 > e < a j f r f ,.B A A ,.z r e r < 1 j ,.f 1 > > e r j x x j j j 4 f x x d e r r k x f r k x j j x x B j j B A j x x x m x x x j x x A A A x f f M M k r u u k m k r x ,.B B A x k r e e e r k m k e r e r k M ,.A A ,.m r f k u < q e e k m i r j x x B B x x x x j f f f k j j j j f f r r f j j r 1 f f e % e e d k d 1 f j g g f 1 > e e e e u z z u > % q r k x j l f r ; r k k r e e r k x i 1 j x j h x h g h h h h h h h h f f 1 a z x j l j l f r k k r q q e f k f 1 f x k x z r q 9 9 # e u k d e % # # # r k f r 1 r ",
"f x x a < e a z ,.h 4 j f g h j j x B A A N x g 4 h h h h h h j j c B B x f f v z r e r x x k 1 f j h x x z r r r u r f x c j f 1 < 1 a j A B j x j r k x j d e < a x x r f x j j x x x x x j g j B x f f f x k f j j h h x f < r x x r < r f j f : f A A x x j d r r e f x x x x f r d f h A A A A A 4 1 j c f r r d j M z f j A h h x B A A B B A A A h h A A x j j c B B A x k r k ,.x r e e f x k 1 f x x x ,.l u r u r r j x j l 1 r w < r z A G A 5.x f x ,.x k u f k ,.x f x ,.A x A A A A A A B B A x x A A A x j f f j B x k f j ,.x d e a x m k 1 f x j h h r $ $ % = r k f f f f r = > < f f h g h f 1 f x k e % q k m k < < f j h h j j j h j x A h g h A B j h x x x x x x x h 1 h x f < > ; f x f 1 k <.A A ,.x u e r r r f B A x i < < e < f x B j j x 4 f x v j r r r z m a 1 k x B j f h h h g B A A ,.x A A A x x B B h x x x M f f M 4.x r r k >.m f r x 5.A A A x r e y e r k m M x u e e e u m ,.,.A 4.M u f m z u e e d m x r 1 k x x j j j x x x j h f f f f j k f f k z f f j j a r f z r > > r z m d 1 j x h h u > > e q > u x z f k r 9 q e r k k f f a r r x m k e < r x m f 1 k j h x A N h g g h x j j j h x j r 1 f j x j h l f f x x k > > u x z f f x ,.x m k e q q q e k k f k k > # # # e k k i 1 < ",
"3 x v f r r z v x g 1 j h g g j j x N A A j h g g h h x j j h h h x x x j 1 f A M f 1 f m x f < r j v ,.j r e r r 1 i j x j x j r 1 < ; 4 x A h j j r f m v k 1 r z x f 1 f x x h h x A A j f f B x h h f f f h j l j x x x k < 1 k x r < r k j f 1 f v A A j a r r r f x x j j c x f r f f f x A A A g 1 j A x f 1 k M x f 1 z x j j j B B B A A B B x h g h j h h c c j x x j f r f m x k d k j j f , f x x A z r r r e u j x j h h l r , r r r z ,.6.,.j f x ,.,.x r k ,.6.j f j x c A A A A A A B A A B B j j x A j f f x j j x z r f ,.m f r d x m f , f j j f 1 = $ % $ e f f f l f 1 1 = < > = a g 4 h f , 1 j j u < r x x k < < f h h h h x x x A A A j h x B x x j h f f j h j x g 1 g c j r , 1 j x h 1 f B ,.4.x r e u r r k x x j B x r > < < 1 h B x j x f 1 j x j f r a x x 1 < k j j f g h h h x B B A A ,.,.B A c A A A j j j x x f a x 4.m k k m m m f 1 j <.A ,.j u y e q r k m x j x x r e r e u x ,.,.,.x r f M x k e r j m x , , k j h f g h h x x h f f f r f f f f f f z f f j j r < f z k < = d m z u , f j j f < q q q q r k z f r f k e % > e r f f k f 1 1 x x z k u z x x r 1 f f g x A B B h j A A x j j j j j f a a h x x x x f u x 6.x d u k j z f f x ,.M z e e q q e k k r f k k r > # # $ r l f 1 < ",
"f x c x h h x A x g 1 j A c h h j x c c j j j x j j c x x x x j j h g h f 3 f B ,.x l x x j f 1 r h x j a < e r < 1 f j j j j x j f < , 1 f x x x j a k v x x z j x j f r f >.,.h h z x h f g x A B h j x h 3 a f j x A x f d < 1 k x f 1 f j h a 1 f x x j d r r r f x x x B j c A j a r u u f x c A g 1 h A A x h x A x a 1 f j j x x x j j A A B x c x f f f f x A A A j f f k u k x x x x x x h f , f j x j a r r r u k x j j j j x f r r r u f x A ,.h f x ,.5.,.x A 5.A j r j x c 5.G A A G c j x A A A B x j j g f j A j j x k r f x x x k k x x d < f l h r = $ % O > u f 2 f f f 1 i 1 < > < 1 a f j f 1 r j j j l j x x k r r f j j x A c x A A x j j x x x j x x f f 1 f g j B g 1 g c B j f h B x h 1 k ,.x x d r u u r f x x j N B B j r < < < r j B B x f a j j x x h h x k 1 r k j h g g j x h x B A A ,.A A x x A A A A x j x ,.x k f x ,.<.,.,.,.m m k r x x A x k u u e r k x B x x x m z u u r r k m v M x d f m ,.x k z v M k > r z j x j h j j x x h h j f f f f f j j k f f k x z < < f z k f f l z k r , f z k r > q q q r k k f r r f l k e > q q r k x x r r j x x x j x x x f 1 f f f j A A A A A A B h h x j h h x h f j x j x x k u x m m m x k j j d < k m k u e e y e k x k r u a f k e $ # # > u u u r ",
"4 x B A B j j j x g 1 j A c c h g j c j j j j x j j j j x x x x h g g f f 1 f x x B B >.x f f 1 r k f r < < < e a j h g g j j j x h 1 ; , 1 f j x z r f x x x x x j j f 1 f x x x x g f f j j B B B h h h j f 3 1 f x j f r r = < f k f j h f g a 1 f x f r r r r u x A x x x x x j A j r r r r f c A g 1 h B N A c A c j f 1 f j h x x j j x j j B h j x j h f x A B A A f a f f r f x j h x h h h r = 1 f f r r r e r j x j h j x j j x j u r u d f x ,.f f x A A <.A A A B h i j x x j A G A c j j x B A A A x j h h j x x x x j f r f z x x ,.x l k a < f j i = O # O > r a f f f f f 1 i f 1 = > > 1 r f f 1 1 j B B x j j x k r r k j j A A c c x j j h j x x j h h x x j f h x x j f 1 f x x x x j j j f 1 k ,.j u u d r d j v x j j j j j B x r = = < 1 j A x f 1 z j j j c j h f 1 1 k j g f f j j j x x A <.A x A A v c A A x x x x x m f r x >.A ,.<.x x x f r z m x k d u e r k ,.x j x x j j x n u r r r k j m z r k x j x x v A x k e r f j x x j j A B h g h x j f f j x x x k f a f j f < < d f f j j j k f e < f f r > % % % e d z f r r a f f k u e % q e u k x f r k x x x x j j x r r j j g g x A A j j j g g h x h h h j j j j x j f f u r k m m x x f f k e $ u k r e e q e u k f f u r r f f u < # @ # O > u r ",
"4 x B A N N j j c f 1 j x x c j g g j j j j h h h h j x x x j h h h h j f 1 f x B B x j h j f r f j f < e e < 1 j c h g g j j j j x j r < < r k x k r d j x j j x j x j r f x x A A x h j x x x x x j h h j x j f f z f 1 f f < < f f h x h g h f 1 f x f r r r d x x c A A B x c x A A k r u r f x A 4 1 h A N A A A A x f 1 f x g j A j A A x c c x j j x j j B A A A x f f k k r f x j h j f h h r , 1 f f r u r r k x x j j x x x j x x l r r d d j x j f x A A A B B B A j f j <.x h j A A A A A j B A B N j x x c A x x x x f f r f j x j x x j j f , f x r = = % $ r k f f f f 4 f f f f f > O $ < 1 a f ; r j h h j j j x j r f x j f h x x j h g h x x j j j j h x A A x x x x j f 1 f x j j B j j j g 1 j ,.k u d d d z v A x j x B B B A ,.x u = = < f m x r ; f x h g h j j j a 1 k x h h B x x x B A A x x x c <.A c A x x x c x x M f r x <.<.B B x x ,.k r z M z d d u r k x A B x B x x x x m k r r r r k M z r f x x x x A x j z d r k j x j x B B j f g j x j f f x x j f f k f a f f e e d f f k k k z f r < f f < > > $ < f z f f f f f f f k k r > % q r f x f r k x j l j j x x f f m x f f h x h h h h f h x j h f h j j j f j l f x k r z ,.x x x j k f r r k k r e u e r z k r f f r f f f f f < # @ + $ r u ",
"4 j j N N j j j x f 1 f j h j x g 4 4 j j j j h g h j x A x f g h x h h h 1 f x B x h j f j k 1 f x d r e < r k j h h g f j j j j x x z e < e d z k r d z f f h h j x j 1 f x x x x x x x x x j j x j h f f z j j f f f f f f < < f f h g g g h f 1 f j d u r r j A x x A A A A A A x x x f r u a z x g : h B j j c A B x f 1 z x h h j c c A A j h x h h x j j A A A x h j x k f 1 f j h g g f h f r , f l r r e 1 k x x h x x B j x x x x x j a a d f x x f j A A B B B B B j f j A B B h j j A B B B A A N j j j x A A v x h h j f r f x j j x h j j i , f j i r > = r f f f f 1 i h g f f f f r > o O < a 1 = 1 f h h h j x j f r r j j f 1 f j j j h x x c A A x h j x x x x x j j x f < f j j j j h j j f 1 z m k u u r k M x x x A j j B A A A m x r $ > r k z ; ; f g g g f g j j r 1 j j j B B x h h x A A j h x A A B x x x x x x x x x d r x x B x j j x x k r x m k d u a k x x x B x j h x ,.M x m k u r r d x x r f x x x x x j x k r d z f f f j x j f f l j j h k k f k f f z x f a a k e < d d 1 1 a k f f r < a f r r r e f z f f f k f r f k f f f r % % e u f r r k j h l j x x x f f x A h f f f f g h f f h h j h f f j h f h l l x j f < f x x x j k k k r r k k r e e u k k d f k i i r f l f f u q # @ # > u ",
"4 x j j j j j j x h 1 f h g j x j g j x h j x h j h h x j j h h x x h h z f k A A j j j h x z 1 f x k r < < f x h j h g g h j j j j x x f 1 r a z z r k j f h x j x B j 1 a x A B x v x j f l j j j j j f f f f f f f j z f f < r j f g 4 f g f f f z x d r r k v c B A A A A x j x B B A x f u f z x h 3 j A j j c c c c f 1 j A j h j A c A c x x j h h h h c A x h f j c A x f 1 f j x j h h j h f 1 f j r r < d m x x h x B x x B B B j A A j f f f x x f x A A B A A B B x f j x A G A j c G A A B A B x x B h j x A G x h x x f r f x j x j h j j d < f j r > < r f f f f 1 1 f h h f f g f k f = O < f f 1 r f B x j j x x k r r j x f f h z h x A c x x x x j x N x j x j h h j x f r f j j j j j j x h f j m k d d k x ,.c x x x j h h j j j x x z < > e f k r r j f h h g g j z 1 1 f k g f j x f g j x x j h B A B A A x x A v x c x j f f m x x B x x ,.m k f m m k d s k m A x x x x h h j j j j x m z u r d z m f k 6.x x x j j x z a f z f f f j j f f f j j j j x j f d f x j j z f f k e e f f r f f k f f u 1 f f 1 r d k j f f f r f a f k k f f z k e % e k k a r z x h j j x x x f f j A x j f f k f h j h j j B j g f f f f j x x x x k u f j j x z f j z d r k u e r k k k r d d f k f 1 r u i f k d w @ # e r ",
"4 x j j j j j j c f 1 f h j j j j x j x j h j h h j h h j g j x x x x j f r j ,.x x j j j x k 1 a x f < < f h h j j g g g g h j j j j h j f 1 r j j r f x j h h h j B k 1 f x x x x h x j f f h j l j j f r r a f h j j j k r , r j f 1 f 4 4 g f a k x 1 1 k x c j j B c A x h h j B B A B j f r z v g 4 x A j j c c A c f 1 x A j j j A A A h j x x f f g j A x f f f x x c A k 1 f x j j h h h x f 1 f f a 1 a x v x c x x x A x B B B j B A x k r f x x f x ,.A A A A B >.j i k c A A A x x G t.A j j j x B x h h h B A c x x x j a f x x h h h j j u , f j r O < f f g f 1 i 1 1 f h h f g g f f r = = f f 1 r x x x x j h j j 1 r j j j x x h f j x x x h f f j j j B B j f h h x x f 1 k x x j j h x x j f z x f u k x x x j x j j x j h f j j j j j k < = d k r 1 j x h g g h j f 1 ; f f f g x x j f f j j f j B B <.,.x x x x A A x x j f f m ,.x x A x v ,.k f x 6.f r k ,.M B c x j h h h j f j j x x x k r d m m f z ,.m x j j x m x a f z x x j h h f f k k j x x x j f f f z j j x j k k r > d f f f f f f f 1 1 f f = ; k z f f f 1 1 1 f f l f 1 r f f k e < f x a r k x j j j h x x f 1 j B j h j k k f f j j j B j h f f f f f h x j x x k u k k f k k f k x d u k u > r k z k d r r a f u < < w r 1 r r e O # r r ",
"f h j j j j j j x f a f x c j x x j g g h h j j h h h h g x j B x x x x z r j A x x j j x x f ; f x f 1 r j h g j j g j g g j j j j h j x z a a j j r f x B j h x x j f 1 f j f f f h j x j f f j j j k f r i k j B j g h z r < 1 f f f f f g f r 1 k j r f x x x c B B c c B j j x x j A A A f a h A h a j A N c c V B j f 3 x A A A j x x x x x x c x h h x x g f f x x j x x f 1 f x x j j j j x f 1 f j f 1 z ,.A x c x x B c A x j h c B B 6.x f f M x f x 6.<.<.A <.A B f i j A B A A B j c A A j j B B B x j f j c A A x h x x a f x x h j x z f u < f j r , f f f g f a f f 1 r f j h f g g f f , < f f 1 a x B x x j j x j 1 1 g h j x A c h f h A c g 1 k B j j A B j f h B x x h 1 z v j x x j x x f a x m f f j ,.x x x j j A A A x x x B x x x x a 1 f x a r z x h g h x j r < r f j j j x A A j h j x j x B A <.x h h h j A A A A x f f x ,.B B <.B v ,.j f m m f k m 4.,.x A x x x j x x x j j x x ,.x d d x m f k M ,.x j x x x k r f ,.5.A j h h h j j h j B B x j j j f f h j j k j x u < f z f f f f f f 1 1 f f 1 f x h g g f 1 r f f f f 1 < r r f z f r k x f r k x j h j x x j d r j B x j x x j f f f f B A j x x f f f f h x j j x k < k z f u k k k k r r k u r u u 1 u f f f f d u r r d u r a a r r r d u ",
"f f 4 j j j x h f f r f x j c c h g g j j h j h j x h f j A B B A B h h f 1 f j x x j x j f r 1 f x f f f j h g j j h h j j j x A A j h h x f a f j r f h h h h B B f f 1 f j f 4 f h j j j f f j j l f i f k k h h j h 4 f r < , 1 f g 4 g j r , 1 f f f x c x x x B B A A j j j j x A A A A c h j x h a f h B j j A x f f 3 j 5.A A c j j x x x j x A x h j h f k j j j j j h f 1 f f h B j j x h 1 1 f x f h x x x x x c B B j A A h h x x B A A x j A x f k m 5.<.A A x j f r j A A A B B x j j x j j B B B j h h x v x v x j j z a 1 f j j j j f a r < r f f f f f f f f f f f r 1 f f g h g f f f 1 1 f f 1 1 f j j h j B j f < 1 g g j j N B x f f h x h f j B x B B j j h x j x v h 3 f j x x x B x f f a z ,.x x v A c x j j A A A c x j x B A A c x j f k z r 1 f f h h h f f 1 r 1 f x h h j x A c h h x x x x B x j h j h x x A A v x a f j x B B B A M j f f j M j x ,.x v x x x A x h x x x j j x x x x z k x x d d k k x x x m x f r f x A A B j f j x j j j l l f f j j j x j j j j j j k r r a f f f f i 1 1 1 f h f j j h h f f f f f f f r r r r r a f f f f f r < d f h h h x j f r 1 k c x x x x x j f f h B B j j j j j f h h j j j f r = d f k k k k u e > < k k f d u r u d z x z f r r u r r r f f k l k u < ",
"1 f 1 f j h j r r f a z x j j h h h x c h h h x h g f j x j j B x j x j f r r f h x x x f 1 a 1 f x j j j h f j g j j g g h j B h h g g h B j g h h 1 f f f h B x g 1 f r r f g 4 f h j j j j f f k f f f f f f g g h f f f r < r 1 1 g h f f 1 1 r f j j B c c x x j N G A B B j j A A V N A A A x x f 1 f f h A x x f f f f x A A A A x A j j j j j h h h j h h j x j j h h f f r f a a j x x j 1 1 1 f j x A x j j x x c A B A A A A j j A A A B A A A x f f j x A 5.x f f f f j A A A x A A A A x j A B B x h h x A A j x x j h j d 1 a f h x f 1 r d , r k f g f f a 1 1 1 f f r r f f f f f f f f h g f f 1 ; 1 f l j x f f r < 1 h j j j A B A c f 4 g h x x j j N B x j x j h x A h 3 f f h c x x f a f f h A A A A B A A c N A A B h j j B x x x h h j x x j a 1 f 1 f x x f 1 u f 1 f x h f x x B j j h j x x B B j j v v x x x A A v j d f k f x ,.A m j f f f z A A A ,.x x h j B A x j j j x B B x x x A A x x x u u u u k x x x f f f f j v c j h j h j j j j f f f f f f z f f f f j j j k r r 1 1 j j f 1 < r r f h f f f h f g f j f a f f f z k f f f f h h f f a 1 r r f j j j f f f r f A x x j j x h h j B x x j h j j j j x x j x x f r r u r k m x u < r r 1 k f f k z k f a k k k d u i u 1 r f f f f f f r < ",
"1 f 1 : h x f 1 f a r h x j g g j j c j h j h h g 4 g j h g f h h g j j f 1 f f a x v h 1 f k 1 f x x x j g 4 g h j h g g g g g f 2 4 g h x x j j h 1 r h 1 1 x h 1 1 f 1 1 f g g g f h x x h f f f f f f f f f j g g f f f r < u f ; 1 f 1 , 1 k 1 1 j x j x x x h h j x A B j j c N j j V A A A B x f 1 f f 4 x x f 4 f f f x A j j j x x x x j j h g g j j 5 h h h x f g f j f r j f 1 a x z 1 f k 1 1 j x B x f f h j j B A A G A B A A A A A N A A A j a z x f x A j f j x f j A x A B A A D A j j N A j g h x c c c x x j h x z r a f a a f r 1 f d = 1 f f 1 f f f f a r f 1 r f j j f f f f f f g h j f ; 1 a 1 1 f j 1 , r r 1 f j j j A A A A x g 4 g x h h j j B x x j x j j x f 3 f h 3 x A f 1 j j 3 f A x B B N N c A j j N j g g j x h g g h h x j x j r 1 k f : f j f 1 f a 1 f j h j j x x j j h f f x B x x x x c x x c A x j f a d l f f x ,.j a f k 1 z A A A A x j x A x B B g h j j B B j h j x c x x k r u k f r f z f r f f f h x h f f h f f k f f f f f r r r a f r 1 1 a h k r < u 1 , f x 1 = r u 1 f h f f f f f f f f f r 1 r f f f f f f f f f j j 1 r f r 1 f j f f f f 1 f A x g g h h x A A B j h g g h h j j h x x j j k r r k f 1 k x r < k f r f f f k k d r 1 r u r 1 u u k f k f f f r r i r r ",
"3 x f 1 f f a j x r r z x h j j h x j j x h h j j g h x h g f f h h h j f 1 j j f f z a f x z 1 f B x B B h g j j h g f f j h g f 4 f h h j j j x h 1 a x 3 ; 1 1 1 g f ; 1 f h h j h h j j f r r f f f f f f g j h f f 1 f r = r j 1 ; = = 1 f f 1 r j h j h h j x x j j j N N j j j j j A A j j c x f 1 j j 4 f f f h x f f v A j j B A x A c c j j j j j h g g h h x g g j B j f x ,.f 1 a 1 1 x j , 2 x x x j g f f j h j A A A A B x x x x j c A A A h 3 x 5.h f f k j 5.A f B A B A A A A A N j B A A j j j B x x x x x f f f f 1 f x f , ; r x x d $ < r 1 f 4 f f h j h f 1 f j j j r 1 f f h g g j x f ; f j a 1 1 r 1 f j f 1 g j j j c c j j A j g j B j 4 h A A x h j A j j x g 3 x v 3 1 f 4 h x j 3 f x j x x c j j A j j j 5 g j j j g f f h x c j x x r 1 x x 1 1 f f f k r 1 h j j z j j h x x j j j x j x x A x B A A x x j z j f f m x f r k f f x j 1 z A A c c A A A A x B B h j B x x j f h x x j x x k r f m x r r r a z z f f h f f h h f f f 1 r f f k f r r 1 f f f r 1 1 f z r < f f 1 1 r < 1 k r 1 f j f f f f f f f f f 1 1 a r 1 r r f f f f h j j 1 r x f 1 r a 1 f x f 1 f A x g j x j c c A A x h g h h g h j j x x j j k r r x x r = < a z f f r f j k a r < < < r k r r r r u u u < , 1 f f f k i ",
"1 x x f : 1 f x x f a z j h j j j h j j h h h h h x j h h f f h h f h j f 1 f x j 3 1 f h j z 1 4 B B N x x j j j g g f h h j h f f f g g j h h j f , r x f , ; 1 g f 1 ; 1 f j g h j j f f r r f f f f g g f g h h g 1 1 f r = 1 f f 1 = 1 f f r 1 r j h h h j j B A j j j j j j g g h j j j j j j j f 1 h x f 1 1 z x x f 3 x x j B B A j j j j j x h j x h g g h x h g g j x f f x ,.j f 1 1 j x f 1 2 x B j x j j j h j h j A c B B j h j j x A A A A h f j ,.A k f x A A x f x A A A A A B j j j N A G A x j j j h h h f 3 1 1 a < 1 j j a r k m x d O = f f 3 4 g g h j h a 1 a j j f r r f f f g h h j f ; r z j f = ; r l j 1 ; g j j j j j j j j j j B B h g j c A h g h j j x x g 1 j ,.j f f h x j f 1 f x j j x j j g j N j j 5 4 j j j g g g x x j x x z r 1 z x f 1 1 f h f 1 ; z x f f f f j j x j x B x j x x x B B A x j h h x x k d x M z 1 1 f x x k 1 f x x j j x A B B A A j j B j x j f f j x h j h j k r a x x j r 1 f x f a f f f f g f h h 1 , 1 f l k f r 1 1 f f f f 1 r f f d < f f f a , 1 k k u r f f f f f f r r f f f 1 1 r r 1 , 1 f f f f h j f r 1 k x f 1 , f j x f 1 l B j j B B j j x B B x h h x x g g j j j x j x j r r k x k 1 1 f h 1 1 r j j f f u k k u r r k f e = < r r 1 1 1 f i 1 f f ",
"1 h h h f g x x f f f z j x j j h f h x h h j g g x j h h h j x f g f k f 1 a j x f f j j h f 1 f x A B x j g g g g h j h g h g g j g g h j h h g a = r k j f 4 h h 4 1 , 1 f x j j j h h f f f k r i f h f g g h f f 1 4 f r < 1 a a f f g f 1 1 , r z g g f j x c A A A c j j j j j V c j j j j j j f 1 f j x f f x x f f f j x B A x j h h h B B j f g x j j h g j h j h h j j f f j f j j x x g f 1 a x B j B A A B A x h h j c A c B B j B A A A A A j f h x 6.,.,.A x j j r j G G A B j A A A A A A A x j j j j h j g f a 3 h f 1 1 f x x x x j f r < r k f 1 f g h h j f 1 < a f j j j f f f f f h h h f 1 < f z g 4 f f g f ; , 4 g h j j j j j j j x j f h x j j h g g h j h x x f 3 h x c A c x h f f 1 f x x N B j j g h j j j j g j B j j j f j x x c x k r 1 f j j f f x h a r 1 f j f f f k j f j j x ,.j f x x j B B x x x x x ,.x k a f j x f f x x f f r f x j h h x A B A A A j h h x x j f f j j j h f j x r a k j x j x x j f i f l j j f g f f f i i f k r r a f f f f j f f f f f r 1 r a f z f f k f d 1 a f f f f f r r f f f j f f f r 1 f i r r 1 1 f x r 1 a j x f f j x k 1 1 j x x A B j h j B A B x h x B j f g x j h x j j k u r f k z x x f 1 1 r r k k f f f x x k f r f k f r w u i k k f f f f f i ",
"1 f 3 f f j j f a k r k x x x j g f h j h x j f 1 f x h g h h j h f f k f 1 f r f x x x f f f 1 f x x j j h h h g g g h j h g g g j j j h j h g f r > r f 1 f j h 1 : 1 1 1 h x B x j h l h f l u = 1 k j h g f g f 3 3 f f a , r r , r f 1 ; ; < = r f f f g f x A B A A A x h j j V V j j j j h h h f 1 f f f v v z 3 f f r j B B A x h g h j B x f 1 1 f x x h g g f h g h j z a f f f f A A f a f 1 f c x B B j j j A A c j x x c A A B j j A A B B A j f j f h 5.4.x j j f f x 6.A A c B B A G A A x g f f j x h h h f f a g x k r a f f x v x f 1 d r d f f f f f h h f 1 1 r f f f j j j f f f f f 4 h f r < 1 1 f h j f 1 3 ; ; f g g h j j j g h c j 1 1 f j h h h h j j j j x x f 1 f f g c 5.j 4 f f 1 a j x B j B j j g 7 j j j g j j N x j h h j x x j j i 1 f f f f x x f r r 1 f j f k l f f k f j x x f u j A x x x x j x A A <.,.f r f f h x ,.x f f f r f B j j x x x B B A x h h h x x f f k l h j j h j k r a f 1 f ,.6.j 3 f f 1 j j h h h g f h j j f r = < f f f j j f f f f f k r 1 u 1 1 z x k r d r = a j f f f f a a r f j f f f f a r r f k a 1 1 f k r e d a f j x j f r r 1 k x x B j h j x x A x f r f x h 4 g j x x j j l f u u d 1 1 j M f , u r ; r f f f k f f j j r r k z k r r i i r r u f l k r ",
"1 k r 1 f z f r d k r k v c j h j j h h x j i 1 1 r f h f h g j j f f f f r f 1 1 j x z r r k f f B B B j j j B j h f g j h g h g g j g g h g 4 f r , r r = 1 j f ; 1 f 1 1 h x j j j j j l x k r < r f j j h f f 2 3 g g f a < r r = r a , = ; < = r f f h f f j B B A A c B x j j N V N N j h j j j f r f f f x x f 1 f f r x A j B x h j x x x j r r r r j x h g 2 f j g f l a r k k 1 a x j 1 a k a f c h c A j B j A G A B c A B A c c x x c j x B A j f x f f M ,.j f x j f ,.5.B A A A A G D G j f 1 r f j j j h f f g f j x f 1 f f 1 a x z r r d r f f f f f f f f a 1 r f f f j h f f f f h f 4 f h f 1 < < , 1 f f 1 : f 1 , f g 4 h B j j j x j r = < r f h B B A B x x j j h f a x f 1 f x h 1 f f r a j x B x B B j j 5 j j j j j j x B B x j h x x h x f 1 f r r f x k 1 r d 1 f x x j x k k f f j x k r r k x x x B x B x A A B x f r f f f f x k 1 d k r f B x x B x x B B B j j j h x x h h j h z j x j j k 1 a k 1 a x x f 1 k f 2 j B h h h h j g j j r > = < r f j h r 1 r f f f f 1 r k < < k k r < u r < f x h f h z f r f f h f 1 f f f f f f k a 1 r k k r r r r r j j f 1 r u 1 f B j h j j B x x x k u < r f f g h f h j h f j k r r d < < f x 1 < f f 1 r f f f j k h l j f f d u r r d u r u r r r u e > ",
"1 k r < r d r r d k r f x x f h h j h j j f 1 r r 1 1 f h h j h g g f j f r k f 1 a f r r d k f f x B j j j j j x x f f f f h g j g g g g h g g f 1 = r u = , d 1 = 1 f 1 1 l h 4 4 h h l x l u w r r e f x x f f f f f g f r = < u > > = O = r < $ 1 k g h h f h x A B x x B B j j j j N j j j h h j f 1 k f r f f a d k f r x A A B B B B B B j a r r u r r h j g f f f g g f a r k k a r f r < a f a f x j j B B j B A A B j c c B j j c A x j h x B A j f x x f j z f k x j f x A A A N B A D G A g 1 r k f f f h f 1 f h x x g f 1 f f < e d d < e r r f f f 1 f f f f f f f f f f h f r 1 1 f f f f f x f < r r = ; r 1 = 1 f 1 ; f g g h x j j x j a r u r < 1 j A B A A B j h h h f r k k 1 r f d r f f r a j j x x j j j j g g j j j A x h j B x x x A x j j f r f r < r k u < d d r k x x x x j k k x l d r u e r k x A x x B x x B x j f u k f 1 a f d r f k r f x x x x x x B B j B B B B A h f j j j j j j j j f < r k d u k a r f f r f j B j f f h h j j f < < r r 1 r k f 1 1 f r r f f < < d r < e e % < s r < f x j x x h f f f f h f 1 3 f f f f f r r r f k k 1 < u r 1 i r 1 r k r 1 j B g f h B B B x k r r r r 1 f x h g f f f j j k u r d r < e r < < u u r r r f f k f h f f x k r e > e d u 1 r r r < < > * ",
"r k r > e e r u d k r f f f g h g g j j u < w r r r < f j x j f g f h x f 1 k f r r r e r d k f j A B j j B j j B B j f f f f f g h g h h g g f z a = r d < = > > > r r 1 1 f g 1 1 f f k k p w r u w q r f x j h f g f f f r = r u > % $ O = r < = f j h g j h f j x x x x B A j j j j j j j x j h j f r k d r a a r d k f i j B x B B A B B x f r r u k u u f f h h g h f g h f r k k d a r e e r f a f v x x j j j A A N j B A j N j A A A j j j x x x h f x x z k f d f x j j B 5.A B j j G G B h f u u k i r f h f f f h h h f r r f f e e e e e e r 1 r f f r f f f f h h h h f f f f f f f f f j h f j f < r d < < < > < 1 f 1 1 f g f f h h x j f r u u r r r f j B A B x h g f x f a k z r r u r r k k r f x x j j j j x j g 4 j j A x h g h j j x x x j x x f r k r < < r r r d d r j x h j h x j x x u r r u e r d k x ,.B j j j x x x f d z k r r r r d k k r f x x x x x x x j x x j x A x h h j j x x z f f j k 1 u k f u r r e d k r f x B h 2 2 f h h f < < r r r r r f f a f k f 1 a a < e k e % e e % e a e < z v j j f f l k f f j g f f f r r r r i r f f f f 1 < d u e r e < f l i 1 z x g f f j x x j f r u d r r a x j h f f f j j k r u z u > > > > < r u r < u i k k f f f j x k r < e e u f r r f f u e r w ",
"r k e = < e e r u d < r f f f f f f f r < e e r r r r 1 a j j f f f f j f r k k r r e e e r k i f x x g g x B N x j j h f g f g 4 g g h x h f f z f , r d < > q > % < r 1 : f g f f f j l u r w r e q q > r f j x x h f f f r = e r % > % $ > < < = r j x B B x x x x x j h x B j j h j j j h j h f j f r k u r r r u r k f r f j h j x B A x f u u u u u u f r f f j x h h h h f 1 k z d r r e e e d a f x x j h j j j B j j j c c N G D G x j j j x x x f a x z f d d d d x j f x 5.B j j h x x h f r f k p f d r a z h h f f f f f 1 f f < e e e e < r < a f f f f f f h j j h h f f f f f f k f h f f f f r < r r e e e e < 1 f 1 1 f g 1 1 f j j f r r r e e e e 1 f x B x j h h j x j f z k r r r r r d d a f x x B A A B j j h g j h j f f h j h j j k f j x x f r k r > e e e r u u r f f f f h j x j u e r r w q e u d f x >.j h j j x v f r k f r r r r u d k r d j j x x x j j x x x h h h h f h j j x x k a r j k 1 f k r e r r e r f r f x x f 2 f f l i , < r r r r r 1 1 f z k f f f r 1 < < a e % q 9 % q e e < f j f f f f k f f f f f g g f r ; 1 i f i f f f r 1 < u r e e e < r k f 1 f j h f f f j k a d u r r r r r f x x k k f k j f r u k r > q e < > > r < r k k k l f f f f f a r r e e r i i a k k u r r q ",
"r d < = e e < e u u e d j z f f f k r > e r e e e r r e r d f f f h f h j r f f r r r r e r k f f j h g g h j B B j j B h g h h 4 g g h x h g f f f ; r u < q e > % 1 a 1 1 f h h l x x i e r u w 9 9 q e e < f j x j f a f r > e < $ > % $ > < 1 = 1 h j j x A A x j h j x j j x c N N B B x h g h j f r f r r r r r r k k r f h x B j B x f r r d u r r u f d f a h x j h j j f r f k r s r e e e f d f z j j h x B j N N j g c A B A G A j j A c j j c h a z k f r a d d k k f x A j j j x j h f d f f f f f f r 1 f j h f 4 g j f 1 f d e e e e e e r 1 a f f f f f i f h x x j f i a k k f i f f f 1 f f r 1 u r < e e r < 1 f 1 1 g g g f j f u r r u u e > > e e r f j x x x B A x j f z k r a u r r d k f f j x A A A x j j B j j j j h j A A x j h f f k x j f r k r < e e q r u u 1 i f g f h j x f < r u r e q e d d d k j x j x j x x f r k d r r d r r d d r f j h x x j f j x x A h g j j f j j B x j f f f j k 1 d d e < e e e r f r r j h 4 f h f i , > < r r r r r r 1 r k k f f f f r = < r > % e 9 % e e e < r f f f f j h h f f a f f f f r 1 f f f f f i r r r r r e < e e e r k f 1 f x x h f k f d r u k u r r r r u f f j x j f j j u r k e > r e < e e r 1 k m x k j j k d f f r f k u r < r k f r r u r e e ",
"e d < > e e e e d d r k j f f f k r > e e e e e r r r r e e r k j f f j f 1 f f e r r r e u k 1 f h h h h h g h j x j j j x j h g f h h h h g g j f , r u < q q > > e a 1 1 j h g j m k e r r r e q q w e e < e u f f f f f d = > < $ % % $ > r r ; 1 g g g h h h j h x x c B B c c A A A A x g g h j f 1 u u 1 r r e r d f r f x x x B x f r r r r u u u u f f d r f f x x j j f r f d r a a e e a f a f z g h h h j B A A A j j j B j j j j B c A A j c h 1 k k u d r r d k f f j A B B B x f r r u k f d f u r r 1 1 f f f g j B f 1 a a < e e q < e a < a j j j f i i i f h x x f r a f i r i f f f f f f f 1 u d < < e r 1 r f 1 1 g h x A j i r r u u r r < > e r r r f j A B B B A j f j k r r u r e k k r f j x x x j j j j N A x j j j x x x x j h j j f j x f 1 f u e q e q e u r , f j h f j x k r r r r r e q e u u f f f x B j x x x f a k d r r u r r d k r k x j j j f f f x A x x j z z j j j x j h f j f k k r d r < q e e e r d 1 1 f g g g l f , < e w w w e < r u r < 1 k j f f f f = = r e % q q % e a < > r a f f l f j j j f 1 f f f f f f f f f f f 1 f f < r u < > e < < 1 f f 1 f x h j x k r r u d d u r r r u u r r f z j j j h r r d e > e e e < r r 1 f m x j j j k f f a a r f k r 1 r u r r r < w r u ",
"e u r < e e e r k k r k j f h j r > e e < e e e e w r r r e r k x x j x f 1 f f r r u r r k k r f x x x j j j j j x x j x x f f g j h f f j f g j a = r d e q q < < r f 1 1 k f l x k r e u r r w q w u e e e e > r f f f f f < > < % % > $ > r r i f h h x j j h h x A A A A A c A A c B x h h h h j f 1 f f r r r r u k f f j A A B B k r r u r r r r f d u u u f r f j x B x f f j f d r a r e d z r f f f h x h x A j h B x g j c x c j B B A c x x A h 1 f d r u r r d k k f j B A A B j f r u u f f f d u r r r 1 r a j j B B g 1 a a e e r e > d k < r j j f i f f f f f h h f f f d r r f f f f f g h f 1 d d e e r r r 3 f 3 1 f x v j f r r r r r r r u r r r r r r f x A B B A x g j k r r u e r k z r f x B x j j j j j j j j j j B j B B x j j x x g h x i < d d r q q q q d r 1 k j h j x k u u u u u r r r u r u k d a z m x x A x f f z d r r u a r k k r j A j B A x j f v ,.A x x f j x j f k x j f j h h z r r r < e q e r r k r r l h h h f r w w r < > < e e e e > > < r f j j f f < = u r > 9 q % e k r > u k f j j h j j j f f f f f f f f f f f f f f k k 1 e u e < e e e r k f 1 f x x x x u e r d r u u k u u d r r r r a j x j h r r k d q q e e < u u , i j j x j f k f f k f r f k f f r r u d r r u f u ",
"< k d < < e > u x f 1 f k f l r = > e e < e r e q e r e r r r r k x j j f 1 f k r r r r r z x f f x x h h j A B x x j h h h g g g f h g g f j h z a = a k r > q > < f f 1 1 j j x f r r r r r r w w w w e e e q q > r f f f d < e r > % % $ = r r 1 l B x x A B j x A A A B j j c c j j j h h x x x j g 1 f k r r r r d x j f j <.<.B f k d u u u r r r f f r r f d a r f j x j f f j x d r r e a z z r f g f h h h x x f g x x h h j A A x x B A x j x c f 1 f k r u r r d x k f j A <.<.j f u r u u u f f u r r r r r r 1 f j j x g : f f < q r e < f f 1 r f f 1 f h k j j f f f h f a r d f f f f 1 1 g j z r d k r e r u r f g a 3 j x h f r u r e r r u r r d u u r r r a f A G A A x g j j r r u e d x z r f x A A h h B c j j j h j j j j B B j j x j j f h j r < k d e e q > e k r < k x j x k u u d u u d u u d d f f d d d d k ,.,.x x f f x k r e u e d x k r j B x x A ,.x h x A ,.x h j x >.j f f j j j g f j k r r d r q w e r k k r 2 l x j f 1 , r r w e < < e e > # % q e < r f j j f < < k d q q % > d k r < u f j j j x j l f j k f f f f f f f f f f f f k k r < d u < e e < f x f 1 f x x j d r r r u d d u d k k u r r r r r f z x j r r j k > > q > r k p , r k j j j f d f f f k f f k f k f r r r r f k f r ",
"r z k r e e < k x f r k k r r > > e w e e r w e e r r r r r r r r u k x j 1 f x d e r r r x x f f j x h g g x x x h h h h h f h f g h j h h h f h f ; f z d e e > < k f 1 f j l u r e r r e e e w r e e r r e e r e > r k k d < r k r $ % % = f r = f x x c A c x x A B c c x x x j j j h j x j j j j g 1 j j a r r r k m j f x ,.j f f f k f d f f r r f d r u d r d u r f f j f f x ,.z r e r f x k 1 a x x h x N j B j x A A x h B B c x x x j A B j x j f j j a r r r f x j f j ,.x j f f f k f u u k d d u r d a r d r r r f j f 1 f f r < e < 1 k f ; 1 f h f j f f j x f a f j h a f f f f j k f r f f k r d x k e r a r f x f 3 x x f d d u r e e u d u u u u u u r d d d j x ,.5.x f x M d e r r k M z f j ,.A A j j c A B A j j x j j j A x j j x j j j j k r < k d e e t % r k r < k m j f u u k k u u u u k d d k f u k u u u z m ,.M f f m x d e r r k M k 1 x A B j x x x x x j x x x j x z f f k f f f f h x k 1 r k r > e q r j x r f x j f r 1 r u r r r r r w e > > q q q r r 1 d x j 1 1 k k e > % q k k r e f f j x j j l h h j j j j f r 1 f f r r f j h f z r < z k < e e r j ,.f 1 j x f r e r r r u k f d f k u r r r u r r r f x x f i j k r > q > u z k < r z z f f r r d k r k d r u f f k i u u f k k u w ",
"r z j d > < r z x f 1 k k < > > e e e w r r e e r u u r e r r r e e r x x 1 f x f r e r f M x 1 f j j h h f g h h h h h h h h f f h h h h h f f j f 1 d x k e > < a j f 1 a j f e e r r e e e e e e r u r e e r r e e < u k u > 1 k k < # $ r f r = r j x A x h h x B x x h j x x j j j j j j j j j j g 1 j x f r r d x ,.h f x x f r u d k k f f k u r u r r u u f d u r r f x k a x ,.x a 1 a j x f 1 f x c A A A A B B B B A A A B x j j x j j c B j x h f j x f r < r j B h a j x l f f k k f k k k f f d u d i d u d d r < 1 j j 1 f j d < e r r j f ; r j j j x h f h f f f f j h f f f f j j f f 1 f f f 1 f x z r e r f h x f r z h f d d u r e e r u u k u r r r u u d k f f ,.4.x f x ,.f r r f x ,.j f x 5.c c c x x A A N N c j B B h x x x j h j B x j k r < k k r > > < d k r < k x f r r k k u k u u k k k k f f f d u u r r k M x f f m M k r r k x x f 1 j A x j h h x x x f f j x j k f f k f f f f h h j j r r k k r > < f x j 1 f x j r < r r r r r r e r r e e q q q e e r e r f j 1 ; f k r # > u k f r e f k f f f f f f h h j j j f 1 r f a 1 1 a f f k k < r k z r < < f x B f r j x r < < e r r r u f f f u u r u u u u u r r f j f f x x u > > < k x d < u k k k f u r e d k d 1 r r f k k u r k k k u w r ",
"r z x f 1 1 f x x f 1 k k < e e % q q q q q e r r r r e r r r r r r r z x 1 g B B f 1 f B A j 1 f h h x x h f g h j h h f 2 f j j j h j j j h j x f 1 d x x f ; a j j f 1 a j f r r e e w r r r e q e r r r r u r e r < < u u < 1 k l r = 1 k f > = i x j j j h h x x x j h j x A j N N A j A x j j x f 1 h A x f 2 h ,.A h f x x a r k k d k k k d r u d d f d f d r u r r f x x r j A B h f k j h f 1 g x A A A A A B B j j A A j A j h x x c c j c c x h 1 f x x f 1 f v x f f x x k f k k k k k k k i k u u k u i f u e < < 1 j x 1 f x k < < r f j f 1 f x j h h f f f f h z f h j f a f j j h h f f f k f 1 f x v k 1 a j v j a 1 h f f k d u r r e e r d r r r r d d u k k d r k 4.x f j 5.v f f j ,.x f 1 k B B A A x x c A x c c j x j h h x x j j x x k f k r < k x f < < r j f r > k k r r k f f i k f f d u d k k k f f f k f a f m m f f x ,.x f k M A x g 1 j B x j f j x x c x j h j j f j x f h x j h h h j z r r j x f < r j x f 1 r k f 1 r u r < e > < r r < e r e e e > < u r < r f r 1 f j r , 1 k k f 1 1 k j f f j j f f f f f j l 1 r f f f i 1 1 a k j k < < k m k w r j x x f r k x r e e r e r r u f f u k u u k u u k k u r f x k f j j f < < k j k d < u k f k k k d < r k d r r r f k k r r r k k r r u ",
"r f f z f f j j j f < f u w q q q 9 q q % % q e e e e e e e u r r r r k j 1 g B B x h x A A z 1 f x x j x h f h h h j h f 1 f j j j j x x x j j j f ; a x x f f f j j f 1 a j f r r r r e e r r w q q w r r r r r r r > < r r > < f f f f f j f < = f x j h f h j x x x h h x x A c j j j N A A A x x g 1 h A A x B A A B f f x x f f k k d k f f r r d f f f f f u r u u r k x x 1 f x B j l j j h f : f j x x x j j x j j A j j j j j x h j c A c x x x g 1 f x x j h j c x f 3 x x f f k k k k k k k f u u u u p i u r < < < 1 x j 1 f j k r 1 f f j r , f A h g g f j f f x f f h h f f f h j h j x x f f f r f x A x f z x x j r r j z u u k d r r r r r u r r r u r u k k f d a k ,.x f j A A x j x x x f 1 f x B A A A v x c A A j x f g g h h j x x x f f f k e = k j f f f f j k 1 = k k r r k k f k k k k r r d k k k f f k k f f f x m f r x B ,.,.m c x x f 1 f x x h f j x c A A j h j j j j j x x x j j j h x k 1 1 j x x k k j j f 1 r f r r r r r < = = e r w < > e e u r r r r e < r f r 1 f h f f f k f f 1 1 f j j j j j k f f f f f f r f f j j k i r 1 f z u > < k j j k f j j j f r x x r r r e w e u u u f f u u f f f f u u u r f x x f f z k f k k k k r = u f r f k k k e e r f d r r k k u e e e r r r e r ",
"1 f f h f f f f j 1 < k k r q q e q w e e q e e r r q q e e u u r u a j j 1 g B j B B B j x z 1 f x x x j h g j h f h j h f h h j x j f f x x j x k ; r x x h j h h j f ; d j f r r u u r r r w e q e e r r r r r u r > > d u $ < f f f j l h f r = u x h g f h j x x j f f z x A V j h j j j j A B x f 1 f j A A A D A x f f x x z k k k k k f k k k k f f k f d u d d u r f x k 1 f x B j j h g j h : f j h f f f f j B B A j x x x x c h h j c A c x x g 1 f B j A B j x x g f x ,.f f k k k k f u k f k u u u k d r u r e > r x x 1 r f f f f f g j f ; f j f g j x z f f h h h h f f f l h h x j j f f f f d f j x x x x x x j r d x k u u k d u u r u u u u u u u r u k d u d f x ,.x a j A A A A x x j f 1 f x B x A A A j j h h j h f f f g g h x x j k j k k r > k f f h j h j f 1 , x x r r d f f k k k u r u k k f f f k k k k f f z m f 1 z B A B A j j x f ; f j h h j h h x x x j j x j x j x j j f j B B j x f 1 a j h x j l f j f 1 k x d r r r r r e r r r r < > q w e q e r r e < f j r 1 f h f f f h f f 1 r k j j f f h j l f f f f f f f f k k f f f r f f r e r r f l l f f f k i r x m r r s r u u r u r u k f d u u k k r r r r k x k r f x k l j f f f < > u r 1 k z f f r e r d d f k k f r e e q e u u q e ",
"1 f f h g 4 1 f z r < k k r 9 8 9 e r r e e e e r r e e e u r r r r d x j 1 g x N j j j j x f 1 r j x j h h j j h h h h h h f h j j j f f k x x x f , r h h h g g h j f , d x f r r u r u u r e e w r r r r r r u r r e < d d > , r i f h h f f u > u j h h x x j h j j f f f h j j h j j h g g j j x f 1 f j N A V N N x g f x x k k k k k k k k f k k f f f u r d k d u r f j k ; f x x j h f j j f 1 g B j h j f g f B A c x j h x x x j h h x c x c x g 1 f B N N j j j j g f v 6.j f f k k k r r u k k k u u u k k u r e e r x x 1 1 f h f f f 4 j f ; 1 1 f f h j j f a f h x j f f j j j j j j f r r f f a f j h h x B B x f r d j j u k d k k u u d k u u r u u d u u u d d k x ,.j a j A c B x j j h f 1 f B x B A A A j g 4 4 g f 1 f f j j f f l j x k k z u > d f f g j j h f 1 1 m x r d k d f k k d u u k k k k f d f k k f d f x m d r x A A A B j j j f ; k j g g j j h h f j x j j x h j x f f f h j x x h f 1 1 h j j f f f k r 1 k m k r u u r r u u r r r e > q > > % q e e < < f x f 1 f g 4 g f f g f r r x j f f h f f f f f f f f f f r r r f f f a 1 r r < < r f f h f f f k r r x m d r r d k k r r u u u u u r r r r r e e e r x f 1 f x f f f f f r < < r 1 r f k a 1 r r r 1 r k k k u r r r e e r r e e ",
"1 f f g j f i f k r > d k e # 8 q e q e w e r r r r r r e e e q e r f x j 1 f x B j j B x x k r r f f f f f j j x j f f f h j j j j l f j j h j x f , r h h j h h h f r , f m k > > r u u u r r r r r r u r e r r e e e r d k r 1 r f f f f f k u < i j f x x j j j j j j h h j h j j j j h g g g h j f 1 f x j A A j B A g f v x f d k k k k d f f k f k d u r d f f f d f f x f 1 f x j j h h j h j 1 f h h x A A x h B B B B j h x x h A x h j x x v 6.h a g x B j j j x x f f v ,.k f k k k k d r p k f k k d d u r < < r r r j l 1 r f f f f f g f a ; 1 1 f j h j x x g f j j f f x x k x j f f k h f j j a f j j x x j x x j f a x x f u d d k u k k u u r r u u u u u u k d d j ,.j f j x x B x x x j f 1 f B B A B B j A j g 4 1 1 a 1 1 f x j f j x x h j x r < d j f h j g h j f 1 x j r k k d f f f f f k k k k k f d d d k f f f j x f f A A A A B j c x f ; f k f f j j x B x h x h h x j x j z f f h f j j h f 1 1 z j h f f f j a 1 j x k r u d r r r r u r r r e e e e < > > % = e k x f 1 f f g h f i f j r r k f f f x h f f j f f r i k f r r a r 1 f f 1 r r = e k f r f k f k k r r k m u e e r r u r r u r r u r r r r w e r r < r z k r k z f k f r f k u < r f k f f i r k f r r d k k u r r u u u u r u u e ",
"1 f f f f f f f k u < d d > # q q q q q q e e r r r u r w q q e e r f x j 1 h x j j j x x x k r f k f f f f h j j h f f f j j j j k f j j j h h j a = a x h h j h h j i , f m d > > e r r e e e u r r p u r < < < < e > r f f 1 r k f i f 1 1 f u < r k f f f f g h j j x c j j j j N j h g h x x x j f 1 f x j V N j B A g f x x f f k k d u u f f f f k k u u f a f f f f f x f 1 f x x j h h j j z 1 1 h h h x x j h x B B x j h x B x x A A x x x x v x f f x j j j j B x j f M ,.f f k k k k d u u f k k k k u < > > r u r r j f 1 f f f f f i f f 1 ; r f h h j h j c x j f f f f k j x f r a k x x z z j f a j x x x j j c x f f x x d u d u r u k k u r r r u u f k d u u u u f x f a x v j x x x B x f 1 f x B A B B j A A c g 1 1 f f 1 1 f j j j j x x x x u < k j h h j h j x f 1 x j f a k k f u d f k k k f k k f d d r d f a a z x f f A A A A B x A A f 1 f f f x x j B ,.B x h h j j j x x x x j j x x j j f 1 f j h h f f j j f 1 f x f r u d r < < r u u r e e r d u e < > > = < f x r 1 f g f g g f f k r < f f f f j j f f f f r 1 r r u i r r r f f f f k u = e u k f f f f l x r < k k r e e e < e r u u u u u r e r r w e r r r r z k 1 k x f f f a f k r r f j x f i i f f k f r u p r r r u u u p k k k u r ",
"1 f l h f f r f k r < u u > # 9 9 9 q q q q > q r r e e e e r r e r f v j 1 f x j j j x x x k r f j j x j h h h h g h j l f f j j f f j j j j j j f , r x j h j h h j f , f j a e r e e e > # q w r u u r e e e e e q > < f f < 1 k f i i r r r r < r f f 3 f f g h j j x B N j B j j g g h B A A c j f 1 f j B N j j A x f f x x f f k k u u d f f f k k f u d f d f d u r j x f 1 f x B j j g h x f ; 1 j j g j j j x x c B x x h j x A c c x x x v c x j f z B j x x B A ,.f f x ,.f f k k k k k k u d f k k d r r r u u u r r k k 1 f j f f f f f r < , f x x j j h j x x j f r f f f j k r < r x x h f f x k f j j j x B x x x f f x j d u d u r r u k u r u r r u u r r r r u r f ,.j r x ,.j x B x B x f 1 f j j j j j B j j h g f f f x x 1 ; f ,.x h x x j z r r k j j h j j j f r ; z m f a k f d d u k k k k f k f f f f f d r r a z M f f A G V A A j A x f 1 f f B 5.A h g h x x x f h h j j f h x h j j j g h k r f x j h g h j j f 1 f x k r u u < < w r r r r r < e r r < > e e > = f x 1 1 f h g g g f f f < < f j f f f f f r f f i r r 1 f k f r f f r i f f u < > r k k i f k k k r < k k u u u r < e r u r u d u w e r r r e e r r a x k 1 f x k f f f f f r u u r a r 1 f f a i k f f k r r u u r r u k k u u r ",
"1 r f f f f f z k u < u k r w q 9 q q q q q > q e e q q e r r u r r f x z 3 f h x x j B x j f r f j j x j x B x j f h x j i f l l h f f j x l k j f , r f h h h h j k 1 , a k f r r r r e q e e w u u e e r r r e e e > < f k < , 1 f f f f r 1 < < r f f f f f j x j h j j j B j j g g h B B B A A x f 1 f j j N j j x h f f x x f k k f d u u f k k k f u u d f k d r r r f x f 1 f f h j h h j j r = 1 j h h j j x x x j x B x f f f h A c j j x c v A h f f j B x x B x j f f x x f f f k p k k p u u u u u r u u u u d u r 1 f f 1 r f h f f f r 1 1 = r x j j j j j h h f f f k k k k l k k k j x j f f z a d j j x j j x h f r f x x f u u r r e r u u u r r u r 1 1 r r r r r k M f r k x B B x B j f f r f h j x B A A j 4 g g g 4 g h j h f f x x x j h j k d 1 f x x j h j j u r 1 x m f f k f f d u k k k k f f f f k z k f r r r k x f f j c A A A A c h f 1 f x A c A h 4 g j x j j j j x j j h f f f f f g h f r f k f h j j j k r ; f x k u u u e r r r e r r e e e e e > > > e < < i k 1 1 f h h g g h f r < r k j f f a f f 1 r f l j f j x k u r f f i r 1 1 w > > w r u k k l k r < < k k u u d u r r r r u u u r r r r u u r r r r f x k 1 f j j j j x k r r r r r r 1 r a f r r r f k k k r r u u u r u r r r r ",
"< r < i f f k f u r r u k d r e q q w w q q e q q q e w r d u u u r f x h 1 f f h x A x f f k r f x x j j j j j B j f f f 1 f j f h h g j B j k k a < r a f h h f f r < < f j k u r u r r r r r r r w e e r u u r r r < < f d , = , 1 f j f r < < < a f f f f j B x f g f x j j B h j h x A c x c A x f 3 h g j A A j h f f f x v f f k f f r u d f k f d u f f k f u r r r f j f 1 f r f j h h j f < < f z h x j h j j z f j x h j f f f x x x x x A A A h a f h h B A x f f z f j B k f p u u k u u k u r u u f u d u u u d r r f k r r r f f z f ; 1 r , 1 z j j x j j j j k j z k j j f j x x j k j j z j f 1 r f f j x x j 1 1 r f x x f r r u r e r r u u r u r r r r u r r r 1 k M k r u f x x x x f r f f f h h x A A B h g j j g 4 f 4 f h x B x x x j x x k k r f k j j j j f r r r x x f f f d f f f f f k k k f f k f f f u r r r f x f a f h A A A A x f f 1 f c A j A x g j j h j j j f f j j h h j x h h x B j 1 r a 1 f x j f f f 1 f x k r u r u f r r r r w q e e e e e r < < r r r k 1 1 r f h h h h r r w r k j j f f j j f 1 r j j k j k r < r u f f f r u u = # q q e k k p r e < r k k u r e r u r r r u u r r u u r r u u r r r f x k 1 a f j x m f u r u r k x k k f r f f u 1 f k k u r r u u r r r < r d r ",
"= r < < a x f < r r e u r > > e > > e w e q q q q e w w r r u u r r f x f 1 z h f j ,.j f f k 1 f j j j h h h h x x f f f f f f f h f h B j f l z r < r f r f x f r r r < d x l f u r r r r u u u e q w r r r r r r r < 1 f r = 1 1 = r k r < r 1 = r z f f f x B h f f j j j x x x j x x x A A j x x f f z 4 4 B A h g h f f x v f r d d d d d d d f u d d k k k f r r r r f j f ; f a 1 f x h f r d r a j h h f f f j f f f j h h j j j f j x A A A A A h 1 f f f h x f f z j f x ,.f f u u u u u u u u r r u u u u r r r r r f x k 1 r u 1 r k a , a d , 1 f z h z j x j l j x x k k k j l l j j x k j x x f < d f 3 f x x f 3 f a f x x u r r r r r r e r r r r e r u u r u u r 1 f m k r f f f x M f r f k r f j i 4 h B j j j j h h g 1 1 f h j j x x j x x x x u r k f r j x k 1 u u 1 x x f r d u d d f f f k k k k k k f r r r u r r f x f f z g g x A j f f f 1 f c c A B x j h j h j h f 1 1 f h j x B A B B B x j 1 r f r 1 f f 1 f k f f x f r r r u u u u r r e q > e e e r r r r r r r f r 1 r 1 i j k 1 < r r r z j f f h h j k r 1 r f f f r r < < u k a a k m k > # u e > r p r < k u 1 k m u e e r r r u u u r r r r u u u u r u u r f x f 1 f f 1 f d < r k r r k j f k z f f f u r d f k r u u r r r r r u d d w ",
"= u u = = u < < k k < u e # > q % q > e e e > e e e e r r r r r r d f j f 1 j x f f f r f x f 1 r z j j j h h h j j j f f f f f l h f f B j f f z r > k k r r k f r f f < u x k u u r r r r u u r e e w r r r r r e r r < d r , r f 1 , < , 1 u r = 1 f f z h h j h h B x h j h j B B N B j x x x x x f a x j 4 g x g h ,.j f x v f r d d u k d d d u 1 u r u u u r r r d r f j f , k k r r f f 3 f z 1 r x h g g f x x j f f j j h B A x g g j A A A A x f r j x f 1 i f f x j f j x f a f k u r u u u u r r r u u u r r r u r a x f = r k r , r < f j d = 1 k x f f x x j x x l i r f x j k k j j j f f f z f < f x f 1 f f f h x f a x j u r u r r d r r r r e e e r u u r r r r r k x f r x j a d f r f j j r f j 1 1 f B j x c h h f a 3 f h j g x x x x v x x x r r k k < r k f r k u , x x f r u k p u u k k k f u u r r r r r u r r d k x f f x j f f z f f x f 1 f x x c x j j h j j h h j f f f f B B j j j B x x j 1 a x k 1 1 1 f j f f f x f r u u r r u u r e e r < > e e e e r r e r f f 1 r k < = u k 1 r k e > k z f j j h h x f r r f f f f f r > r f r a x x r # > k k < e r r u x k , k k r e e e w r d u r r r r r r d u u r u f d f j f < k k < $ $ r k f < < k l f f f f f r f k d r r u u r r r r e u k f r < ",
"$ r u r = = = u k u r k r # # q q > q w q > < d d e e r r r r r r r r x f 1 f j j f 1 f j j f 1 f j h h j j j j j j j h f f f j l h g l h f i f z r = d z f < < r f l f 1 f x f r r r r r r r r e r u r e r r e e e e > < d u , 1 f 1 , = < d r r = < r f z j j h j x x x j j h h j B B N j x x x x x f 3 j x x f g h c A h f x x f r u d d d d u r r f j f e e r e r r r r f j k 1 f k f r ; 1 f j k 1 a x h f h x ,.x h f j j j j B B f f h h c x B A x f f j x j i r k f j j f z x f f f k k u u k u f x k r r r u r r r r r r f a = r k u r < r x x d < u x x k k j j j x x f r r f k k j l j j j k f f f f 1 d x x f 1 f h x x f 3 j z u r r u k k k u r u k u e e u u r r e e r k x a 1 x M k 1 1 f j j k a f x h j x x N c x x h f 3 f h h h j x h h v A x j k r r z x d r 1 f k k r < k j f r u u u u u k f f k k u r r r r u u r u u x x f f v x j a a h v x f 1 f x x x x j j h j B j j A A x h h j j j 4 f j B j f 1 a z j f 1 r f j j f h x f r u u u r r r e < u k u > > e e > > e < r f f < < d r < r w r k k < = r k f l j l l j j f f r f f k i < r r 1 r f f r > > q k n d > e u k x k 1 k k r e e r w u u r 1 i x j r < r u r u u u f f x a < k x r = > d k r > > f x z f f f f f k k u e r u p k k k u r k k r r e ",
"# r r r r , r k f e < k k e > q > q w w > > r f f d e e r u u u r r r j f 1 f z j h g j j f f 1 f x h j h h B B j j h f l f f f f j h h f f f f f r , r f f r 1 a k k f r f j f w u u r u u r e r l x f r < e e e r e > < k f , 1 a 1 1 r f f r e < < r r f j j f j j h j j j j h f j B B N x j x x x f 1 f x A B g x A x g f x x f r u d d d k d r f A <.j u e e r r r r r f x k r k f z k 1 1 k z d 1 f x h h x x x h f h j z h h x h f j x x x x x x x f f f j j j k j f f k a j ,.f f u d k k u u 1 f x k f r < r r e < < < 1 k f , r u f f k k k f u e k m x j j j j j x j f k x f f f k j j j x m z f z f r a f x j f f x j h f a j j u r u d k p u r r l ,.j u < r u r r r r < d x i r k x k f z x z f k f f x A A B j j j x x h g g f j h g h j j x x x j f k r r k x j f f j x f r ; f x f r r r r u k u r h ,.,.x u r u d u u u r r k x f f j x x f j A x f f r a j x x x x h f h h x x x x j j x h j h g f j x j k r a f k f f j f f f 1 f x k u r u r r r e > r k k k r < q e > q e e e f f < > r d f r w f k u > > f z f f f f f f f f f f r r f 1 r k r 1 f f d r e q 9 e z k e w i k f r r k m r e e u r r r r r f x j f 1 , r u u r d d f j r < f k d u f f u 1 e < r x x f f f k k k r < < r r r u k k d k k u r u r ",
"$ r < < r r r i r < < f k < q q q e q > > u f f f k d r u d u r r r r j k 1 f f f h x j f f f 1 f x B x j j j j j j j h f h f r f f l h f f g f z f , r f a f x z f a f r f j f r r r u u r e u f k k f u < < e e e e > < k k 1 r r ; f x k r r r < r d a a f f h j j j j j j x j f h h B A A B j j j f r f f j A A A j h g f x A f r u u d d d d f x B A B j r r r r r r 1 f x k f z k f x x k f f a 1 f x h x x j f f h f f f f h j j x x x x x x x j x f f k f 1 h ,.j i f f f x m l i u u u r < < r f f f f f r e r r < q < r z f , r u 1 i m l r r u r d x m z f z x j j f k j j k f f k x j j x x j j z f a d f f h x x h g g 3 f x j u r d d u u r u j x x x h r 1 r r r r r e f m f r k f f x ,.z a f f r f x B A A j h h h h h j x B j f 3 f j x x j z f z k r r k f r l m x k f u 1 f x a 1 r r u u r r f x A A ,.x u u u u u r r r k x f f h f x ,.,.x f f k r f x x x x x j j f f f x j 4 g x j x x f f j x h j j f f k r f x x f r r 1 f x k u u r r r < = < d f r r f r > e e e e r e u f < < u r u k z k u u < < k j f f k k r 1 1 r f f f a r r r r f f a r r u r % 9 e r k k k k u r r r k m u e r r r e e r k f f f f f r r u u u d r f f r 1 f r r k m f 1 r u e r k x j f f k k k r < r p r e < < r u u u r r r r ",
"# e $ O r f 1 < < < < u u < q q q 9 # > r f r 1 f f k f r u u u u u i j j 2 f f 1 f x l 1 1 f 1 f x x h j x j j j j j f f f f f 1 f l h f j g f j f 1 r f 1 f x x 1 < d u f x f r e r u u r r k j f f h f r < q w e e e 1 k z 1 r 1 = a z f , e r < d x z f f f h h j j f j x j j f f f x x A B j h j f r k f f x A j 3 f z f j A f d d u u r r f x A x B j j j r e r u r 1 f x k a z f 1 k m k r 1 f r f x x x j h h j x f f f f h j B A j j x c j h j j f a k k 1 f x k 1 f f d j m l i u u r e < a j f g f f j k r r r e q e f j k , r d < r k f < u k r f x m d e d j x f f z f k j k f j j k j l k j h h f r f d 1 f x x 3 1 f f a x x u r u u r r r j x x h j j l r < r r e r r k m k d k d r l m f 1 f f 1 f A A c A A h g g g f x x x j f 1 r f h j h h j x f r 1 k r < k m k 1 r d 1 j x f 1 e r r e 1 f x B B x A ,.k r u u r r r r x j f f z a f x ,.j a k z 1 h A c x x x x ,.x j x j f f f x j B j f f x B j x j f f z a r f k d a d r r x k u u r e e = < u f r 1 1 f u < > w e e r r r f 1 1 f 1 < k m r < r r r k j j j f k k r r f f f f f i f r r f f r 1 r f r > q e e e k k d < r u 1 k m u r r r r e r f x f 2 2 f x f r u u r r r r z d r k r > r k u < d k < u k u f j j f f k k k k k f r w < u k u u d d r e ",
"# e # o = e < > < e > u u e q 9 # # > r f f 1 1 f f h f a 1 r u u u f x j 1 f f r f j f 1 a f r f j h g h j B j x B h f 1 f f f f f f h j f f f j f 1 a f 1 1 k f < < d r a x k r r u r r u k j f f f g k f r > q q w e r j f 1 r 1 = < r < = r r < d x h h j j j j l f f z j j h f f h h h B j h j j f r f f a f j f 1 h j f x A f d d u 1 r f x x B x x j x x f r r r u r f x f 1 k u < r f r < r f r 1 x x h g h x x j j j f f f j x B A c x x j j j x f a k k a r f d r f k r z ,.f i p u r 1 k j f g h j j j j k r e e e e f x k 1 r u < < u r r u d r f x x k d r a f j j j f f j j x j k x x m m j f h f 1 f k r 1 f r 1 f z f f x x u u u r r f j x x j j h j x l r w e r r r k m k k k d r f f 1 r l k 1 f x A A A j h h g f f g j j f f f f 3 f j h x j x k r 1 k u = r k r , r f 1 j A f r r r < 1 f j x x B B B A x k r r u r u f x x f f x f r f j f a k z f z x A x x x x A A A A x h f g h x j f f j x B x B x f a z k u r r r k k r r x k r r r e = < d i r i i r r i r > # q e > e f k r 1 f r = r u < < u r r k j j j l k k f f f f j f f i f k f i r 1 r f z u > 9 e q q r u e < u u r k l r r u r e r k x x l h f f j l f r r e < < f z f r k f > > < < < r u 1 u k r r k k f k k k k i r f k f f f k k d r u u e ",
"# e # o # % > > e e > r d > # # @ # r d r r f f f z f j h r e r r u f x f 1 f f r r u 1 r d f r f j j h f h x x x l f 1 i f f h j f f f f k h j j f 1 f k 1 < u u < r d r r x f e e u r r k j f h f g f g f k 1 $ > e > 1 j f , r r < = < = = r r < a j f j j f f f f f f f j j f h x x x h f j j j j f 1 f f a f f r r z h f x A f d u r 1 f ,.A B x x j j j j j f , 1 u r f x f 1 k u e e e e 1 d k r 1 z f f f x c x x B A h f f j j x x x h f j j j x f r k k u r r r d l f a j m f u u r 1 f j j h f h l f h j x f e e r < r j k 1 u u > < r r u d d r f x x x M z r a x x x j f j x j j x x x x j f f z f 1 a k r r r 1 1 f j f f x x f r u r r j A x x x j j j j x k r e r e r k >.k u k k r r r r r k k a g c A A A j j c x f f f j f f f x j g f j x x x x j r < k d < r u r r d f 1 j x f r r < < f x x x x x x x x A x f r u r u f x x f f x f r a d d d f z f h x x A A x x j x j f f j f f h h g f f x x j x x j a f z k r r r r k k a f j k r r e > < f f 1 r f f f r f k r $ # % % > d z r 1 f r # > e e r d e < k l i r f f k l f f j j f f r r f k f f r 1 f k < # q u e 9 q e e r k u r f k r r r r r f x x j x j j h g h j a e r < < a f f i j k < $ $ = , r r < r k r f f f l k k f i u r u k l k f f k u r u u r ",
"O > # # # # # > q e > r r $ # @ # q r a f f a a a f z j x j d e e r f x f 1 f k r r r r r u k r i j x j h f h l h f f f f f l j x x f f f j j j j i 1 f k r < r r < e u 1 r j f r e e r f j j j j f 1 a f f j f 1 > > > 1 k f ; r r < < < > = < r < 1 f h g f g f f f f g h j h h f x x h g g h x x j f 1 f f r f f u r z j f j A f r r r j x A A A x f f h x x x j f 1 r f f j f r k d e r e e r d k a 3 f f f h h j x B x x x f f j x x h f f f f j j x f r k f r r r r r f j f j m k u r r k j h h h j f r f j j x j a < < < 1 k f 1 r u > < u r r d k u f j j j x x j k z x x z f j x x j j j f f f f f j z a d f r r r < 1 f x f f x x u r r u f j x A ,.k f j x j x x k r e r u k m k d k k r u r r d k k f j A G G A B j x x x f f f f f h x A x x x x c x x f 1 < k d e e r r r u f 1 j x f r , 1 f j B B x x k f j B B A j f r r u r j j f f x k r d d d d f z f j x x B A x x x x h f 4 f f f g g g f j x x x h j z r f z u e e r r u k f f x k r > > 1 f h f f f u < r k f f k r % % % > u k r 1 r < $ > q e e u r w f f 1 1 r f f f k h j f f f i < < d k f r r i r r e e e e e q q e r k k 1 f k r r r r f j x x j f f j j f g g f r < r r f j f f x f < > > > < 1 r < < f f f k k k k f r r r r i f f k f r d k k u u r ",
"O > # % @ # @ % q > > r e # # # e u r a f d < > > r k j h x j a r r f j h 2 f f r 1 e r e u k r 1 j h h j h f f f h j j j h h h l f h l f f f f f f ; f k r > > e e < r r a k a < < 1 f j h l l u = = < f f g f f r = $ ; f f 1 r 1 < < > > = > r , 1 g g 4 g h g j g g j B j h h g j j j h j h x j j f 1 f f 1 r f d r f j f x x a r r f A B x x x k r 1 a x x j x j r 1 r r l k r k d e u y e e r k d a f f f j f f h h j x x j f h B x h f f f f f j x k u k u r r r r r f j f x m k r r i x x h g f f 1 < f x j j x f 1 = < 1 f f , r r = < u r r k k r f j z f f j x k l j j f j j j x j f j h j f f h x f r d f r e 1 r < 3 z f f x h r e r k x j j x k r , r x ,.B x x f r r r k m k f k u r u u u r f k k x A c x j x h j j x j h h f f j x x x x x x x x x f 1 r k a e e e u r r f f j x 1 , 1 f B B B A x f r r f x B j A z r r r r f j f f x k r d k a a k z f j x c j j j j x B B B h f f f f f f x x x x x f f z d a z u < e r e r k r f x k < > < f x g f f d q # > d k f f k e % % q r f 1 1 a < < q q e > < r < i f f f 1 r f f f f k f 1 f k 1 O > r r r f r 1 k k r e u q q q e r k f 1 f k 1 e r f x j h j f < > r f k g f f f 1 e u k m f f j r < e e < < r u > < f f f f f r r r f u r r u f k k u < r k k u u u ",
"O e > # % # @ # % > = r e % > r d r d k r < > > > < r k x x x j f 1 f x h 2 f f r r e e e u k 1 1 f h g h h f f l x B j h h h f f 1 f j j f r f f f 1 r f r % % q > r r 1 r k r = < f j h h k u > # # > r f f g h f r = ; f j r u r > < e > = > < = 1 f g g g g j B j j j j j j h j j g j x B x h j x f r f f r f f r r k z f x j 1 1 f h j x x x k u r r r f j x j x j r < r l k r k d e e y y e r k a 1 h z h h f f g h x x x j h x B j h h j j f f j x k r k u r r r r r f k f x m r < d x x j f j f < < r 1 f j x x j f 1 , r j f , r r > < r r r p k r f x j h h h h j x j f z j j x x h f j x x f f h j z a d d e < e r 1 r f f f x h 1 < d j x x j f r r r r f x B j j j f r < f m k u k d e u k u r k k f j x f f f f f f h h j j j f f j A x x x x x x j j f r r k d e e r r r d k f x x 1 1 f B B B B x f r e r a f x B x x f r < 1 k j f f z d r a d d a k j f h A x j j h j j j B A x h f z f z x B x x x x h j x a a k r e e e r u d r f x k > > d j j j j i > % 9 q q d k f f u e > < f f 1 1 f 1 > e e q > < < < i f f f f f f f f f f f f f f f < = < d u r r r j k u u u q q e e r z f r f j 1 e u k x j j f r r > = < f f f f f f 1 , r k f f z r < < e < r u u = < f f f f r r u d f k r r r k x k r 1 r d r f k u ",
"$ r q # % @ # % > > = r u < r d a a d r < > e r q > e d z j j j h 4 g B h 1 f f r r r r r d k , 1 f h j h j j j j f f h h h h f f i f f f f f f f r 1 d f 1 % > > > e r 1 u k 1 = r j j l j k e > q % # > > f f f f f 1 1 f f 1 r r = e q % $ e < = 1 h h g g g j j j j j j h j j j g g g f f f f h x f 1 k f r d r r r f z f z z 1 r f j h j x k r r u d u 1 f j j j j f , 1 l z a k a q y y e e r f 1 a z j f h h h j x h x x h f x x h g j x x f h j x f r k u r r r r r k k f j x f r x B h h k k r < r u 1 1 f f f g f f , 1 k f , 1 r e e r r r u u r f x x x x h h x x f f j x j x x j f f j x h j h h j d r d r e e e < r f a 3 h f : r j x x x f r r r r r r u j x h x j f 1 a x l r k u e u u u u k f a f j h j h f j g h j h f j f f j x x x x x x x x x k 1 r k k r r u r r k k f B A g g j N N B x f a d u a d f f j j j j i < 1 k z 1 a k d a r d d r z z f h x x B x j j j j B x h f f f z x x x x x x j j x x a a k r e q e r u f u r x k < r k j h k k q # 9 e 9 % q u r r r k < , f j r 1 f 1 < r q q e r r < i h f i f i r f 1 1 f j r 1 f k d r u u r < < f j f r d u q q e e u k f 3 h j 1 r k j j j k u r r > # = r f f g f j f , 1 f f f f 1 > < e = r u r O < u r f k a f k f i f d r r k k k r r f r 1 r f d ",
"> r q @ # # @ % e e = u f r r a a f r < < e e r r e e r a z h x h g g B h 1 f f r u r r r k k , 1 k h j j j j j h 2 1 f x h f j f f f f f h f l j f ; r f < > q q > e r r u k r r f l j j k e e e e e > % > < r 1 1 f f f f 1 , 1 < = > q % $ e r = 1 j h 4 4 4 g g j j j j g j N j g g g f g g f h x f 1 f f 1 r d r r z j f h j f f j j j j k d r u d f r u r f f j j j f i j x f k d e y y e e d f 1 a h h x x h h x x x c j f f j x h g h x x x h h x f r k k r r r r r k j f j x f x x x h z f r < r k f 1 1 ; 1 1 f f f 1 1 f a ; r k e e r r r p k r k x x x x x x x x h k x m x j x x j f f f x x x x f r r d r q e e < r f a 1 h g f x c x x f f d u d u r r r f j x j j x f g x j u k d r u u r d f f a f f h j j j j h j j j f f f h j x x A x x j x x x x u r k k r r d k d k k f B N 5 j j j j j f f d d k k d d a f j j j h f 1 f k 1 r k d r r a a d z z 4 h x x x B B x j x x j f f r 1 f j j x x x j j j x x r a k r e q q e u k r r k f r f f f j k e % q y u q q q < r r f f r 1 a h f 1 i < < r r e < k i 1 f h f f 1 1 1 r 1 f j j f r r r r f k r > > r f k r < d u q q e e u l f 1 z x f j x x j f u u r e r e > < r f h g f l f f x j r f a > > > < 1 u w O < d f k k f i f f f f f u r f k u r k k f r a f u ",
"# e 9 o @ % # % d u = r r ; 1 a d r % % > < > r k d < e r a f x j j j j f 1 h j r r r r r z l 1 r x j h x h g g h 4 i j x x j h j j h f h j h h j f ; r k e q q > > u r < r j j j j j j f e e r e u k r # > = , f f f 4 h h 1 , r d > # > $ = r r = 1 j f 4 4 g g 4 j j j j 4 g j j g j j x x x x h j f 1 f k < r d r a j h 4 f x x x j j j k r r d f k l u u u 1 r f j B j j j f r k k r t y e e k f 1 f x j x j f f h x x j f 3 3 f j h f j j x j h f j f r k j r r r r d x j f f j x A x j f r u r e f x f 1 1 < , 1 f g g f 1 1 r 1 f f r r u r r k k r f v A x x x x j f f x m z k x x x x h f f h j x j f r d k u > e e < f j a 1 h j j c x x h f f d r z j r r u r f j j j A A N x f r k k r r d u a x j 1 f x j h x j h j x h j f 1 f j z x x x z f f k x x m f r z k r r d k k x f 4 x N g j N N j f a k d f m x a d d 1 3 g g j j f g h 1 1 z d e u s e d x h 3 h x x x B B x l h h h h x h h f h h j x x x x j x x r f z u > q e < k k r r f f f j h f f r w q e u k u e > e e k f f f 1 1 f 1 1 i 1 = r r < w k k 1 f h h f 2 1 1 1 1 f j j f 1 1 r r r u < = < f f d 1 < d u q q e e f x f 1 z x A A x j f r e r < u k k < = r r f f 4 f h j j f 1 f f < $ % > < a r > < r f f d r r d k k f k u r d u r r r r f f k f r ",
"O r e # @ @ # e f a > < 1 ; a d r % % % % $ < f j f r < r r r f x j j B g 1 h x f r e r f x x 1 i j j j j j g h j h j j x B x g g h h h h j j j h f 1 r f r > q < < f a < r x x j x x f < e e < r k l f < > > = 1 f f h h h a , i k r $ # $ < k r , 1 f f 1 f h g g g g j j f g j j N A A B j h j x x f 1 f z 1 1 r r f x j f h A A B x j f r r u u f x x k u r r 1 i l j B x j f r z m d e e e f j f 1 z 6.x g f f f f h h f f g g h h j h f j x h h h x f 1 k x f r r r k x j 1 f x x x j l i r u r u k j j f r 1 < < r h j h g g f 1 f j f r r r r x x r f x x x x j j h f f x m a f x ,.v A A j f f h h j f r f x f < e e r f x f 3 j c c A x h a d d d z x x h r r r 1 r j B j N N x g r x x f u d f j A x f h v c h h j h g h h x h f f j x x j j f f d d f x x d r z x d r d d k x f 1 j B j N B h 1 r f d f j ,.v f r r r ; 1 f j g g h f a a x z s e u r k M h 1 h x h B A B j f l h j j x x j x x f f h j x x j j f r f m d < e e r k k r 1 k j x x x f < e r e r k k k u e q < r k j j f f f 1 1 f r < w e w i k i r f h g h h f f f f f j j r 1 r r 1 1 1 < < r r r r < e k k % q e u k x f 1 j A A A x f r r e < r k j j f , < 1 1 1 f g 4 4 g f 1 f f < $ % > 1 f f e 1 u f f d r r r u f k u u u r r r r r r f f f d u ",
"O r u < o o = d f r = < r r r r % # % % O $ r h f z f < < r r r h j A A h 2 h B x f , 1 h x k 1 f j j x h g h h h x x h h l f f h h h h f h x j j f 1 r f f < % < a f r , 1 j x j j k < e r < w f h f h i < < e > r k j f f a ; r k k < o = f f r = < r ; 1 f f g g 4 g j g g g h j A A h 4 f g h j j f , f x f < 1 a k x f f x A N B x f r r u u r x x j m k r r 1 1 r f B j h f r z m z r e u x x f 1 f x z f f f f g h x h h x j j j x f f f f j j h x f 1 k m x u < r x m f 1 k A x x j r u k r r k x k j x k 1 e < < f h h j g f 1 f x z r r r f m z 1 z j f j x x B x x j x x f f x x x x x x h j j h j k u k m x r < r f x j r 1 h x x c h a d d u k x c j j f 1 < r 1 f j c j N c f r x M j f r f A A h f x A x h g j j g g h j h f f j x x h j x x f f k j f e < k m k r r k x x f 1 h B N B j 1 1 u d r k x x B x f r r < , 1 g j j j f 3 a x M k e e z M x f 1 k x x h x x h h j x B j h j j j j g g h x j x j j f r f m x r = < f j k 1 r k x x x k r q e r r k k f h j d < > > r f j h g h 1 1 h j 1 , < r k f 1 1 g g i h h f f f f f h f 1 r i 1 1 1 < , r f 1 1 r > q d n r = r k x j f a x A B x k u r r e r z x f h j a = < r < r f g f h a ; f f r = # > f f r > 1 f f f u f d r r u u u u u u r u , r u r < < < e ",
"# r d r = $ 1 f f < # e r r r % # # # % $ < g h g h f f r < r r a h B A h 1 h B x j r f x c l 1 f j x j h g f h j j x h f i f h j h h j f f j j j f < r j z r , 1 f z 1 , 1 f j l i < e w r r f h g f f f r < > > > w r f k a < 1 f j i , r f f r $ = e , 1 f g g 4 4 j j g f g j j B N j g g f h h j f < k ,.j a 1 f v x g 1 h A A x z d r r r k x ,.B x x x k r r r 1 1 g j h f r z M m k k x x x f < r f f f h f h h j j h h j j j j x h f f f j j j j f r f x >.k r k ,.x f 1 f x x z r r u u u k j j j j j j f r < < < r l x x f 1 f A j f 1 r j ,.z 1 f f f k x x x x x x x x B x x x j h f g z j j j x z r f ,.,.f 1 r j x h 1 1 h c x h f a u r f x A x j j j r = > e 1 a x A A c f r j 6.A x f h A A f f v x f g h j j h j j x x h f j x j j j j x x x f f r > > z M x k d k m x r 1 f B B h 1 1 u r r f x A B x B x f < < < = 1 h j j x f f x 4.x k f v 6.x f 1 k A x h f h h h j j j x x j g g h h g x x x j h j z 1 a x m f r r j x f 1 r k j x k e e e q e k l f f f j j d < = = , f h l j f 1 h j f 1 1 f j f < , f f 2 2 f f f r 2 f f i 1 a f r r r r 1 a f 1 1 e > > d m k u k x x x f 1 j A x z f r r < d j x h f g f f r < < < < r f h f r < a k d < = r f f < O r f r r r f d u r e r u u u d r u u f f e > > > e ",
"O e r r r 1 1 r r $ o q r e q # # # # $ 1 f f g f g f j f < r r 1 1 h B f 1 g x x B j x x x f 1 f h h f f h f j j h h f f f f f h h l l f f 1 r f a < 1 k f f f f g g 3 = 1 f f r < > r e < f j f 4 i 1 f f r = % > > e f f f ; 1 f f h h f f r 1 O < f 1 1 3 h g 4 5 h j g f f j h j j h j j h g f j f < a x x h h j x j a 1 f x x z r u d u r j M j j x h m m d > e r 1 1 f j f ; f x x x x x x j f < 1 f f f f f h j j h h g g x B j j j f r r f j j k f 1 k x j x x ,.x j f 1 k x j a 1 r r r k x z z j x h j x f < = > 1 r j x f 1 f x x h f f j x f 1 f f f f x x x j x >.x x x x x x x x h j h h j x x f r f m ,.x g j x x h 1 1 h x z a r d r a x A A V A j h h a = $ > < f x A x f a j A A 5.A A G A g 1 f f 1 f j h j x h g h j h j x x j h j f j x k 1 r a e < k x M m x x x k r 1 f x j i 1 r r r f x x j x j x x j r > = = , f h j h a a x ,.A x ,.B v x f 1 h x j h f f j h h j h x x h h h f f h f j j f f x j 1 f x x x x j h f f 1 u z k k r q w w e u z k f j f h x k r $ % e r k j f r 1 f f j f f j f i > > i f 1 1 f f f i 1 f f f 1 r f f r r r r f 1 < < e < # r z l j x j j x f 1 h x j a r r e r k M x f f f f j f r = > > 1 f f f r > r f f f f f f r < O < d f f f r a f r r u u k r f r w u k u r u k f f ",
"$ r 1 1 1 1 1 r 1 O @ q u 9 @ # @ # # < f f 1 f g g g f k a < r r 1 f x f 1 f x x j j j j x f ; a f f 4 f h j j j j h f j k f f f l j j f f r f f r > < f f f f g f g 3 , 1 k f w < e < < u l j f f f f f f f r # % e < r k f 1 1 f f h h g f f 1 = r k f 3 4 4 j j j x h f f f h h j h h h j h g h j 1 , a j j x x x f f r 1 k x f d r r u f x x j h f j x x x k u e r r r f j k 1 i j j x x j j j k 1 a z f f f f h j j j x h h x A A x h f f r r f f k f 1 k j j x x j h j f 1 k k f u r r r f j x j z z j x x x x r < e r r f j f 1 f x j B A j h x k < r f z z f x x x j x x x x x A ,.x x x x x x A x x f r u x A A B A B j f 1 3 h j a r r r a x A A A V N j j x x r = $ > 1 f x A j a j A A A G A A A h 1 f a f j j j j j j h h h h x x j j h f j z f r 1 d k r e k x B ,.,.j j f r 1 k x f 1 r r r f x x j h j x x x x z 1 = = < 1 f h g 1 1 x ,.A A A x j x f 1 j x h f f f f f h h j x j h x x f h h f f a f f x x 1 f h j B A x f f f 1 f x k r e e e e d j f j j f f j k k f < > q e u x k 1 , i f f h l l f i = > i i 1 i f f f f f j x f 1 1 f f r 1 r f f 1 = > e > # r f k j x x j j r 1 k j f r r r r f x x x z f f k h f f 1 = = < r f k r = r f f j x j f f r = r u f l k f f f f f u k k k k r e e r u u f k k k ",
"= r 1 1 1 1 1 1 < $ @ q y # + @ @ @ e f r 1 1 f f h f f j f r < e r r j f 1 f x x j j j h x f ; f j f 4 f g h h j h h j h h h i f j x f f f f j f 1 $ > f f g g f 4 g f = < f r < e e < r j j f f f f f f f f f < = e < 1 f f 1 1 f h g f f f f r = r f f f 3 4 h B B j g 1 f h f h h h h f h j j h f 1 , a f h x j j f f f 1 k j f r u u d x x j f f f j x k k j x u < r d f j k r f k j j x x h x k 1 f x h f f a f h x h j h h h x B j g f f r r f f z f 1 u j j j j h j >.f r k k u u e e u j x j j j f f j j j j x k r r d a z k 1 f h j c A h g x k < u k x j f f x x j l j x x x x f f j x j j A v j f k r r k x A B B B x g 1 r j f 1 e r 1 h A A V A V j j j j j x k < $ < r k v j a z A A A A A A A j g h f h j j j j j x j j j j g x x j f f j z a r f k k r r k x j j j j j k f 1 k j 1 1 r r a x x h h h h x x j x x k r < , 1 1 f j f 1 x <.A x x h h x f 1 f j j j j f f f z f j j h g j j f f f f 1 f j h l l 1 3 j j h h h f j f 1 f x k r e r r f j j f f f f f f f f k d < > e r p k r , f j f f f f f f = O w 1 1 f r 1 i f j x k 1 1 r a r , , r f f 1 , 1 r > $ r f l l j x x j r r k j r r e e f x j f j j f f h f f k f < = > < d k u < f j z f f f f k r < u r r k k i r f f d r r u k f f r > 1 f i r u f r ",
"> d 1 1 1 1 1 1 d < # y e # + @ @ > r f 1 1 f f f f f g f z k r < r f x j 1 f j j j h j x x f , f j h f g f g h h f h j h f l f f l x f f f f j j r $ > f g g f 1 1 f f , < f r r e < r j x j f f f f f f f g h f r < r r f f 1 f f f f 4 1 f f r , 1 f h g f f g j g g g g f h f f h j j h h j h h k r ; f h h j h f j x f r k z r r u k x x j z f h x x j k f j j k r r r f x k r k x j j j h j x z 1 a j h h f f f f x j h h f f h h g h f f f f f f k f 1 f j x j f f j m k d k k u r e u x x j x x x f f f f f j j x d r u f x x a f c c j h g h x k e f x x x j f j x x j j x x x x k f f f x x h f f k k r r k j B B B x j j a r z f r < r j A A V A A j j j c j j A x k r e r k m j f x A A A A A A A j h x h g j B A B j h h j x B B A A j f j j f f f f l k r r z j f f h j x x f r z j r 1 1 a j j h h g h x j j x x x x j r = < r f x f f x ,.B x j j x x f 1 f j A A B j k f f j x x f f h x g f f f f j x x x k r f x j g f f j x j r f x k d r r k x j f h h f f f f f f f k r < > e u k r 1 f f f f f f f f > O > r r r f 1 1 1 f f f 1 1 f r < = ; f f a 1 1 d k e > r f l j j j j j i r k x r < < f x j j j j j f f f f f f f d e > q u k d r f j f f f f f f u e f k u u f r r f f f r e r r f k k r r r i f u e > ",
"> u r , 1 1 : 1 d < # q q @ + + $ r 1 1 1 : f h f g f f g j x f < < f j j 1 f j j j h h x j f , r f j h h j g h j j h f h f f f f f l f f j f f z a = e f f f 1 1 i 4 1 , 1 f r = < r j j f f f f g f f f f g g l f < , 1 f f r f z f 2 1 r f f 1 $ 1 h g g f f 4 4 g j j x h h j f f l j j h f h j j 1 ; f x h j j g j x f 1 z z r r k x x x k f j x j j j f z z f j k u 1 f x k r k x j f f f j x k 1 r h f h h f f f f f f f j f f f f f i i f x j f k f < f x j k f j j x k r x m u e r k x x x j j j z f j x j j h j z r r f x z f j c j j g f x x k < f x j j x f f f x j f j j x A ,.m j j x j h f f x z r d j j h x x h j j a 1 j f 1 1 f c A A A A N j c c j j c j x x f < 1 k x z f x A A A B c A A h f h h g f h h j h f f f h x A A j z f f f f z j g l x r 1 j j g j x h x x a 1 z z 1 , r j x f h h h j x h h x j h j x f 1 , 1 j j f f x x j j j j v x d 1 k j j j f j j f f f j j f f h h g h j h j j j j k f 1 f x f f f f j j z r f x k r e u x x h h f f f j h f h f f f k r > < u k r r f f f f f f f a < # 1 d r 1 1 ; < 1 r r f f f r r < = , r f f f f r d < > d f f l j h h j f r k x r = r l x h j j k f j h f f f 1 f k d q q r k u r f f f f a f f a r < f x f r f f d r f d u u r r u f k r > r u u r > # ",
"> e 1 1 ; 1 1 1 r > # e q X X % r r 1 1 : 3 4 f h f f f h j j x f 1 r j j 1 f x j h h j j j f , i h h h x x h h j x j h j f r f f f f f f h k f f r = r f f 1 1 1 f f 1 , 1 f < = u l f f f f g g g f f f f f g h h r , 1 f k r r k f 1 i f r r < = 1 f g g h f f f g h x j x x j f f f l j f f h h f a 1 f j h h h x x x f 1 z z r a x x h f k j j j j j j j z z z j x k 1 r x z d k x j g f j j x f < r h f g f h z f r 1 r f j h f f f f i 1 f l k f f 1 > d x j f k j m m f r x x a r k x x x x j f z j x j j x x x x x f 1 f x j f j x j g h h x x k r f x x j j l f f j x z z j x x x x j z j j j k k j k u f x x x x x j j x f 1 j g 1 f c c N A N j j j V c j x c c j x f , 1 x m k f v 5.c B B c A A h f f h h f 3 1 f h f f f f g h h g f a f f f j j h j j f 1 j j h j x x x j r r k z 1 1 k j f h f g j h j x x j h f j j z f , 1 j x f f x x j h j x x x f 1 k j f r f f j z f f j f f f h f f g h j j j f f f k r f j j h f k x x f 1 f m k < r x j j j j h f l j x B B x j j k k r < u k r u l h g f f f f r r < u f r r ; ; r f a f f f f r r r r r 1 i f f f r e = q d k f h h h j x k r x x 1 < k x h l l k k h h f f f r a f k k e $ r k d e d f f a d f k f r e k x k f r f k d f r r r d r u r u = = r u u e > q ",
"$ = < r ; 1 1 1 < O # e # . # r < 1 r 1 : 3 1 a f f f h h h h j h r f x j 1 i j j h h j f f i , 1 h h j j j h 4 4 h x j h f f f f f f f f f j f f r $ < f f 1 i i f 1 , = , f f f f l f f f g h h g f f f 2 i g h h h f i f k 1 < f f f f f r < > = 1 4 g j h j g 4 j j h h j j j f r f f f h h h f h f 1 r g h g h x x f 1 < f j z j x h g g h x h f x j j x f f f f f k f r j k r f f h j h j x f r 1 r j h g f f j f 1 1 f f f f f f k f 1 r f f f f r 1 = e f x h h x x j f r k x f a j j h h f g f f f h f f j x x h x f a f j j f f j h h x j f k k r k x j j l l j f k x j h j x x j k k d f j j j j j j d r j x B j j x j f r 1 h h g j c j j N j j j j j j c j j j j j x g f j v h f x 5.A B B c A x f f f g f f 1 1 f f f f f f g g f h g f z f f f j x h f f 1 f x x h j x x f 1 1 f x f f j h j h h g h j j v x f f f f f h f 1 f j j f f j x h f j x x j r 1 k f 1 a k k x x k f f f f f f g f f f x x j f r f k r r f j x h h x j f 1 f x k f f x j f j k z z f f l x l j j l j j f 1 u k r r f j f f f f r 1 < r r f f 1 1 f f f f f f r f r 1 r f f r r 1 1 r r < = > r z j f f l j l u 1 f j f j x j f f f f j f f f f f f j f f f d e u k d e r d f r f f f r r r d f f r 1 r f f f i u 1 r f r r 1 < = < r u r r w ",
"% > , 1 r a 1 , > # O e > # r < O = 1 1 1 : 3 a 1 a f f h h h h j f f j j r r f f j j j f r f 1 1 f h j j j g 4 4 f g j h f f f f f f f f f f f f r = = 1 1 1 f f 1 ; , = , f j j f h h f f f h j h h h f f f g h h j h g f f < < r r l l f 1 1 e = r f g h x B h g j h j h h h h j f f f f j j h f h f 1 1 1 f j x x h f 1 1 f x x x j h 4 f j x h h h j x j f a 1 1 f j j k j k r f f f x A x f f f 1 f j x j h f j f f g j j f f f f f r 1 r f f f r r r > r f j x x x f f a r k x h j j h f f g g f h f g g h g g g j j x z h j j f f h h x A x f r u r k j j j l l x x j j j j h j j j k f a d f j B x x k r a f x B c x j f 1 , 1 j j j x j j j j N A B N j c A j h h j j A A x x x z f f j x A A A x h f f f f g g f r 1 f f f f f h j x j h j j z f f f h h j f 1 f f h j B x j a < r k ,.j j h h x x h h h j x v h f f f f f f z k j j k r r k j x x x j j d < 1 k f f f j j x x x f f j x x f 4 f f f h j f f f f f r r i f h j B h f a 1 f x x x x j j l f f z z f f i i f f f h j j k f f k r r r 1 f j k u 1 < < 1 f f f a r f f f f f r 1 1 1 r r a f f 1 = , 1 u r > > r f x x j l f f < , f j A 5.x h f f f f f f f f f h x j j f k x k k k u e r u r f k f r 1 r r f f f f u r r f k k f a f k r r r u u r k u r r r ",
"e r , 1 a u = = < = O > < < = o o O = 1 1 1 1 a f f f f h f f f h j f f k 1 r u 1 f z a ; f k 1 1 h h h j g j j j 4 g h f f f f f h f f f r 1 f f 1 = < < $ 1 f f ; = 1 = , f f f f f h f g f g h j h f f f f f h g 4 2 g f r < r r < r k 1 < u r = u k f 1 f j h h f f h f h h g j j h g h j j h h f a r f 1 1 h h a r f a 1 f x j x j g 4 h g j h f g h h f f r 1 f h x j j k r 1 f a 1 f x f : f j 1 1 h h f f f f g f g f h f f f r 1 1 r 1 1 f f 1 r r = u r 1 k f f a f f r f x x A B h h h j j j g g g g g g g g j g j j h x h 1 f f f x A x 1 r k r f x j h j j j x k f h x j j j x j k f f f z x j f f r d f 3 h A x f 1 1 1 1 x j j j j j j j c A A A A c x j g h j j j A c x x f r f h f x 5.c f f f a f f f h h f f 1 f f f f h x j f f f h j f f f f j x f 1 r ; r j x j f 1 r 1 k x x j h h x x j h f h x x f f j f f j h j x j j f 1 d k r f x x k r r < 1 f f h f k j j h j j f h j j f f f g f 1 1 1 f f f i 1 r f 1 1 f j f 1 f f f h j B j h f f f f f j j f 1 r f f f f j l k f k f r r u = < k f < = r w 1 f f a f a 1 f f f r a r 1 r r r r f r < < a r r d < > r r r k x f 1 r r < f j j x h h f f r f f f f f f j j f f f f j j j f r r u 1 < d k r < r u 1 f j f f f 1 r a f f f f k f r r r r r r e r u w > ",
"1 d r ; = < = = r < O # O o & # = = $ = ; 1 1 f f f f f h g f f h x h j f 1 r k r a u 1 r x j 1 r j h g g g j j j j h h g g f f f h f f 1 r f f f 1 = w r = = r f ; , r , , f g f f f f f f f f f h h h f f f f h g i 1 f f r < f k 1 < < < r k r > u k 1 1 1 f f f f f f g h h h j h h j j f f h f f f 1 f a 1 1 1 ; 1 k a < f x j h j h h j j j g g g f f f f f f j j j h j f r 1 f k 1 1 f 1 1 h j 1 4 h g 4 f f f f g f g f f f f 1 1 1 r 1 f f f 1 1 < = u f 1 1 1 1 r x j r f x A A A B f g h h j g g j j h g g j g j j h j j f 1 k j a f x j 1 k k u f x x x x x x j f f j x A x x x B x j f f h h f f f r f f f 4 g f 1 3 z f 1 h c j j j j B A N j j j x x x j g g h x x x x c x f r x v f h A h f j j r a f f f j j f f f 1 f f h h f 1 1 f f f f f f f x x f r f 1 ; a x f 1 d k 1 f x x x j h j x x j h j j h h j j h l x x x x j j f r k k r ; r x f r z r 1 f f f k j j h j j j f f 1 1 f h l f f 1 1 1 f f f k 1 r k f 1 1 1 1 1 k f f j j h h h f f f f f j x j f f l l f j x x k i f f < r k r = r r < e p r < a f f f f a f a a a f a 1 1 r a f f 1 r 1 a f f k r e r r ; < r r r k d 1 f f f f g h f f f 1 1 f f f j f f f 1 f f f f k f u r k k < r d 1 r f d 1 f f f f k f d u r 1 d d r r r r < > # # # > < r > ",
"< f f < O O = r w $ O # O & < 1 1 < O $ , 1 1 1 f f f f f g f f h j x h d , r x j 1 , r z j f 1 i j g 4 4 g g g j x j h f f 4 f f f f 2 1 f r 1 f 1 O < f r = = ; 1 r 1 $ = f j f f f i f f f f h h h h g f f f f f f f g f r < r f i < O < f r e = r r 1 r r 1 1 1 i r f f h h h g g j j f f 1 f f k f 1 f f 1 1 1 1 f k 1 < f h g j j h f g j j j h g g f g f j j z f f f f k r ; f f f 4 1 2 g g g 1 1 g f g f 1 f f f f f f f f 1 , 1 r 1 1 r 1 , 1 r , $ < z f 1 ; f f f f 1 r j c B A x g 4 f g h g 4 h h h g g g g h g g j h 1 1 f v z 1 f f j x k r k j j x x x j j x x B B B B B x j j h h j h f g j f 1 f x x 4 1 : f j x 1 1 g j h j h j j A B j g g g x x h f g g j x j h j x f r j ,.x f a f x x f 1 a k f f f h f g f f f g h h f f f h f f f f f f f f 1 1 f f 1 1 r r f f a 1 f x x h j f f h x x j h h h j f f j j k f f f j j k r d x j 1 , 1 1 z x 1 1 f f f j k f x l f f k f r 1 f f f f 1 1 f f f f f i = 1 f l f 1 , , i z 1 1 x j f h h h j f f f f j f f j j h j j j f r r f k < r x k < < 1 r f f < , r f f f f d 1 < 1 f f r r r r a f 1 1 r r 1 1 f f < > d x f ; = 1 f k 1 ; f j f f f f f f f f 1 1 r f f f f 1 f f r f f f k u e k k < = , r f a r 1 r f f f f f d r w < w r f d r = < r q % 9 # = w > ",
"1 f f r 1 1 r r r = O > = = = = = < < = = , 1 1 f 1 1 f h f f f f h h h f < r z x z r f j f f , f h f f g g g g j h h j j f f f f g f i f f 1 1 a 1 $ = d f r 1 1 f f 1 = ; f f f h f r f f f f j h f h h f f f f f h h f f d < 1 a f r r r f u < $ r d r r f f f f f f j j f f h h h h j f r r f f f r 1 f z k a 1 f j f 1 < f f h x h f 1 f f j h h h h g h h h f f f f f f l f 1 a f h h g j j g 4 1 1 g g h f a r f f a f f j f f r i f f 1 1 , 1 r f 1 = < f j f f j k f r 1 a j x A B h j g f g g h j j g g g j j h g f f j h f ; f x x f d j M x d r k x j f k j j x x x x A l f j B x j x x j h f f j f 1 f j A j 4 f z x f 1 1 h j g j x j j j x x j h x h h h h f g f h j h x x f r k x x z a z A x f 1 f j f f f f h g f f f f f f j j j j h f f f f f f a ; < f f f f d k x k r 1 f x h h j h f h x x j h x v x j j j j f r f f k j k u r z z j f r f x f ; r f f f f j x x l f i f f z k f i f f f f h j f f f r = 1 f f j f 1 i k f a f j h h h h h j k f f j j f f f h j j j f 1 r r f k r r k x k r u z k r > = i f f f f f 1 , 1 f f f r u f f f r r f f i 1 r u r > r k x k r f f f , , f j g f h f f f h l l f 1 f f f f i f k f f f k k u r f k k 1 r k k i r 1 r f f f f f r r r w < r k k r 1 e e r r e e r r e ",
"< u 1 1 f f r , > = = r , = , = = = = O = ; 1 r 1 , 1 f z f g g f h g j f 1 u f f x x x f r i 1 1 f f g g g g g g g g f f 1 f f g f f f f 4 f 1 1 a = = 1 r a f z f 1 1 ; 1 f f f f f f 1 a f f x f , f j f 1 1 a f f f h j d < 1 r 1 i k d < r > O r k a a f j f f f h x x r u k j h g f f f f f f f f , 1 f k f f j k r r r f z f z f a f f 3 g g f h h f f g g h f f f f l f r < d r 1 4 j j g 1 1 1 4 j j g j g 1 1 a 1 f f f r i l f f f 1 , 1 f r r 1 < r 1 1 f x j 1 r f 1 f j h B x h h x g 4 f g h h g h 4 g j g 4 g h g h f 1 a f h z x x j f d r k x x h k k h j j x x x u r f x j j j j h h h g f f 1 1 a f j j j f f f 1 1 f h h j j h g g h j x j j f f f h j f f j j h x x f r f f f x A x f f f r f h h j g i f h h h f f 1 1 j x j h x f f f f f j j 1 < r f f j x z d r r r k x x j h x x h h f g h x v x B x h f l l k f f f k r r d r f j k j k r 1 f f f f f j j j x f 1 w r k u r f f f h g f f f f 1 i , 1 f 1 i h j x f r 1 f h h h h h f h x j f f f f f f f j k f f f a f k k r < u f f f k k r < < , r f f a f f r 1 r r u e > r k f 1 1 < r u r , 1 r r > < r f j x f r 1 < 1 f j h h f f 1 f f h j f 1 r k f f f i k f f f f f u < 1 r f k x k r 1 a r 1 f f f k f 1 r r 1 r r i f f 1 1 r r r r u r r r ",
"< f 1 , 1 f r = = > = r 1 ; < 1 = O o O = , , , , < 1 r a g g g j x x j f 1 i d r k x k r r f 1 1 h h j h h g g g g f a < = 1 f f g f g h f f f f f < < < < 1 j k = = 1 1 1 j j f f f f f f f k j f 1 f f 1 r f f f f f g h d < r r < u k r = w e O r k k f f f f f h x j f r u f f f f f f f f f f f 1 , 1 r r f k f 1 a d r k x h f f f h f f f f f f f f h f h h h f f f h j a < f r , 1 h h 1 1 f 1 4 j j j j h f f f f z a r < r f k j f 1 1 i f f f 1 < u r ; f f 1 , f f r f x x x j j j j j j h f 4 f g h j j j 4 4 j j j h f 1 f f a a x v f r k d l >.,.x j k j j x x x f u r r f k l f f f f f h j f r f r ; f x j a 1 f r 1 g x x j j j h h h f g f f f f j x x j j j j x x x f u k d r j ,.j 1 f k a f h j x h f h h h h j f 1 r f j B x h f f j x j j j r 1 d u 1 k x d = 1 u r j A x x j x A v h f g h h j A B j h f f x k f k k k r r u 1 1 f x f 1 r k i k x j f j x j j i r u r < > < r k l g f f f f f f f 1 r k r 1 l j f 1 r f f l j h x x h j j j f 1 r k l k f f f f f k j j x k < > r 1 1 k m f = < r < a j f f a r r f r f r # @ # e u r < , < < , , r d r < r < < f k < < r r < f j x j f 1 1 r f l f f r r f f f f r < r f f f f r < r r 1 f z r , r k r f j j j k f r < r k k r < u k r 1 r u r w r u u r ",
"< d r , , e = O > = O < r 1 , 1 , O O = $ = > = = r 1 ; 1 f f h j x j f u < u u 1 d f r 1 d k 1 3 h g g h g g g g h f r > > $ < f f f f f f 1 f f a = , r = = u e O = 1 , ; f h f f f f f f a f f f f f f f j j f f f g f f r < d u < < r > & r e # < u r r r a f f j j a r r r r f f f g 4 f f f f f r = r e < r d r < f f 1 f x f g j h f h j f f r 1 1 r f h f f f f h f f j r , u r < < r r ; 1 f 1 1 f f h f g j f z j k e e e > e f f f r f r a f f < > u u < r 1 = = f f 1 f x x j h j j h j x h f f g h j j j j g g j j g j z 1 f f e r z z r r z u k ,.x x j h j h j x k r u u r < f j f g f f f j j f 1 d d ; 1 f r < 1 f 1 : g x j j g g h h h h h f f h x x x h j h j x x x x r u z d < d k d r f k 1 f B j h h h h h h j f < w u r f j x g f f f x j j f r 1 f r = r d < $ r r 1 j A x x x x A x h h x j h f j j h h f f l f f x k f r r d r e r k < = r f 1 f x j f f j j f f k k e # q > < f l f f f f f f j f 1 r k r , i i , < f k r f x l x x x j h l f f r r k j f f f f r f j z f u > > e > % d k r = u r < r f f 1 f f f 1 f d > # # # # e k k r ; 1 r r f f < < e < < u r = > d r ; a f f f 1 1 f a 1 f f r u f 1 a f i < = r k f f f 1 w d r < r r = = r u ; 1 x x l f r r < r k u > % e u f u < > = > > r u r ",
"r d r < > > $ $ < < O > < 1 i i r < & > = = = = , r r r 1 a f x j h f f u r u p r r r r e r k r 3 h g 4 g g g j j j f < e q > > 1 f f f 1 1 1 2 f f , = e > $ % % $ < 1 , ; f g f f z f k f f f f f j h f g j j f f f f f f r r f k < > > > = r r = r u , , ; 1 f j z r r u d u r r a f f g f f f f f r < e r < e r e r k f 1 k j f h x x j h h f 1 1 r r 1 f f j f f h j h j j r 1 u u e e r 1 ; 1 a 1 f f g g f f f j x k e e e q 9 q r d i 1 r r a f r < > u u < < < > < f f 1 f x h h h j j x x j h j x x h j j N j j h h g j x z 1 f k r e d f r d z a f x x j x x x x x j d u u u r r r f j x j g f h j f 1 a k r 1 r < < a f 1 1 f h j j h j h h x x x x x x x A A x h f x ,.,.x x d r k d e e r r r f f 1 f x B h f h h h j f 1 > r u u 1 f j j h f f f f k z r 1 k u % < r e e u r 1 j x A A ,.A x j j x ,.x f f h j j h f f f f f r k k r e d u r r r < e u d 1 f j f f f l f f x k < > q q q > r f l f i f f f f h 1 i k r r r r , w f k i x m x k j x x h j j k f r k x j f f f r r a f r r > < r e $ > r e e u u < r r ; 1 f f f f d e % 8 q 9 # % u k k f r 1 f f f r < e r r u e % < u r < d f r r r r r f a r r r r f f f f f r r u k f f f r r k d e > e e r u d 1 r j f f f r 1 r u r > % e > < r u r < > e e r u r ",
"r d r > > % % > > > # > = 1 r 1 = o O # < < = , 1 a f f a 3 f f z f f k u w r i r e e e < r k r 1 g g g g g g h j d < > > e e > > r f f 1 1 1 1 f f ; < e > % $ $ < , ; , , a 4 3 f j k f f j j f f h f g f h h f j f f f f u < u r = # > > = > e < r f 1 1 1 f f k u > e u r u r r r f f f f f 4 f f a < r r > > > < r k i r j j f h f x x f f f 1 1 f f 1 a f f f f f j j f f r w p r > e < < , r f 1 f f f f f f k j k u e r e 9 q 9 > d k f d 1 r a f r < r r > % < < < r f r r k h h h x h j j h h A v j h j j j j j j f 4 g x j r d k r e e r r u k f f x j j x x x ,.x d r d u r r r e 1 k x j g g g f f 1 r f r e r > < r f 1 1 g g g g j j h h j N B A A j g x A x j h j m x j x d r k d q q q e r r f r f h h f f f f l f < = < r e e w , f x j f r r f x k f 1 f r > q q e r d f 1 k m x x x x j j x x x j f h x j j h h f f f f r f k r e d u e q q < r r r 1 f f f f f f f f f e # e w q q q > r k f 1 1 f f f h i r f r e r < < r d f i l l f r i f k x j j x f f j l h j f f f r r f k k e < r > # # q e e r u < 1 1 < 1 a r f d > @ @ # q q # # $ r k f 1 1 f f f r < r r e r < $ < r 1 ; d f f a f f 1 r i r i r 1 f f r 1 f k k r i f f f r < d u > > e r r r f r r f f l f i u u r % # q e > # # w r r u u e < r r ",
"u f e > > > $ % e > # e < , 1 , O o O O O > r f f f f f f f f f f f f k f r f f e e e e e r k r a h j j g h j h r < > e e e e e e r r f r f f f f f ; r a < % % > < < 1 ; 1 f f 3 f f f j x x j j j j j h f h f h h f f a f d < < < > > e e > < e < r f f f f j k r < e e r u u r r r r f f f f g f j f 1 r r < q q < r k f r z x j h f h j j j f 3 a h h f f f f f f f f f f f r r k r e e e e 1 r f f f j f f a f x k u r u r e q q q e r k z z f a a f a < u r = > > < < d d 1 1 f k x x c x c j h h c A x c j j B A j h g f f x x r d d e e r r r u z f f x x j x m ,.x k u u d u u r r e < r k x h f 4 f f 1 u f r r r e < r f 1 : f g 4 g j x x x B j j B A c f f x x x j j j k j x k u k a q t t e e u f r f j f f f j j f < = e e e q > < r r f j f r f j x x f f k r q q e e r k f r x x z f f h x x B x j f k x B x x j h j j j j j x z r r k u q q e e r d d 1 a h h f f f j k r e w w e q q q e e i k f f f f g j f r f < < r e e r f f r f k i k f i f k j x x x A x f f x x f d f r f k k r e e > # 9 q e e u u r 1 a r r a d u < @ + @ q % q q # # > r i r r f f f r r u r e e < > < d 1 ; f z f f f f f f f k x f f a r r r r i k f f f f k u r d r > q e r r u f i f f f f k l m k < > 9 q q q q > > < r u u u r r r ",
"r d < % % q $ # % # O e r , , 1 , = O O O $ r f f r 1 1 f f f r r f f f f 1 f u e e q q q r f 1 4 c j j h h f r < > > > e e > < r w < < f f 4 1 g f , 1 a = % e > = e r , 1 f h 4 4 f j x x j f z x j j f f f h f f f 1 f f r = < < > q q > > > > < r f f f f l r e e r < < u r r u u 1 r f h h h g f f 1 e r < > q q < d d = d j f g f g h j h h g g f h j f f f f f f f f k f u 1 r r > q e > < r f f f h f f r f z k r u u w q 9 9 q q q e d k k a a f r < u < > < > > < r r = r f f j x x c j j x j j A A x x x x x h g h j x x f 1 d u q e e e r d z a f x B j x ,.m k u u k d u u r r r r e r k z 4 4 f f 1 r f r r r e e 1 a 1 : g h g g f x B j g g h x x x f g h x j j j j j x k d r u e q e t > e u f r f f g f h j f r < w w > > > > e u r r f f f z j x x r < a e 9 t y 9 e k k r k z f j j j x j j x h f j h j x j f f l x j x j x k e r d r > q e > e d r 1 a j f 1 f f x k r r r e q 8 8 # e e < r k f 1 1 f f 1 1 r e e e e < r k f 1 f j j x x k i r k x x B A j r f l f i r d u i f r > % e > % q q % > r r r f j f r f d > @ @ 8 8 # # > 9 9 % # # r i f f f f r r r < > % e > < d 1 ; f f f f r i k k f f f f f 1 r f a < 1 u f f a k f e e u e > q e > < r u 1 f j a r f x z u > % 9 9 > e e > # > r r r r r r r ",
"< r < > > > % $ % O O r 1 ; , , , , < < $ $ , a 1 1 1 a f f r r f k j f r 1 f k r w w q q r k r f c j j j z r < e e q q e > e r r < & = 1 f g f g f 1 1 a < > e > $ > r 1 1 h h g f k j f f f f k j j j j f j j f r 1 r f f f < < r < q q q > > e < d f f f f r r r r r r r r r u u u u u a z x x h h f < 1 e > q e q e d r = d f f f f f f h j x h f f h f f f j f f k l k f k r 1 f u > q e e < r f r f h g f j j k u u r u w 9 8 9 q e e e e u d f f f r < r e > > > % < r r = r k f f h x x x x A x c A c c x x x x j j x A x x k 1 u u e e u u e d z 1 k ,.A x ,.m k d u u d d u u r u u u w e r f f g f f 1 r f f u r e r r f 1 1 h c j h f h h f f f j x h j j f f h j j x x x x x f e u r q e t q e f k r f j j x x f 1 r r r e > > % q r u u r r f x x j m x < $ e e q t t e e u d r f z j x ,.x x j x j j j x j j j j f f f j x M j k d e r d e q q e q e u r 1 f j f f j k f r u r e e w q 8 9 w w q > r f f 1 f f , 1 d r e r r e r k f r f x j k j l k f f k x B x f f f l f f r r i k k d $ # e e 9 q q 9 > e r < r j f k u < # # 8 q 8 9 w w q 9 q # # > r f f f j i 1 r < > e q > e d r ; f j j f f r r f f f f r r r f f k r r u f f f f f > > u r q q e > < u d r f f a r f k u e e 9 9 9 q e e e q # > r u r 1 r r ",
"1 d < < % > % % < = O , 1 1 , = O $ 1 1 = = = r f 1 1 r 1 1 f f f f f f r 1 i k r e w q > u k r f x A x f r < > e e > > > > e e > > $ > , 1 f h f f 1 r a < > e % $ > r 1 1 f f h z f f a f f f f f x j f j h f a 1 r f f f f , 1 d e > q q > e r < r f f f r 1 r u e > r u u u u r u u u d f k x x j 1 , r e > e q q r d 1 < f j h h f f f f h f f h h f f g h x f f k x f f k r e f f < > e e < r f 1 f h f j x f r r u r y q 9 9 w w w r e q e d z d f r = r r = > q % > r d r a j f g h x x c c c c c j j A x x x j x B A B x c j 1 r f r e e u e k k 1 f ,.v ,.6.k d u d u r u r r r r e q q e e r k x h f 1 r k d r r r r f h 1 1 h j j x h f 1 f h x j h f h j j f f z z x x x x x f < r r e q e e e f f 1 f x x x k r < r r r < > = $ < r r d f r r k x x x k < > r e q t y e < r r 1 f m x x x x x x x z z f j x j j f f f r f z x j f d e e k r q q e < e k r , f j f j z r e e e e e e w 8 @ q q q # # = r f 1 f f , 1 f r < r r e u k r r x j k f f j x k r u l B h f k l f f f f j h f j k < > e e q > q q > e e = r f k k e # # q 8 8 8 q q q q 8 8 q q > < u j j f r r u < > t > % e f f 1 f j f f k a 1 r r r a r f f f f k k u r d f f f r > > r r q > q q e k u r f f f k u e > % q 9 % % 9 % q q % @ @ > r u r 1 r ",
"r k r < > % $ e u < = 1 r 1 1 < $ = = , < < = , 1 1 f f 1 1 1 f f f r r r 1 f k r e w q < k x a f x A j r < < e e e e q q e q > > q e e < 1 f f g f 1 a k r > e % $ r f 1 1 z z f f f f f f k f f f j x k f f f f f f j h j r 1 a k r > q q < u u < r k f 1 r r r e e > > e u u a f k k d d u f f f f f 1 r d > < e < e f a 1 k j f h j h h g g g f h g f g h x j f f k j j f f f r f k r q e > r f f 1 1 j j j f r r r r r u q q q q e r r w q e r d k k r = u d > % q % e f k f k x h h j x x c c c A A h h x A A B x B B A x x A x r i k u e e r u k k 1 f 4.4.m k f k k d u r r r r e q 9 q q e e e d j x h 1 d x f r r r d j x a 3 j N j x j j f j x x j h f h h j f f f j x x x x j f r k k e q q < d x z f j <.x f 1 1 r r 1 r r > = < r u u u d r r r z x x k e < d r q t e e r k f r j ,.x A A x j j j x k i f k j j j j j f f f k f k k e r k k e q q e d z a ; f x x k r r e e w e e w q # # q q # q > = < i f j k 1 1 f u r r r r f k u f m m x j j f f f r r f x j f j j h f f h j l l j f r r u e q q q 9 q r e > u k d e % 8 q q q q 9 q 9 # 8 0 q q q e > r k j k r r k r e w q > u x f a h x h h k k r r r r u f d f x x f f f f f f f d r e e u d e > q < u k u r k m x k r > > q q 9 9 # # q w q # @ @ @ > u u r r ",
"1 f f < > $ $ r f , = r 1 1 1 r 1 , = ; , 1 = = 1 a 1 1 1 1 , 1 f f i f i , f k r > e > r x x 1 f x j r < < r r e e r e > > q q > e e > e < 1 r h f , r z a = $ % > f f ; 1 j h f f f j f f f f d d f f f f f f g f h h f f 1 , r k r > > e r k r = u k r < r r r < q > 9 > r u u f k r r r d r r r f f 1 a k < > < = r z f 1 a f g g h j h f f g f f f g f f f f 1 f f j j f f k 1 f x d < e < r j f 1 1 f f u r e r r e r r r w q q r r e e e e < e d k f e k k < % % > r k f 1 f j j j h j c c j j A A h f j v x x B B x x x x x k r f z k e r r f x k 1 k 6.m k r f k u u u r r r r e q 9 q e e q q $ r x x f a j x r e r k x j f 1 j j h h x j j x j j x j h h h j j g f j x j j j f a 1 k z e q q > f x f a j m f r r d d r 1 r w = = e r r r r r r r < r r z z r > d k e q e e u x f 1 j x j m x j h h h j f r r f x h h h f f f h j f x k < r k k u > > e k x r , a j k u e e e e q q e e e q q q q w e q q > < i f k r 1 k f r e r , f x f f x x f f j f k k f r f f f f f h l f h h g l j f i < w k u > > q > r k e > k k e # # 8 % % q q 8 # # 8 8 8 8 0 q e e e r f k r r k k e e e < k x f 1 h j j f f k d r d f a i r f k i i r f k f f i f f r < k z e > e < d k u 1 k m k r > > q q q # # # > > > % # 8 8 @ # q r r u ",
"1 j f r = = < f k 1 , r r 1 1 1 1 1 1 1 1 1 1 < 1 a i r 1 , 1 f f f i f f 1 f k f r < < k x x 1 f x f , > r r r e e e e > > > q e e q < e < < 1 f f 1 1 h f r < < f z f 1 1 j h f f f j l j j j f d r r f f g f g g g h g f 1 , r k k r > < k l r > r u e e r r r e r r r e r d k u r e r r r r r r f f 1 f x f 1 = 1 k x f 1 f f f f f h g f f f f g g f 1 1 1 a f f f f f f j k 1 f x k r e u k l f r f l r < r r r r u r r u r e e e r e e e r e e e k d r k z r > $ < f j 1 , f x x c x x x x x A A A x j x x x x x x x x j h z k r f x k r r u k ,.k 1 z x k r u k k d u u u u u d e q q e e e e q $ = k x f f x v k < u x x j r 1 h h h h j j j j x x j h h j j x x j j x x x f f k f r x m f < > 1 z x f r k j i r u r r u u r r w < r r r r r r r u r < < k z r < k z u e e r k m f 1 j k f f k j h h j l f f f f j x B f f f f f j j x x r r z x k < > u x x r < d f r r r e e w e w r r r q q w r w q q q q < < r u < r z k u e e r k x f f k f f f h j j x x z k f f f f f f l h h h h h f f r r k k e = > r k x r < k k q % % 9 % % q 9 # # 8 q q q 8 q w w w q > e k f r k x u e > u x x f 1 f x x j f f i r r f f f f f r 1 r f k f z k f f x k u k x d < > r k k r 1 f k < > > q e e w q 9 q e e > > 9 8 8 # # # * < i ",
"1 f h f , = f h f , = r a 1 1 1 1 1 1 1 1 1 1 1 ; , r 1 , 1 1 f 1 1 1 f r = 1 f j f r f x x f 1 3 h a < > e e w r e e e e e > > q > e e e < < < a f , 1 f j f r a h h a ; ; f f g f f f j j f f k r r f f f g g g g g g 4 f r = 1 f j a ; 1 f f < $ e r > e e < e r r r u r e r r e < r r r r r r a h f 1 f x j a 1 f j h 1 < f f 4 f f f h f f f f g f f 4 f f f f f f f f h f f ; 1 j j f r f h g f 1 f z r r r r e r u r u r r r q q e e e e e r > < r 1 = d k h r ; 1 k k 1 , f x h x h f h v x x A x x x j j j j h j x x f a f f r f x j r r f x x k 1 k x k a d u r d u r r u r r u q e e q e w e > < k x r r x A x f f x x h 1 1 h h h h h x j f f h j h f j x j h x x j x j f f z f 1 k x j f i f j j f ; f x f r u r r r u u r r u e r r 1 r r r u r e < r k r > d k k u r u m j 1 1 f k f f j h l j h i f f f f f k k f f h h f h h f x 1 < k x j r 1 k j f 1 = r f r r u r e q r r r r r e w e q q q q q q > < r 1 , 1 f j k r r f x k r r a f j f f h f j x k f i f f f f f f f j l f f f f < 1 k f f r 1 f z f r < f d e e e q % % 8 8 9 q w u w q q q q e e q > e d r r f x l r r k x z a < a j x k d r u r < r f r i f r r r k k f f f f f f r 1 f j k 1 , r f f < < u r > q r e < e e e > q r q # # 8 8 8 8 # 8 # e u ",
"1 f h g f f g h f , = u r 1 1 1 1 f 1 1 - - 1 1 = O = 1 1 f 1 , ; 1 1 i r = 1 f f j k j j x f ; 3 j k r e w e e e e e q r r w e e e e e > e e r f f < 1 f f h f g g f a ; 1 f f g f f f f g g f f f r f h f g g h g g g f f u < 1 f h g f f j a < > e r < e r < e e r u u r r r r < e r r r r r r d j g 1 f j j x h j h f 1 ; f j f f f g h h g h h f f f f f f f f f f z h f f f , 1 j j j j h f h f r f j u r u u d d k u r r r r e e > e e e e e q e u r $ 1 f f j j h h z , < z x x x g f f x x x x h h j h f j j j j x j f f f f r f j x j j j j x f 1 f x k f k d u u u r r u r r e e r r e e w w q r x x r r j c x v x j x h 1 1 j x j h x A j f f j h h j j f f f j x x x z f f z f 1 f x x B x j j j r , f m f r u d u r r r r d u r r r u u u u u u u < d z d < k k x x k k j j r , f m x j j h j h f i f f f f f 1 r f j j h l h g f f r r k j x l k h f f 1 < u k u r e r u r u u u r r r u e > 0 q w q > > w f u = 1 f j j k k l l i e r f f f k f f f f f f f f f f j k f r i l l h f f f r < f j x x j f f f r < d d e e r e q 9 8 # q e r r r w q q e w w w e r k r r f l j x x l k k u < d k k f r r f f r r 1 1 r f d r r u f f f h f f r 1 ; f j j k f f f r < < k u q q e r r r e > % > > # # # q q 8 @ @ # q e f ",
"1 f g g g f g f f , & r 1 1 r r 1 1 2 1 1 ; ; 1 , = = 1 2 1 , , f f 1 1 r = < r f f j k f j f ; f x k > > > q e q q e e q w r w q e q > q e < < f f , 1 f g f f f f g 1 = 1 f f f f f f f 3 f f f r i f h h h 4 g j h h f r r = ; 4 g g g f f 1 < > > e e q e e > > r r r < r r r r r w r r e e r r h f 1 1 f h h h j f a 1 = r f f f j g g g g g h f 3 f f f 1 f k f j j f f k k < d k j k j f g j f 1 f k u e e r u u u r r u r w r < e e w w e > > e f r = < f g h h j h f 1 < k x x j h h g f x h h j h h j j f k j h x j f j x f 1 f h x x B x j x f 1 k x f d u d u r r r r u r r r r e r e q e e q r z j r r j j x x j j x h r r h j j h j x h g h h f j j f r f z j j x j f j f k a 1 f x x j x h j j 1 , k ,.f 1 r r r r r r u d d r < r u r r r r r r r f z r < d f f j j h f f 1 1 k x k i 1 f f f f f j f g k f 1 1 f j h l j f f f u r e f f j h f f f k u < p l r e e e e r r u r e r r r e q q w > > q e , f f = , f f l j l f f u = < k k k k f f f f f f f f h j x f 1 , r r i f k f f 1 , r f f j x f f f e = u k < > q q q 9 # # q e e e u q q e e q e r r r k f < u f l j k k f k u < r k r r r d d r r i 1 1 i r 1 r w r r f f f 1 r r 1 1 f f f j j f f r > < p k e > w r u r r > q e e % # q q 8 # @ @ @ q r r ",
", f 4 g 4 4 4 f r = & w 1 f f r ; 1 2 1 1 1 1 1 r 1 1 r 1 ; , i f f f r r = < r f f f f j h r ; f x k = # % > e q q e e q q q q w e w w e q > 1 k k r a j h g h f g g 1 , 1 f j l l h f f f f f f f f f g f f f f h j j j f r < 1 3 4 g g f 1 1 r > e u > % e e q > < e r r r r r u u u r e e e r r h f 1 1 g h h g f f f r < d f r f j h f g g h g f f j j r r f z f j x f f j k r k x f f f f f j f r k x u e e e e r r r u p p r r r r r w e q > > < f f < 1 f g h h j j k 1 1 k j j x A A x x x j x x x x x j l f k x j j j x x k r f x h h x x j A j 1 j x k r u k u u u u u r r r r r r r e e e r e r k k 1 a j x x j j x x j f i l B j h x x h f j j j f f f f f h j x j k f j x x a 1 k x x x j h z j a 1 k ,.k r r r r r r r r d d r r u u u r 1 r r r r k x r , k f a f f f k k r r x x f 1 r f f f f j x x h j j f f f h j f f f k z k r e k k h f f f f k f r k l r r u e q < r r r r u r e w e w w e q q > w u f , < f f f f f f f r > r k x x f f f f f f f l x B h f i 1 1 r , r r f k f r , r f g f f g h f < > d k e > q q 9 9 % q q e r e w q q e r e e < r i k i r u f l l f f k k u e u f r 1 u k f u r i i r r r r < < r f i 1 1 1 1 a r 1 f h f f f f f r < e k k r e e e r r e w w w e q q 9 q q 8 8 8 # q r i ",
"1 f 4 4 4 4 2 f r = O , r 1 < = O = 1 1 1 1 1 r , < , 1 , , 1 i 1 2 f f < = u f r f f f f f 1 , f x f = > e > > e e q q e > # q q q w w e > = r k k r d j h f f 4 g g 1 ; 1 h x j h f f f f f f h j h f g f f g f 1 f f f f r > 1 f f 4 f 1 1 1 r $ < u > $ e e > # # e r 1 w < 1 r r r e > e < 1 f f 3 , 1 f 4 g g g f z 1 = r f 1 1 a h h g g h g f f j f 1 r f f h h f g f j f 1 f j f f k f l f k 1 r k u u u r r u u r r r u u u r r w q * # > e > r r , r f f g h h h j 1 , f f h A B x x x j x j x A x j x j f j x f f j h j f r k x f g x j j A j 1 f ,.k 1 e r d d u u r r r e e u u e e r e r e e f f r a j h g j x h x x f r j j f f h x x f f f f f f f k h f x j j l f a j x a 1 j x h x j j j j f < k ,.f r r r r r f r w r r r r r r u r < < r e e k x < = f f f f f f f k r < f j f f f r 1 f h j x x x h h j f f h f f r f k k k < e k f f f f f j k r < k x f u r e > e r e r u u r e r r e e e e > = < r r = 1 k f f r f h l r > w u u f i f j B x j f f j h f f f f f f f i 1 1 i i , < r 1 f g f f f f < = d f e > q q % > q > * q r r e > > q r e e r r r k r < f k f f f f k l r = r k f r a f r r 1 1 f f i f f < = r f r , 1 i ; 1 r , f z f f f f f 1 < = f k r r e > q > > e q q e e % % q q # 9 9 # > u r ",
"1 f g 4 g 4 g h k , & r r 1 = O = = ; 1 1 1 ; 1 = O & , , , 1 2 2 2 1 r r < r f f f f f f j k 1 f x f < e r e e q q q w e q q q e w q > > > > u l k 1 d j h f f g h g 1 1 1 j j f 4 f h j f f f h j h h f f f h f f 1 1 1 i u < r f g 4 f 4 3 f u > r f e e r r e % > e r 1 r < 1 r < > < < e r r f f f ; a j h h g h j k 1 = r k j f f f 4 g g g h h f f f r a f f j h g f j x k r f f f j k z j x k r u k u u d d u u u u u r u u r e q > * # * > > < r 1 = f j g g g h j x f r f j B 5.B g g j B x j x c B B x j j j f r f j j j f r f x h h x j B x f 1 f x k < e r u r r r e r u r e r u r r r r e e e r f r f x j g h x x x x f r k f f f g x x h f 1 1 f f j j j h x x j f f r f k f r x x x j j x x x k 1 k m f r d k u u u r r 1 r f f r d k u r r r r r k k < < f f f j j j z f < < r f j x f 1 1 f x x B x x j h j h h j f f r f i d u e e k k f f f j x x i < f x k r e e r r r u p u w e w w r w e r r e > = r u , r k r r r f k l p < r p < , 1 l B A x h g f f f f f f f f f k k f r r u r < f f f f f z f f < < f k e > q q q q e q q q e e w q 9 q e q q e r i k f r k k f f f k j x u < u l l f f f f r 1 1 r f f f f f r i f r 1 i i ; 1 r , r f f f f f f f r < k k u e e q q % q q q q e r e q q 8 9 9 q q < r i ",
", f g g 4 4 g h k < & r f 1 1 1 , = = , = O = r 1 O O = = , , 1 r 1 ; 1 r = , f f 1 f f f j f = r j r , > < e e % % q w e e q q q q 0 * q r e r k k e < f f f f g g 1 ; 1 1 f f f f f f f f f f f h h f f f f f j f r i f f r < 1 i f h 4 4 f r r > r f r r e q # > > > < < < r r w < < < r r r r r f f ; r k h g g h f f 1 , r j h j h f 1 4 g h h h g f f f r f f f g j h j x f < r f j f h z j x k < r k p r u d u u u r r u r e e > > e e > > # = r f 1 $ 1 f g g f g j x f r k x j B h f f h h x x x j x x j f f k a f j j h j f 1 r f j h j x B f r 1 f x k e e e e r e e r r r r r e e u u r r r e < k z 1 r j x j h h x x j r r f f f g g h j x x h k j j j h h h j x h f f k f f f r k x j j j x x x k r f j f r r r d r 1 d r r r d d f k u u r r r e r f k 1 = u f l f f j k r > < r l h h l h h h h j B x h f f h j j h f r f j f r r e > u f f f f f j f 1 , f x i e e r u e e r r e e > e e e e r e e e = , r r & > r u r r f k f r < u k f f 1 f x j j h f f g f g h i i f r r f k f r r e = f z f f f k a 1 < < f k e > % % q e > e e q q e e w q > > q > > r k k i r r k l f f l x k e > d k f f f i f r r 1 1 1 f f f f f f r 1 1 r 1 , 1 r , , a f r f f f f r < f k r > w w q t q 9 % q r r e q 9 # % q e e < r f ",
"; f g j j j g i r < > u r i i f 1 1 = = O O = d r , = & O ; , 1 1 1 1 1 r < r f f f l j f i 1 = 1 f f < < < e q q q > w u u w q q # 0 e r r w r k k r < r f f f f a 1 1 1 1 f f f j x j f f f f f f h h f f h h h f f f j j f < , 1 f f f f i < = = u k e = # # # > > > < < < r e r r r r w r u r f f a < 1 r f j x x f 1 1 1 f h g h h h f 4 h x h g f f j j f h f g j x j f h d < r a f j x x j f u < r k k u r r u u u u u u r e e e e r r r e > $ r k r $ > r f f g j j f 1 r k j j j h f l h h h j h j c A x f f k f j j j h j f 1 u f f j c c j f r 1 f m k e e w e e e r r u u r e e r r r e r u r r f j a r f h j x x x h f r r f z j h h h j x j j h h h j j j x j f f f j x j k a r f f h x x x z f k f f f r 1 r r r r f f f f d d f k f r e < % > < r k k r < u f j j j x k < > r f x j l x B x j j j B x h f f l l h f f f j j j k d < > u r d f j j f d r 1 d z r < e r r r r e > > w e q e e r r q # > > < u u & $ < r r u k f r r < r k x x f f h x f f f f f f x x l f f f f f f f k u e < r f f j f 1 < < e < f k r # % q q e e w w w q e r r e q w r r e e u k r < r u k l x x k u > < k k k f f i u r r r 1 1 1 f f 1 r f 1 , 1 f f r r r , , 1 u f k a 1 1 < e k k e > e q q q q 9 % q u u q % % # % q e e e r u ",
"; f : 1 g h 1 ; , < & r f 1 2 i 1 1 1 1 = , < < 1 1 , = = ; , 1 1 1 1 1 < > w < 1 k f r 1 1 r = 1 f 1 = r < = > e > > w r w q q > q q e r < w u k d < > < r r f f 1 ; 3 1 ; f f f j x f f f f f f f f f f f h f f f h h l f u , 1 1 ; r f r = $ > > r u < $ # q > # > e < < < < r r r r 1 < 1 r f f f 1 < u 1 1 f x f 1 r f 1 f j g 4 g h f f g h g 1 1 f f f f f f f f f f a k a r k u r k j j f u f 1 r k p r r e r u u r u r e q e r r e e e < < < < u < $ < 1 ; f f f f r , r u f h h j x h g g f h v j j x h f f f j x x g j z d < k f r f x x f r d r f m k < e w r e e r e d u e q r r r e e r r r r f j f r 1 3 h x x f f f d 1 f x j h f f h h h j h g f j x j h f 1 1 f j h x j 1 1 f a f x x f 1 r f r r f r r r r 1 a d d f f d d k d r r r < = = < r k k 1 < u r d j x k r < r r f j g h j j j f h x x h h f h f i f a f f f j j j u < e r < r k x f r r k < r f r < e r r r r e q q q # # e e r e > # % < = r u = < < = w p u < r u w , f f j k r r z f 1 a f 1 1 f z j f f h f f f f k d e < < < 1 f f < = r < = u k e # % q q % q w r e q q w w w u u u u e > e f r < r < r k x k r r r < u x h f f r 1 r 1 r i 1 1 1 r 1 1 1 1 r 1 1 1 1 f 1 , < = > r r 1 , 1 e = d k > > q q q q q q 9 9 r r q % % q q % q q > r u ",
"1 f 3 1 4 f 1 , r < O r f 1 f f 1 1 1 r r 1 , < 1 , , 1 1 , 1 f f i 1 1 1 = < > , f f < , f d , 1 l r < e e < < w w e q > # 8 q e q q e e e < r k f e r k r , r r 1 f f 1 1 f f 3 f f f f f f f f f f f f h f f f j l h h j r , a f 1 1 a 1 = < e > r u < % q q > > e e < = < < e w w < r r r r u r r 1 1 k f 1 a 1 1 1 f f 1 f j g 4 g f g f f f 4 r a r 1 f r f h f f a 1 f j f r k k a a f r r k x k f x k r r r r u u u r r e e e < r r e > > > < r u < > d f 1 r f f f f r r u f g h j x j h f f f x v x x j h j j j j x j j z f e k x a r f f f f k r f m d e e r r r r r u u e q e u u u r r r r r u k j f f f a j j f 1 f j f r f x j j j h f h h x j f f j x x j f r f j j h x j 1 1 x z a z x f 1 f j a f k f r r r r d f f f f d r r d d d f d u r r f k z r < d r < a k u < r d 1 f j h h j j h f g j B x j f f f i r f k j j j f f u < r k r < f k r 1 k k < r f r e r r u u r e r q q # q e r r w > > % e < r u > u u > < r r < u k r r f f k f r r f f f f f r ; , 1 f h l l j x j k k u e e d 1 ; a u 1 1 u e > u d e q e w w w w e r e % q w e w r u r > # > r k r r k u r f f r 1 k k < u l f f k k f f d r r r r r r f r 1 a r 1 = = r f r < r r = > u 1 1 f u > d k < > q t q 9 q q q 9 q q q q q q e q q % > r u ",
"1 f h 2 ; 1 1 f r = O , f 4 2 4 f 1 = , < = = 1 , = , 1 1 1 1 i r 1 1 1 , O 1 f ; < r < 1 f r = 1 k r = > > r r e e q # e r q > 9 9 q r e > > e k k < u x k , = 1 f f f 1 1 f f f f r f f f f f f r 1 f f f h h h h h j j f 1 , a z r = = r f d e O e u = # > > % e e q # = r r < = > < < u r e < 1 a 1 1 f h f ; < 1 a k 1 1 f h 4 4 j h 4 3 f g f f r f r 1 f f f f f i f z z d < k m f < 1 r f k l f f x k r e r u r u r e < f k e $ < e > e e = > w r < = d j f ; , 1 f x f 1 d f 4 h h h h h h h f f x x x x h h x j h x j h k r , f x k 1 1 d j x f r f x d e e e e r y e e e r r e e r u u r r e e r f f 1 f x f f f 1 f x j r r j j f x h h g h h h f f f z h j x j h j h h j j f r 1 j x f 1 d f f j f 1 f x f r r u u r r u r r r a r r d u f k d u u f k u < , f r = = r 1 1 f r < i j f f h j f g g f x j f f f k r r f f f j z f r u < e k k 1 < < , r k d = 1 k r r r u d r e q q q w u r > e e q q e q # < u r O r k u = # > r k u < , f j f i r 1 r r f f f l f r 1 f j f f j x j f d u > < f 1 , < < r r r r < r r > 9 e e w r e w q r r e > e w w w w # # > r k < < k k r r 1 1 a k u > r k f f f k k r r r r r r r 1 i f 1 ; 1 1 1 1 r r 1 , r d < = > > r r r < d k < % % % 9 q 9 9 % > e > 9 q e q q q 9 % % e r ",
"1 f j g ; , f j f = & 1 f 4 1 4 f 1 , = = = , 1 < , = , r f r , = , 1 f < = r k z r < r k k u , 1 z r = # > e r e > q w k k r > % q e w q % > r k k r r z k r 1 a k f 1 1 1 f j k f f f f f f k k r 1 f f f h j h h h h h f 1 , r z f 1 < d k k r $ e r > # # # % % # # > r i f r < > < r < e < < r d 1 1 f f f f 1 r z k 1 1 f j 4 4 g f g a 3 f f h f f f f f f f f f f f j j f 1 k x x d r k x j f i k x f r u u u u u r r f j k r > > e e e e e > e d r < r f f 1 ; f z j i r f f f f j h h h x x j f f h x c x x x j j j j j f r < f j k f f j M x k 1 f x k e e r r e q q q r k x r e r u y e e e e r f f 1 f ,.x f 1 f x x z r a j x j x x j h j x j j f f f j j x x x x j j j j j f r j x j a r k x j f r k ,.k r r u u d d u r 1 f j f r u u u r d k u r r r , < k k d u u a x z r , f j h h j x j x h f f f f f h k f f k k k j f r d k e r x x f r > r z k r , r x a r r u r e e 9 # e u k f < > q q q w q # = u r = < k k < # e k k p < r k l h j l k k r i f l j j j f f f j x j f f r r u e q k k r 1 r k k k r > r r # # 9 e e w q e r k m x u w w w w q % q > r k r < k k k u 1 f x k r < u k j j z k 1 < < r f k r 1 r i 1 1 ; 1 f f r 1 f 1 < r k d < = r k d < < k k e > % % q t q % > r d r > q e e q q q 9 q r u ",
"1 f 4 g 2 f f f r = & r f 2 4 4 a a 1 = = = = = , , O = 1 r > O = 1 1 1 < > r r k f , u k r r 1 1 f 1 O # % # % > # > u i f i e # 9 q q > e > < f k r r f a f j k 1 ; r 1 1 f f h j f r f f f f f f f r f h f h j j h g g f 1 = 1 a f f f f f r < = < r = % % # @ @ @ # r f 1 1 f 1 & = < > > e r < a f 1 r 1 f z 3 f f a , ; f g 4 g 4 g g 3 1 1 f h f f k f f f h h f f f f x f r d d k x x x z f u u f x u r d r r u r < u l g 3 r r = > e e q q # < f 1 < r 1 r f k z a 1 r r f l f f j j h h h j f f f f h j x h h x x j h f f u < a f f j m x k f d 1 r x k e e e e q q q r z x x f e q w q q w w q e k j r r j x k f x x f f r r j x x x j j j j h j x f f h j h f h j j h x h j x f r k j j j j x k f f r f x z d r u u u u < r f j j f 1 < r r r u u r 1 d k 1 , f f j x f a z k 1 1 j f h j h h j h j x h f f j f f f f f j j k r r u r < r k f f k k k f r e < d k r r r r q q 9 # % w i r r r $ # q # % q # # r r O $ e r u u k f r r > r k f h j x x d , r f f i f f f f f f j f f f f f u < # r u 1 r i f u r e = e r % # 9 9 q e q e k x j l k < q w q q q q > r k r < r r f f f x f r < < d k f f f f f d d 1 1 a 1 < r r r f f f f f 1 3 f r = e d u r r d u < = = u u < r e e q 9 % > r f f r > % q q q e e > < k u ",
"f f 1 1 f j f 1 < < & u f g g f f a r 1 r r 1 = = > = # O $ = = < 1 1 r w < i r r k f r 1 < r 1 a f r O > q > % $ > r r 1 1 i u > # % q > q e e f k r d d 1 f x a , , r 1 r f f h j z f f f f f f k f f f f h l j h h g g f r < r 1 1 f j f 1 e r < r r = > q @ @ @ # e u 1 1 2 f r < > > < e e r r f f r r 1 r k x j a 1 < 1 f h h h f g f f 1 1 r f f f f f f f h l f f f j z a r k r 1 z m k 1 1 f r f z f u d u u r r d k f f 2 f r r < e q % # # r z r < e < 1 f x f < = r r f j f f f h j j h g 4 4 f h h h h h j j x M x f f k r f f r f ,.x r 1 d r f x k d u r y e e r k j x h x f e q q t y w q e z x f r f f j m x f 1 d r r z x j h h h j h h j f g h x x h f f k x x x h h x f a k f f B 6.j r r f r f j k d u d u r r r f j j h j f 1 r r u f u r r k z r r k r r j k f r r r r x x f h h h x x x x j j j j j k f r d k k f r 1 r d e r f 1 r x x i < > r e a l f r r e e q > q r u i 1 1 r e # # # # # # = d r = > > < u k k r < w < r k j j x j r , , i i f 1 1 r r f j f f f f f k z k r > > < < f k r O > e < r r q q 9 9 q e e d k k f l k u e q q q q q e u k r r u r 1 f x l 1 , r e u l f f f f f z z f r r ; < r r f h g f f f f f f r < < < r k k 1 = > > > r u < q e e q # > r i r 1 r d e > > e e w e < k u ",
"f f 1 ; 1 f 1 , < > # r f i f f f 1 1 1 < 1 r > = > < = $ $ = w = = 1 r > = d r = r r < = , f 1 1 f r = # > > > $ < r 1 1 1 1 r u > # $ % > e r f f r d d > e r < > 1 r < 1 k j f f j f f f f f f f f f 1 1 f j f f f f f f r < a 1 = r k a = > e < r r % # > q @ o < u 1 1 1 1 2 2 i 1 = < r e 1 a z a < r < , r f a , < 1 , r g j h f f 1 r 1 f 1 1 f r f h h f f j f f f f f r u k r = r f r < r k 1 r j f r r r r e i j j f f f f 1 f r > > q % > r k r , r < = < d r , r d < 1 f f 1 f g g h A j j h h h j x h h f f j j f f f k 1 f f < 1 k z r r k 1 r j k k d d e q e k j f h h h j f , < e e e r r f j f f f 1 f x k 1 r k e < f h f g f f f h h g g h j x j f f f f f h j x x j f f k r < k x f ; d k 1 f x f r u d u 1 r j h g h j h j f a r r d u r u k k r r f < = r z f = r r 1 k j g g h f h j j f f f j f f f u r r f f f f 1 r d < r k = = u d < $ e r < r x f r e e e > < k k i 1 r 1 1 r < @ # # # > = r u & > r < < r u r < r e < f j l f f 1 = r f 1 1 1 1 1 f f f a 1 r f i i k k > # > # O r d > # r < $ e r > # 9 q > e u k f f f f f k r > > q 9 % r k k < < k r = e d u , < r < r j f f 1 1 1 f f f f r r r 1 1 f f 4 f g f 4 f r 1 < e > = r r = = e e # r u % # 9 9 % % r k u 1 1 1 f z u > e w w e < d r ",
"f f r 1 r r r r w < # r r 1 1 1 1 1 r i 1 , $ $ $ e r < = = < 1 , = , 1 , = r r > > > e < r f 1 1 f f < > > > > < u u r r f f f k r > $ % e r r k f r k d e > q q e r r 1 1 j x j j k k f f f k f f f f f f f f f f f f k k r 1 f r = r k r > q q e r r % # q > # > u r r f i r r i f f r 1 r r f f z a = r r r r r r < r 1 , f f f 4 1 f f r 1 f 1 1 r f f f h j j k f f r r r d u k r < r r r r u f r f x f u u r r u j j h f f f f f f f r > q e r f j 1 < r r < < e < < u k r a j h f f g h j x j x x j h j j j j j z f f 1 g x z 1 f f < > r u r r f 1 f j f r r r e e d k h h j h g h h f r < e r u u f h f f k a f k d r f k r e f f f h f f h h h h B B x h f f f f f f h j j x h f 1 k d < a f r < f z f f x f u r r r a h j h g f g h j x j f r r u u f x x 1 1 k e = e k u < r d < 1 f g f h j h f 1 f f f h f f f f d d r f j f r f u < u k < % e r e < r r < d l r r r r e e p k f f r 1 r i i r < # % q w r k d < e u w = > w r r u e < f k f i i r , r u r r 1 1 a f f r 1 < u f i r f r # # e > # q r > > e > $ r u e q q e e u k f f f f f k j k r % 9 q q r k k 1 e k d e > e r 1 u r < r f i f f f r f i f r a f f 1 1 1 f f f g f f a r 1 > r e $ % < = < e e = r k q # 8 # 9 r k d u r u f f j z u > q e > < f d ",
"r f r < e < e r e > $ r f f r 1 , 1 r r f 1 $ = < = 1 r = $ , 1 1 - ; 1 , $ 1 r > # % q = r d 1 1 f r = $ # # > u d r r r r u i f f r = O > e r f f r u a > $ % % < r r 1 1 f k k f f f f f k f f f f j f f i i f f f f f f r < a r > > < > > e > # r r @ # # # < r r 1 r u < = < r i i f , = < d f f 1 , r u < < = = e r < < f f 1 1 1 f a r 1 1 r = , r 1 1 f k f r 1 r r r f f 1 f a < r r < r r r r a z f u u e r j j f f f a ; 1 f f f f ; % % < k h 3 1 1 < < > q e < e d r f x g g f f g h h h g h j h f j x j f f f f f f h f 1 a r < < < < < < r r f x f < e < < d k h h h f f f g h j f r < r u u f f 1 f k f u r r r r f r < f h f f f f f g j x x x g f f f f j j h x j f h j f 1 f r e r r r r f z f f x f r r 1 a h j g h f 1 1 f h h j j f < e r r k x r r f e > > e e = r r = ; f f f f z f 1 1 f j f f f f f j f r r f h f f r f r r d < % e e < r r r < r f r e e e > r k f f d < = < r r r r = # % q u k a = < r > O # q > r r < < u i 2 f f r < , 1 f i 1 i f f f 1 < r r u d r r r < < e % # # # # # > q > r r > q w q r k f f f f r < f f f f < $ % 9 > r f r < u r > > < < r u 1 = 1 f 1 f f a 1 1 a f f f f f 1 1 3 4 4 f 3 f f 1 f 1 = r e > e > e e < > > p k % # @ # e k u r u r < r f f k k < $ e e < f f ",
"f k r < < e < r r e = d k f f r 1 1 r i f r 1 r r r 1 r r < < 1 f 1 1 1 , = r r > > 9 q > r k 1 ; f r O # % # r d d k d < # < u f f f r = O > e f f r u r % > q > > < u r 1 r f a f f f f f f f f f f f j x k f f f f f f f r r d u e < e > q q > > r e # # # > u d 1 r r > # # = r i f f r < > 1 f z f , u u e > > > < u r < r 1 1 1 i f f a 1 f f 1 , r 1 r f r 1 1 1 r a a k f r d 1 < r r < r 1 d r r k f r r r k x h h f d > O > d f f f f r = < d j f 1 r r < > q e < r r r f x h f h j g g g g h h f f j j j h f f f x j f h f 1 a r < < < e < r u 1 f x f 1 e e d z j h x h 1 , 1 f h h j f r r u u f j f f k u r r r r r d r r k f 1 f f h f f j j f g g j j f f j B A c x j h j f f f r e r r r r f x k j ,.k r r f j j j x j f , < f f h h j z r < e r k j f f k r e e e < < r u , 1 f f f h f f i f j j f f f j z j j z f f f x j k k a k k e > e e < e r r < u k r e q > r f f f f r # # > r r f f r < % > r k k < < e # @ # > > e u r < i f i f f f r , r f f f f f j f 1 , u u u k f f f r r r > # # # # @ > > < d u > # > e f k f f f r = = r f f f d e % > > r f r e r > > < < < < f r , 1 k f f r r 1 1 f f f f 3 1 1 a f f f f 1 1 1 f f r < u r > > q < e e e e k k % # % e u d i k u > # e u f f k d e > e u k k ",
"a f r $ > > % > r < = d f f f f 1 1 1 1 1 r 1 < r 1 1 1 r 1 = = 1 1 1 f 1 = r e > % # # % e u 1 , r 1 O O # r u r u u q @ X @ r k f f f 1 O o > f f 1 r r = > q % # = r 1 1 f f f f f f f f f k f f f f f f f r f f k f f f u < r u e > > > > % 9 # < e o o > u r 1 r r > @ # q > > u i f f r = = 1 f r < r r < # # # # u r $ < 1 f f f f 1 f f f f i r r 1 r f i 1 2 f f f f f r r f 1 1 < e < < 1 d < 1 f r < < f x f f h k < # # $ < f f g f f = $ r j f 1 a r > > > > > < e 1 r f j h f f f 4 g j j j f f h h h f f f j j h g f f , r r = e r < < r u 1 f x a 1 1 f j h h x j r = > 1 f h g j h f r e r f l r f f r e r e e e r r 1 a 3 1 f h g f f f g f 1 f f f f f f x x x A j f f f f k u < r r e r d k f h x f r r z x j j j j 1 $ > < r j j h h f 1 = 1 f k r r k r < r e > < < r 1 1 r 1 f f f f f f f g h f f j f f j j f k j j f f r < d d e q % e > = < e = u r > > $ > k f f f u > @ @ # > r r a f r = # > f f , < > # # # > # > r r r r 1 i r r f i , r f f f i h j h f 1 , r f i r f f < > e % # 9 # @ # % % > d r = # < u f f f l u > # % > u f 3 f a < O # e u < > q > > > = = = r r < f f r 1 < ; 1 i 1 f f f : ; 1 f 1 4 f f f 1 ; r f r = r r $ > > $ < r > > p u # # e u i r u r q # # > e f f f k k r e r k f ",
"f f e > > > > < r r < f z f f f f f 1 r f f a r , , 1 r a 1 1 , , 1 f f r , 1 r > % q % % e u < = f r O # e f f k u q @ @ @ # > u k f f f 1 = < k f < r u < q e q % = r r 1 f f f j l f f f f l l f f f f f f f f f f k j j f < r u > > > > q q 9 # r u $ # r f r r u < # % q q q > r p k l z d 1 1 k f < r r = > > > > r = O r r 1 f f f f f f f f f f i r f f f f f f f l h j f 1 a 1 r r e < > r d 1 a f < 1 f j j h f f r % # % 9 > 1 f j h f r , r x g 1 r r > > e > > < r < 1 a f x x f 4 3 g j j j h h h j h f f h j h j h g f 1 r r > e r r e r u 1 f h a 1 f j j h x j r < e e r 1 f h h h j f r r f j r r d r r r e e r u r 1 a 3 f j j h h f f h f f f f f j f f j B B x h j k r r k r e r r r r u f f j x f a f j h j x h r > q e e 1 f j j j j f 1 , i z f r k d e r r e < r r , f h i 1 f f f f f f f f f f f j j f f j j f f f f a < r d e e q q % $ e e = r r < > e u k k k u e # @ @ # > e r f f f r = = k k < < e # # > > > e r r r k k k i i f f f f f h i 1 f l j j f i i i 1 1 f k < > > # % q 8 # # % > > d r < < f k f f f f r > > e q < r f f f r = # e d < # % > > > > > > r 1 ; r 1 = < r r a f f f f f 1 1 r f f f f i f f r 1 f f , r u > q q $ < r q > w e $ e u p d u u % # # 8 q e r k k k x k u r f f ",
"r f e > % > > < e 1 , f f f 1 1 4 f 1 f f 1 1 r 1 1 1 1 1 1 r 1 1 1 1 f r = < < > > 9 % # e r $ = d r = < u r u u q @ @ # 9 # @ > r k f f f f 1 f f = r u > > q q > > r < 1 f f f f j f f f f f f f f f h f f f f f f f j j r , r r % % % # 9 q # # e r < < u r r r > # # 8 @ # q > > r u f k l f 1 r 1 = e , = > # # > < = O r r 1 1 f f f 1 f r r i 1 i f f f g f f i f f f h f 1 a 1 1 r < > = 1 r 1 3 f f f x j f f k e % 9 > q > = < 1 f f f f r 1 j f , r r = $ q < > r r = 1 1 a j x j g g g h x h f f j j g h h g j x h g h f < e < > e e r < r f 1 1 g 1 4 h h h j z u < e r e > < < f j g g x k 1 g h r r f r r r w e r u 1 1 h h h h h j f g h h j f 1 f f f f f f h j j h f f r r d r < e r r e u f 1 z x f r j j g h f r r r r e e e 1 f j j h j f 1 1 f a r f r > e e > > e 1 1 l B g f f f f f f f f f f f f j f 1 r f f 1 1 g B k = < a e > e q $ > u r $ r u < w k k f f d e # # 8 @ # # > 1 f f f f 1 , f f , < w # # q q > e u < 1 k f f f r r i f f f f 1 = 1 f h h l f r 1 r 1 r r < = e # # 9 q 8 @ > q = 1 1 r f f f f f f r > > q > * # < f r 1 f r , < d < $ q > # > $ $ > 1 , = ; 1 i i f f 1 1 g f f 1 3 a 1 3 g g 1 1 f f r < r < < u r % # % > > e e # < w < r u r r q 9 8 # 8 q q % q r k k z k k d r k ",
"r k r > > > < e d r < f f f f f f f g f 1 1 1 1 1 1 f f f f f j f f f r 1 = e e > q 9 9 % e r = = d r 1 d f f u > @ @ # e e > % # = r f f f f f f 3 < r r > > q > < r f 1 r j j f f f f f f f h j j f f f f f f f f f l f f r , r u % 9 q % 9 q w > < < = = r u r > # @ @ @ q r e q e e r r r f f f a 1 = r 1 = > % # > r < > u i 1 1 , 1 r 1 1 1 a f i 1 f r 1 f h f 2 f g h j a 1 f f r r e > 1 d f 1 f x j h h h j k r % 9 q u k r < < > , a h j f f f 1 ; a r = > e e e d d < r k f f j B x h h j h f f f h j j h h h h j h g j k r r r > e e e 1 f f 1 r f g h j h h f r r w r r r e e e r f h h g f g h h f f k u r r w e k k r 1 h x j j h f g h h j x j h z j j l f f h j B j f k u r k d < e r r r f f f f j f z x j h f 1 r r r r r u r < r f j h j j f f f a 1 f r e e r < < d r 1 j A j f f f f f f f f f f f j f a r f f f 1 f g B j r r d r q q q > r k r = r f r f k k k u > # # # q w q # q < r r f k f f f f < 1 r > # q q > r d < r k u 1 r r u f f f 2 2 1 , 1 f f f f i i r r r r d < = r > % 9 9 8 % e r = < 1 i i 1 1 i r r < e w w q q * * < r 1 f f 1 r f 1 e u e % > > $ < u 1 , 1 f f f r 1 1 i f f 1 f f f f f f f f f f f r < > = < f u # @ # % e r r < r u r r u r q # 8 8 9 w u e > q > e k k k m k k k ",
"r z d < > < < r f 1 = r f f 1 f 1 f g 1 1 r a r , 1 r r f f f f j h 1 , < = , r > # 9 9 % r r $ = r r 1 r f u # @ @ # * u u e # # # = u f f f f f 1 , r k < % q > < f f , 1 k f f f f f f f j j j f f f j j f f f f f f f k u = r k > # q 9 % e r = = 1 , ; u r % o @ @ # e d k r > q # > u i r f f r < , d u = # # # > r , = u r 1 1 < 1 a i 1 1 r r f r 1 1 f f g h f 2 1 g f 1 1 z f < < e = 1 f f 1 4 x x h h f k r > q e < f f f < $ > < 1 f g g g f 1 , r f < $ e > e f r = d j f f f x j h h h g f f f f f j h h j f f f f f f 1 r u > > e > < k f 1 f j j j h j f 1 e r r e u k r > e w r f h h g j j g f f k d r e e r k k 1 1 f h h j j g f f g h x z f h h h h f h f h j f f j f 1 k k < > e < r j f 1 f x j h x B j 1 1 r r 1 d j r > > > < a h h h j j g 1 1 f f < > e > < k r 1 h j g f f f f f f f f f f a f f r f f r f g g f f j 1 a z r > q % > k k 1 = r f f f f k k w # 8 8 # u k r # % > > r k f f f f r = 1 u > @ % > # e d e > r < = w r r r i 1 1 f f i 1 1 r r 1 1 r f r 1 r f < = e % @ 8 # @ e u e # 1 r 1 1 f f 1 = > e > < u r # # # # = r r 1 1 1 r , < u u $ # % # < f 1 = r i i f 1 r r < < r f r 1 f f 1 ; 1 f f i 1 < < r < = u r O o @ # < u e e k i r r r > # 9 8 # q u u r > # > > e k m k l l k ",
"f x k r > e < d k r , r f f f f f f 1 1 r 1 r r 1 < , 1 1 1 i f i 2 1 1 r < 1 k e % 8 9 q d d > < f a f k u > @ # 0 q r f f u > # > > < a j f g j f 1 u k 1 > < < r f f 1 1 f f f f f k j j j j j j f f f k f f f f k f f z k = r k r # # % > u d < 1 f a a r > @ . + # e d r r f u q # > r k k h f f < 1 k k < # # > r k < > r r 1 r r 1 1 i r r r f a 1 1 1 f f f g g f 4 f g f a x x d < e > 1 z f 1 f j h h j z u e q q r f f f f r > = e r 1 f j g f 1 , f j f < % e k x f < k x z f f f x x h f f f j f f f f f f f f f f f j k ; a k r e e < r x z 1 f x j j x h r r w e w f x x l r r r u r f j x x c j f f x k r > e k x j r 1 f h g x x j j j j x j f f h h g f h f f h j f f j f r x x f < > < f x h 3 h x x A A j f 1 r r r a j j f r < < e 1 f j c j x h 1 1 k j a < e r f x f 1 h h g f f z h f f j j f f 1 r i f f f f f h f f j f r k M k e % q r k k 1 = u f f f z k e 9 9 # q u k k k e > > > < u f l g f r , r k e # # > > u k < > r > > e r r r r r 1 f f k u r 1 1 1 r r f i r f k r > r e # # # # r k e # < f f f f r > # > q > r k f w * 0 q > < r f f 3 f r < k k > @ # % u k 1 , r f r a f r w = = < 1 1 1 f 3 1 1 1 1 r r 1 , r k r < r k > o o # r u e < i f d k p w 9 8 # q u i i k u > q q q r k m m x k ",
"f j j f > % 1 k k r = r r f f f f 1 1 f 1 1 r 1 1 r 1 1 ; ; 1 r r 1 1 f r = 1 k u < @ % r d r $ r k r f f < # % % # < d r 1 f u $ % > = < f f f f f 1 r f a < = 1 f f 2 , < d r 1 f k f j j k f f j h f 1 f f f f f f f f k u = 1 k d = o # r d e $ 1 f 1 r e @ + + o % d a 1 1 d u < > > > r k f f f < = f k r O O < u u = & r 1 , 1 r 1 < 1 r 1 1 r 1 1 r f 1 f f 4 f f 1 : f f 1 x 4.z < = e f f f 1 f h f h z d > q e > r f f 4 f f 1 $ > > = 1 f f j 1 , 1 f j f ; f x h 1 ; f z f r 1 f k j h g f j h f f f f f g g f l f f f f , r x k r > 1 f j f , 1 j j j k r r r r < u x x h j x k r r u r f x c A x f f j x r = 1 x x f 1 1 f f f g j j h h j h f f h j f f h h f f j f f l j f 1 f x j f ; : j x 4 1 j j h A j f 1 r r < r j j f k z r < e < 1 f x j h j 1 1 f x f a 1 r l k r 1 f h 4 2 f f f f f f l k a r r 1 u d f f f f h h f 1 ; f m z r % > a f a ; $ d f f k k e % 9 9 > e u u r k d > % q > < r f f f 1 = 1 k i < O = r k u # > u r e > e r 1 r i 1 1 f i , = < r 1 1 1 1 r f r u < O r u > o o > u u # # r f k u > # # # # # r k f f k w # # q # < f f f f ; < k f < @ @ e f f 1 = r f r 1 r r r < = = , r f f 1 1 r 1 , 1 1 1 r f f r = , i r = O = r r > O r r f k r q 8 @ q u u < r k k r > # # # r x x k i ",
"f j x j a 1 k x x r , d f r r r 1 1 r f 1 f f 1 1 f k f r 1 1 r f f f k d , 1 k k r = e k k r # = r f u r > % q > < r r r f f f r > > > > r f j j k r r h f 1 1 f f f i < r z f 1 a f j j f f f h h h f f f a f f f f f f k k < 1 f k r = = f f e O r f a < % @ + @ 9 r a a f r r u u r e q e e r f k r = r k f < = r k r , = r r 1 f f r < 1 r r r r 1 1 r f f f f g g f 1 : f k r z 4.M k d k x z k 1 1 h h f d e q q e d k f g f f f f r > % > < 1 f j f , r f h j x x j h 1 1 k j f a f f f j h f f h j x h f f h j h j B j f f f 1 r x x f r f x x f = 1 x j f r r e e r k x B B B B A x k u r r r f x A x f f x ,.x f k x x f < < f h f f f j j g g f f f j x j f h h h h j f f h x f r f j j j f h x j f 1 k j j j a r r r r r k j f f j x j d r < r a f f h x f r f h x j h k z k r 1 f h g f f 1 f j j j f f f f a r r r f f f h j f f r < a m m k r u f f a < = d k f f u > q 8 q u k u r r f k u e q q > e d f j i , 1 k l f u d k k e O e d k r e e < r u i r f f r > > 1 r a f i r f f f f < # r k u > > r k < @ # r u < # # # 8 # # e k k f f r r < # # # = 1 f l f 1 < k k r # > d k f 1 , r i 1 < < u f r r i k f f f f f f a 1 1 1 r f f f u = < r u k u u r r = O w k u r q @ # 9 u k u r r r k k e # # % e u k k i ",
"f j j j j j x j j f , f f f 1 1 1 f f 1 1 f f , = a f f f f i i 1 r f f u = , f f r r u k f e o $ r r < # # # # > u r 1 1 r r f k u # # % = 1 f z f < < f f f f f f f r < r k l f f f h f f f j f g j h f f f f f r f f f k f = , r r f a a f r < O = r r % # @ @ # r a 1 1 r 1 r u k < q w > # < u f 1 $ < r r u r u r < < = e r < 1 r 1 < = < r r 1 1 1 ; 1 k l f f f 3 : 1 f f 1 f x x x x k f j f 1 1 f f r < e e > r f f f g 4 1 1 f f < # % $ > d f a = 1 g g h j j g f 1 ; f k f z f f f g g f f g h j j g f f h h j j l f f f 1 1 j j j f f x j r = f j f r e r e < f m B j j j j j x j u < w e r k x h f a j x x x j j z a = < f h j f r f f f f f f f h B x g g h j h f f g l j f < d j g g h g g f 1 , a k f r e r r 1 f j k r 1 f j j x x r < e r 1 f j f f 1 f j g h h f f f r < k f 3 f f 1 3 f z h f f f f f r r r f f f j f r r d < > k k k k k r r u < O r k f < > 9 % % r k f r r r r r k r > q > $ > d k k , , i f f f k r r > o < u r u u e = < w r f f r 1 < > = < f k k j f r u r # X # r k u r r e # @ # e e # o @ # @ # r p r r 1 1 , r u < # # % > r f f 1 = r f f u u i i u , O e r f r = r r r f j f f 2 f f 1 1 f f 1 1 f i f k r O , r r r u 1 1 < O O r u e # # # % u k d r e < u f f u e # @ # > < u k ",
"f j j j h j x j j f 1 f j f 1 1 1 f f f f f 1 1 1 a f f f f f f f i r r r = 1 f f a r f k f r O < d e $ # % # < r f f r 1 1 r k x z r % # % < d z f = < f h f f f f f r < r k j j f h j j j j j h h g g f h j l f f f f f k d = = r 3 a f g f 1 > O < u e > % # % > d f f a 1 1 r k k i e q q % < u k 1 = < r 1 1 1 r d f r < d u = = , 1 1 , < r r r a f r a f f f h j f 3 z z f 1 r f z f k f f f f 1 1 k d e e e e u j f h h h f f f f f f r q % > e d 1 = r f g h g g j j 2 r f k j j j j f g g f f f h j h h h f h x j f f f f f 1 f h j x B x x h a < f x f e e e r f x B A B j j j j B B k u r e r d x z 1 a j x x j h h h r = < f j x j f f f f f f j f g j j j x j j h f f j j j f < f j g f f 4 g f 1 ; f z a r e e r f j j f f f f j j x x z r e e r f j j f 1 f h j j j f f f d 1 f f 1 1 f f 1 f f f f f f h x x k f f f h j f r r f r > u d f f d r r r < = u f 1 > q 9 9 e k k f f d f f f x k r e q % > r k k , , 1 r i 1 1 1 r e $ < u f f u r e e < r r a 1 r r e > > , 1 f f f a r > @ X @ > < < r r < = # # e e # @ @ @ # e k k r 1 , 1 1 r f u e > q e < r f < = u f f k i r r r = O r f f f 1 1 r f f f 1 1 2 f f r 1 r 1 r f f f f f < # e d r 1 , , r r & # u u % 8 9 # e k k k k r r u f r u u e # % % > r k ",
"4 h h j j g h j j 3 1 f f f f 1 , r f f f 1 1 f f f g g f f g f f 1 , r 1 = ; r a f r f f f r = e r e # # # # u k f i f r r f k f f k e O $ < 1 f a = r f g g f f f i r , 1 k f f f f f f k f g f f g g h f f f f f f f f f r = = f 1 : a f 1 r > = r r % % % # < r 1 r f r < < r f f k r * 8 q q e f r $ < u 1 = < 1 r f < = u r = , r 1 1 1 , ; 1 1 r f a 1 1 r f f f 1 3 f z f ; r z z f z k f f f , 1 k r > e < r z f g g g f h f f 4 a f d > 9 q > r r > 1 f g 4 4 4 h h 1 1 f j f f h h f g f f f h g g h j g g h h f f f f f f 1 f h h j j j j h f < f x r < e e f x A x B B j j B B j j j f r r r r k z a 1 j x x h h g f f = , f h h x f f f f l f f f f f j h f f f f j j h j x a < f h g g 4 g f f a , u z r e e < f x h g h x x j f h x j x z < > r r k x r 1 f f g g h g f f r , r f 4 4 f f f 1 1 f f f f j h f i f z f f f 1 1 r r , < r a f r r r r r r $ e r = q q # q k k d a f x k f f f x z e q q % > u f , , f r 1 1 1 1 f r > < u k u < < r r r < = < r < % $ $ $ = < < r r r > @ + X # = < r 1 < r r # o e e @ @ @ @ e f r 1 r 1 1 r r r r k u > q e > < u r = e f f f 1 1 r r O O r f f f f ; 1 f f 1 1 1 f g f r , , 1 1 1 f l f 1 > > r r r f 1 1 i 1 = O u r # 9 8 q d k d k k d u r r f u u d r # @ q e r ",
"g j h j x g g h h 1 1 f f f f f 1 1 1 1 f 1 a f f g g f f f f g f 1 1 r u , 1 f f f f f f f u < u k r q # > u f f f f f f f h j j j z f > $ < < 1 r < a f g f f f f f f 1 r f f f j j f 1 i f h g g g h h f f 1 f h f f f k d , 1 f f 4 1 1 1 r r > r r % % % > a a 1 1 1 1 r r r u i i u r q q q e u r > r f r r r u r d < $ < r < 1 r r f r 1 1 r f 1 1 1 < < 1 f k r 1 f f f d 1 f z z z j z h x k 1 r z r > > r k h h h h g f j j g g f z k r % % < u r < r f 4 4 4 g g l f 1 k j j j j j j x x x j h j h j x B x j h h j f f f f f f j h g j j j x k 1 f j r < r f x A A B B x j A A B B x x x z r r d k x f f x x x h h h x z < < f h f g f f f f j j j h f j j f a 1 1 f j j h j j r 1 k x g g g g h j f 1 f z d > > u x j h h j x x j j j j x x m f e < r k x r 1 f j h g h h j x f < r f 4 f j f f f 1 3 f f j f f 1 r f f f h f f r f k 1 r d f k k f d f z k < r u < 9 % q k k k f f z x x k f k x x k e % # = r k 1 1 k f r r 1 1 a r < u k r = = > e u r = = < e = O o # % < e e r u r > # # # e r r u r r d d e # e e @ @ # e k k r 1 < < r a d u f k k u e > > e d u > e f f f r r f r $ # r f f f f 1 f f 1 1 1 r f f f r , , 1 1 r f r r < e > r d f f f f f f r < d r # # w u d d k f k k d d k k f u k r q @ > r u ",
"f x h h j g 4 g f 1 = r f 3 4 f 1 1 1 f 1 f 1 1 g g 4 f g g g g g f 1 1 r = 1 k f f f f a f e = u k e $ = r f f 1 1 f i f f f f j f r r d , $ < 1 1 1 r f 4 1 4 f 1 f r < r f f f k f f 1 1 f f g g g g f g r f f f f f f i r , 1 f 1 4 1 ; 1 1 < = r r $ o < f a 1 1 , ; 1 r > , r r 1 r f u > # e u < $ u f 1 r r 1 u r $ $ e < = r 1 1 r r 1 f 1 1 1 1 r a 1 1 f r 1 1 g 3 1 r 1 k f f h h f f j f 1 r k < = 1 f f f f f 4 h h g f g g g g f f , = r f r = r f 1 1 f 4 4 f r ; f f h h h j j j j x x h f h h j x x g h B j f f j f 1 f h g g j j h x f 1 f k r , 1 j x j x x j h h h x x j j x x x f r r h j f f x x h h g h x h 1 , f f g f h h f f f j j j x f f f f f 3 f h h h h f < , k j f g g f f f a ; a f r = r j j g f h h f h x x f h x x x x d = , f k 1 1 f g g j g g j x 1 = r f 1 3 f j f f f 1 r f f f f f j f r f f f f 1 r f , < f f f f f r f k k < e d 1 # $ u f a f f j j j x j f f k j x k = # = d f , 1 f f 1 1 1 < 1 r r r u e O > < > e w O $ < = = # O > r < = w u r = = e # o e u < 1 1 r r r < # $ q @ X # d f r r < < r r r r r r f k f < < r r a 1 , r f 1 r r 1 1 u 1 = < f f 1 1 1 r f 1 , r r 1 f f 1 1 1 1 1 r 1 r 1 r > $ r k 1 1 r 1 r f , = u < $ q r d f r f k f f f k k u u r r u r O $ d r ",
"g x j j g g j h f 1 = 1 3 f f f f f 3 f g f f 4 f g g h h f f h j x f f u < r j f f f f f f r = < u < # r k f f a 1 1 f f f k f f 1 1 f f r > = d f 1 r g 4 4 g g f f i < < f f f f f f l f f f f h f f h f f f f j f g f i r < r f f 1 1 3 r 1 < = r r O $ d z f f r 1 a a < = < r r r a f k r > < u r $ < k f 1 < r k r O $ e e < r 1 1 1 f f f r r 1 r f f f f 1 1 r f f f f r 1 z h f h f h j j f r f f e e f z z f f 1 4 g h g f f 4 g g f z f r r k d , a f 1 f g f h f r < r f g h j j f f 1 g h h j j x x h f f B B B j h h f 1 f h h j j j j j f 1 f x d 1 f j j j g h h h h h g h h j x x x x f r j x f f x x j h x x x f 1 1 f f g f x x x h f f f h f f f k j j f f f h h f f r < k j f g f g f f 1 < d k 1 u z j h h h g h j h j j h h x x x ,.m k < d k 1 1 z h g g g f f f 1 > d f : 1 f f g j f f f a f f f j j f f f f f f f r r , < f f f f f f f k r = u k u r u k k f f j x x x x x f f j x x m k r r k f < r k r 1 1 1 1 r r = > < > = e e < r < # > r r r < < < e r u f u < $ < r > # e u 1 < 1 f r e = # e w @ @ r u 1 1 1 r r r r r r 1 r f f k d r r r f r 1 f k a r r r f f r < < r 1 1 i f 1 1 1 r i r r 1 1 f f f r r 1 r r r r < = r f i i r a f 1 , < u r r k k f f f d u f k k f u r w w r u u < < f r "
};
